P2
640 480
255
1 -5 5 0 0 1 4 -1 1 2 1 -1 2 1 0 1 1 -1 0 1 0 -1 0 0 1 0 0 0 1 1 1 1 1 -1 1 1 0 1 1 0 1 0 0 0 1 0 1 1 1 0 2 0 -1 0 2 -1 0 1 0 0 1 2 0 0 2 0 0 1 0 -1 1 2 0 -1 1 0 0 1 1 1 0 1 0 1 2 0 -1 0 1 0 0 -1 0 1 1 0 2 2 0 1 2 0 0 2 1 0 1 2 0 0 2 0 -1 1 1 0 0 1 1 2 1 0 1 1 0 1 2 0 -1 1 1 1 0 1 1 1 1 1 0 0 1 1 1 1 1 0 1 1 1 -1 -1 1 1 2 3 2 1 2 1 1 3 1 0 2 2 -1 0 1 -1 0 1 0 0 1 2 1 1 2 2 2 2 3 2 1 2 2 1 0 1 0 0 1 1 0 0 0 1 1 1 2 2 1 1 2 1 0 2 1 0 2 3 1 1 3 1 0 1 2 1 2 2 2 2 2 0 1 1 0 0 2 1 0 2 1 -1 0 1 0 1 2 1 1 2 0 1 3 1 0 2 2 1 1 1 0 1 1 1 0 0 0 1 1 0 2 3 1 2 3 0 1 4 2 1 3 2 0 2 3 1 2 2 0 1 2 0 1 3 1 1 3 2 1 2 2 1 2 2 0 2 2 -1 0 3 1 1 4 1 0 3 1 -1 3 3 0 2 3 0 1 3 0 0 3 1 1 4 3 0 2 2 -1 2 3 0 1 3 0 0 3 1 0 3 1 -1 1 2 0 2 3 0 0 3 1 0 2 2 1 3 1 0 1 0 -1 1 1 0 1 2 -1 1 3 1 0 2 2 0 1 1 0 1 1 0 0 1 2 2 1 1 2 1 0 1 1 0 1 3 2 2 2 0 0 2 0 0 2 1 0 2 2 -1 1 2 0 1 3 1 0 3 3 1 2 2 1 2 2 0 0 2 1 0 2 1 -1 0 2 0 1 3 2 1 1 1 1 1 0 -1 -1 0 0 1 2 1 2 2 1 1 2 1 0 1 2 1 1 3 2 0 1 2 1 1 3 1 1 3 1 0 1 1 -1 1 2 0 0 1 0 0 1 -1 -1 1 1 0 0 1 -1 0 1 1 1 2 1 0 1 2 1 0 1 0 0 2 2 2 1 1 1 0 0 1 0 0 0 0 1 2 1 1 1 2 1 1 2 0 0 1 0 0 1 1 1 1 0 0 1 2 1 0 1 1 0 1 0 0 1 0 0 2 1 0 0 2 -1 1 1 0 -1 1 1 -1 0 3 1 0 0 1 1 1 1 0 -1 1 0 1 0 1 1 0 1 1 0 1 1 1 -1 1 2 1 0 1 1 0 0 2 1 1 1 2 0 1 2 0 -1 1 0 -1 0 2 1 0 1 1 -1 1 0 0 -1 1 -1 1 1 0 0 1 -1 3 1 1 0 4 -4 4 0 
-6 13 -11 5 2 1 -3 5 1 -1 -1 4 -1 0 1 2 -1 0 1 1 0 1 0 0 0 1 0 1 1 2 1 0 2 1 -1 1 2 0 1 1 0 1 1 0 0 2 1 -1 1 3 0 0 2 1 -1 2 1 -2 1 3 0 0 2 1 -1 2 3 -1 -1 2 0 0 2 1 0 0 1 0 0 1 0 1 1 0 0 1 0 0 1 0 0 3 1 -2 2 4 -1 0 4 1 -2 2 3 0 1 3 -1 -1 2 0 -1 2 2 -1 1 2 0 0 1 0 0 1 0 0 2 1 -1 1 3 0 -1 2 1 0 0 2 1 0 0 0 0 1 1 1 0 1 1 1 1 0 0 0 1 0 0 1 1 0 2 2 1 1 2 1 1 2 1 0 1 1 -1 0 3 1 -1 1 3 1 0 2 0 -1 1 2 -1 0 2 2 0 1 2 0 -1 0 1 0 0 1 2 0 0 2 1 0 2 2 0 1 2 0 0 3 3 0 1 2 0 1 2 1 2 3 1 0 2 2 0 1 2 1 2 2 1 1 2 0 0 2 2 0 1 2 1 1 2 1 1 1 0 1 3 2 1 1 2 1 1 1 1 1 0 2 1 0 1 3 1 1 4 2 -1 3 3 0 1 3 1 0 2 2 1 2 1 0 2 2 0 1 2 1 2 2 0 2 3 0 1 3 -1 -1 3 1 -1 3 2 -1 2 3 -1 0 3 0 0 4 1 -1 3 2 0 2 3 -1 0 3 1 0 1 -1 0 3 0 -1 2 1 -2 1 2 -1 1 3 1 1 3 0 -1 3 2 0 3 2 -1 2 4 0 0 3 2 1 1 1 1 0 0 2 3 0 0 4 2 -1 2 3 0 -1 2 1 0 1 1 1 1 0 1 2 2 2 1 0 1 2 0 1 2 0 1 3 1 1 2 2 0 2 2 0 1 3 1 2 3 0 -1 3 1 -1 2 3 -1 1 4 1 0 3 2 0 2 2 -1 1 3 0 0 3 2 0 1 2 0 1 2 0 1 2 0 0 2 0 0 2 1 0 1 2 0 1 2 0 1 2 0 0 3 2 -1 1 2 0 0 2 1 0 2 1 -1 0 2 0 1 2 0 -1 1 0 -1 1 1 -1 1 1 -1 0 2 0 0 3 1 -2 1 3 -1 0 3 1 -1 2 2 0 0 2 1 0 1 2 0 -1 1 2 1 0 0 0 1 0 0 1 2 0 0 2 1 0 1 2 0 0 1 0 0 1 1 0 0 1 0 2 2 1 0 2 1 0 0 0 0 1 0 1 2 1 1 2 2 -1 2 2 -1 0 2 1 -1 2 3 0 -1 3 1 0 2 1 -1 0 2 1 0 2 2 0 1 2 0 -1 0 3 1 -1 0 3 0 -1 1 1 -1 2 2 0 0 2 1 -1 1 3 -1 0 2 0 0 2 0 0 1 1 -1 1 0 1 0 1 0 2 -1 0 1 4 -4 4 2 -1 -5 12 -10 4 
9 -20 19 -8 1 -1 7 -5 4 0 3 -2 3 0 2 -1 3 0 2 -2 2 -1 1 0 2 -1 1 1 1 -1 3 0 0 1 2 -1 1 0 1 -1 2 0 0 0 3 -2 1 2 1 -2 3 1 -1 0 3 0 1 1 0 -2 2 1 0 1 2 0 0 1 2 -1 2 1 1 0 1 -1 0 -1 -1 0 2 -1 0 1 1 -1 1 0 0 2 1 -1 2 3 0 -1 4 2 -2 0 4 0 0 2 1 -2 2 2 0 2 3 -1 0 1 1 -1 1 1 0 1 0 -1 2 2 0 1 3 0 -1 2 3 0 1 1 1 0 1 0 1 1 2 0 1 1 1 1 2 2 2 1 1 1 1 1 1 0 -1 0 2 1 1 1 2 1 2 2 1 0 1 0 1 2 1 -1 1 1 -1 0 2 0 0 1 -1 -3 0 2 0 0 3 2 -1 1 4 1 -1 1 2 0 1 1 1 0 1 1 1 0 2 2 1 1 2 0 0 2 2 0 0 1 1 1 1 1 1 1 0 1 2 0 0 1 2 2 2 1 0 0 2 2 2 2 2 0 1 2 2 1 2 3 2 1 1 0 1 2 1 0 2 1 1 1 2 1 2 2 2 1 2 1 0 1 3 2 1 1 2 1 1 2 2 1 1 2 2 2 2 2 3 3 2 1 1 1 1 1 3 2 1 1 3 2 1 1 1 1 1 2 1 0 2 2 1 1 2 1 2 3 1 1 2 2 1 1 2 1 1 2 2 0 -1 0 2 1 0 1 2 0 1 2 1 1 2 1 1 1 1 1 2 2 1 2 4 2 0 1 4 1 0 2 3 1 1 3 2 0 2 3 2 0 1 2 1 1 2 2 1 0 1 1 1 0 1 1 2 2 1 0 1 2 2 1 1 0 1 1 1 2 3 1 1 1 2 0 1 2 2 1 2 1 0 1 2 0 2 3 0 -1 2 2 -1 0 1 -1 1 2 0 0 3 1 0 2 2 -1 0 3 2 0 1 1 1 1 1 1 2 1 1 1 2 1 1 2 2 1 1 0 0 0 0 0 2 2 0 0 2 1 0 1 1 1 1 -1 -1 1 2 1 2 2 0 -1 1 0 1 2 2 0 1 2 0 0 3 1 1 2 1 -2 1 3 1 -1 2 1 -1 1 3 1 0 1 1 -1 0 0 0 -1 1 1 1 0 0 1 2 1 0 0 2 0 -1 1 1 0 1 1 0 -2 1 1 0 1 2 1 1 0 0 1 1 0 0 1 2 1 1 1 3 0 0 0 1 -1 0 1 1 0 1 1 1 -1 2 0 -2 0 3 0 0 1 2 0 0 0 1 0 1 0 0 0 2 -1 1 0 2 -1 1 2 1 -2 1 2 1 -2 1 1 2 0 2 -1 1 2 1 -2 2 1 0 -2 2 0 1 -1 2 -1 3 0 1 -1 3 0 1 0 3 -1 2 -2 4 -1 1 -2 5 -4 2 -1 11 -17 19 -8 
-6 15 -12 6 -1 3 -3 4 -2 0 -1 3 -1 2 0 1 0 2 0 1 1 2 0 0 -1 1 0 1 1 0 -1 0 0 1 0 0 1 1 1 2 0 0 1 1 1 2 1 -1 1 1 0 1 2 1 0 2 0 -1 1 2 0 0 2 1 0 2 1 1 1 1 1 1 1 1 -1 1 1 1 1 0 0 0 1 0 0 1 1 2 1 1 1 2 1 0 2 2 0 0 2 1 -1 0 2 1 2 2 1 0 0 0 0 1 2 0 0 1 1 0 -1 0 1 0 0 2 1 0 1 2 2 1 0 0 1 0 0 1 1 1 0 0 1 1 0 1 2 1 0 0 0 1 2 1 1 0 0 0 1 1 1 1 1 0 -1 0 1 1 1 1 1 1 0 0 1 1 1 0 1 1 0 -1 -1 -1 1 2 0 -1 2 3 1 2 4 2 0 1 2 1 1 1 1 -1 0 1 1 0 0 1 1 1 1 1 0 2 3 2 1 1 1 0 0 1 1 1 1 0 1 1 1 0 1 1 2 2 0 0 2 2 0 1 2 1 0 1 2 1 1 0 0 1 1 1 2 1 1 2 1 2 2 2 2 2 1 1 1 0 0 2 2 1 2 2 1 1 1 0 1 2 1 0 1 2 1 1 1 1 3 2 0 1 2 1 0 1 1 1 2 2 1 1 0 1 1 0 0 1 0 0 1 1 -1 0 1 0 0 1 1 0 1 1 1 2 2 1 1 2 2 1 1 1 2 3 1 0 1 1 0 2 2 0 0 1 2 2 1 0 1 1 0 2 3 1 0 2 3 1 0 1 1 1 1 2 2 1 1 2 2 1 1 3 2 0 1 2 1 0 1 2 1 1 2 2 1 0 1 1 1 1 1 1 1 2 2 2 2 1 1 2 2 1 1 1 1 2 2 1 1 1 0 2 2 -1 -1 2 1 0 1 2 0 -1 1 1 0 0 0 0 1 1 0 0 2 1 1 2 2 1 1 1 1 1 1 2 2 2 0 1 2 1 2 2 1 0 0 0 0 0 1 0 0 1 1 2 2 2 0 0 2 2 0 0 0 0 1 0 -1 0 1 1 1 1 1 0 1 2 2 2 1 0 2 2 1 2 1 0 1 2 0 -1 1 1 -1 0 1 1 0 1 2 1 1 1 0 0 1 0 0 1 1 2 2 0 0 2 2 0 0 1 0 0 0 0 0 1 3 1 1 1 1 1 1 1 1 1 1 0 0 1 1 0 1 1 2 2 1 0 1 0 0 0 1 1 1 1 1 1 1 1 0 0 2 0 -1 2 2 1 0 0 1 1 1 1 0 1 1 1 1 1 2 1 0 1 0 -1 0 3 2 0 0 1 0 1 1 0 0 1 1 1 1 2 0 -1 2 2 -1 1 1 1 1 2 1 1 1 2 0 2 2 2 -1 1 0 1 -1 2 0 3 -3 5 -2 3 -7 14 -13 8 
2 -3 2 0 1 -1 2 -1 1 0 1 -1 1 0 1 0 2 0 1 0 1 -1 1 0 0 -1 1 0 1 0 1 1 1 0 2 1 2 0 0 1 1 -1 1 1 0 0 1 1 1 0 1 1 0 0 1 0 1 1 0 -1 1 0 0 0 2 1 0 1 0 -1 1 0 0 0 0 0 -1 -1 1 0 1 1 1 1 2 0 0 1 0 0 1 1 1 2 0 -1 2 1 -1 0 1 1 1 1 1 0 1 1 1 1 1 0 -1 0 0 0 0 1 2 1 0 1 1 0 0 1 2 0 1 1 1 0 0 0 1 0 0 1 2 2 1 1 2 2 1 1 1 1 1 1 1 1 1 2 1 0 0 1 1 0 1 1 1 0 0 0 1 1 1 1 2 1 1 1 2 1 1 1 1 0 2 2 1 0 0 0 0 0 1 1 1 1 2 1 0 2 3 1 1 2 1 -1 1 2 1 0 2 1 0 1 2 1 1 2 2 1 1 1 1 1 1 1 2 1 0 0 1 1 1 0 0 1 1 1 0 1 1 1 1 2 0 0 1 1 2 2 2 1 0 0 0 0 1 1 0 0 0 0 1 1 1 1 1 1 0 0 1 1 0 0 1 1 1 0 0 0 1 1 1 1 1 1 2 2 0 1 2 2 1 2 2 1 1 1 2 2 2 2 1 1 1 2 1 0 1 1 0 0 2 1 1 2 1 1 2 2 0 0 1 1 1 3 2 1 1 1 1 2 1 0 2 3 1 1 3 2 2 3 3 2 1 2 2 2 2 2 2 1 1 2 3 1 0 1 2 1 0 1 2 1 1 0 1 1 1 2 2 1 0 1 1 1 2 2 1 0 2 1 0 1 2 2 1 1 0 -1 0 2 3 2 2 1 0 0 1 1 1 1 1 2 2 1 1 2 1 1 1 1 0 1 1 0 1 2 1 0 1 1 1 1 0 0 1 2 1 0 2 2 1 2 2 1 1 2 2 1 1 1 1 1 1 1 1 0 0 1 2 1 2 2 1 1 2 1 1 1 1 2 2 1 -1 0 1 1 0 0 1 1 1 0 -1 0 1 1 1 1 1 -1 0 2 3 2 2 1 1 1 2 2 1 1 2 1 0 0 1 2 1 0 1 1 0 0 1 0 0 1 1 1 0 0 0 0 1 2 1 0 1 2 2 1 1 1 1 1 0 0 1 1 1 0 0 0 2 2 1 1 2 2 1 0 1 0 0 0 -1 1 2 1 1 2 1 0 1 0 1 1 0 0 1 0 0 2 1 0 1 1 0 -1 1 1 -1 0 2 -1 -1 0 1 1 1 0 0 0 1 0 0 0 1 0 1 1 0 -1 0 1 2 -1 0 0 1 1 2 0 1 1 0 -1 1 1 1 -2 1 1 0 0 1 -1 2 2 1 1 3 1 1 -1 2 0 1 0 2 0 0 -1 2 -1 2 1 1 -1 4 0 
2 -2 4 -3 3 0 2 0 3 -1 1 -1 3 0 2 0 1 0 2 0 2 0 2 -1 1 0 2 -1 1 0 1 0 2 -1 1 -1 1 1 2 0 1 0 1 0 1 0 1 0 2 0 1 0 1 0 1 0 1 -1 1 1 0 0 2 1 1 0 1 0 0 0 1 0 1 0 0 0 2 1 1 0 0 0 0 0 2 1 1 1 1 0 1 2 1 -1 1 1 1 -1 2 2 0 -1 1 0 1 2 1 0 1 -1 0 1 2 1 0 1 1 0 1 0 1 1 1 1 2 0 0 1 2 0 0 0 1 0 0 0 1 1 1 1 1 1 1 1 2 1 1 -1 0 1 1 0 1 1 1 0 1 1 0 0 1 0 1 1 1 0 1 1 1 2 1 0 2 1 1 1 1 0 1 1 1 1 2 1 0 0 1 1 0 0 2 0 -1 0 1 1 2 2 1 0 1 2 2 0 1 1 1 1 2 1 0 1 2 1 2 2 1 1 1 0 2 2 1 -1 1 1 1 0 0 1 2 1 1 1 2 1 1 0 0 0 1 1 1 0 1 0 0 0 0 0 2 2 1 0 0 1 1 0 0 1 2 1 1 0 0 1 3 2 2 2 1 1 1 1 1 1 1 0 1 2 2 1 1 1 2 1 0 1 1 1 1 1 2 2 2 1 1 1 1 1 2 1 1 1 1 1 2 1 1 1 2 1 1 1 1 1 2 2 2 1 1 0 1 2 2 1 1 1 2 2 1 0 2 2 1 2 3 2 1 1 2 2 3 1 1 1 1 1 2 1 0 1 2 1 0 0 2 1 1 1 1 1 1 1 2 1 1 2 1 0 1 1 1 1 2 1 1 1 2 1 1 0 0 0 2 2 1 1 1 1 0 0 1 0 0 0 1 1 1 1 2 1 1 1 1 0 0 0 2 1 1 1 2 1 2 1 0 1 2 1 2 2 1 0 2 1 1 1 2 0 0 0 1 0 0 1 1 1 1 1 2 2 2 1 1 1 2 2 2 1 1 1 2 1 1 0 1 1 1 1 1 0 0 0 1 0 1 0 1 1 2 0 0 1 2 1 2 2 2 1 1 1 1 0 0 0 1 1 1 1 1 0 2 2 1 0 1 1 1 1 1 0 -1 0 1 0 1 1 1 0 2 2 1 0 2 2 1 1 2 1 2 2 0 0 1 0 0 0 1 1 1 1 1 0 2 1 1 1 1 0 2 1 0 0 1 1 1 1 2 1 1 1 1 0 1 1 2 1 2 0 0 0 1 0 0 0 2 0 0 0 2 0 1 1 2 1 1 0 1 0 2 0 1 1 1 0 1 0 1 0 1 1 1 0 1 -1 2 1 2 0 1 -1 1 0 2 0 1 1 2 0 2 0 2 1 2 0 1 -1 1 -1 1 -1 3 -1 2 0 2 0 1 -1 2 -1 2 -2 3 -2 3 -3 5 -1 
2 -1 2 0 0 1 1 -1 0 1 2 -1 1 0 1 0 1 1 1 0 0 -1 0 0 1 -1 0 1 1 1 1 0 2 1 2 2 1 0 -1 0 2 0 0 0 1 0 0 1 0 0 1 1 0 0 1 0 1 1 1 0 -1 0 0 1 1 0 0 0 0 1 1 1 1 0 1 1 0 0 0 1 1 1 1 1 1 0 1 0 0 1 1 0 1 1 0 0 1 1 0 1 2 2 1 0 0 1 0 1 1 0 1 1 1 2 2 0 0 1 1 0 0 1 0 0 1 0 0 0 0 0 1 0 0 1 1 0 1 1 1 1 1 1 2 2 1 0 1 1 1 1 1 1 1 1 1 0 1 1 1 0 1 1 1 0 1 1 1 1 0 0 0 1 1 1 1 1 0 1 2 1 2 2 1 0 1 1 0 -1 1 0 -1 0 1 1 0 1 1 0 1 2 1 0 1 2 1 1 2 2 1 1 1 1 1 1 2 1 1 1 1 2 2 1 2 2 1 0 2 2 1 0 1 2 2 1 0 1 2 2 2 2 1 1 1 1 2 3 2 1 0 0 1 1 1 1 1 0 0 1 1 1 2 2 1 1 2 1 2 2 1 1 2 2 2 1 1 1 1 1 1 1 1 1 1 1 0 0 1 1 1 1 2 1 1 1 1 2 2 1 2 2 2 2 2 1 1 2 2 2 2 2 2 2 2 2 2 3 2 1 1 1 1 2 2 2 1 1 1 2 1 1 2 2 1 2 2 1 1 2 2 2 1 1 1 2 2 1 1 1 0 1 2 2 0 0 1 1 1 2 2 1 1 1 2 2 2 2 2 0 1 2 2 1 1 1 1 1 1 1 1 0 1 1 1 1 1 1 2 2 2 2 1 1 1 1 1 0 1 1 2 2 1 1 1 2 1 1 2 1 1 2 2 1 2 2 1 1 2 2 1 1 1 1 2 2 1 0 1 2 1 1 1 1 1 1 1 1 1 1 1 1 1 1 2 2 1 1 2 1 2 3 2 2 2 1 1 0 1 1 1 0 -1 0 0 1 1 1 1 1 1 0 0 1 2 1 0 1 1 1 1 2 1 1 1 1 1 1 1 0 1 1 2 2 1 0 1 2 1 0 1 1 0 1 2 0 0 1 0 0 1 1 0 0 1 1 1 1 0 1 2 1 1 1 1 0 1 1 1 1 1 0 -1 1 1 1 1 0 1 2 1 0 0 0 1 1 0 0 1 1 1 0 1 1 0 1 1 0 0 0 1 0 1 1 0 0 1 2 0 0 1 1 1 1 1 0 0 1 1 1 2 1 1 -1 0 0 0 1 0 1 2 1 0 0 1 1 1 1 0 0 1 2 2 0 1 1 1 -1 0 1 0 0 1 0 1 1 0 0 1 0 1 0 1 -1 1 0 1 1 0 1 2 1 0 0 2 0 0 1 3 -2 2 1 
-3 10 -8 5 -2 3 -1 4 -1 1 -1 2 0 2 0 1 0 2 1 1 0 2 1 1 0 1 0 1 0 2 0 0 1 1 -1 1 0 0 0 1 1 1 1 0 1 1 0 0 0 1 0 -1 0 1 1 1 0 0 0 1 0 0 1 1 0 1 1 0 1 1 0 1 1 1 1 1 1 1 1 1 1 1 1 0 0 1 1 0 0 0 0 1 1 -1 0 2 0 1 2 1 -1 1 1 0 1 1 1 1 1 0 0 2 2 1 1 1 0 0 0 1 1 1 0 1 2 0 0 2 1 0 0 1 1 1 1 1 1 1 1 0 0 1 0 0 1 1 0 0 1 1 0 1 1 1 0 0 0 0 1 1 1 1 1 1 1 2 1 1 1 1 0 0 2 2 0 0 0 1 1 1 0 0 1 2 1 1 2 2 1 1 1 1 0 0 1 0 0 1 1 1 0 1 1 0 1 1 1 1 1 1 0 1 2 1 1 2 2 1 0 1 2 2 1 0 1 1 1 1 1 2 2 2 1 2 2 2 1 1 1 1 1 2 2 1 1 1 1 2 2 2 2 3 2 1 1 2 2 1 1 2 2 3 1 0 1 3 3 3 2 1 1 2 2 1 1 2 1 1 1 1 2 2 1 1 2 2 0 1 2 1 1 1 2 1 1 1 2 2 1 1 1 1 1 2 1 1 2 2 1 1 1 1 1 1 1 0 1 2 2 2 1 1 1 2 2 1 1 2 3 3 1 1 2 2 1 1 2 1 0 0 1 2 1 1 1 1 0 1 2 2 1 1 2 2 1 2 1 1 0 1 2 2 2 2 2 1 1 1 1 1 1 2 1 1 1 2 1 1 1 1 0 1 1 2 1 2 2 2 1 1 1 2 2 2 2 1 1 1 1 2 2 2 1 2 2 2 1 1 1 1 1 1 0 0 2 2 1 1 1 1 1 2 1 0 0 1 1 2 2 1 0 1 1 1 1 2 1 2 2 1 2 2 1 1 1 1 1 2 2 1 1 1 0 0 1 1 1 1 1 1 2 1 0 1 2 1 1 1 1 1 1 1 0 1 0 0 0 1 1 1 1 0 0 1 1 1 1 1 1 1 1 1 1 1 0 0 1 1 0 1 1 1 1 1 0 0 1 1 1 2 2 1 0 0 1 1 0 0 0 1 1 1 1 1 1 1 1 1 1 2 1 0 0 0 0 1 1 1 1 1 1 2 1 0 1 1 1 1 0 0 1 0 1 1 0 1 2 1 0 1 0 0 1 1 0 1 1 1 0 0 2 1 0 1 1 1 1 1 1 1 1 0 0 1 1 0 0 1 1 1 0 1 1 0 0 1 0 1 0 0 0 1 0 0 0 1 0 1 0 1 0 0 1 1 -1 1 0 1 0 0 -1 0 0 2 0 2 0 2 -1 2 -1 2 -2 3 -1 3 -4 9 -7 5 
5 -6 5 -1 1 0 3 -1 0 0 1 0 1 0 1 -1 1 0 1 -1 0 0 1 1 0 0 1 1 1 0 1 0 1 1 2 1 1 -1 0 1 1 1 0 0 1 0 0 1 0 0 1 0 1 1 1 0 0 0 0 -1 0 1 1 0 1 0 0 0 1 1 1 1 1 0 1 1 1 1 0 1 2 1 1 1 1 0 0 0 0 1 1 0 1 1 1 1 1 2 1 1 2 1 0 0 1 0 1 1 0 1 2 1 1 1 1 0 0 1 0 1 1 0 1 0 -1 0 0 0 1 2 1 0 1 2 2 1 1 0 1 1 0 1 1 1 1 1 2 1 1 1 1 1 1 1 1 1 1 0 0 1 1 1 1 1 1 1 2 1 1 1 1 1 1 1 1 1 0 1 1 1 1 1 1 1 2 3 1 0 1 1 0 1 2 1 0 0 0 1 1 1 1 0 1 1 0 0 1 1 0 0 1 1 1 1 1 1 0 0 1 1 2 1 1 1 1 1 2 2 2 1 1 2 2 1 1 1 2 2 1 1 1 1 2 2 1 1 2 2 2 1 1 1 1 2 2 2 2 2 2 1 1 1 1 1 2 2 2 2 1 1 2 2 1 2 1 0 1 1 1 2 2 1 2 2 1 1 2 1 1 2 2 1 1 1 1 1 1 2 2 1 1 2 2 2 2 2 1 1 2 2 2 2 2 1 1 2 1 1 1 0 0 1 2 1 1 1 2 2 1 1 2 2 1 1 2 1 1 1 2 2 1 1 1 2 2 2 2 1 1 1 2 2 0 0 1 1 1 1 1 1 1 1 2 2 1 2 1 0 0 2 2 1 1 1 2 1 1 1 0 0 1 1 2 2 2 1 1 1 2 1 1 2 2 2 2 2 2 2 1 1 1 1 2 2 1 1 1 1 1 1 1 0 0 1 0 1 2 2 1 1 1 1 2 2 1 1 2 2 1 1 1 2 2 3 2 1 2 1 1 1 1 0 1 0 0 0 1 0 1 1 1 1 1 2 1 1 2 2 2 1 1 1 2 1 1 1 1 0 1 1 0 0 1 0 1 1 1 0 1 2 1 1 1 1 2 2 2 1 1 1 1 1 0 0 1 1 0 0 1 1 1 2 2 1 1 2 1 0 0 1 0 0 1 1 0 0 1 1 1 0 1 0 1 1 0 0 0 1 1 1 1 0 1 1 0 1 0 1 2 1 0 1 1 0 0 0 0 1 1 0 1 0 0 0 1 1 1 0 0 0 0 0 1 0 1 2 0 0 1 0 1 1 1 0 0 0 1 1 1 0 0 1 1 0 1 0 1 1 0 2 1 0 1 1 1 0 0 0 1 1 2 1 0 1 1 0 1 0 0 0 0 0 0 1 2 0 1 0 1 1 1 0 0 0 0 0 1 0 2 0 1 0 2 -1 1 0 3 -5 8 -2 
-1 3 1 -2 2 0 2 1 1 -1 0 0 1 0 1 0 1 0 1 1 2 1 1 0 0 0 0 -1 1 1 1 0 0 1 1 1 1 1 1 1 0 0 1 0 0 0 1 0 1 1 1 0 1 1 0 1 0 -1 2 1 0 0 1 1 0 1 1 0 0 0 1 0 1 1 1 1 1 1 1 1 2 2 1 0 0 0 0 1 1 0 1 1 1 0 1 1 0 0 1 1 0 0 0 1 1 1 1 1 1 2 1 1 1 0 0 1 1 0 0 2 2 0 0 1 1 0 0 1 2 0 0 1 2 1 1 2 1 0 1 1 0 0 1 0 0 0 0 0 0 1 0 0 1 1 1 1 1 1 0 0 1 1 1 1 1 1 0 1 2 2 1 1 1 1 1 1 1 1 1 1 0 0 2 3 2 1 2 1 1 2 2 2 1 1 1 0 0 1 1 1 1 1 1 0 1 1 1 1 0 0 0 1 1 0 1 1 1 1 0 0 1 2 2 1 1 1 1 1 2 2 2 1 1 1 2 1 1 2 2 0 1 1 1 1 1 1 1 2 2 1 1 2 2 1 1 2 1 1 1 2 2 2 1 1 1 1 1 2 2 1 2 2 2 2 2 1 1 1 1 1 1 1 1 1 1 1 1 0 1 1 1 2 1 1 1 1 1 2 2 1 1 1 2 2 2 1 2 2 1 1 1 1 2 1 0 0 1 1 2 2 2 1 2 2 2 2 1 1 2 2 2 1 2 2 1 1 1 1 1 1 2 2 1 1 1 1 0 1 2 1 0 0 1 1 1 1 2 1 1 1 2 1 1 2 2 1 1 0 1 1 1 1 0 0 1 1 2 2 2 1 0 1 2 2 2 1 2 1 1 0 1 2 2 2 2 2 1 0 1 1 1 1 1 0 1 1 1 1 1 0 0 0 0 0 1 2 1 1 2 2 3 3 2 0 1 2 2 2 2 2 1 1 1 2 2 1 1 1 1 1 0 0 0 0 1 1 0 1 1 1 2 1 1 1 2 2 2 1 1 2 2 1 1 1 1 0 1 1 2 2 1 1 0 1 1 1 1 1 2 1 1 1 1 0 0 1 1 1 1 0 0 0 1 1 0 0 1 2 0 -1 1 1 1 1 1 0 1 1 1 1 1 0 -1 0 2 1 1 0 0 1 2 1 0 0 0 1 1 0 1 2 2 1 1 0 0 1 0 0 0 1 2 1 1 1 1 0 1 1 0 0 0 0 1 1 1 1 1 1 1 1 0 0 1 0 1 1 2 1 0 1 1 1 1 0 1 1 1 1 1 1 1 2 0 0 1 0 1 1 1 0 1 1 1 0 1 1 1 0 0 -1 0 0 0 0 0 0 1 1 1 1 0 1 1 1 1 0 1 0 1 0 0 0 1 0 0 0 1 -1 1 0 1 -1 0 0 1 -1 2 0 -1 2 
0 1 0 1 -1 1 0 0 0 1 0 1 0 1 1 1 1 1 0 1 0 0 0 1 0 1 0 1 1 1 1 1 0 1 1 1 1 1 0 1 1 0 0 1 0 -1 0 2 1 0 0 1 1 1 0 1 0 1 1 0 1 1 0 0 1 1 0 0 0 0 0 1 1 0 0 1 0 0 0 0 1 1 1 1 1 1 0 0 1 1 1 -1 0 2 0 0 1 1 0 1 1 1 1 1 1 1 2 1 0 2 2 1 0 1 1 1 1 0 1 1 1 1 1 1 0 1 1 0 1 1 1 1 2 2 1 1 0 0 1 1 1 1 1 1 1 1 0 1 1 1 1 1 1 1 2 2 1 2 1 1 1 1 0 1 1 1 0 0 0 0 0 1 0 0 1 2 2 2 1 2 3 2 1 2 2 2 0 0 1 1 0 1 1 1 0 1 1 1 0 1 1 1 1 2 2 1 1 1 0 1 2 1 0 0 1 1 0 0 1 2 1 0 1 1 0 0 0 1 1 2 2 2 1 1 0 1 2 1 1 1 1 1 1 1 1 1 2 1 1 0 0 1 1 2 2 2 1 2 2 2 2 1 1 1 1 1 1 1 1 1 2 1 2 3 2 1 1 2 2 1 1 1 1 1 0 1 2 1 1 1 1 2 2 2 1 1 1 2 2 2 1 1 2 2 2 1 1 1 2 3 2 2 2 1 1 2 2 2 2 1 1 2 2 2 2 1 1 2 1 1 2 2 2 1 1 1 1 1 2 1 1 1 1 1 2 2 1 1 0 1 2 1 0 1 1 1 2 2 2 2 1 1 2 1 1 1 1 1 1 1 1 1 1 2 2 2 2 1 1 1 1 2 2 1 2 2 1 1 1 1 1 1 1 2 2 2 2 1 2 1 1 0 0 1 0 1 2 2 1 1 2 1 1 2 1 0 1 2 2 2 2 1 1 1 1 1 1 1 0 1 1 1 1 1 0 0 1 1 0 0 0 1 1 1 1 2 2 1 1 1 1 1 1 2 1 1 1 1 0 0 1 1 1 1 1 1 1 1 2 2 1 1 1 1 1 2 2 2 1 1 1 1 0 0 1 2 2 2 2 1 1 1 1 1 1 1 1 0 0 0 1 1 0 0 0 1 2 1 1 1 0 0 0 0 0 0 1 2 1 1 0 1 1 1 0 -1 1 1 0 1 1 1 1 1 1 1 1 1 0 1 1 0 0 1 -1 0 1 1 1 1 1 1 0 0 0 1 1 0 0 1 1 1 0 0 1 1 0 0 1 1 0 1 1 1 1 1 1 1 1 0 0 2 1 0 0 1 1 0 0 1 1 0 0 2 1 1 0 1 1 2 1 0 0 1 1 2 1 1 0 0 1 1 0 1 1 1 1 1 0 1 0 0 0 1 1 0 0 1 1 0 0 1 0 2 0 3 0 1 0 0 
1 3 -2 3 -1 1 0 2 0 1 1 2 0 1 1 2 1 1 0 2 1 1 1 1 0 1 0 0 0 1 0 1 0 0 0 0 1 2 1 0 -1 1 1 1 0 0 1 1 1 1 0 1 0 0 1 1 1 1 0 1 1 1 1 1 0 1 1 0 0 1 0 0 1 1 1 1 1 1 1 1 1 1 0 1 0 1 1 1 1 0 1 2 0 1 1 1 0 -1 1 1 0 0 1 1 1 2 0 0 1 0 0 1 1 0 0 1 1 1 1 1 1 1 1 1 2 1 1 2 2 0 0 1 1 1 1 1 1 1 0 0 0 1 0 0 0 0 -1 0 0 1 1 1 1 1 0 1 1 1 1 1 1 1 1 2 1 0 0 0 1 1 1 1 0 1 1 2 2 2 2 2 1 1 2 2 1 1 2 2 1 1 1 1 1 1 1 1 0 0 1 1 1 2 2 2 2 1 1 2 2 1 1 1 1 0 1 1 1 1 1 1 2 2 1 0 0 0 0 0 0 1 1 1 0 1 1 1 1 1 1 1 1 1 1 2 1 1 1 2 1 1 1 1 2 1 1 2 1 2 2 2 2 2 2 2 1 1 2 2 2 2 2 2 2 2 3 2 1 1 2 1 2 2 2 1 1 2 2 2 2 1 1 2 2 2 2 2 2 2 1 1 1 0 1 2 2 1 2 2 1 2 2 2 1 1 1 1 1 1 2 2 2 2 2 2 2 2 2 1 1 2 2 1 1 2 1 1 1 1 1 1 2 2 1 1 1 2 1 2 2 1 1 1 2 2 1 2 2 2 2 2 1 1 1 1 2 2 2 2 1 1 1 1 1 1 2 2 1 2 2 1 1 1 2 2 2 1 1 2 1 1 1 1 1 2 2 1 1 1 1 1 1 1 0 1 2 1 1 2 2 1 1 1 1 1 1 1 1 1 1 2 1 1 0 0 0 1 1 1 1 1 0 0 1 1 1 1 1 1 1 1 1 1 2 3 3 2 2 2 2 1 1 1 1 1 1 1 1 0 0 0 1 1 1 1 1 1 1 1 1 1 1 1 1 2 2 1 1 1 1 1 1 0 1 1 0 1 2 3 1 1 0 1 2 2 1 1 1 1 0 0 0 1 1 1 0 0 1 1 1 1 1 1 0 0 1 1 0 0 1 1 1 1 0 0 1 1 1 1 0 1 1 1 0 1 1 0 1 1 0 0 1 1 0 0 0 1 1 0 0 0 0 2 1 1 1 0 1 0 1 1 0 1 1 1 0 0 1 1 1 1 1 0 0 1 1 1 1 1 0 1 1 1 1 0 0 1 0 0 0 0 1 1 0 1 0 1 1 1 1 0 0 0 1 1 0 1 0 0 1 1 1 2 1 1 0 1 1 1 0 1 -1 0 1 1 0 1 0 1 0 1 0 1 -1 1 0 1 -2 4 -1 0 
2 -1 4 -2 1 0 1 -2 2 1 1 1 1 1 1 1 0 1 1 1 1 0 1 0 0 1 1 0 1 1 0 0 0 0 0 1 1 1 1 1 0 0 0 1 1 0 0 1 1 0 0 1 0 0 1 0 1 2 0 1 1 0 -1 1 1 1 1 0 1 1 0 0 1 1 1 0 0 0 0 1 1 0 0 1 1 1 1 1 1 1 1 0 1 1 1 0 0 1 0 0 1 1 1 1 0 1 1 0 0 0 1 0 0 1 2 1 0 1 1 1 1 1 1 1 1 1 1 1 0 0 1 1 1 1 1 0 0 0 1 2 1 0 0 0 0 0 1 1 1 1 1 1 1 0 0 0 0 1 2 2 2 1 1 1 1 1 1 1 0 0 1 1 1 1 1 1 1 1 1 2 2 2 1 1 2 2 1 1 2 2 2 2 2 1 0 1 1 0 0 1 1 1 1 2 2 1 2 2 1 1 2 2 1 1 1 1 1 1 1 2 1 1 1 1 1 0 1 1 1 1 1 1 1 2 1 1 1 1 0 1 1 1 1 1 1 1 1 1 0 1 1 1 1 1 0 0 1 2 2 2 1 1 1 1 1 1 1 2 1 1 1 1 1 1 1 1 1 2 2 2 2 2 2 1 1 2 3 3 2 2 1 2 2 2 1 1 1 2 1 1 1 1 1 1 2 1 1 1 2 2 2 1 1 0 1 2 2 1 1 2 2 2 1 1 1 2 2 2 1 1 2 2 2 2 2 2 2 2 2 1 1 1 2 2 2 2 3 3 2 1 2 1 1 2 2 1 0 1 2 1 1 1 1 1 1 2 2 1 1 1 1 1 1 1 1 1 2 2 2 1 1 1 1 1 2 2 2 2 2 2 2 1 1 2 2 1 1 2 2 1 1 2 2 2 1 2 3 2 1 1 2 1 1 1 1 0 1 2 1 1 0 0 0 1 1 1 1 1 1 1 2 1 1 1 1 1 1 1 1 1 1 1 1 1 2 2 2 1 0 1 0 0 1 1 1 1 1 0 1 1 1 2 2 1 0 1 1 1 1 0 0 1 2 0 0 1 2 2 1 1 1 1 1 1 1 1 1 2 2 2 1 1 1 1 1 2 1 1 1 1 1 1 1 1 1 2 1 0 1 1 0 1 2 1 0 1 1 1 1 1 0 1 1 1 1 1 1 1 1 0 0 2 1 0 1 1 2 1 2 1 0 1 1 1 0 0 0 1 1 1 1 1 0 0 0 0 0 1 1 1 1 1 1 1 1 0 0 1 1 1 1 1 0 1 0 1 1 1 0 0 1 1 1 0 0 2 0 0 0 1 1 1 1 1 1 0 -1 0 1 1 1 1 0 1 1 1 0 1 0 0 1 1 0 1 1 0 1 2 0 0 1 1 1 0 0 0 0 0 2 0 0 0 2 0 2 -1 3 -3 3 0 
1 2 0 1 0 1 0 2 1 1 0 2 -1 1 1 1 0 1 1 1 0 1 1 2 0 1 0 0 0 0 0 1 1 1 0 1 1 2 2 1 -1 1 1 0 1 2 1 0 0 1 1 0 0 0 1 0 1 1 0 1 0 1 1 1 1 1 1 0 0 2 0 1 1 1 1 1 0 1 1 1 1 1 1 0 0 1 1 1 0 1 1 1 1 0 1 1 -1 1 2 0 1 1 1 1 1 1 0 0 1 1 0 1 0 0 1 1 1 1 0 1 1 1 1 1 2 1 0 1 0 1 1 2 1 0 -1 0 0 0 0 1 1 1 0 1 1 1 1 1 1 1 1 1 1 1 1 0 0 1 1 1 1 1 1 1 1 0 0 1 1 1 0 1 2 2 1 1 1 1 1 1 0 1 1 1 1 1 2 2 1 2 3 2 1 2 1 2 1 1 1 1 1 2 2 1 1 1 1 2 2 1 1 1 1 1 1 1 1 1 1 1 1 2 2 1 1 2 1 0 0 1 1 1 1 1 1 1 0 0 0 0 0 1 2 2 1 0 0 1 1 1 1 2 1 0 0 2 2 1 2 2 0 1 1 1 1 2 2 1 1 1 1 1 1 1 1 1 1 1 2 2 2 2 2 1 2 1 1 2 2 2 2 2 1 1 1 2 2 1 1 1 2 2 2 2 1 1 1 1 1 2 2 2 1 2 1 1 1 1 2 2 2 1 1 2 1 1 2 2 2 2 1 1 1 1 1 1 2 1 0 1 2 2 1 1 2 2 2 2 2 1 0 1 2 2 2 2 2 1 0 1 1 1 0 1 1 1 1 2 1 0 0 1 0 0 1 1 1 2 2 1 1 2 2 2 2 2 2 2 2 2 2 1 1 1 1 1 1 1 2 1 0 1 1 1 1 1 1 1 2 2 1 1 1 1 1 1 1 1 1 1 1 1 1 1 1 1 1 1 2 1 0 1 1 1 1 2 1 1 1 1 0 1 1 1 1 0 1 1 0 0 0 0 1 1 2 2 2 1 1 1 2 1 1 1 1 1 1 1 0 0 1 1 1 1 1 0 0 1 1 1 1 2 1 0 0 0 1 1 1 1 1 0 1 2 1 1 1 2 1 1 2 1 1 1 1 1 0 1 1 1 1 2 2 1 2 2 1 1 1 1 0 0 1 1 1 2 1 1 1 0 1 1 1 1 1 1 0 0 1 2 1 2 1 0 1 1 0 1 0 1 1 0 1 1 1 1 0 1 1 1 0 0 1 2 1 1 1 1 1 1 1 0 0 2 0 1 0 0 0 0 1 0 1 1 0 1 0 0 0 1 1 2 1 0 1 2 0 1 1 1 1 1 0 1 0 1 0 1 1 1 1 2 1 1 1 1 0 1 1 1 0 1 0 1 -1 0 0 1 0 1 0 2 0 1 0 0 0 2 -1 2 
2 -1 0 1 -2 2 -1 1 0 2 0 2 0 2 0 1 0 1 0 1 0 1 0 2 -1 1 0 1 0 0 1 1 0 1 0 1 1 1 0 1 1 1 0 1 1 1 0 2 0 0 0 0 0 2 1 1 1 1 1 1 0 0 0 1 2 1 0 1 0 2 1 1 0 1 1 0 0 0 0 0 0 1 1 1 1 1 1 1 0 1 -1 0 1 0 0 1 0 1 0 0 1 2 2 1 0 0 1 1 0 1 1 0 0 1 1 0 0 1 0 1 1 1 0 1 1 2 1 0 0 1 2 2 1 0 0 0 0 0 0 1 1 1 1 0 0 1 1 2 1 1 1 1 0 1 1 1 0 0 0 1 1 1 1 1 0 0 1 2 1 0 1 2 1 1 1 1 0 0 0 1 1 1 0 0 1 2 1 1 1 1 1 1 2 2 0 1 2 1 1 2 1 1 2 2 1 1 2 1 0 0 1 1 1 1 1 1 1 1 1 1 1 1 1 2 2 1 1 1 1 2 1 1 1 2 1 1 1 1 1 1 1 1 1 1 1 1 0 1 0 1 1 2 2 1 0 0 1 2 2 2 0 0 1 1 1 1 1 1 0 0 1 1 1 1 1 1 0 1 1 2 1 2 2 1 1 1 1 1 1 2 2 2 1 2 1 1 1 2 2 2 2 2 2 2 1 2 1 2 2 2 1 1 1 1 1 2 2 1 1 2 2 2 1 1 1 1 2 2 1 0 1 2 1 2 2 2 2 2 2 1 1 2 2 2 2 2 2 2 1 2 2 2 1 2 1 1 0 1 2 1 0 1 2 1 1 2 1 0 0 2 2 1 0 1 1 2 2 2 1 1 1 1 1 2 1 2 2 2 2 2 2 2 2 1 1 2 2 2 1 1 1 1 1 1 0 1 1 1 1 2 2 2 1 2 1 1 1 1 1 1 1 1 2 2 0 1 1 1 1 1 1 1 1 1 1 1 1 1 1 1 1 1 1 1 0 0 2 2 1 2 1 1 2 2 1 2 2 3 2 1 1 1 1 2 1 1 1 1 1 1 0 1 1 1 0 1 0 0 0 1 1 1 1 1 0 0 0 1 1 1 1 2 1 0 1 1 0 1 1 1 0 1 1 1 1 2 1 0 1 1 1 1 2 2 1 1 2 2 1 1 1 0 0 0 0 1 1 1 1 0 0 0 0 1 1 1 1 1 0 1 1 1 2 1 1 0 0 1 0 0 1 1 1 1 1 2 1 1 1 1 0 1 0 1 0 1 0 1 1 1 0 0 1 1 -1 0 0 1 1 1 1 2 0 1 0 1 1 0 0 1 0 1 1 1 1 1 0 1 0 1 1 1 0 1 0 1 1 1 0 1 0 1 0 1 0 0 1 1 0 2 1 2 -1 1 -1 1 0 1 0 1 0 1 0 3 -1 2 0 1 0 -1 
1 2 -1 2 0 1 0 2 1 1 0 1 1 1 1 1 0 1 1 1 1 2 0 1 0 1 1 1 1 0 1 1 1 1 0 0 1 1 1 1 1 0 0 1 1 2 0 0 1 1 1 0 0 1 1 1 1 0 1 1 0 1 1 0 0 1 1 1 0 1 1 1 1 1 1 1 1 1 1 0 0 1 1 1 0 1 1 1 0 0 0 0 1 1 1 1 1 1 1 1 0 1 2 1 1 1 0 0 0 0 1 1 0 1 1 1 0 0 0 1 0 1 1 1 1 1 1 1 1 2 1 1 1 0 0 1 1 1 0 1 1 1 1 1 1 0 0 1 1 1 0 1 1 1 1 1 0 0 0 1 1 2 1 1 0 1 2 2 2 1 0 0 1 1 1 0 1 1 1 1 1 1 1 1 1 1 1 1 1 1 1 0 0 1 1 1 1 1 1 1 1 2 1 1 0 1 1 1 2 1 0 1 1 2 2 2 1 1 1 1 1 2 1 1 1 1 0 0 0 1 2 1 1 1 2 1 1 2 2 1 1 2 2 2 2 1 1 2 2 1 1 2 1 1 1 1 2 2 1 2 2 2 2 2 1 1 1 2 1 1 1 1 1 1 2 1 1 1 1 2 2 2 1 2 2 1 1 1 1 2 2 1 1 1 2 2 2 2 1 2 2 2 2 2 2 1 1 2 2 1 1 1 1 1 1 1 1 2 2 1 1 1 1 2 1 0 0 1 2 2 1 1 2 2 1 1 2 2 2 1 1 1 2 2 1 1 2 2 1 1 1 1 2 1 1 2 3 2 1 1 1 1 1 1 1 1 1 1 2 1 1 1 1 2 2 2 2 2 1 1 1 2 2 2 1 1 2 2 1 1 1 2 1 1 1 1 1 2 2 1 0 1 1 1 1 2 1 1 1 2 1 2 2 2 2 2 1 0 1 1 1 1 1 0 1 1 1 1 1 1 0 0 0 0 0 1 1 2 1 1 1 2 1 1 1 1 2 2 1 1 1 1 1 2 2 2 1 1 1 1 1 1 1 1 1 0 0 0 0 1 1 1 1 1 1 0 0 0 0 1 1 1 1 1 1 0 1 1 1 2 2 2 1 1 1 1 0 0 0 1 1 1 1 1 1 1 0 0 0 1 2 2 1 1 1 0 1 1 1 2 2 1 0 0 0 1 0 0 1 1 1 0 1 1 1 1 0 1 1 1 1 1 1 1 1 1 1 1 0 1 1 1 1 1 0 1 1 1 1 1 0 0 0 1 0 0 1 1 0 0 1 1 1 0 0 0 0 0 1 1 1 2 1 2 1 0 1 1 0 1 1 1 1 1 0 1 1 1 1 1 0 0 0 1 0 1 0 0 0 1 0 1 1 1 0 0 0 0 1 2 1 2 0 1 0 0 1 1 0 0 1 1 0 1 1 1 -1 2 -1 0 
1 0 3 -2 2 -1 2 0 2 0 2 -1 2 0 2 1 1 0 2 0 1 2 1 1 1 0 1 0 0 0 1 1 1 0 1 0 0 0 0 0 2 0 1 1 0 1 2 1 0 1 1 0 0 0 0 0 1 0 1 -1 1 1 0 1 1 1 0 1 1 0 1 1 1 0 1 1 1 0 1 0 0 0 0 1 1 1 0 0 0 0 0 0 1 2 2 0 1 1 0 1 1 1 1 1 1 1 1 1 0 0 1 1 1 1 1 1 1 0 1 1 1 1 1 1 1 2 2 1 1 1 1 1 1 1 1 1 1 0 0 1 2 2 2 1 0 1 1 1 2 2 2 1 1 1 2 1 1 1 1 1 1 2 2 1 1 0 1 1 0 0 1 1 0 0 0 1 1 1 2 1 1 1 0 0 1 2 1 1 1 0 0 1 1 1 1 0 0 0 0 1 1 1 1 0 0 1 1 1 1 1 1 1 1 2 2 2 1 1 2 2 1 1 1 1 1 1 1 1 1 2 1 0 1 1 1 1 1 1 1 1 1 1 1 1 2 2 2 1 1 1 2 1 1 1 1 0 1 1 1 1 1 1 1 2 2 1 1 1 1 1 1 1 1 2 2 1 1 1 2 1 1 1 1 2 2 1 1 2 2 2 1 1 1 1 2 2 1 1 1 2 2 1 2 2 2 2 2 2 2 1 1 1 1 0 1 2 2 2 2 1 1 1 1 1 1 1 2 2 2 1 2 2 2 2 2 2 2 2 2 2 1 1 1 2 2 2 2 1 0 1 2 1 1 0 0 1 2 2 2 2 2 2 3 2 1 2 2 1 1 2 2 2 2 2 2 2 1 1 2 1 1 1 2 2 1 1 2 1 1 1 1 1 1 1 1 1 2 2 1 1 1 1 1 2 1 1 1 1 1 1 2 1 2 2 2 1 1 1 2 1 0 0 1 1 1 1 1 2 1 1 1 1 1 1 2 1 2 2 2 1 1 2 2 1 1 1 2 1 1 1 2 2 2 1 0 0 1 2 2 1 1 1 2 2 1 0 1 1 1 1 1 1 1 0 1 1 1 0 1 1 1 1 1 1 1 1 1 0 1 2 3 2 1 0 1 1 1 1 1 1 1 0 1 1 1 0 1 1 1 1 1 1 2 1 0 0 1 2 2 1 1 1 1 1 1 0 1 1 0 0 0 -1 0 1 2 1 1 1 0 1 1 0 1 1 0 0 1 1 1 1 1 1 1 1 1 1 0 0 1 1 0 1 0 1 1 0 1 1 1 1 1 1 1 0 0 0 2 1 1 0 0 1 1 1 1 1 1 0 0 0 1 1 1 1 1 0 2 0 0 1 1 0 0 0 2 1 1 0 0 1 1 1 1 0 0 0 1 1 2 0 2 1 0 -1 2 0 1 0 2 0 1 -1 3 0 2 -1 5 -2 0 1 
3 -3 4 -2 3 -2 2 -1 1 -1 1 -1 2 -1 1 0 1 0 1 1 1 1 1 0 1 0 1 0 0 1 1 1 1 0 1 1 1 1 1 0 1 1 1 1 0 1 1 0 1 1 1 0 0 -1 0 0 1 1 1 1 1 1 1 1 0 0 1 1 1 1 1 1 0 1 1 1 1 1 1 0 1 1 0 0 0 1 1 0 1 0 1 1 1 1 2 1 1 1 1 0 0 -1 1 1 1 2 1 1 1 1 1 0 1 1 0 1 1 0 1 1 1 0 0 0 1 0 1 1 1 1 1 0 1 1 1 1 1 1 1 1 2 1 1 1 0 1 1 1 1 1 1 1 1 1 1 2 2 1 1 1 1 1 1 1 1 0 1 2 2 1 0 0 0 0 1 1 1 1 1 1 1 1 1 1 1 1 1 2 2 1 1 1 1 1 1 0 0 1 1 1 1 1 1 1 0 1 1 1 2 1 1 1 2 2 2 2 1 1 1 0 1 2 1 1 1 1 1 1 1 2 2 2 1 1 1 1 1 1 1 1 1 1 2 1 2 1 1 1 2 1 1 1 1 1 1 1 2 1 1 1 2 1 2 1 1 1 2 1 1 2 2 2 2 2 2 2 2 1 2 2 1 1 1 1 1 1 1 1 1 1 1 1 1 1 1 1 1 1 2 2 1 1 2 3 2 2 2 1 1 1 1 1 2 1 1 1 2 2 2 2 2 1 1 1 1 1 2 2 2 2 1 1 1 1 1 1 2 2 1 1 1 1 2 1 1 1 2 1 2 2 1 1 1 1 1 2 2 1 1 1 2 2 2 2 2 1 2 2 2 1 1 2 1 1 2 1 1 1 1 1 1 1 1 1 1 1 1 1 2 2 1 1 1 1 1 1 1 1 1 0 1 1 1 1 1 1 0 1 1 1 1 1 2 1 1 1 1 1 1 1 2 2 1 1 2 2 1 1 2 1 1 0 1 1 1 1 1 2 2 2 2 1 2 2 2 1 1 1 1 0 0 1 1 1 1 1 1 0 1 1 2 2 1 1 1 1 1 2 2 2 2 1 1 1 1 0 0 1 2 1 1 0 0 1 1 1 1 1 1 1 2 2 1 1 1 -1 0 1 1 0 1 1 1 1 1 0 1 1 0 1 1 1 2 1 0 1 1 1 1 1 1 0 0 1 1 1 1 1 1 1 1 0 0 1 1 1 1 0 0 1 1 1 1 1 0 1 2 1 1 1 1 1 1 0 0 0 1 1 1 1 0 1 1 1 1 0 1 1 1 1 1 1 0 0 1 1 1 0 1 0 0 1 2 1 1 0 1 1 1 -1 1 1 1 1 1 0 1 0 1 1 0 1 1 0 1 1 1 0 0 0 1 0 2 0 0 0 0 1 2 0 1 0 1 0 2 0 0 0 2 0 2 -1 2 -1 2 -2 3 -4 5 -1 
2 1 1 0 1 1 0 0 0 1 1 1 0 1 0 1 0 1 0 1 0 1 1 1 1 0 0 1 0 1 0 1 1 1 0 1 -1 0 0 0 1 2 1 1 0 0 0 1 1 1 0 1 1 0 0 1 0 1 0 1 0 1 1 1 0 0 0 1 1 0 1 1 0 0 0 1 0 0 0 1 1 0 0 1 1 1 0 0 0 1 1 0 1 2 1 1 0 0 0 0 1 1 0 1 0 1 1 0 0 1 1 0 0 0 1 1 0 1 1 1 1 1 1 0 0 0 1 2 1 1 0 0 1 1 1 1 0 1 1 2 2 1 1 1 0 1 1 1 0 1 1 1 1 1 1 1 1 1 1 1 0 1 1 0 1 1 1 1 1 1 1 1 0 0 1 1 1 1 1 0 1 1 1 0 0 1 1 0 1 1 0 1 1 1 1 1 1 1 1 1 2 2 2 2 1 1 1 1 1 1 1 1 1 2 1 1 1 1 1 1 0 0 1 1 2 2 2 2 2 1 1 2 2 2 1 1 1 1 0 0 1 1 1 1 1 2 1 1 1 1 1 1 1 2 2 2 1 1 1 2 2 1 1 2 2 2 2 1 1 1 1 2 2 2 2 2 2 2 2 2 1 1 1 2 1 1 2 2 2 2 2 2 1 1 1 1 1 1 1 2 2 1 2 2 2 2 2 1 2 2 2 2 2 1 1 2 2 2 1 1 1 1 1 1 1 1 1 2 1 1 2 2 1 2 2 2 2 1 1 2 1 1 2 2 1 2 2 1 1 2 2 1 1 1 1 1 1 1 1 1 2 2 2 2 2 1 2 2 2 2 2 3 2 2 2 1 1 1 2 2 2 1 1 1 1 1 1 1 2 2 1 2 2 1 1 2 2 2 1 0 1 1 2 2 1 1 1 1 2 2 2 1 1 1 1 1 1 2 2 2 1 1 2 2 2 1 1 1 2 2 2 1 1 2 2 1 1 1 2 2 1 0 1 1 0 1 1 0 0 1 2 1 1 2 2 1 0 1 1 1 1 1 1 1 1 1 1 2 1 1 2 2 1 0 0 1 1 1 1 1 1 1 0 1 1 1 0 0 1 1 2 2 1 1 0 1 1 1 1 1 0 0 1 1 1 1 1 1 1 1 1 1 2 1 1 1 0 1 1 1 0 1 1 0 1 1 1 1 1 1 1 0 0 1 1 0 0 0 0 1 1 2 1 1 0 0 0 1 1 1 1 2 1 1 0 1 1 1 1 1 1 1 1 0 1 1 1 0 0 0 0 1 0 0 0 0 1 1 0 1 0 1 1 0 1 1 0 1 0 1 1 1 0 1 1 1 0 0 1 2 1 2 1 1 1 2 1 1 0 1 1 0 0 1 -1 1 0 2 0 0 1 1 1 1 0 1 0 1 1 1 0 0 1 2 1 1 0 0 2 0 
-2 6 -4 4 -1 2 -1 2 0 2 0 2 -1 1 0 1 0 1 0 1 0 1 0 1 0 1 0 0 0 1 0 1 1 0 -1 1 0 0 0 1 0 2 1 1 1 1 1 1 0 1 1 0 0 0 0 1 0 1 0 1 1 1 1 0 0 0 0 0 0 0 1 0 0 1 0 1 0 1 0 0 0 1 0 0 1 1 1 1 0 1 1 1 1 1 0 1 -1 0 1 1 1 1 0 1 1 2 1 0 0 0 0 1 1 0 0 1 0 1 1 1 0 1 0 0 1 1 0 1 1 1 1 1 1 1 2 1 0 1 1 1 2 2 1 1 1 1 1 1 0 0 0 1 1 1 1 1 1 1 0 1 0 1 1 1 0 0 1 2 2 2 1 0 1 1 1 1 1 0 0 0 1 1 1 1 1 1 1 1 1 2 1 1 0 1 1 1 1 1 1 1 1 1 1 1 1 1 1 2 1 1 1 1 2 2 1 1 2 1 0 0 0 1 1 1 1 2 1 1 1 1 2 2 2 2 2 2 1 1 1 2 1 2 2 1 1 1 1 2 2 2 1 1 1 1 1 1 1 1 1 2 2 1 1 1 1 2 2 2 1 2 2 2 1 2 2 2 2 2 2 3 2 1 1 1 1 1 1 1 1 1 2 2 2 1 1 1 1 2 2 2 2 2 2 2 2 2 1 1 1 2 2 2 2 2 2 1 1 1 1 2 1 1 1 1 2 2 1 2 2 2 2 2 1 1 1 2 3 2 1 1 2 2 2 1 1 2 1 1 2 2 2 2 2 1 2 2 2 1 1 2 2 2 2 2 1 2 2 2 2 2 2 2 2 2 2 1 1 1 1 1 1 1 2 3 2 2 1 1 1 2 2 1 1 1 1 1 1 1 1 1 1 1 1 1 1 1 1 2 1 1 1 2 1 1 1 1 1 1 1 2 2 2 1 1 1 1 1 1 1 2 2 1 0 1 1 1 1 1 1 1 1 1 1 1 1 1 0 0 0 0 0 0 1 1 1 1 1 1 1 1 1 1 1 1 0 1 1 2 2 2 1 1 1 1 1 0 0 1 2 2 1 1 1 1 1 1 2 1 1 1 0 1 2 2 1 1 1 1 0 1 0 1 1 1 1 1 1 2 1 2 1 1 1 1 1 1 0 1 1 1 1 1 1 0 1 1 0 1 1 1 1 1 -1 0 0 0 0 0 1 1 1 1 1 1 1 1 0 1 0 0 0 1 1 1 0 1 0 1 1 1 1 1 1 1 0 0 1 1 0 0 0 1 0 0 0 1 0 1 0 1 1 1 1 1 0 0 0 1 0 1 0 1 1 1 1 2 0 1 2 1 1 1 0 1 0 1 0 1 0 1 1 1 0 1 -1 1 0 2 0 1 0 1 1 2 0 1 -1 1 0 1 -1 2 0 2 -1 3 -4 5 -5 3 
1 -1 1 -1 2 -1 2 -1 1 1 2 0 1 1 0 0 1 0 0 0 2 1 1 1 0 0 1 1 1 1 0 1 1 0 0 0 1 0 0 1 0 1 1 0 1 1 1 1 0 0 1 0 1 2 0 0 0 1 1 1 0 0 1 0 1 0 0 1 0 0 0 1 1 0 0 0 0 1 1 0 0 1 1 1 2 1 1 1 0 1 1 0 1 1 1 0 0 1 1 1 2 1 1 0 1 0 1 0 0 1 1 1 1 1 2 1 1 0 1 1 0 1 1 1 1 1 2 1 0 0 1 1 1 2 2 1 0 1 1 1 2 1 1 1 1 0 1 1 0 1 1 1 1 1 1 1 1 0 0 0 2 2 1 0 0 1 1 1 1 1 1 1 1 1 1 1 1 1 1 0 1 1 1 0 0 0 0 1 2 1 1 2 1 1 1 1 1 1 1 1 1 0 0 1 1 1 1 1 1 1 2 1 2 2 1 1 2 2 1 1 0 0 0 1 2 2 2 1 1 0 0 1 2 2 1 1 1 1 1 1 1 2 2 1 1 2 2 1 1 2 2 1 1 2 2 2 2 1 1 1 1 2 2 2 1 1 1 1 1 1 2 2 1 1 1 1 1 1 1 2 2 2 1 1 1 1 1 1 1 1 1 1 1 1 1 1 1 2 2 2 2 2 2 2 2 2 1 1 2 2 2 2 1 1 2 2 2 2 2 1 1 2 2 2 1 1 2 2 2 2 3 3 2 1 2 2 2 1 1 2 1 1 2 2 2 2 2 2 2 2 2 1 1 1 2 2 1 2 3 2 2 2 2 2 1 1 2 2 2 2 2 1 1 2 2 2 1 1 0 1 2 2 2 2 2 1 1 1 1 1 2 1 1 1 1 2 1 1 1 1 1 1 2 2 2 2 2 2 2 1 1 1 1 1 1 1 1 1 1 1 1 1 1 2 1 0 1 1 1 2 2 1 2 2 1 1 1 1 1 1 1 1 1 1 0 0 0 0 1 1 1 1 1 1 1 1 1 1 1 1 1 1 1 1 1 1 1 2 2 1 1 1 1 1 0 1 1 1 1 2 2 1 1 2 2 2 1 1 1 1 1 1 1 2 1 1 1 0 1 1 1 1 1 0 1 1 1 1 1 1 0 0 1 1 1 0 0 1 2 1 1 1 1 0 0 0 0 1 1 2 1 1 0 0 0 0 0 0 0 0 1 1 1 1 1 1 0 1 0 0 1 0 1 0 0 1 1 1 0 0 1 1 1 1 1 1 1 1 1 1 1 0 1 0 1 2 1 1 1 1 2 1 1 0 0 0 1 1 1 2 1 0 1 1 0 1 0 1 2 0 2 1 1 1 1 0 0 0 0 0 1 1 1 1 1 0 1 1 0 1 1 1 1 1 1 0 0 0 2 0 0 -1 1 0 1 0 2 1 1 0 
1 -2 2 -1 1 0 1 1 2 1 0 0 0 0 2 0 1 0 1 1 2 1 1 1 1 0 1 0 1 0 0 0 1 1 1 0 1 0 0 1 0 1 1 1 2 1 1 0 0 0 0 0 1 1 0 1 1 0 1 1 1 1 1 0 1 1 1 0 0 1 0 0 1 1 1 1 1 1 1 0 1 1 1 1 1 0 1 1 1 1 1 1 2 1 1 1 0 0 1 2 1 1 1 0 1 1 1 1 1 1 1 1 1 2 1 0 1 1 0 0 1 1 1 1 1 1 1 0 1 1 1 1 1 1 1 1 0 0 1 1 1 1 1 1 1 1 1 1 1 1 1 1 1 1 0 0 0 1 1 1 1 1 1 1 0 0 1 2 2 1 1 2 2 1 1 1 1 1 1 1 1 1 1 1 0 0 0 0 1 2 2 1 1 1 1 1 1 1 1 1 1 2 1 0 1 1 1 1 1 0 0 1 1 1 1 1 1 1 0 1 1 0 0 0 1 2 2 1 1 1 1 1 2 2 2 1 1 1 1 1 1 1 1 1 0 1 1 2 1 2 2 1 1 1 2 2 2 2 1 2 2 2 2 1 1 1 1 2 3 2 1 1 1 1 2 2 1 1 2 3 3 2 1 0 1 2 2 2 1 1 1 2 2 1 1 1 2 1 1 2 1 1 1 2 1 1 1 1 1 1 1 1 1 2 2 1 1 1 2 1 1 1 1 1 1 1 1 2 2 2 1 1 1 1 0 1 2 1 1 1 2 3 2 1 1 2 2 2 2 3 3 2 2 2 2 2 2 2 2 2 2 1 1 1 1 1 1 2 2 2 2 2 1 2 3 2 1 1 1 1 2 2 2 1 2 2 1 0 1 1 1 1 2 1 1 1 1 1 1 1 1 1 1 1 2 1 1 1 1 1 1 1 1 2 2 2 1 1 1 2 2 1 1 1 1 1 1 1 1 1 1 0 0 0 0 1 1 1 0 0 2 2 2 1 1 1 1 1 1 1 1 1 1 2 1 1 1 1 1 2 2 1 1 1 1 1 1 2 1 1 1 1 1 1 1 1 0 0 1 1 1 2 1 1 1 1 1 1 1 0 0 1 2 2 1 1 1 0 0 1 1 1 1 2 1 0 1 1 1 1 1 1 0 1 2 1 1 1 1 1 1 1 1 1 1 1 1 0 1 2 1 1 1 0 0 0 0 0 0 0 1 -1 0 0 1 1 1 1 1 0 1 0 0 1 0 1 1 1 1 0 0 1 1 1 1 1 1 1 1 0 1 0 0 0 0 1 1 0 0 0 1 1 0 1 0 0 1 1 0 0 1 0 1 0 0 1 0 1 1 0 1 0 0 1 0 0 0 0 1 1 1 0 1 1 1 -1 1 0 1 1 1 1 2 1 0 0 1 0 1 0 2 0 1 0 1 -1 1 0 2 0 
0 0 0 1 -1 2 0 1 0 1 -1 0 0 1 0 0 1 0 0 0 1 2 0 1 0 1 0 1 1 1 1 1 0 0 0 0 0 0 0 1 1 1 1 1 1 1 1 1 0 0 0 1 1 1 1 0 1 1 1 0 0 0 0 1 1 1 1 1 0 0 0 1 1 1 1 0 1 0 1 1 1 1 0 1 1 1 1 0 0 0 0 0 1 1 0 1 1 1 0 1 0 0 1 0 0 1 1 1 1 1 1 0 0 2 1 1 1 1 1 0 0 0 1 1 1 1 2 1 0 1 1 1 2 1 0 0 0 0 1 1 1 1 0 0 0 1 1 1 1 1 1 1 1 0 0 1 1 1 1 1 1 2 0 0 1 1 1 0 0 1 2 2 1 1 1 1 1 2 1 1 1 1 1 1 0 0 0 0 1 1 1 1 1 1 0 0 1 1 1 1 1 1 1 1 1 1 1 1 0 1 2 1 0 1 1 1 1 2 1 1 1 0 0 1 2 2 2 2 2 2 2 2 2 2 2 2 1 2 2 2 1 1 1 1 1 2 2 1 1 2 2 1 1 2 2 2 2 2 2 2 2 2 2 2 2 1 1 1 1 1 1 1 1 2 1 1 1 1 1 2 2 2 1 2 2 2 2 2 2 2 2 1 1 2 2 1 1 0 1 1 1 1 1 1 2 2 1 1 2 2 2 2 1 2 2 2 2 1 1 1 1 2 2 1 1 1 2 2 1 1 1 2 1 1 2 2 1 1 2 2 2 2 2 2 1 2 2 2 2 2 2 1 1 1 2 1 1 1 2 2 1 1 2 2 1 2 2 2 2 2 2 2 2 2 2 2 2 2 1 2 2 2 1 1 1 1 1 1 0 1 2 2 2 1 1 2 2 2 1 1 1 1 2 2 2 2 2 2 2 2 2 1 1 1 1 1 1 1 1 1 1 1 1 1 1 1 1 1 1 1 1 1 2 1 1 1 1 1 2 2 2 2 1 1 1 0 1 1 2 2 2 1 1 2 1 1 1 1 2 1 0 0 1 1 1 1 1 2 2 1 0 0 0 0 1 2 1 0 0 1 1 1 0 1 1 1 0 0 1 1 1 1 1 1 1 1 1 0 0 1 1 1 0 1 1 1 1 1 1 1 0 0 0 1 0 0 1 2 2 2 1 1 1 1 0 0 1 1 0 1 2 1 1 0 0 0 0 1 0 0 0 0 0 0 0 1 1 1 1 1 1 1 1 1 1 1 1 0 1 0 0 1 0 1 1 1 0 1 1 1 0 0 1 1 0 1 1 1 1 1 1 1 0 1 1 1 0 0 1 1 1 0 0 0 0 1 1 1 1 2 1 1 1 2 1 1 1 1 1 2 0 0 0 1 1 0 0 0 1 1 1 1 0 1 1 1 0 0 0 0 0 1 1 2 0 1 0 1 0 1 
-2 4 -2 2 -1 2 -1 2 0 1 -1 1 0 0 0 0 1 1 0 2 1 0 1 1 1 1 0 1 0 0 1 1 0 0 1 2 1 0 0 1 2 1 1 1 0 2 1 0 1 1 0 1 0 0 1 1 1 0 0 0 1 1 0 1 1 1 1 0 1 1 1 1 1 1 1 1 0 1 1 1 1 1 1 0 0 1 1 1 1 0 1 1 1 1 1 1 1 1 2 0 0 0 1 1 1 1 1 1 1 1 1 1 1 1 1 1 1 1 0 0 1 1 1 1 1 1 1 1 0 0 0 1 1 0 0 1 1 1 1 0 0 1 1 1 1 1 1 1 1 1 1 1 1 1 1 0 0 1 1 1 1 1 1 0 0 0 0 1 1 0 0 1 2 2 1 1 1 0 0 1 1 1 1 1 1 0 1 2 1 1 1 1 1 1 1 1 1 1 1 0 0 1 1 1 2 2 1 1 1 1 0 1 1 1 1 1 1 1 1 1 1 1 1 0 0 1 1 1 1 1 1 1 2 1 1 1 1 2 2 1 1 1 1 1 1 2 2 2 1 2 2 1 1 1 1 1 1 2 2 2 1 1 2 2 1 1 2 2 1 1 1 1 2 1 1 1 1 1 1 2 2 2 2 2 1 1 1 2 2 2 1 1 1 1 1 2 2 1 1 2 2 2 1 2 2 1 1 1 1 1 2 1 2 3 2 1 1 1 1 2 2 1 1 2 2 2 2 3 3 2 0 1 1 1 1 2 2 1 1 2 2 2 2 1 1 1 1 2 2 2 1 1 1 1 1 2 2 2 2 1 1 1 1 1 2 2 2 2 1 1 1 1 1 2 1 2 2 2 3 3 2 2 2 2 2 2 1 1 1 1 2 1 1 1 1 1 1 1 1 1 2 2 1 1 1 0 0 1 1 1 1 1 1 1 2 2 2 1 1 1 1 1 1 1 1 2 1 1 1 1 1 1 0 0 0 1 1 1 2 2 2 2 1 1 1 1 1 1 1 1 1 1 1 1 1 1 1 2 2 1 1 0 0 1 1 1 1 1 1 2 1 1 1 1 1 1 0 1 1 1 1 1 1 1 1 1 0 0 0 1 1 1 1 1 1 1 2 1 0 0 1 1 1 2 2 1 0 0 1 1 1 1 1 1 0 0 1 2 1 1 1 1 1 1 1 1 1 1 1 1 1 1 1 0 0 1 1 0 0 1 1 0 0 0 0 0 0 0 0 0 1 2 2 1 1 0 1 1 1 1 1 2 1 0 0 1 1 1 0 1 1 1 1 1 1 1 1 0 1 1 0 0 1 2 1 1 1 1 1 1 1 1 1 1 1 0 2 1 1 1 0 1 1 0 0 1 1 1 1 2 0 0 1 1 1 0 0 1 2 1 0 0 0 0 0 1 0 1 -1 1 0 1 -1 2 0 1 -1 3 -3 2 
3 -4 3 0 1 1 2 0 0 -1 1 0 1 0 1 -1 1 1 1 0 1 0 1 0 1 0 0 0 1 0 1 0 1 0 1 1 1 0 0 0 2 0 1 1 1 1 1 1 1 0 0 0 1 0 1 0 1 1 0 0 2 0 0 1 1 1 1 0 1 0 1 0 0 1 1 2 0 0 0 1 2 0 0 0 1 1 0 1 1 0 1 0 1 1 0 0 2 2 2 0 1 1 0 1 0 0 0 0 1 1 2 2 1 0 1 1 1 1 1 0 1 1 1 0 1 1 2 1 1 1 1 1 1 1 1 1 1 1 1 1 1 0 1 1 1 1 1 1 1 1 2 1 1 1 1 1 1 2 2 1 0 1 1 1 1 1 1 0 0 1 1 1 1 1 1 1 1 1 0 1 1 1 1 0 1 1 1 1 2 1 0 1 2 2 1 1 1 1 1 1 1 1 1 1 1 1 1 1 1 1 1 2 1 0 1 1 1 1 1 1 1 0 1 2 2 1 1 1 1 1 1 1 0 0 1 1 1 1 2 2 1 1 1 1 1 1 2 1 1 2 2 1 2 1 2 1 1 1 2 1 1 1 1 1 1 1 1 1 1 1 1 0 1 1 1 1 1 1 2 2 2 1 2 2 2 2 2 2 1 1 2 2 2 2 1 1 1 1 1 1 2 2 2 1 1 2 2 2 1 1 2 2 2 2 2 2 2 1 1 1 1 2 2 2 1 2 2 2 1 2 2 2 2 2 2 3 2 2 2 1 1 2 2 1 2 2 3 2 1 1 1 0 0 1 1 1 1 2 2 2 2 2 2 2 2 2 2 2 1 1 1 1 1 1 1 1 2 2 2 2 2 2 1 1 2 2 1 2 1 1 2 2 1 1 1 1 1 1 1 1 1 2 2 1 1 1 2 1 1 1 2 1 1 1 1 1 1 1 1 1 1 0 1 1 1 1 1 1 1 1 1 1 1 1 1 1 1 1 2 2 2 2 1 0 0 1 1 1 1 1 0 0 1 1 1 0 0 1 1 1 1 1 1 1 1 1 1 1 1 1 1 1 1 0 0 1 2 1 1 1 1 1 1 1 1 1 1 1 1 1 1 0 0 1 2 2 2 1 1 1 0 0 1 1 1 1 1 1 1 0 0 0 1 1 1 1 1 1 1 1 1 1 1 0 1 1 0 0 1 1 1 1 0 0 1 1 1 1 3 2 1 1 0 0 0 0 0 0 0 1 0 1 2 1 1 1 1 0 0 1 1 1 1 0 1 0 0 1 2 1 0 1 1 1 1 0 1 1 1 0 1 0 1 0 1 1 1 0 1 1 2 1 0 0 1 0 2 0 0 1 1 1 1 0 1 0 1 1 1 1 1 0 1 1 2 0 1 0 1 0 1 0 1 0 1 0 1 0 1 0 1 1 1 0 2 1 2 -2 5 -2 
-1 2 1 -2 3 -1 2 -1 2 -1 2 -1 1 -1 1 0 1 0 2 1 2 0 2 -1 1 0 1 0 2 0 1 0 2 0 1 0 0 -1 0 0 1 0 1 0 1 0 1 0 1 0 1 0 2 1 1 0 0 0 0 0 1 0 1 0 0 1 1 0 1 0 1 1 1 1 1 1 1 1 2 0 1 1 1 0 1 1 1 1 1 1 1 0 1 0 1 1 1 0 2 1 1 1 1 1 0 0 1 0 1 1 1 1 1 0 1 1 1 1 1 1 1 0 1 0 1 2 1 0 1 0 1 1 1 0 1 0 1 1 1 0 1 0 1 1 1 1 1 0 0 0 0 0 1 1 1 1 1 0 0 0 1 0 1 1 1 0 1 1 2 1 1 1 1 1 1 1 1 0 1 1 1 1 1 0 1 1 2 2 2 1 1 1 1 1 1 2 2 1 2 0 1 1 2 1 1 1 1 1 1 1 1 1 2 1 1 1 1 1 1 1 1 1 1 0 0 0 1 1 1 1 1 1 1 1 1 0 1 1 2 1 1 1 1 1 1 1 1 1 2 1 1 1 2 1 1 1 1 1 1 1 1 1 1 1 1 1 2 1 1 1 2 1 2 1 1 2 2 1 1 1 2 2 2 2 1 0 0 1 2 1 1 1 1 1 2 3 3 2 1 1 1 1 0 1 2 1 2 1 0 1 2 2 2 2 2 1 2 2 2 1 1 1 2 2 1 2 3 2 2 2 2 1 2 1 1 2 3 2 2 2 2 2 1 0 1 2 2 2 2 2 1 1 2 2 2 2 3 3 2 2 2 2 1 1 2 2 3 2 1 1 1 2 2 2 1 1 2 2 2 2 1 0 1 1 1 1 1 1 1 0 2 1 1 1 2 2 1 1 2 2 2 2 1 1 2 1 1 1 2 1 1 2 2 1 2 2 2 1 1 1 1 2 2 1 2 2 2 1 1 1 2 1 1 1 1 1 2 1 1 2 2 2 1 1 1 1 1 2 2 1 1 1 1 1 1 1 2 1 2 1 2 1 1 1 1 1 1 1 1 2 2 1 1 1 1 0 1 1 1 1 1 1 1 1 1 1 1 1 0 1 1 0 0 1 1 1 2 1 1 1 1 1 1 1 2 1 1 0 1 1 1 0 1 0 1 1 1 1 1 1 1 0 1 0 1 1 1 1 1 0 1 1 0 1 2 1 1 0 1 2 2 1 0 0 1 0 1 0 0 0 0 1 3 1 1 0 0 1 1 1 1 1 1 0 2 1 1 0 0 0 1 1 1 1 1 1 1 1 1 1 1 0 1 1 2 1 2 1 1 1 1 1 2 0 1 0 1 1 1 0 1 1 2 -1 1 0 2 0 1 0 1 0 1 1 2 0 1 1 2 0 1 -1 2 -1 1 0 3 0 2 0 2 -2 2 -1 2 -1 2 1 0 1 
2 -3 4 -3 2 -1 3 -2 1 -1 2 -1 2 -1 1 0 1 0 1 0 2 0 1 0 1 -1 1 0 1 0 0 0 1 0 1 0 1 0 1 0 1 0 1 0 2 1 1 1 1 0 1 0 1 1 1 0 0 0 1 0 1 0 1 1 1 0 1 1 1 0 1 0 1 1 1 1 1 0 1 1 1 1 1 1 2 1 1 1 1 0 1 0 0 1 0 0 1 1 1 1 1 0 1 0 0 0 1 0 1 1 1 1 1 0 1 0 1 1 1 1 1 1 1 0 1 2 2 1 1 1 1 0 1 1 1 0 1 1 1 1 1 1 1 2 2 0 1 1 1 1 2 0 1 1 2 1 1 1 1 0 1 1 1 1 1 1 1 0 2 2 1 1 1 1 1 1 1 0 1 1 1 1 1 1 1 1 1 1 2 1 1 1 2 1 1 1 1 1 1 1 2 2 1 1 1 1 2 1 1 1 2 1 1 1 1 0 0 0 0 1 1 1 1 1 1 0 1 1 2 2 1 1 1 1 1 1 1 1 1 1 1 1 1 1 1 1 2 1 1 1 1 0 1 1 2 1 1 1 1 1 1 1 1 1 1 1 2 2 2 1 2 2 2 2 1 2 2 2 2 2 3 2 1 1 2 3 2 1 1 1 1 2 3 3 2 2 2 2 2 2 2 2 1 1 1 2 3 2 2 1 1 1 1 1 2 2 3 2 1 1 1 2 2 2 2 2 2 1 1 1 2 2 2 2 3 3 2 1 1 1 1 1 1 1 1 2 2 2 0 0 1 1 1 1 2 1 1 1 1 1 1 2 2 1 1 2 2 1 1 1 1 2 3 2 1 1 2 1 2 2 1 1 1 1 2 2 2 2 2 1 2 1 1 1 2 2 1 1 1 1 1 1 1 1 1 1 2 1 1 1 2 1 1 1 1 0 1 1 1 1 1 1 1 1 1 1 2 2 2 1 1 1 2 2 1 1 2 1 1 1 1 0 0 0 1 1 1 1 1 1 2 2 1 1 1 1 1 0 1 1 2 1 1 1 2 1 1 1 1 1 1 1 2 1 1 1 2 3 2 0 0 0 1 1 1 2 2 1 1 2 2 1 1 1 1 2 2 2 1 2 1 0 1 1 1 2 2 1 1 1 1 1 1 1 1 0 1 1 1 0 1 0 1 1 0 0 0 0 1 1 1 1 0 1 1 1 1 1 1 1 1 0 1 1 1 0 0 0 1 1 0 0 1 0 1 1 1 0 1 0 1 0 0 1 1 0 0 -1 0 1 1 0 0 0 0 0 1 0 1 1 1 0 1 0 1 1 2 0 1 1 1 1 1 0 1 0 1 1 1 1 1 1 2 0 1 0 1 1 1 -1 0 0 1 1 1 0 1 1 2 0 1 -1 1 -1 2 -1 2 0 2 0 2 -1 3 -1 3 0 4 -2 4 -1 
1 1 0 1 0 1 0 2 1 1 0 1 1 1 1 1 1 0 0 0 1 1 1 0 0 0 1 1 1 1 0 1 1 0 1 0 0 1 1 0 1 1 2 1 1 1 0 1 1 1 0 0 1 1 0 1 1 1 1 0 0 0 0 1 1 0 0 1 1 2 1 0 0 1 0 -1 0 0 1 0 -1 1 1 1 1 2 2 1 1 1 0 1 1 1 0 0 0 1 0 1 1 0 2 1 0 0 1 1 1 1 1 0 0 1 1 1 1 1 1 1 1 0 0 0 1 1 1 0 1 0 1 1 0 0 1 1 2 2 1 0 1 1 1 1 1 1 1 1 1 1 1 0 1 1 1 0 0 0 0 0 1 1 1 1 0 0 1 1 2 2 1 1 0 0 1 2 1 1 1 1 1 1 1 1 1 1 1 1 1 2 2 1 0 1 1 1 1 1 1 0 1 1 1 1 1 1 1 1 1 1 1 1 1 1 1 1 1 1 1 1 1 1 1 0 0 0 1 1 2 2 2 1 0 1 1 1 0 1 1 1 1 1 1 1 1 1 1 2 2 1 1 1 1 1 1 1 2 2 2 1 1 1 1 1 1 2 2 2 2 2 2 2 2 2 2 2 2 1 0 1 1 1 2 2 1 1 1 1 2 1 1 1 1 1 1 2 2 2 2 1 1 1 2 2 2 2 2 1 1 1 2 2 1 1 1 1 2 3 3 2 2 2 2 2 2 2 2 2 3 3 3 2 1 1 1 2 2 2 2 2 2 2 1 1 1 2 1 1 2 2 1 1 2 2 2 2 2 2 1 2 3 3 2 2 2 2 2 2 2 1 2 2 2 1 1 1 2 2 2 2 1 2 2 1 2 2 2 2 2 1 2 1 1 1 1 1 1 1 2 2 2 2 2 2 2 2 1 1 1 2 1 1 2 2 2 1 1 2 2 2 1 1 2 1 1 2 3 3 2 2 1 2 2 2 2 2 2 2 1 1 1 2 2 1 1 2 2 1 0 1 1 1 1 1 1 2 1 1 2 2 2 1 1 0 0 0 1 1 1 0 1 1 1 1 0 1 1 1 1 1 1 1 1 1 1 1 1 1 0 1 1 1 1 1 1 1 1 1 1 1 1 1 1 1 1 1 1 1 2 2 1 2 1 0 0 0 0 0 1 1 1 0 0 1 1 1 2 1 0 0 1 1 1 1 1 1 0 0 0 2 2 0 0 0 1 1 1 0 1 1 1 1 1 1 1 0 1 1 2 1 1 0 0 2 1 1 1 0 -1 0 1 0 1 0 0 1 1 1 1 2 1 1 1 0 1 0 0 1 1 1 1 1 2 1 1 0 0 1 1 0 0 0 1 0 0 1 1 1 1 -1 0 0 1 1 1 1 1 1 2 1 1 1 1 0 0 0 1 1 1 1 1 1 0 1 0 1 -1 2 0 1 
0 2 -2 3 -4 4 -1 3 -2 3 0 2 -1 1 -1 2 0 1 -1 1 -1 1 -1 1 0 1 0 1 0 2 0 1 0 1 0 1 1 2 0 1 0 1 0 1 1 1 1 1 0 1 0 1 1 1 1 1 0 1 0 0 1 1 0 1 1 0 0 1 0 2 1 0 1 2 1 1 0 0 0 1 0 0 0 2 1 0 1 1 1 1 1 1 0 1 1 1 1 2 0 0 1 1 1 1 1 1 1 0 0 0 0 1 1 1 0 1 1 1 1 1 0 0 1 1 0 1 1 0 0 0 0 1 0 1 1 1 1 1 1 1 0 0 1 1 1 1 0 1 1 1 1 0 0 0 1 1 1 2 1 1 1 1 1 1 1 1 1 1 2 2 1 1 0 1 1 1 1 2 1 1 1 2 2 1 1 1 1 2 1 2 1 1 1 1 0 0 1 2 1 1 1 1 1 1 1 1 1 1 1 1 2 2 1 0 1 1 1 1 1 2 1 1 1 1 1 1 1 2 2 1 1 1 1 1 1 1 1 1 1 1 1 2 2 1 1 2 1 2 2 2 1 1 2 1 1 1 1 2 2 2 2 2 1 2 2 2 2 2 1 1 1 3 2 2 1 1 1 1 1 2 2 1 1 2 2 3 2 2 1 2 2 3 2 2 1 1 1 2 2 3 2 2 1 2 2 3 3 2 2 1 1 2 2 2 2 2 1 2 1 1 1 2 3 3 2 2 2 2 1 1 1 2 2 1 1 1 1 1 1 1 1 1 1 2 2 3 2 1 0 1 1 2 2 2 2 2 2 2 1 2 2 2 1 1 1 1 2 1 1 2 2 3 2 2 2 2 2 2 2 2 2 2 2 3 2 2 2 3 2 2 2 2 1 2 2 2 1 2 1 1 1 1 1 1 1 0 0 0 0 1 1 1 2 2 1 1 1 2 2 1 1 1 2 2 2 2 2 2 2 2 1 1 1 2 1 0 0 1 1 1 0 1 1 2 1 2 1 1 1 2 2 1 0 1 1 1 0 1 2 2 1 1 1 1 1 1 1 1 1 1 1 2 1 1 1 1 2 2 1 1 1 1 0 0 1 2 2 2 1 1 0 0 0 1 1 1 1 2 1 1 1 0 0 0 1 2 1 1 1 1 0 0 0 1 1 1 0 1 0 1 1 1 1 2 1 0 0 1 1 1 1 1 1 1 0 0 1 2 1 1 0 0 1 1 0 1 0 0 1 1 1 1 -1 1 1 1 1 1 1 0 0 1 0 2 1 1 -1 0 0 2 1 1 1 1 0 1 0 0 1 2 1 1 0 0 0 2 1 1 0 1 1 1 0 1 0 1 0 2 0 1 0 0 0 1 0 1 1 1 0 0 0 1 0 2 0 1 0 2 0 2 0 2 -1 1 -1 2 -1 2 -1 2 -1 2 -2 3 -2 3 -3 4 -2 0 
0 4 -2 2 -1 2 -1 2 0 2 -1 2 0 1 0 1 1 2 0 0 -1 2 1 1 0 1 0 1 0 1 1 0 -1 1 0 1 1 1 0 1 0 1 0 1 1 1 1 1 0 1 -1 1 1 0 0 1 1 1 0 1 0 1 1 2 1 1 0 0 1 2 1 1 1 1 1 1 0 1 1 0 -1 0 0 0 1 1 1 1 1 1 1 2 1 1 1 0 0 1 1 1 1 1 0 0 0 0 0 1 0 1 0 1 1 0 0 1 1 2 1 1 1 1 1 1 1 1 0 0 0 1 0 1 0 0 0 1 1 1 1 0 1 1 1 1 1 2 1 1 0 1 1 1 0 1 1 1 1 1 1 1 1 1 1 1 1 1 1 2 2 2 1 1 1 2 1 1 1 2 1 1 1 1 1 2 1 1 1 1 0 1 1 1 1 0 0 0 0 1 1 1 1 1 1 1 1 1 1 1 1 1 1 2 2 1 1 2 2 2 1 0 0 1 1 2 1 2 2 2 1 1 1 2 1 1 0 1 1 2 2 2 2 2 1 1 0 0 1 1 1 1 1 2 2 2 2 2 3 2 2 2 2 1 2 2 1 1 1 1 1 2 2 1 1 1 2 2 2 2 1 1 1 1 2 2 2 2 2 2 3 3 2 1 0 1 1 1 1 2 1 1 1 2 3 2 2 2 2 2 1 3 3 3 2 2 1 1 1 2 2 3 2 1 1 1 1 1 1 2 2 3 2 2 1 1 1 1 2 2 2 2 1 2 2 2 1 1 1 1 1 1 0 0 1 2 2 2 2 2 1 2 2 2 1 2 2 2 1 1 2 2 2 2 2 1 1 2 2 2 1 1 1 2 2 2 2 1 1 1 1 1 1 2 2 2 2 2 1 1 2 2 2 2 2 2 2 1 1 2 2 2 2 2 1 1 1 1 1 2 2 1 0 1 1 1 1 1 1 2 2 2 1 1 1 1 1 1 1 1 0 0 1 1 1 1 1 1 1 1 0 1 1 1 1 1 1 1 1 1 1 2 1 1 1 1 1 1 1 2 1 1 1 2 1 1 0 0 1 1 1 1 1 1 1 2 1 1 1 1 1 0 0 1 1 1 1 0 0 1 1 1 1 1 1 1 1 0 0 0 1 1 1 1 0 0 1 1 1 2 2 2 1 0 0 1 1 1 0 1 0 0 1 1 1 1 1 1 0 1 1 2 1 1 1 1 1 1 1 1 1 1 0 1 1 0 0 0 0 0 0 1 1 1 1 1 1 1 1 1 0 0 0 1 1 1 0 1 1 1 1 2 1 1 1 1 0 1 0 1 1 1 0 0 1 2 1 1 0 1 0 1 1 0 0 2 0 0 0 0 0 1 -1 1 0 1 0 1 1 1 0 2 1 2 0 2 0 1 -1 2 0 3 0 2 -1 2 -2 1 -1 3 -3 2 
2 -3 4 -2 3 -2 3 0 1 0 1 0 2 0 0 0 1 1 1 0 1 1 0 0 1 1 0 0 1 0 1 0 0 0 0 0 1 0 1 1 1 1 1 0 0 -1 1 1 0 0 1 1 1 1 1 0 1 1 0 1 0 0 0 0 1 1 0 0 1 1 1 0 1 1 1 2 0 0 0 0 1 0 1 1 0 0 0 1 1 1 2 1 1 1 1 0 1 1 1 0 1 2 1 1 1 0 0 0 1 1 0 0 0 -1 1 1 0 1 1 1 1 1 2 1 0 0 0 1 1 1 1 0 1 0 1 1 1 0 0 1 1 0 0 1 1 1 1 0 0 0 1 1 1 1 1 1 2 2 1 1 1 0 1 1 2 2 2 2 1 1 1 1 1 0 0 1 1 1 1 1 2 1 1 1 2 2 2 1 1 1 1 1 1 1 1 1 1 1 2 2 1 0 1 1 1 1 1 1 1 1 1 1 1 2 2 2 2 1 1 1 1 1 1 1 1 2 2 2 2 2 2 2 1 1 1 2 1 1 2 2 2 2 1 1 1 0 0 1 1 2 2 2 2 2 2 1 2 2 2 1 2 2 2 2 1 1 1 1 1 0 1 1 2 2 2 1 1 2 2 1 1 1 1 1 2 2 2 1 1 2 2 2 2 2 1 1 1 2 2 2 2 2 1 1 2 3 3 2 1 1 1 1 1 2 2 2 2 1 1 1 1 2 3 3 3 2 2 2 2 1 2 2 2 2 1 1 2 2 3 3 2 1 2 2 2 2 2 1 1 1 1 2 2 3 4 3 3 2 2 2 2 2 1 1 1 2 2 2 2 2 2 2 2 1 1 2 2 2 1 1 2 1 2 2 1 1 1 1 1 1 1 1 2 2 2 2 3 2 2 1 2 2 2 2 1 1 1 1 1 2 2 2 2 2 3 2 2 2 3 2 1 1 2 2 2 2 2 2 1 1 1 1 1 2 2 1 1 1 1 1 1 2 2 2 1 1 1 1 1 2 2 1 1 1 1 1 1 1 1 1 1 1 1 0 1 1 1 1 1 1 1 2 2 1 1 1 1 1 1 1 1 0 1 1 1 1 1 1 1 1 0 0 0 1 1 1 1 1 2 1 0 0 0 1 2 1 1 1 0 0 1 1 1 1 2 1 0 0 1 1 1 2 2 1 1 1 0 1 1 0 1 1 1 1 1 1 1 1 1 0 0 1 1 1 1 0 0 0 1 1 2 1 1 0 1 1 1 1 0 0 0 1 2 1 2 1 0 0 1 1 1 1 0 1 1 0 0 0 1 2 2 0 0 0 0 1 1 0 0 1 1 0 1 1 1 1 1 1 1 0 2 0 0 1 0 -1 1 0 1 0 0 1 0 -1 0 1 2 1 1 1 1 1 1 0 1 0 0 0 2 -1 2 0 1 -1 3 -2 4 -3 4 -2 
1 0 2 0 2 -1 2 0 2 0 1 0 2 0 1 1 1 0 1 0 1 2 2 1 0 0 1 1 1 0 1 1 0 1 1 1 1 0 1 1 1 1 1 0 1 0 0 0 1 0 1 1 1 1 0 1 1 0 1 1 1 1 1 0 1 1 1 0 1 1 0 1 0 1 1 0 1 2 1 -1 1 1 1 0 2 2 0 1 1 1 1 1 1 0 1 1 1 0 1 1 1 1 0 0 0 1 1 0 0 1 1 0 1 1 1 0 0 1 1 0 1 1 1 0 1 1 1 0 1 2 1 0 1 1 1 1 1 1 2 1 1 1 1 1 1 1 1 0 0 1 1 1 1 1 2 1 2 2 2 1 1 0 1 1 2 1 1 2 2 1 1 1 2 1 0 0 1 1 1 1 1 1 1 1 1 1 1 1 0 0 1 1 1 1 1 1 1 1 1 1 1 1 1 1 1 0 1 1 1 1 1 2 3 2 1 1 1 1 0 0 0 1 2 2 2 2 2 2 1 1 2 2 2 1 1 1 1 1 1 1 1 2 1 0 0 0 1 1 1 1 2 2 3 3 2 1 2 2 2 2 1 1 2 2 1 1 1 1 2 2 2 2 1 1 2 2 2 1 1 1 2 2 2 2 2 3 3 3 2 2 2 2 2 2 2 2 1 1 1 2 3 3 3 2 1 1 2 2 2 2 2 2 2 2 1 1 1 2 3 2 2 1 2 2 1 1 1 2 2 1 1 1 1 2 2 2 3 2 2 1 0 1 2 2 1 1 2 2 1 1 1 1 1 2 2 2 1 1 2 2 2 1 1 1 2 2 2 2 1 1 1 1 1 1 0 1 2 2 2 1 1 1 2 2 2 2 2 1 1 1 1 1 1 1 1 1 2 1 1 1 1 1 1 1 2 1 1 1 2 2 2 2 2 1 1 2 2 2 2 2 1 0 0 0 0 0 0 0 1 1 1 0 1 1 1 2 2 1 1 1 1 1 1 1 1 1 2 1 1 0 1 1 1 1 1 1 1 0 0 1 1 1 1 2 2 2 2 2 1 1 1 1 1 0 1 1 1 1 1 1 1 1 1 2 1 1 1 2 2 2 1 1 2 2 1 0 1 1 1 2 1 1 0 1 1 0 1 2 1 2 1 0 0 1 2 1 1 1 1 0 0 0 1 1 1 1 1 0 0 1 2 1 1 1 0 0 0 1 1 0 1 1 0 1 1 1 1 1 0 0 1 1 1 0 1 1 -1 0 0 0 0 1 1 0 1 1 1 0 0 0 1 1 0 0 1 0 1 2 1 0 1 1 1 1 1 0 1 1 1 0 -1 0 1 1 1 2 1 0 1 1 1 0 0 1 1 0 0 0 1 0 0 0 0 0 1 1 1 0 1 0 0 0 1 0 2 1 0 0 2 1 2 0 0 0 1 -2 2 0 1 1 
0 3 -2 3 0 2 0 0 0 1 0 1 1 0 0 1 0 1 0 0 1 1 0 0 1 1 0 1 1 1 1 0 0 1 1 0 1 1 1 1 1 1 0 0 0 0 1 1 1 0 1 1 0 1 0 1 1 0 1 1 0 0 1 1 1 1 0 1 1 0 1 2 0 0 1 1 0 -1 0 1 1 0 0 1 0 0 1 1 0 0 1 0 0 1 1 1 1 2 1 1 1 1 1 1 1 0 0 0 0 1 1 0 0 0 1 1 1 0 0 1 1 0 0 2 1 -1 0 1 1 0 1 1 1 1 1 1 0 0 0 1 1 1 0 1 2 1 1 1 1 1 1 0 0 1 1 1 1 1 1 1 1 1 1 1 1 1 1 1 0 0 1 2 1 0 0 1 1 0 1 2 1 1 0 0 1 2 2 1 1 1 1 1 1 1 1 2 2 2 1 1 1 1 2 2 2 1 1 1 0 0 1 1 1 2 1 1 1 1 1 1 1 1 2 2 1 1 1 1 2 2 2 2 2 2 2 1 1 1 1 1 1 1 1 1 1 1 1 1 1 1 1 1 2 2 2 2 2 1 2 2 2 2 2 1 1 1 2 2 2 1 1 2 2 2 2 2 1 1 2 1 1 2 2 2 2 2 1 1 2 2 2 2 2 2 1 2 2 2 2 1 1 2 2 2 2 2 2 1 2 2 3 3 2 3 3 2 1 1 1 1 1 2 1 1 1 1 2 2 2 2 2 2 2 2 2 2 2 2 2 2 1 1 2 2 1 1 2 2 2 2 2 3 3 3 2 2 1 2 2 1 2 2 1 1 2 2 2 2 1 1 1 1 2 2 1 1 1 2 1 2 2 2 1 2 2 1 2 2 2 1 1 1 2 2 2 2 2 2 2 2 2 2 2 1 1 1 1 1 1 1 1 1 1 2 3 3 3 3 2 3 2 1 1 2 2 2 2 2 1 1 1 1 1 1 1 2 1 1 1 1 2 2 2 2 1 1 1 1 1 1 1 1 1 1 1 1 0 1 2 1 1 1 0 0 1 1 1 1 1 1 1 2 2 1 0 0 0 0 1 1 1 1 1 1 1 1 0 0 0 0 1 1 1 1 1 1 0 0 1 1 1 1 1 1 1 1 1 1 1 1 1 1 1 2 1 1 1 0 0 1 1 1 0 0 0 1 1 1 1 1 0 0 1 2 1 1 1 0 1 1 1 0 0 0 -1 0 1 0 1 1 1 1 1 1 1 1 1 0 0 1 1 1 0 1 0 1 1 1 2 1 1 1 0 0 1 0 1 1 1 0 0 0 0 2 2 1 1 0 0 1 1 1 0 1 1 1 1 0 0 0 1 1 1 1 0 0 0 1 1 1 1 1 1 0 0 0 1 1 1 1 0 1 0 0 0 1 0 1 1 1 1 1 0 0 0 2 -1 4 -3 3 
1 0 1 1 0 1 0 0 1 0 1 1 1 0 1 0 0 0 1 1 1 1 2 1 1 0 1 2 0 0 0 1 1 0 1 1 0 0 1 1 0 -1 1 1 0 1 1 0 1 1 1 1 1 1 0 0 0 0 1 1 2 1 0 0 0 1 0 0 1 1 1 0 1 2 1 0 1 0 0 1 1 1 1 1 0 1 1 0 1 1 0 0 0 0 0 0 1 1 1 1 1 1 1 1 1 1 0 0 1 1 1 1 1 2 1 0 1 1 0 0 1 1 1 1 1 1 0 0 1 2 2 0 0 1 1 0 1 1 1 0 0 1 1 1 1 1 1 1 1 1 1 0 0 1 1 1 1 1 2 2 1 0 0 1 1 1 1 1 1 1 1 1 1 1 0 1 1 0 1 1 1 1 1 1 1 1 1 2 2 1 1 1 0 0 0 1 2 2 1 1 0 1 2 1 1 1 2 2 2 1 1 2 2 1 1 1 2 1 1 1 1 1 2 2 2 1 1 1 1 2 2 1 1 2 2 2 2 1 1 2 2 2 2 1 1 1 1 1 1 1 1 2 2 2 1 2 2 1 2 2 2 1 1 1 1 2 2 2 2 2 1 2 2 1 1 1 1 2 3 2 2 1 1 1 3 3 3 2 1 1 2 3 3 3 2 2 2 2 3 3 2 2 2 1 2 2 2 2 2 2 2 1 2 3 3 2 2 2 2 1 1 2 2 1 1 1 2 2 1 1 2 2 2 1 2 3 3 2 2 1 1 1 1 2 2 2 2 2 2 2 1 1 1 1 1 1 1 1 1 1 2 3 2 1 1 1 2 2 1 1 1 2 1 1 1 2 2 2 2 1 1 1 2 2 2 2 2 3 2 2 2 1 2 1 1 1 1 1 1 2 2 1 1 2 2 1 1 0 1 1 1 1 1 1 1 1 0 1 2 2 1 1 1 1 1 1 1 0 1 1 1 2 2 2 1 1 1 2 2 1 1 1 1 1 1 1 1 1 1 1 1 1 1 1 2 2 1 1 1 0 2 2 2 2 2 2 2 2 2 2 1 0 0 1 2 1 1 1 1 0 0 0 1 1 1 1 2 2 1 1 1 1 1 0 0 1 2 2 1 1 1 1 1 1 0 0 1 1 2 1 0 1 1 1 1 1 1 1 0 0 1 1 2 1 1 0 0 -1 0 1 1 2 1 1 1 1 1 1 1 1 1 0 0 0 1 1 1 0 1 1 1 1 0 1 1 1 1 1 0 0 0 0 0 1 -1 0 1 1 2 2 1 0 0 0 1 1 1 0 0 0 0 0 0 0 1 1 2 1 0 0 0 1 1 0 0 0 1 1 1 1 1 1 0 0 1 1 0 1 1 1 1 0 1 1 1 1 0 0 0 0 1 0 1 1 0 0 2 1 1 0 1 0 0 -1 1 1 0 1 1 0 
1 0 1 0 1 0 0 0 1 0 1 0 0 1 1 0 2 0 0 0 0 1 1 0 1 0 0 1 1 1 0 -1 1 0 1 0 1 1 1 0 1 0 0 0 0 0 1 1 1 1 1 1 0 0 1 1 0 0 1 1 1 1 1 1 2 0 0 1 1 0 1 1 0 0 1 0 1 0 1 1 0 0 0 1 1 1 2 0 1 1 0 0 0 0 0 1 0 1 1 1 1 1 2 0 1 1 1 0 2 1 1 1 0 0 0 1 2 0 1 1 1 1 1 1 2 1 0 1 1 0 1 1 1 1 1 0 1 1 1 1 1 1 1 1 1 1 1 1 1 1 1 0 1 2 2 1 0 0 1 1 1 1 1 1 2 2 2 0 0 1 2 2 1 1 1 2 2 1 1 1 1 2 2 1 1 1 1 1 1 0 0 1 1 1 0 1 2 2 1 1 1 1 1 2 2 2 2 2 1 1 1 2 1 1 1 0 1 1 2 1 1 1 1 1 1 2 1 1 1 1 1 2 2 1 1 1 2 1 1 1 1 2 2 1 1 1 2 1 1 0 1 2 2 2 2 2 2 2 2 2 1 1 2 2 1 1 1 1 1 2 2 1 1 2 2 2 3 2 1 1 1 2 2 1 1 1 2 2 3 3 3 1 1 2 2 3 3 3 3 2 1 2 2 2 1 1 1 1 2 2 2 2 2 2 2 2 1 2 3 2 2 2 2 1 1 1 2 2 2 1 2 3 1 1 2 2 2 3 2 2 2 1 2 2 1 1 2 2 2 2 1 1 1 1 1 1 1 1 2 1 1 1 1 2 2 2 2 2 1 2 2 1 1 1 1 1 2 1 0 0 1 1 0 0 1 2 2 2 2 2 2 1 2 2 2 2 2 2 2 2 3 2 2 2 2 2 2 1 1 1 1 1 1 1 1 2 2 2 2 2 2 1 2 1 1 0 1 2 2 1 1 1 1 1 1 1 1 1 1 1 1 1 1 1 1 1 2 1 1 1 1 0 1 1 1 1 1 2 2 1 1 1 1 1 0 1 1 1 1 1 1 1 2 1 1 1 1 1 1 1 2 2 2 2 1 1 1 1 0 0 1 1 1 0 1 1 1 1 1 2 2 1 2 1 1 1 1 0 1 1 1 1 1 0 0 0 1 1 1 1 1 1 0 0 0 0 1 1 1 0 0 1 1 1 2 1 0 1 1 1 1 1 1 -1 0 0 1 1 1 0 1 1 1 2 1 1 1 1 2 1 1 0 0 0 0 1 1 1 1 1 1 1 1 0 1 1 2 2 1 0 0 1 2 1 1 1 1 1 1 1 1 0 0 1 1 0 1 -1 0 1 1 1 1 0 1 1 0 0 1 1 1 0 1 0 1 0 0 0 1 0 2 1 0 0 0 0 2 1 2 1 0 0 1 0 1 0 2 0 2 1 
0 3 -2 1 0 1 1 1 1 0 1 1 1 1 1 0 1 0 1 1 1 0 0 0 1 0 1 1 0 0 0 0 1 0 0 0 1 1 1 1 1 0 1 1 0 1 1 0 1 1 1 0 0 1 1 1 0 0 0 1 2 1 1 0 1 1 1 0 0 0 0 0 0 0 1 1 1 1 0 0 0 1 1 1 0 0 1 1 1 0 0 0 1 0 0 0 1 1 0 1 1 0 0 1 2 1 1 1 1 1 1 1 0 0 1 1 0 0 1 0 1 1 1 1 2 1 0 1 1 1 1 1 1 1 1 1 2 1 1 0 0 0 0 0 1 2 2 1 0 0 0 1 1 1 1 1 1 0 0 0 1 1 1 1 1 2 2 2 1 1 1 1 1 1 1 2 2 1 1 1 1 1 1 1 1 1 1 1 1 1 1 1 0 1 1 1 1 1 1 1 1 1 1 0 1 2 2 2 2 2 1 1 1 1 2 1 1 1 2 2 2 2 1 1 2 1 0 1 2 2 1 1 1 2 2 1 1 1 1 1 1 2 2 1 1 1 1 0 1 2 2 2 1 1 2 2 1 1 2 3 3 2 1 1 1 1 2 3 2 1 1 2 3 2 1 1 1 2 3 2 1 1 0 1 3 3 2 2 1 2 3 3 3 3 1 1 2 2 3 3 2 1 1 1 2 2 2 2 2 1 1 0 1 2 2 2 2 2 2 1 3 3 3 2 2 2 2 1 1 1 2 2 1 2 2 2 1 1 1 2 2 2 3 3 3 2 3 2 1 1 1 1 2 2 1 1 2 2 2 1 2 2 1 1 1 1 2 2 2 2 2 1 2 2 2 2 2 1 2 2 2 1 2 2 2 3 2 2 2 2 2 2 2 2 2 1 1 1 1 1 2 2 1 1 1 2 2 2 2 1 1 2 2 1 1 1 1 1 2 1 1 1 1 1 2 2 2 1 1 0 0 1 1 1 1 1 1 1 1 1 1 1 2 2 2 1 2 1 1 0 0 1 1 1 1 1 1 1 1 1 1 1 2 2 2 1 1 1 1 1 1 1 1 1 1 1 1 1 1 1 1 1 1 1 1 2 2 1 1 1 1 1 1 0 0 1 2 1 0 0 1 1 2 1 1 1 1 2 2 1 0 0 1 1 1 0 -1 0 1 1 1 2 1 1 1 1 0 0 1 1 0 1 1 0 1 1 1 1 0 0 0 1 2 2 1 0 1 1 1 2 2 1 0 1 1 2 2 2 1 0 1 1 1 0 0 -1 0 1 1 1 0 0 1 1 2 1 0 0 1 2 2 0 1 0 1 1 1 1 0 0 2 1 1 1 1 0 2 0 0 1 1 1 1 0 -1 0 1 2 1 0 1 0 1 0 0 1 0 0 1 0 1 1 1 1 0 1 2 1 1 0 0 1 1 0 0 1 0 2 -1 2 
1 -3 5 -1 0 -1 1 0 2 1 1 -1 1 0 1 1 2 0 0 0 1 1 1 0 0 0 1 1 1 0 0 0 -1 0 1 1 0 0 1 1 1 0 1 1 1 1 1 1 1 1 0 0 1 1 1 1 1 0 0 0 0 1 1 1 1 1 1 0 1 1 0 0 1 0 1 1 0 2 1 0 0 0 0 0 1 0 0 1 1 1 1 1 1 0 0 1 1 0 1 1 0 1 2 1 0 1 1 0 1 2 0 0 1 1 1 1 1 1 1 1 1 1 1 1 1 1 1 1 1 1 1 1 2 1 1 1 1 1 1 1 1 1 1 1 1 1 1 0 0 1 1 1 1 2 1 0 0 1 0 0 1 1 1 2 2 1 1 1 1 1 1 1 1 1 1 1 1 1 1 1 1 1 1 1 1 2 1 1 1 1 1 1 2 2 1 1 1 1 2 1 1 2 2 1 1 1 2 1 1 0 1 2 2 2 2 2 2 2 1 2 3 3 2 1 2 2 2 2 1 2 3 2 1 1 1 2 3 2 1 2 2 2 2 0 0 1 2 1 1 0 1 2 2 1 1 1 1 2 2 1 1 1 2 2 1 1 1 1 2 3 2 1 1 2 3 3 2 2 1 1 2 3 2 1 1 1 2 2 3 2 2 2 1 2 3 3 2 2 2 2 2 3 3 2 1 2 2 2 2 2 2 2 2 1 1 1 2 2 2 2 2 2 2 2 2 2 2 3 2 2 2 2 2 2 2 1 1 1 1 2 2 2 2 2 2 1 1 1 1 2 2 2 3 1 1 2 2 2 2 2 1 1 1 1 1 2 2 1 1 1 2 2 2 2 2 2 2 2 2 1 1 2 2 2 2 2 1 2 2 2 2 1 1 1 2 2 2 2 1 1 1 1 2 2 1 2 2 2 1 0 1 1 1 1 1 2 1 1 2 2 2 2 2 2 1 1 1 2 2 2 1 1 0 0 1 1 1 1 1 1 1 1 1 1 1 1 1 0 0 1 1 1 0 1 2 1 2 2 1 0 0 1 2 1 0 0 1 1 1 0 1 1 1 1 1 1 0 1 1 1 1 1 2 1 1 1 1 1 1 1 1 1 1 0 0 1 0 0 1 1 1 1 2 2 1 1 0 1 1 1 2 1 1 0 1 1 0 1 1 1 1 1 1 1 2 1 1 1 1 1 2 1 1 1 0 -1 0 1 1 0 2 1 0 1 1 0 0 1 1 0 0 1 2 1 0 0 0 1 2 1 0 0 0 0 1 1 0 0 0 1 1 1 0 0 0 1 1 1 1 0 1 2 2 1 0 0 0 1 1 0 0 0 1 2 2 0 0 0 1 1 1 0 0 0 1 0 0 0 1 1 1 0 1 0 1 0 0 0 1 1 1 0 0 1 2 0 1 0 1 1 1 0 2 0 1 1 2 -3 6 -1 
0 2 0 -2 1 0 1 0 0 2 1 0 1 1 0 1 0 1 1 1 1 1 1 1 1 1 1 0 1 0 0 0 0 0 0 0 1 1 1 1 1 1 1 0 1 2 1 1 0 1 1 1 1 1 1 1 1 0 0 1 1 2 1 1 1 1 1 1 1 1 1 1 1 0 1 1 1 2 1 1 1 0 0 0 0 0 1 2 0 -1 0 1 0 1 1 1 2 0 0 2 0 0 0 1 1 1 1 1 0 1 1 1 1 1 1 1 0 0 0 1 2 1 1 2 2 1 1 1 0 0 0 1 1 1 1 2 1 0 0 1 1 0 0 1 1 1 1 1 1 1 1 1 1 1 1 1 1 1 0 0 1 2 1 0 1 1 2 2 1 1 1 1 2 2 2 1 0 1 1 1 0 0 1 1 1 2 2 1 1 1 2 1 0 1 1 1 1 1 1 2 2 2 1 1 1 1 1 1 2 2 1 1 1 2 2 1 1 2 2 2 2 2 2 2 2 2 1 1 2 1 1 1 1 2 2 1 2 2 2 2 2 1 1 1 2 1 1 1 1 0 1 1 1 2 2 1 1 1 1 3 3 3 1 0 1 2 2 2 1 2 2 2 2 2 1 1 1 2 2 2 1 1 2 2 3 3 2 2 1 2 3 3 3 3 2 2 1 2 3 3 3 2 2 3 2 2 2 3 2 2 2 2 1 2 2 2 2 1 1 2 2 2 3 2 2 2 2 2 2 2 2 2 2 2 2 2 2 1 1 2 2 3 3 2 2 3 2 2 1 2 2 3 3 2 1 2 2 2 2 1 1 2 1 1 2 1 1 1 1 1 2 1 1 1 2 2 1 1 2 2 2 2 2 2 2 2 1 1 1 1 1 1 1 1 1 1 1 1 1 1 1 1 1 1 1 2 1 1 1 1 1 1 1 1 1 1 1 1 1 1 1 1 2 1 1 1 1 1 1 1 1 1 1 2 2 2 1 1 1 2 2 2 2 1 0 0 1 1 0 0 1 1 1 1 1 0 1 2 1 0 0 1 1 2 2 1 1 1 1 1 2 2 1 1 2 2 1 1 2 2 1 1 0 1 1 1 1 1 1 1 1 1 1 1 0 1 1 1 1 0 0 0 1 1 1 0 1 2 1 0 0 0 1 2 1 1 1 0 0 1 1 1 1 1 1 0 0 1 1 1 1 0 1 1 0 0 1 1 0 0 1 1 1 1 0 1 1 1 1 2 1 0 1 0 1 1 1 0 0 1 1 1 1 0 0 1 1 1 1 0 0 1 1 1 1 1 0 1 2 1 1 1 0 1 1 1 1 0 0 0 2 1 1 1 1 1 1 1 1 0 0 1 1 0 0 1 1 0 0 0 1 1 1 1 0 0 1 0 0 1 0 1 0 0 1 1 1 1 0 0 1 0 0 1 0 0 2 1 -1 1 
0 1 -1 2 0 0 0 2 -1 1 0 2 0 1 0 2 1 2 0 0 0 1 0 1 0 1 1 1 1 1 0 1 0 0 0 1 0 1 1 1 0 1 0 1 1 1 1 1 0 1 0 0 0 2 1 1 1 1 0 -1 0 1 1 1 1 1 0 0 1 1 0 1 1 1 1 0 0 1 1 1 1 1 0 -1 0 1 1 0 0 1 1 0 0 2 1 0 1 1 0 1 1 2 1 2 2 1 0 1 1 1 0 0 1 1 1 0 -1 0 1 1 1 2 1 1 1 1 1 1 1 2 1 0 0 1 1 1 0 1 1 1 0 1 1 1 1 1 1 1 0 0 0 0 0 1 1 1 1 1 1 1 1 1 1 1 1 0 1 1 1 1 1 1 1 1 1 1 1 1 1 1 1 1 0 1 1 2 1 1 2 2 1 1 1 1 1 1 2 2 1 1 1 1 2 2 1 1 2 1 1 1 1 1 1 1 1 1 2 2 1 1 2 2 1 1 2 2 1 1 1 2 1 2 2 1 1 1 2 2 2 2 2 2 1 1 1 2 2 2 1 1 1 1 1 1 1 1 1 2 2 1 1 2 2 2 1 1 2 2 2 2 2 2 1 2 2 2 2 2 2 1 2 2 2 2 2 2 2 2 1 1 2 2 2 3 3 3 2 1 1 3 3 3 3 2 2 2 2 2 2 3 3 3 2 2 2 2 2 2 1 1 1 2 3 2 2 2 2 2 3 2 2 2 2 2 2 2 2 2 3 2 2 2 2 2 2 2 1 2 2 3 3 3 2 1 1 1 2 3 3 2 2 2 2 2 2 2 1 1 1 2 2 2 2 1 0 1 1 1 1 1 1 1 1 1 1 1 1 1 1 2 2 2 1 2 1 1 1 1 1 2 1 2 2 2 1 2 2 2 1 1 2 2 1 1 1 1 2 2 2 1 1 1 2 1 1 1 2 2 1 2 2 2 1 1 1 2 1 1 1 1 1 1 0 0 0 1 1 1 2 1 1 1 1 1 2 2 1 1 0 1 1 1 1 1 1 1 1 1 1 1 0 0 0 1 1 1 1 1 1 2 1 1 1 1 1 1 1 1 1 1 1 1 1 1 1 1 0 0 1 1 1 1 2 2 1 1 1 1 1 2 1 1 1 1 1 1 1 1 1 1 1 1 0 0 1 2 1 1 1 1 1 1 1 1 0 0 1 1 1 1 0 0 1 2 0 0 1 1 0 1 1 1 1 1 1 0 0 2 1 1 1 1 1 1 1 1 0 0 0 1 1 0 0 1 1 1 1 1 0 0 0 1 1 1 0 0 0 1 1 1 1 1 1 1 0 0 -1 0 0 1 0 1 1 1 0 1 0 0 1 1 0 2 1 1 0 1 0 0 0 1 0 1 -1 1 1 1 0 1 0 1 0 1 0 1 0 2 -1 2 0 1 
0 2 1 0 0 1 1 0 1 1 1 1 0 0 0 1 1 1 0 0 1 1 0 0 0 0 1 0 2 1 0 1 1 1 1 0 1 1 0 0 1 1 0 0 1 1 0 0 0 1 1 1 1 0 1 1 1 0 1 1 1 1 1 1 0 0 0 1 1 1 0 0 0 0 1 1 1 0 1 1 1 0 1 1 -1 0 1 2 1 0 1 2 1 0 1 1 1 1 2 1 0 0 1 1 1 2 1 1 1 1 0 0 1 1 0 1 2 0 0 2 2 0 1 2 1 0 1 1 1 0 1 1 0 0 1 2 1 0 1 1 1 1 1 2 1 1 1 1 1 0 0 1 1 0 0 1 1 0 1 1 1 1 1 1 1 1 1 1 1 1 1 0 1 2 2 2 1 1 2 1 0 1 2 1 1 1 1 1 1 1 1 1 0 0 0 1 2 2 2 0 1 1 1 1 1 1 2 1 1 1 1 1 1 1 1 1 2 1 1 1 1 2 2 1 2 2 2 1 1 2 1 1 1 1 1 2 2 2 2 1 1 1 2 2 2 2 2 2 2 2 2 2 2 2 2 1 1 2 2 2 2 3 3 2 2 3 3 2 1 2 2 2 1 2 2 2 3 3 2 1 1 2 2 2 2 2 2 2 1 1 2 2 2 2 2 2 2 2 2 2 2 3 3 2 2 2 2 2 2 1 2 2 2 2 2 2 2 2 1 1 1 2 3 3 2 2 2 2 2 2 2 2 3 2 2 2 2 2 2 1 2 2 2 2 2 3 3 2 2 2 2 2 2 1 1 2 2 2 1 1 1 1 1 2 2 2 1 1 1 2 2 2 1 1 1 1 1 2 1 1 1 1 1 1 1 1 2 1 1 2 2 2 2 2 2 1 1 1 1 1 1 1 1 1 2 2 1 1 1 1 1 1 1 1 1 1 1 1 1 1 1 1 1 1 1 1 1 2 1 1 1 1 1 1 1 1 1 1 1 2 1 1 2 1 1 1 1 1 1 2 1 1 1 1 1 1 0 1 1 0 1 1 2 2 2 1 1 1 1 1 1 1 1 1 1 2 1 1 1 1 1 1 1 1 1 1 1 1 1 1 1 1 1 1 1 1 1 1 1 1 1 1 1 1 1 1 1 2 1 1 0 0 1 1 1 2 2 1 0 1 1 0 1 1 1 0 1 1 0 0 1 1 1 0 1 1 1 2 0 0 0 1 1 1 1 1 0 0 2 1 0 0 1 1 0 0 1 1 1 1 1 1 1 2 1 1 0 0 1 1 1 1 1 1 1 1 1 1 1 0 1 2 1 1 0 1 1 1 0 0 1 1 0 0 1 1 0 0 1 0 0 1 1 1 1 1 1 0 1 1 0 1 0 1 1 0 1 0 0 0 1 1 1 0 0 0 1 1 1 0 1 1 1 0 0 1 1 1 -1 1 
2 -4 4 -2 2 0 1 -2 2 -1 1 0 1 0 1 0 1 0 1 0 1 0 2 1 0 -1 1 1 2 1 1 1 2 0 1 0 1 0 1 1 1 1 1 0 1 0 1 1 1 0 1 0 1 1 1 1 1 1 1 0 1 1 1 1 1 1 1 0 0 1 1 1 1 1 1 0 1 1 1 0 0 0 0 0 0 1 0 -1 1 1 1 1 1 1 1 1 1 0 0 0 2 0 1 2 1 0 1 2 1 0 2 0 -1 1 2 1 1 2 1 1 1 1 1 0 1 2 0 -1 0 0 0 0 1 1 1 1 1 1 1 1 1 1 1 1 1 1 2 1 1 0 1 1 1 0 0 0 0 1 1 2 2 1 2 1 1 1 1 1 1 1 1 1 1 2 1 1 1 1 1 1 2 1 1 1 2 1 1 1 1 1 1 1 1 1 1 2 2 2 1 0 0 1 1 2 1 1 1 1 1 1 2 1 1 1 1 1 1 2 2 1 1 0 1 1 2 2 2 1 2 2 1 1 2 2 1 1 2 2 2 1 1 1 2 2 2 2 2 1 2 2 2 1 1 2 1 1 1 2 3 2 1 1 2 2 2 2 2 2 1 2 2 1 1 2 2 3 3 3 2 2 2 2 2 2 2 2 2 2 2 2 1 1 1 1 2 2 2 1 2 2 3 2 2 2 2 2 2 2 2 3 3 3 3 2 2 2 2 2 2 1 1 2 2 2 2 2 2 2 2 2 2 3 2 2 2 2 3 3 3 2 2 1 2 1 2 2 2 2 2 3 4 3 2 2 2 2 2 2 3 3 2 2 2 3 2 2 2 1 1 2 2 2 2 1 1 1 2 1 1 2 2 1 1 1 2 3 2 1 2 2 2 2 2 2 2 1 1 1 2 1 1 1 1 1 1 1 1 1 2 1 1 1 1 2 2 2 2 2 2 1 1 2 2 2 2 1 2 1 0 0 1 1 2 1 0 1 1 1 1 1 1 1 1 1 1 1 2 2 2 1 1 1 1 1 1 1 1 1 0 0 1 1 1 2 1 1 2 1 1 1 1 1 1 1 2 1 1 1 1 1 1 1 1 0 1 1 1 1 1 1 2 2 1 0 2 1 0 0 1 1 2 1 1 1 1 1 1 1 1 0 1 1 0 0 1 1 1 2 1 0 0 1 1 0 1 1 1 0 2 2 0 1 2 0 0 0 1 1 0 1 0 0 1 1 1 0 0 0 1 1 1 1 0 0 0 0 1 1 1 0 0 1 2 1 1 1 1 0 0 1 1 0 1 0 1 1 2 1 1 0 1 1 1 0 1 0 0 0 1 1 1 0 1 1 0 1 1 0 1 0 1 0 0 1 1 1 1 0 1 1 1 1 1 1 1 0 1 1 0 0 2 1 1 0 0 0 1 -1 1 -1 1 0 2 -1 2 -1 2 -4 5 -1 
-1 2 0 2 0 0 0 0 1 0 1 1 1 0 1 0 1 1 0 1 1 1 1 0 0 0 0 0 1 1 1 1 1 1 0 0 1 0 0 0 0 1 1 0 1 1 1 1 1 1 1 1 1 1 0 0 0 0 1 1 1 0 0 1 1 1 1 2 1 0 1 0 1 0 0 1 1 0 1 1 1 1 1 1 0 0 0 0 0 0 0 1 1 0 1 1 0 0 2 1 0 1 2 1 0 1 0 0 2 1 0 1 2 1 0 2 2 1 2 2 0 0 2 1 1 1 1 1 1 0 0 1 1 0 1 2 2 1 1 0 0 1 1 1 1 1 2 2 2 1 2 2 1 0 0 1 1 1 1 0 1 1 1 1 1 1 1 1 1 1 1 1 1 2 2 1 1 1 1 1 1 1 1 1 1 1 1 1 1 1 1 1 1 1 1 1 1 1 1 1 1 1 1 1 2 1 2 2 1 1 2 1 1 1 1 1 1 1 1 1 1 2 2 1 1 2 2 1 1 1 2 2 1 1 2 3 2 1 1 2 2 1 1 2 2 2 1 1 2 2 2 2 2 1 2 2 2 2 2 2 2 2 1 1 2 2 3 2 2 2 1 1 1 2 2 2 2 2 2 1 1 2 2 3 3 2 2 2 1 1 2 2 2 2 2 2 2 2 2 2 2 2 2 2 2 2 2 2 2 2 2 2 1 1 2 2 2 2 2 1 1 2 3 3 3 3 2 2 2 2 3 3 3 3 3 2 2 2 2 2 2 3 2 2 2 3 2 2 2 2 2 2 2 2 2 2 3 3 2 2 2 2 2 2 2 3 2 2 2 2 2 2 2 2 2 2 2 2 2 2 2 2 1 2 2 2 2 2 2 2 2 2 2 1 1 1 1 1 1 2 2 2 2 2 2 1 2 2 2 2 1 0 1 2 2 1 1 1 1 1 1 1 1 1 2 2 1 1 0 0 1 1 2 1 1 1 1 1 2 2 1 1 1 1 1 1 1 1 1 1 1 1 1 1 1 0 1 1 0 1 1 1 1 2 2 1 1 1 2 2 1 1 1 1 2 1 1 1 1 0 0 1 2 1 0 1 1 0 1 1 1 1 1 1 2 2 1 1 1 1 2 2 2 2 2 1 1 1 1 0 0 0 0 1 2 1 1 2 0 0 2 1 0 1 2 0 0 0 0 0 1 2 0 1 1 0 1 2 1 0 1 1 0 0 1 1 0 1 1 1 1 1 0 0 0 0 0 1 1 0 0 1 1 1 1 0 1 1 1 1 0 -1 0 0 0 1 1 0 0 0 1 1 1 0 1 0 1 1 0 1 1 1 0 0 0 1 1 1 1 0 1 0 0 1 0 0 0 0 1 1 1 1 1 1 1 0 0 1 1 1 2 1 1 0 0 0 1 0 1 0 0 1 1 0 1 0 0 1 0 1 
-1 4 -3 3 0 1 -1 2 0 1 0 2 1 1 0 1 0 2 0 1 0 1 0 1 0 0 0 1 1 1 0 1 1 1 0 0 0 1 0 1 0 0 0 1 1 1 1 1 1 1 1 1 0 1 1 1 0 1 0 0 1 1 1 0 0 0 1 1 0 1 1 0 1 1 0 1 0 1 1 0 0 1 1 0 1 1 0 1 0 0 0 1 1 1 0 1 1 0 0 1 1 1 1 1 0 0 1 0 0 0 1 1 1 1 1 1 1 1 1 1 1 1 0 1 1 1 0 0 0 1 1 2 1 1 1 1 2 1 1 1 1 0 1 1 1 1 1 1 1 1 2 2 1 0 0 1 1 1 1 2 1 1 1 1 1 1 1 1 1 1 1 1 1 1 1 1 0 1 1 1 1 1 1 1 1 2 1 1 1 1 1 1 2 2 1 2 1 1 1 1 1 1 1 2 2 2 2 2 1 1 1 1 2 3 2 2 2 2 2 2 1 1 1 1 1 1 1 2 2 1 1 1 2 2 1 1 1 1 1 1 1 1 2 2 1 1 1 2 2 1 2 2 2 2 2 2 1 2 2 2 1 1 1 2 2 3 3 2 2 2 2 1 1 2 2 2 2 2 2 2 2 2 3 3 2 2 2 2 2 2 2 2 2 2 2 2 3 3 2 2 2 2 2 2 2 2 2 3 3 3 3 2 2 2 2 3 3 3 3 2 2 2 2 3 3 3 2 2 2 2 2 2 2 2 2 2 2 3 3 2 1 2 2 2 2 2 2 2 2 3 3 3 1 2 2 2 2 3 2 2 2 3 2 2 3 2 2 2 2 2 2 3 3 3 2 2 3 3 2 2 2 1 1 1 1 2 2 2 2 2 2 2 1 2 2 2 2 2 1 1 2 2 2 2 1 2 2 2 2 2 2 1 1 2 2 2 2 2 1 1 1 1 2 2 2 1 1 1 0 1 1 2 2 1 0 1 1 1 2 1 1 1 1 1 1 1 1 2 1 1 2 2 1 1 0 0 1 2 1 1 1 2 1 1 1 1 1 2 2 1 0 0 1 2 2 1 1 1 1 1 1 1 1 1 1 1 0 0 1 1 1 1 0 0 1 1 1 1 1 2 1 2 2 2 1 1 0 0 1 1 0 0 1 1 1 1 1 1 1 2 1 1 1 1 0 1 1 1 1 1 1 0 0 1 0 0 0 1 1 1 1 0 0 1 1 1 1 1 1 1 1 1 1 1 1 1 0 1 1 1 1 2 0 0 1 0 1 1 0 1 1 0 0 0 0 1 1 1 1 1 0 0 0 1 2 1 1 0 0 1 0 0 0 0 0 1 1 1 1 1 0 1 0 1 0 1 0 0 1 1 1 1 1 1 0 1 0 1 0 1 1 1 0 1 0 1 -1 1 1 1 0 2 -1 2 0 1 -1 4 -4 3 
2 -5 5 -2 0 0 1 0 1 0 1 1 2 1 0 0 0 1 1 0 0 1 1 0 1 1 0 0 0 1 1 0 1 1 0 0 0 1 1 0 1 1 1 0 1 1 1 1 1 1 1 1 0 1 0 0 1 1 1 1 1 0 0 0 0 0 1 0 0 0 1 0 1 1 0 1 1 1 1 1 0 1 1 0 1 1 1 2 1 0 1 1 1 2 1 0 1 1 0 0 1 2 0 1 2 -1 0 1 1 -1 1 1 0 1 1 0 1 2 1 0 2 1 -1 0 1 1 1 1 0 0 1 0 0 1 1 0 2 2 1 -1 0 1 1 2 1 1 2 1 1 1 1 0 1 1 1 1 1 1 1 1 1 1 1 1 1 1 1 1 1 1 1 1 1 1 1 1 1 1 1 0 1 0 0 1 1 1 1 1 1 1 1 1 2 2 2 2 1 1 1 1 1 2 2 1 2 2 2 2 2 1 2 1 1 2 2 2 2 2 2 1 1 1 1 1 1 1 1 1 2 2 1 1 1 1 1 2 2 1 1 2 2 1 1 2 2 1 1 1 2 2 2 2 2 2 1 1 1 1 1 2 2 2 2 2 2 3 4 3 2 2 2 2 2 2 2 1 1 2 3 3 2 1 1 2 3 3 2 1 2 2 2 2 2 2 3 3 2 3 3 2 2 2 2 2 2 2 3 3 3 3 3 2 2 2 2 3 3 3 3 2 2 2 2 3 3 2 2 2 2 2 2 2 2 2 2 2 2 2 2 2 2 2 3 2 2 2 2 2 2 2 2 2 2 2 2 2 2 2 2 2 2 2 1 2 2 2 1 1 2 2 1 1 2 2 2 2 2 2 1 1 1 1 1 1 2 2 2 2 2 2 2 2 2 2 2 2 1 2 2 1 1 2 2 2 2 2 2 2 2 2 2 2 1 2 2 2 1 1 1 2 2 1 1 1 1 1 1 1 1 2 1 1 2 1 1 1 1 1 1 0 1 1 1 1 0 0 1 2 1 0 1 2 1 1 1 1 1 0 1 1 1 1 1 1 1 2 1 1 2 1 1 0 1 1 2 2 1 1 0 0 1 1 1 1 1 0 0 1 1 1 2 1 1 1 1 1 1 1 1 1 0 0 1 1 1 2 1 0 1 1 1 1 1 1 1 1 1 0 1 1 1 1 1 0 0 2 1 0 1 2 1 1 2 1 0 2 1 0 1 1 1 1 1 0 0 1 2 0 1 1 1 1 1 0 1 2 1 1 1 1 1 1 1 0 1 0 1 2 1 1 1 0 0 1 1 1 1 0 1 1 1 0 1 1 0 1 1 1 1 0 0 1 1 -1 0 1 1 1 1 1 0 0 1 1 1 0 0 1 1 1 1 0 1 0 0 0 0 0 1 1 1 0 1 0 1 1 0 1 1 1 1 1 1 0 1 0 2 -3 6 -1 
1 0 2 0 1 0 1 0 1 -1 1 1 1 0 0 0 1 -1 1 0 0 0 1 1 1 0 0 1 0 0 1 0 1 0 0 1 1 0 1 0 1 0 1 0 1 1 1 1 1 1 0 1 0 0 1 0 2 1 0 1 1 1 1 1 1 0 0 0 0 1 1 0 1 1 1 1 1 0 1 1 0 0 1 0 0 1 2 1 1 1 1 1 0 1 1 1 1 0 0 1 1 1 0 1 1 0 1 1 0 0 0 1 1 1 1 1 1 0 1 1 1 1 1 1 0 0 1 0 0 1 1 1 1 1 1 1 1 1 1 1 1 0 1 1 2 1 1 1 1 1 1 1 1 1 1 1 2 1 0 0 1 2 1 1 1 1 1 0 1 1 1 1 1 1 1 1 2 2 1 0 1 1 0 1 1 1 2 1 1 1 0 1 2 1 2 2 1 1 1 1 1 1 2 2 2 1 1 2 1 1 1 2 2 2 2 2 2 2 2 1 1 1 1 1 1 2 2 2 2 2 1 1 0 1 2 1 1 1 2 2 2 2 2 2 2 1 1 1 1 2 2 2 2 2 2 1 1 2 2 3 2 1 1 1 2 2 2 2 2 2 2 1 1 2 2 2 2 2 3 3 2 2 2 2 2 2 2 2 3 3 3 2 2 1 2 2 2 3 3 2 2 2 2 2 2 2 2 2 3 3 3 2 2 2 3 3 3 3 3 3 3 2 2 2 2 3 3 3 2 2 2 2 2 2 2 1 2 3 3 2 1 2 2 2 3 3 3 2 2 2 3 2 2 2 2 2 3 3 2 2 2 2 2 1 1 1 1 1 1 1 2 2 2 2 2 2 2 1 2 2 2 1 1 1 2 2 2 2 2 1 2 2 2 2 2 2 2 2 2 1 1 1 1 1 1 2 1 1 1 2 1 1 2 2 1 1 1 2 2 2 2 2 2 2 1 1 1 2 3 2 2 1 1 0 1 1 1 0 1 1 1 1 1 1 1 1 1 1 1 1 2 1 1 1 1 1 1 1 1 1 1 1 1 0 0 1 1 1 1 1 1 0 1 2 2 1 1 1 2 2 1 1 1 1 1 1 1 0 1 1 1 1 1 1 1 1 1 1 1 1 1 1 1 1 1 1 1 1 2 1 1 0 1 1 1 0 1 1 2 1 1 1 1 1 1 1 1 2 1 1 2 1 1 1 0 1 1 0 1 1 1 0 0 0 0 1 1 0 0 0 0 1 1 2 1 1 1 1 1 1 1 0 0 0 1 1 1 1 1 1 1 1 1 1 1 1 1 0 0 0 0 0 1 1 1 1 1 0 1 0 1 1 0 0 2 1 1 1 1 1 1 1 1 0 1 0 1 1 0 1 1 0 1 0 0 1 2 1 1 0 0 0 0 0 1 0 1 1 1 0 1 0 1 0 1 0 2 0 2 1 
-1 4 -2 2 0 2 0 1 0 1 1 1 0 2 0 0 0 0 0 0 1 1 0 1 1 1 1 1 0 2 2 0 1 1 0 2 1 0 1 0 0 1 2 1 1 1 0 0 1 2 1 1 0 0 1 1 1 1 1 1 1 1 1 1 0 0 0 0 1 1 1 1 1 1 1 1 1 1 1 1 1 0 0 1 1 1 1 1 2 1 0 1 1 1 1 1 1 0 0 0 0 0 1 1 0 0 2 1 0 1 0 0 2 1 0 2 2 0 1 2 1 0 1 1 1 2 2 0 1 1 0 1 2 1 1 1 1 1 2 1 0 1 1 1 1 0 0 1 1 1 0 1 1 1 2 2 1 1 1 1 1 2 1 1 1 1 1 1 1 2 2 1 1 1 1 1 2 2 1 1 1 1 1 1 1 1 1 1 1 2 1 1 2 1 1 2 2 2 1 1 1 2 2 2 2 2 1 1 2 1 1 2 1 2 2 2 2 2 2 2 2 1 1 2 2 2 2 2 2 1 1 1 1 1 2 2 1 1 2 2 1 2 2 2 2 1 1 2 2 2 2 2 2 1 2 2 2 2 2 2 2 2 2 2 2 2 2 2 2 2 2 3 2 2 2 1 2 2 3 3 2 1 1 2 2 3 3 3 3 3 3 3 2 2 2 3 3 3 3 3 3 3 3 2 2 2 3 2 2 3 3 3 3 2 2 3 3 3 3 3 3 2 2 2 2 2 3 3 2 2 2 2 2 2 2 2 2 3 2 2 2 2 2 3 3 2 2 3 3 2 2 2 2 2 1 1 1 1 2 2 2 2 1 1 2 2 2 2 2 1 1 1 2 1 1 2 2 1 1 1 2 2 2 1 2 2 1 1 1 1 2 2 2 2 2 2 2 2 2 2 2 2 2 2 1 1 2 1 1 2 2 2 2 1 0 0 0 1 1 1 2 1 1 1 1 1 1 2 2 1 1 1 1 1 1 1 1 1 1 1 1 2 1 1 1 1 1 1 0 0 1 1 1 2 1 1 1 1 1 1 1 1 1 1 1 1 1 1 1 2 1 1 1 1 1 1 2 2 2 1 1 1 1 1 1 1 1 1 2 2 1 1 1 1 1 1 1 1 1 1 1 1 0 0 1 1 1 1 0 0 1 0 0 2 1 0 1 1 0 0 2 1 0 1 0 0 1 2 0 1 2 1 1 1 0 -1 1 1 1 1 1 1 0 1 1 1 1 1 1 1 1 1 0 1 1 1 1 1 1 1 0 0 0 0 0 1 2 2 1 0 1 1 0 1 1 1 1 0 0 0 0 0 1 0 0 1 1 1 1 0 0 1 1 0 1 1 1 1 0 0 0 1 1 1 1 -1 1 2 1 2 1 0 0 0 -1 1 1 1 2 1 -1 1 1 2 0 0 0 1 0 2 0 1 0 1 0 2 -1 4 -2 3 
0 2 -1 3 -2 2 -1 2 0 1 0 1 0 1 1 2 0 -1 -1 0 0 0 1 1 1 0 0 1 0 1 1 0 1 1 0 2 1 0 0 1 1 1 0 1 1 1 1 2 1 1 1 0 1 0 1 1 1 1 1 1 0 1 0 1 0 0 0 0 0 1 1 1 0 1 1 1 1 1 1 1 1 1 0 0 0 1 1 0 1 1 0 1 1 0 1 2 1 1 1 1 1 1 1 1 0 1 0 1 1 1 1 0 0 1 1 1 1 0 1 1 1 1 1 0 0 2 2 1 1 2 1 1 1 2 1 0 0 1 1 1 1 1 1 0 1 1 1 1 0 1 1 1 2 1 1 2 1 1 1 0 1 1 1 1 1 1 0 0 0 1 1 1 1 1 1 1 1 2 2 2 2 2 1 1 0 0 1 1 1 1 1 1 1 1 1 2 2 2 1 1 1 1 2 2 1 1 1 1 1 1 1 2 2 2 2 2 1 2 1 2 1 1 1 2 2 1 1 1 1 2 2 1 1 2 1 1 1 2 3 2 1 1 2 2 2 2 2 2 2 2 2 2 2 2 2 2 1 2 2 2 2 2 1 1 1 1 2 2 2 2 2 2 1 2 2 2 2 2 2 3 3 2 1 2 2 2 3 3 3 3 3 2 2 2 2 2 3 3 3 3 3 3 3 2 2 3 3 2 2 2 2 3 2 2 1 2 2 2 2 3 3 3 2 2 2 3 3 3 3 2 3 3 3 3 3 2 2 3 2 2 2 2 3 3 3 3 2 2 2 2 2 2 2 2 1 1 1 2 3 2 1 2 2 2 2 2 3 2 2 2 2 2 2 1 1 2 2 2 2 2 2 2 2 2 2 2 2 1 1 2 2 2 2 2 2 2 2 2 2 2 2 2 1 1 0 1 1 1 1 2 2 1 1 1 1 1 1 1 2 2 1 1 2 1 1 1 2 2 2 1 1 2 2 2 1 1 1 1 1 2 2 1 1 1 1 1 1 2 2 1 1 1 1 1 1 2 2 2 1 1 1 1 1 1 0 1 1 1 1 1 1 1 1 1 1 1 1 1 1 1 1 1 1 1 1 1 1 1 1 1 1 1 1 1 1 0 1 1 1 1 1 1 1 1 0 1 1 1 0 0 0 1 1 2 2 1 1 1 1 1 1 1 1 1 0 1 2 2 0 0 1 1 1 0 0 0 0 1 1 1 0 1 0 0 1 1 1 2 1 0 0 1 0 0 0 0 1 1 1 1 0 0 0 0 1 2 1 1 2 1 0 1 1 1 1 1 1 1 1 0 0 1 1 0 0 1 0 1 0 1 1 0 1 2 1 1 1 0 0 0 1 1 0 1 1 0 0 2 1 1 1 1 0 1 0 1 1 2 0 0 0 1 0 1 0 1 1 1 0 2 0 2 0 1 -1 4 -1 2 1 1 
0 3 -2 1 0 1 0 1 0 1 0 1 1 1 2 1 0 0 0 1 0 0 1 1 1 1 1 1 1 1 0 1 1 0 0 1 1 1 1 0 0 1 1 1 1 0 1 1 1 1 1 0 1 1 0 1 1 1 1 1 1 1 0 0 1 0 1 1 1 0 0 1 0 0 0 0 1 1 1 1 1 1 1 0 0 0 1 1 1 1 1 1 1 0 1 1 1 1 2 1 0 0 1 0 1 1 0 1 2 0 1 2 1 1 1 1 1 2 2 0 0 1 0 0 1 2 1 2 1 1 1 0 1 1 1 0 1 1 1 1 0 0 1 1 1 0 1 1 1 1 0 0 1 1 1 2 2 1 1 0 0 1 1 1 1 1 0 0 1 1 1 1 1 1 1 1 1 1 1 1 1 0 1 1 1 0 1 1 2 1 1 1 1 1 1 1 2 1 1 1 1 1 1 1 1 1 1 1 1 1 1 1 1 2 2 2 2 1 1 1 1 1 1 1 2 2 1 1 1 1 2 2 2 2 2 2 2 2 2 2 1 1 2 2 1 1 1 2 2 2 1 1 2 2 2 3 2 2 2 2 2 2 2 2 2 2 2 2 2 2 2 2 2 2 2 2 2 2 3 3 3 2 2 2 3 3 3 3 3 2 2 2 3 3 3 3 3 3 2 2 2 3 3 2 2 2 3 3 2 2 2 2 2 2 2 2 2 2 2 2 3 3 2 2 2 2 2 2 2 2 2 2 3 3 2 2 2 2 2 2 2 2 2 2 3 3 2 2 2 3 2 2 2 2 1 1 1 1 2 2 1 2 2 3 3 2 2 2 2 2 2 2 1 1 1 2 2 1 1 2 2 2 2 1 1 1 2 2 1 1 2 2 1 1 2 2 2 2 2 2 2 2 1 2 2 2 1 2 2 2 1 1 1 1 1 1 0 0 1 1 1 1 1 1 2 1 1 1 1 1 1 1 2 2 1 1 1 2 1 1 1 2 2 2 1 2 2 1 1 1 1 1 1 2 2 2 1 1 1 1 1 1 1 1 1 1 1 1 1 1 1 1 1 1 1 1 1 2 1 1 1 1 1 0 1 1 1 1 1 1 1 1 1 1 1 1 1 1 1 1 1 0 0 0 1 1 1 1 1 0 0 1 1 1 1 2 1 0 1 1 1 1 0 0 1 1 0 0 1 0 0 2 1 0 1 1 0 1 0 0 0 1 1 1 1 1 1 1 1 0 1 1 1 0 1 1 1 0 1 1 1 1 1 0 0 1 1 1 1 1 1 0 0 1 1 1 1 1 2 1 0 1 0 0 1 0 1 1 0 1 1 1 2 1 0 1 1 0 1 0 0 1 1 0 1 0 0 1 1 1 1 0 0 1 0 0 1 1 0 0 0 0 1 1 0 0 1 2 1 1 0 0 0 1 -1 1 0 2 0 1 
2 -1 1 0 1 -1 2 0 0 1 1 0 1 0 2 1 0 0 0 0 0 -1 1 2 1 1 1 1 2 1 0 1 1 0 1 0 0 1 1 0 1 0 0 0 0 0 1 1 1 0 1 1 1 1 0 1 1 1 2 0 1 1 0 1 1 0 1 1 1 1 1 1 1 1 0 0 1 1 2 1 1 1 1 0 1 0 1 1 0 1 1 0 1 1 0 0 1 1 1 1 1 0 1 1 1 1 0 1 1 1 1 2 1 1 2 1 1 1 1 1 1 1 0 0 1 1 1 1 1 1 1 0 0 1 1 1 0 0 1 1 1 1 1 1 1 1 1 1 1 0 0 1 2 1 1 1 1 1 1 0 0 1 1 1 1 1 0 1 1 1 2 1 1 1 1 0 1 1 1 1 2 1 1 1 1 1 1 1 1 1 1 0 1 1 2 1 2 2 2 2 1 1 1 1 1 1 1 1 0 1 2 1 2 2 2 1 2 2 1 1 1 1 2 2 1 1 1 1 2 2 2 2 2 2 1 1 1 2 3 2 1 2 2 2 2 2 2 2 2 1 1 1 1 1 1 2 2 2 2 1 2 2 2 1 1 2 2 2 2 2 1 1 2 2 3 3 2 2 3 3 3 2 2 2 2 2 2 3 2 2 3 3 2 3 3 3 3 3 3 3 3 3 3 2 2 3 3 3 3 3 3 2 2 2 2 2 3 2 2 2 2 3 3 3 2 3 3 3 3 3 3 3 3 2 2 2 2 2 2 2 2 2 2 2 3 2 2 2 3 3 2 2 2 2 2 2 2 3 3 2 2 2 2 2 2 2 2 2 2 2 2 2 1 2 2 2 3 2 2 2 2 2 2 2 2 2 2 3 3 2 2 1 0 1 2 3 2 2 2 2 2 2 1 1 1 1 2 1 1 2 2 1 1 1 1 1 1 1 1 1 1 1 2 2 2 1 2 2 2 2 2 2 2 2 1 1 2 1 1 1 1 1 2 1 1 2 2 1 1 1 2 1 1 1 2 1 1 1 1 1 0 1 2 1 1 1 1 1 1 1 1 1 1 1 2 1 0 1 1 1 1 1 1 1 1 0 0 1 1 0 1 1 1 1 1 1 1 1 1 1 1 1 1 1 1 1 0 1 1 1 0 0 2 1 0 1 1 0 1 0 0 1 2 1 1 1 1 1 2 0 0 2 2 1 1 1 1 1 1 1 1 0 1 1 0 1 1 1 1 1 2 0 1 1 0 1 1 0 1 1 1 1 0 0 1 0 0 0 1 1 1 1 0 0 1 1 1 1 1 1 0 1 0 0 1 0 1 0 1 1 1 1 2 2 1 0 0 0 1 0 1 1 1 0 1 1 0 0 1 0 1 0 0 0 1 0 1 1 0 1 1 0 1 0 1 1 1 1 1 0 1 1 1 -1 1 0 1 -1 3 0 
-1 2 1 -1 2 0 2 0 1 0 1 0 2 0 1 1 1 0 1 0 1 0 1 1 1 1 1 0 1 0 1 1 1 0 1 0 1 1 1 1 1 0 1 0 0 0 0 0 2 1 0 1 1 1 0 1 1 0 1 0 1 0 1 2 1 0 1 1 1 0 1 1 1 0 0 1 1 1 1 0 0 1 1 0 1 0 1 1 0 1 1 0 1 1 1 1 2 1 0 1 1 -1 0 1 0 0 1 0 1 1 1 1 2 1 0 0 1 1 1 1 1 1 0 0 0 0 1 1 1 1 1 -1 0 1 1 0 1 2 1 0 0 1 1 0 1 1 1 1 1 1 1 1 1 1 1 1 1 1 1 0 0 1 1 1 1 1 1 1 1 2 2 1 1 1 1 1 1 1 1 1 1 0 1 2 2 1 2 2 2 1 1 1 1 1 2 2 2 1 1 2 2 1 1 1 1 1 1 1 1 1 2 1 1 1 2 2 1 1 1 1 1 1 1 1 1 1 1 1 1 1 2 2 2 2 2 2 2 2 2 2 1 1 2 2 1 2 2 2 2 1 1 2 2 2 2 2 2 2 2 2 2 2 2 2 2 2 2 2 2 2 2 2 3 2 2 1 2 3 3 3 2 2 2 2 2 1 2 2 3 2 2 2 3 4 3 2 3 3 3 2 3 3 3 2 2 2 2 2 2 3 3 2 2 2 2 2 3 3 3 3 3 2 2 2 3 3 3 3 3 3 3 3 3 3 2 1 2 3 3 3 2 2 2 3 3 2 2 2 3 3 2 2 3 3 2 2 1 2 2 2 2 2 1 2 3 3 2 2 2 2 2 2 1 2 2 2 2 1 2 1 1 1 1 2 2 2 1 1 2 1 1 1 1 2 2 2 2 2 2 2 2 2 1 2 2 2 2 2 2 2 2 2 2 2 1 2 1 1 1 1 2 2 2 2 2 1 1 1 1 1 1 1 2 1 2 2 2 1 1 1 1 1 2 2 1 1 1 1 1 0 0 1 1 1 1 1 1 1 1 2 2 1 1 1 1 2 2 1 1 1 2 2 2 1 1 1 1 1 1 1 2 2 1 1 1 1 1 1 1 0 0 1 2 2 1 1 1 1 1 1 1 1 1 1 1 1 2 1 1 1 1 0 0 0 0 0 1 0 0 0 1 1 1 1 1 1 1 0 1 1 2 1 1 1 1 1 2 1 0 0 1 1 1 2 1 1 1 0 1 2 2 0 1 1 1 1 0 0 1 1 1 0 0 0 1 0 1 1 0 1 1 1 1 1 1 1 1 1 1 0 0 1 1 1 1 0 1 0 1 0 1 1 1 1 1 0 1 1 1 0 1 0 1 0 1 1 1 0 1 1 1 0 1 1 1 0 0 0 1 1 1 0 2 0 1 -1 0 1 2 0 1 -1 1 0 1 -1 3 1 -1 2 
4 -5 5 -1 1 0 2 1 1 1 1 -1 1 1 1 1 1 1 1 -1 0 0 1 1 0 0 1 1 1 0 0 0 0 0 1 0 1 1 1 1 1 0 1 1 0 0 0 0 1 1 1 2 1 1 1 1 1 1 1 0 1 0 0 1 1 1 1 0 0 1 1 0 1 1 1 1 0 1 2 0 0 0 1 1 1 1 1 1 1 1 1 1 1 1 1 1 0 1 1 0 0 1 2 1 1 1 2 0 0 1 1 1 1 1 1 1 1 1 1 1 1 1 1 0 1 1 1 1 1 2 2 1 1 1 1 0 0 1 1 1 1 1 2 1 1 1 1 1 1 1 1 1 2 1 1 1 2 1 1 1 1 1 1 1 1 1 1 0 1 2 2 1 1 1 1 1 1 1 1 2 2 1 1 1 1 1 0 0 1 1 1 2 2 2 2 1 1 1 2 2 2 2 2 1 1 1 1 1 1 1 2 2 2 1 1 2 2 1 1 2 1 1 1 1 1 1 1 2 1 1 1 2 2 2 1 1 1 1 2 2 2 1 1 2 2 2 2 3 2 2 2 2 2 2 2 2 2 2 2 2 2 2 2 2 2 2 2 2 2 2 2 2 2 2 2 2 2 3 3 3 2 2 2 2 2 2 2 2 2 2 3 2 2 2 2 2 3 3 3 3 3 3 3 3 3 2 2 2 3 3 3 3 3 2 3 3 3 3 3 2 2 2 2 2 2 3 3 3 3 2 2 2 3 2 2 2 3 2 2 2 2 2 2 2 3 2 2 2 2 3 2 2 2 2 2 2 2 3 3 2 2 3 3 2 2 2 2 2 2 2 2 2 2 3 2 2 2 3 2 2 2 2 2 2 3 3 2 2 2 2 2 2 2 2 2 2 2 2 2 2 2 2 2 1 1 1 2 2 2 2 2 1 1 1 1 1 1 1 1 1 2 2 2 2 2 1 2 2 2 2 1 1 1 2 2 2 1 2 2 1 1 1 1 1 1 2 2 2 2 2 2 2 1 1 2 1 1 1 1 1 1 1 1 2 1 1 1 1 1 2 2 1 2 1 1 1 1 1 2 2 2 1 1 1 1 1 1 1 1 1 2 2 1 1 2 1 1 1 1 1 2 1 1 1 1 1 1 1 1 1 0 0 1 0 0 1 2 1 1 1 1 0 1 2 2 0 1 2 1 1 2 0 0 1 1 0 1 1 1 0 1 1 1 1 1 0 0 0 1 0 1 1 1 1 1 1 0 0 1 1 1 0 0 0 2 1 1 1 1 1 0 0 2 2 1 1 2 1 1 1 0 1 1 1 1 1 0 0 1 0 0 0 1 1 1 -1 0 0 0 1 1 0 0 1 1 1 0 0 1 1 1 1 1 1 1 0 0 -1 1 1 1 0 1 0 1 0 0 0 1 1 1 0 1 0 2 0 2 -2 7 -2 
-3 6 -3 1 0 2 -1 2 1 1 0 1 1 1 0 1 0 0 1 0 1 2 0 0 0 1 1 0 0 1 1 0 1 1 0 0 1 1 0 0 0 0 1 1 1 0 0 0 1 1 1 1 1 0 1 0 0 1 1 1 1 0 0 1 1 1 0 1 1 1 1 0 1 0 0 1 1 1 1 0 0 0 1 1 2 1 1 0 1 0 0 1 0 0 1 2 1 0 1 0 1 1 0 1 2 1 0 1 2 1 0 1 1 0 1 2 1 1 1 1 1 1 1 1 1 0 0 1 1 1 0 1 2 2 1 0 1 1 0 0 1 1 1 1 1 1 1 0 0 1 2 1 1 1 1 1 1 1 2 1 0 1 1 1 1 0 1 1 1 0 1 1 1 1 1 1 1 1 1 1 1 1 1 1 2 2 1 1 0 1 2 1 1 2 2 2 1 1 1 2 2 2 1 1 1 1 1 1 1 2 2 1 2 2 2 2 2 1 1 2 2 1 1 1 2 1 1 1 1 2 2 1 1 1 2 2 1 2 2 2 2 1 1 1 2 2 2 2 3 2 2 2 2 2 2 2 2 2 2 3 3 2 2 2 2 2 2 2 2 2 2 2 2 2 2 1 2 2 4 4 3 2 2 2 2 2 2 2 3 3 2 2 3 4 3 3 3 3 3 3 3 3 3 3 3 3 3 2 2 3 3 3 3 3 3 2 2 4 4 4 3 3 3 2 3 3 3 2 3 2 2 2 2 2 2 2 2 2 2 3 3 3 3 2 2 2 2 2 2 2 2 2 2 2 3 3 2 2 2 2 2 2 1 2 3 2 2 2 2 2 1 1 2 2 2 2 2 2 2 2 2 1 2 3 3 2 2 1 1 2 2 2 2 2 1 1 2 1 2 2 3 2 2 1 1 2 1 1 2 2 2 1 2 1 1 2 2 1 1 1 2 2 2 2 1 1 1 1 0 0 0 1 1 1 1 2 2 1 1 1 2 1 1 1 1 1 1 1 1 1 1 1 1 1 2 2 1 1 2 2 2 1 1 1 1 1 1 1 1 1 2 2 2 2 1 1 1 1 1 1 1 1 1 1 2 1 1 1 1 1 1 1 2 2 2 1 1 0 0 1 1 1 1 1 0 0 0 0 1 2 1 1 0 1 1 2 1 1 1 0 0 1 1 1 1 1 1 1 1 1 1 1 0 0 1 2 1 1 1 0 1 2 1 1 2 2 0 0 1 1 1 1 0 0 1 1 0 1 1 1 1 0 0 0 1 0 1 1 0 0 0 1 2 1 2 1 1 1 1 2 1 1 2 1 0 1 1 1 1 0 0 1 1 0 0 0 1 1 0 0 1 0 0 1 0 0 0 1 1 1 1 1 0 0 0 0 0 0 0 1 1 2 0 1 0 -1 0 1 1 1 -1 0 1 1 -1 2 0 5 -5 4 
2 -2 1 2 0 -1 1 2 0 0 1 1 0 1 0 0 0 0 2 0 1 0 0 1 0 0 1 0 0 0 0 0 1 1 1 1 0 1 1 0 0 0 0 0 1 1 1 1 0 1 1 1 1 0 1 0 0 2 1 1 0 0 1 0 1 1 1 1 0 0 1 0 0 1 1 0 1 2 1 1 1 0 0 1 1 1 1 0 1 1 0 0 0 0 1 1 0 1 1 0 0 2 2 1 1 1 1 1 1 1 1 1 1 1 1 1 1 1 1 0 0 2 2 1 1 2 1 1 2 2 1 1 1 2 1 0 0 0 0 1 1 1 2 1 1 1 1 1 1 1 1 1 1 1 1 1 1 1 1 1 1 1 1 1 1 1 1 1 1 1 1 1 1 1 1 1 1 2 1 0 0 1 1 1 1 2 1 1 1 0 1 1 2 2 1 1 1 1 2 1 2 1 1 1 1 0 2 2 2 1 2 1 1 2 2 1 1 1 2 2 1 1 1 1 1 1 1 2 1 1 1 2 2 1 1 1 1 2 2 1 1 1 1 1 2 2 2 2 2 2 2 1 2 2 2 2 2 2 2 2 2 1 1 2 2 2 2 2 2 2 2 2 2 2 2 2 2 2 3 3 3 3 3 3 3 2 2 2 2 2 3 3 3 3 3 2 3 3 3 3 2 2 2 3 2 2 3 3 3 3 2 3 3 4 3 3 3 3 3 3 2 2 2 2 3 3 3 2 2 2 2 2 3 3 3 3 3 2 3 3 3 2 2 2 3 3 2 2 2 2 2 2 2 2 2 2 2 3 3 2 2 3 3 3 3 3 2 2 2 2 2 2 2 3 2 2 2 3 2 2 2 2 2 2 2 2 2 2 2 2 2 1 2 2 2 2 2 2 2 2 2 3 2 1 1 1 1 1 2 2 2 1 1 2 1 1 1 2 2 2 3 2 2 2 1 1 1 2 2 2 2 2 2 2 2 1 1 1 2 2 1 1 1 1 1 1 1 2 2 2 1 1 2 2 2 2 2 2 1 1 1 1 1 1 1 1 1 1 1 1 1 1 1 1 1 1 1 1 1 1 1 1 1 1 2 1 1 1 1 1 1 1 1 0 1 1 2 1 1 1 1 1 1 1 0 1 1 1 1 1 1 2 1 1 1 1 1 1 1 0 0 1 1 0 1 1 1 1 2 1 0 0 1 1 2 2 0 1 2 1 1 1 1 1 1 0 0 1 1 0 1 2 1 1 2 1 1 1 1 2 0 0 1 1 1 1 1 1 0 1 0 0 1 1 2 0 0 2 1 1 1 1 1 0 0 1 0 0 0 1 1 1 1 0 0 0 0 1 1 0 0 0 1 1 1 1 1 0 0 1 1 1 0 1 1 1 1 0 1 1 0 0 0 2 0 0 1 1 1 0 0 0 0 0 1 2 -1 1 3 0 
0 0 1 -1 2 1 0 0 1 1 0 0 0 1 0 0 1 1 2 0 1 0 0 0 0 1 1 -1 1 2 1 1 2 1 1 0 0 1 0 0 0 0 1 0 1 1 1 0 0 0 1 0 1 0 0 0 1 1 0 1 1 1 1 -1 1 1 1 0 1 1 1 1 1 0 0 1 1 0 1 1 1 0 1 1 0 1 1 0 1 1 0 -1 1 1 1 1 1 1 1 1 1 0 0 0 1 0 0 1 1 1 1 2 1 1 1 1 1 1 1 1 1 1 0 1 1 1 0 1 1 0 0 1 1 1 1 1 1 1 1 1 2 1 1 1 1 0 1 1 1 1 1 1 1 0 0 1 2 1 1 1 1 1 1 2 1 0 0 0 1 1 0 1 1 1 1 1 1 1 1 0 0 1 1 1 2 2 2 1 1 1 1 1 1 1 1 1 1 2 2 0 0 1 1 2 1 1 1 2 3 3 2 2 2 1 1 2 2 2 2 2 1 2 2 2 2 1 1 1 1 1 1 2 2 2 2 1 2 2 2 1 1 2 2 2 2 2 2 2 2 2 2 1 1 1 2 2 2 1 2 2 2 2 2 2 2 2 2 2 3 2 2 2 2 2 2 2 2 2 2 3 3 3 3 3 3 3 3 3 2 2 3 3 3 3 3 2 3 3 3 3 3 3 3 3 2 2 3 3 3 2 2 3 3 3 3 3 4 4 3 3 3 3 3 3 3 3 3 2 2 2 3 2 3 2 2 2 2 2 2 3 3 2 2 2 3 4 3 3 2 2 2 2 3 3 3 3 2 2 2 1 1 1 2 3 3 2 2 3 3 2 2 2 2 2 2 2 2 2 2 2 2 2 2 2 2 2 2 2 2 2 2 1 2 2 2 2 1 1 2 3 3 3 2 1 2 2 1 1 1 1 2 2 2 1 2 1 1 1 1 2 3 2 1 0 1 1 1 2 1 1 1 1 1 1 2 2 2 1 2 2 2 2 1 1 2 1 1 1 1 1 1 2 2 1 1 1 1 1 1 1 2 1 1 1 1 2 2 2 2 1 1 1 1 1 1 1 2 1 1 1 1 1 1 1 1 1 1 1 1 1 1 0 1 1 1 1 1 1 0 1 1 1 1 0 0 1 1 1 2 2 2 1 0 1 2 1 1 0 1 1 0 0 1 1 1 1 1 1 1 0 0 0 1 1 1 1 1 1 1 0 1 1 1 2 2 1 2 1 -1 1 2 1 0 1 1 0 2 2 0 1 0 0 0 1 1 0 1 1 1 1 1 0 1 1 1 1 0 1 1 0 2 1 1 0 1 1 0 1 0 1 0 0 1 0 0 1 1 1 0 0 0 0 1 1 1 1 1 1 1 1 2 1 0 0 1 1 2 0 1 0 0 1 1 0 0 0 1 0 2 0 0 0 1 1 0 0 2 -1 1 1 
1 0 0 2 0 2 1 1 1 1 0 1 1 1 1 1 0 1 1 1 1 0 1 1 0 1 1 0 1 1 0 1 1 1 1 0 0 1 0 0 0 0 1 1 1 0 0 1 0 0 1 1 1 1 -1 0 1 1 0 1 0 1 1 0 1 1 1 1 1 0 1 2 1 1 1 0 0 1 1 1 0 1 0 0 1 1 1 2 1 0 1 0 0 1 1 1 1 1 0 1 0 0 1 1 0 0 1 1 1 1 1 1 0 1 1 0 2 1 1 1 1 1 1 1 0 0 0 1 1 1 1 1 1 1 1 0 0 1 1 1 1 1 1 1 1 1 1 0 1 2 2 1 0 1 2 1 1 1 1 1 1 2 2 1 1 2 2 1 1 0 1 1 1 1 1 1 2 1 1 1 2 2 2 1 1 1 1 1 2 2 1 1 1 1 1 1 1 1 1 1 1 1 0 1 1 1 1 2 2 2 2 2 1 1 1 1 2 2 2 2 2 2 2 1 1 2 2 2 1 1 2 1 1 2 2 1 1 1 2 2 2 2 2 2 1 2 2 2 2 2 2 2 2 2 2 1 2 2 3 2 1 1 2 2 2 3 2 2 2 2 2 2 2 2 3 3 3 3 3 3 2 2 2 3 3 3 3 3 3 3 3 3 3 3 3 3 4 4 3 3 3 4 3 3 3 3 3 4 4 4 3 3 3 3 3 3 4 4 3 3 3 3 3 3 3 3 3 3 3 3 3 3 2 2 2 2 2 2 3 3 3 2 2 2 3 3 2 2 2 2 3 3 2 3 3 2 2 2 2 2 2 2 2 2 2 2 2 2 2 2 2 3 2 2 2 2 2 2 2 2 3 3 2 1 2 2 2 1 2 2 2 2 2 2 2 2 2 1 2 3 3 3 2 1 2 2 1 2 2 3 3 2 2 2 2 1 1 2 2 2 2 2 1 0 0 1 1 1 1 1 2 2 2 1 1 2 1 1 1 2 2 2 1 1 1 1 1 1 1 1 1 1 1 1 1 1 2 2 2 1 1 1 1 1 1 1 1 1 1 1 1 2 1 0 0 1 2 1 1 1 1 1 1 1 2 2 1 1 1 1 1 1 1 1 1 1 1 2 1 1 0 1 1 0 0 0 1 1 2 2 1 1 1 1 1 1 2 1 1 2 1 1 1 1 0 1 1 1 1 1 0 0 1 1 1 1 1 1 0 1 1 0 1 1 1 1 0 0 1 1 0 1 1 0 1 1 1 2 1 0 0 0 0 1 1 2 1 1 2 1 1 1 1 0 0 1 1 1 1 0 1 0 1 1 1 0 1 1 0 0 1 1 1 0 0 1 1 0 1 1 0 0 1 1 1 1 1 0 1 0 1 1 0 1 1 0 1 1 0 1 0 1 1 1 0 1 0 1 1 0 1 2 -1 1 0 2 0 1 0 0 
0 0 1 0 0 0 0 1 1 1 1 1 0 0 2 1 0 1 0 1 1 0 0 1 1 1 0 0 1 1 0 2 1 1 1 1 0 1 1 0 1 2 1 1 0 1 1 0 -1 0 1 1 0 1 0 0 0 1 1 1 0 2 1 0 1 0 1 0 1 1 0 1 1 1 1 0 1 1 0 1 1 1 0 1 1 0 1 2 1 1 1 1 0 1 1 1 0 1 1 0 0 0 0 1 0 1 1 1 0 1 1 1 0 0 0 1 1 0 1 2 0 0 2 2 0 1 1 0 0 1 1 1 1 0 0 2 2 1 1 1 1 1 1 1 1 1 1 1 2 2 1 1 1 1 1 1 1 1 0 0 1 1 0 1 1 1 1 1 1 1 0 1 1 2 1 1 1 1 1 1 1 1 1 1 1 1 1 1 1 1 1 1 2 1 0 1 1 2 1 1 1 2 2 2 1 1 1 2 3 2 2 1 1 1 0 1 1 2 2 2 2 2 2 2 1 1 1 2 1 1 1 2 2 1 1 2 2 2 2 2 2 2 2 1 1 2 2 2 2 2 2 3 2 2 2 2 2 2 2 2 2 3 2 3 3 2 2 2 2 2 3 3 3 3 2 2 2 3 2 3 2 2 3 4 4 4 3 3 3 3 3 3 3 3 3 3 3 3 3 3 3 3 3 3 3 3 3 4 3 3 3 3 2 2 3 3 4 4 4 3 3 3 4 4 4 4 3 3 3 3 2 3 3 3 3 3 3 3 2 2 3 3 2 2 3 4 3 3 3 2 2 2 2 3 3 2 2 2 2 2 2 3 3 3 2 2 1 1 2 2 2 2 3 3 2 2 2 2 2 2 3 3 2 1 2 3 3 2 1 2 3 2 2 2 2 2 1 1 2 2 2 2 2 2 2 2 2 2 2 1 1 2 2 2 1 2 2 2 2 2 2 1 0 1 1 2 3 3 2 2 1 1 1 2 2 2 2 2 2 2 1 2 1 1 2 2 2 2 1 1 2 2 2 2 2 1 1 1 1 1 1 1 1 2 1 2 2 2 1 1 1 1 0 1 1 1 1 2 2 1 1 1 1 1 1 1 1 2 2 0 0 0 0 0 1 1 1 1 1 1 1 1 0 1 1 1 1 1 0 1 2 1 0 1 1 1 1 1 0 0 1 1 0 2 1 1 1 1 1 1 2 0 0 1 1 0 0 1 0 1 1 0 1 2 2 1 1 0 1 1 0 1 1 0 0 2 1 1 2 1 1 1 1 1 0 1 1 1 1 1 1 0 0 1 0 0 0 0 1 1 2 2 1 1 2 2 1 0 0 1 1 1 0 0 0 1 1 1 0 0 0 2 1 0 1 1 1 1 1 0 0 1 0 0 1 1 0 1 0 1 0 1 1 1 0 1 0 1 1 1 1 1 -1 0 1 0 1 1 0 0 
0 1 1 -1 1 1 0 0 2 0 1 0 0 0 2 1 1 1 0 1 0 0 2 0 0 1 1 1 1 0 1 1 1 1 0 1 1 0 1 0 1 0 1 2 0 0 1 0 0 0 1 2 1 1 1 1 1 0 0 0 0 1 0 0 1 0 0 0 0 1 0 1 1 1 1 0 1 1 1 1 0 1 1 0 0 1 1 0 0 2 1 1 1 1 0 1 1 1 1 1 1 0 0 1 0 1 1 1 1 1 1 0 0 0 0 1 1 1 1 1 1 1 1 1 1 0 1 1 1 1 2 1 1 1 1 1 0 0 0 1 1 1 1 1 1 1 1 1 1 1 2 1 0 1 1 1 1 0 0 1 1 1 2 1 1 1 2 1 1 1 1 2 1 1 1 1 2 2 1 1 1 1 1 1 2 2 1 1 1 1 1 1 1 2 2 2 1 1 1 1 2 2 1 1 1 2 2 2 1 2 2 2 1 1 1 1 2 2 2 2 2 1 1 1 1 2 2 2 2 1 1 1 2 2 2 1 1 1 1 2 2 3 2 1 1 2 2 2 2 2 2 2 2 2 1 1 2 2 2 3 3 2 2 1 1 2 2 2 2 3 3 3 2 2 3 2 3 3 3 3 3 3 3 3 3 3 3 3 4 4 3 4 4 4 4 4 4 4 4 3 3 4 4 4 3 3 4 4 4 4 4 4 3 3 3 4 4 4 3 4 4 3 3 2 3 3 3 3 4 4 3 3 3 2 2 2 3 3 3 3 3 3 2 2 2 2 2 2 2 2 3 3 3 3 3 2 1 2 2 2 1 2 2 2 2 2 2 1 2 2 3 3 3 2 2 2 2 2 2 2 3 2 1 1 1 2 2 2 2 2 3 2 2 1 2 2 2 2 2 3 2 2 2 2 1 1 2 2 2 2 2 2 2 2 2 2 2 2 2 2 2 1 1 2 1 1 1 1 1 1 1 1 1 2 1 1 1 1 1 2 2 2 1 1 1 1 1 1 1 1 1 1 0 1 1 0 1 2 2 1 1 1 2 2 1 1 1 1 1 1 2 2 2 1 1 1 1 1 1 1 1 1 2 2 1 1 1 1 1 2 2 1 1 0 1 1 1 0 1 1 0 0 1 1 1 0 0 0 1 1 1 1 1 1 0 1 1 1 1 1 1 1 1 1 2 1 1 1 0 0 0 0 1 1 1 1 2 1 0 1 1 1 1 1 0 0 0 1 1 1 2 1 0 1 1 1 1 2 2 0 1 1 0 0 0 1 0 1 1 1 1 1 1 2 1 1 0 0 0 0 1 1 1 1 1 1 1 0 1 1 1 0 1 1 0 0 2 1 1 1 1 1 0 1 2 0 1 0 0 1 1 1 0 0 1 0 0 2 0 0 1 1 2 1 1 1 0 1 1 1 1 1 1 0 1 -1 3 0 -2 1 
4 -3 3 0 1 -1 1 0 1 -1 2 1 1 0 1 1 1 1 0 1 1 0 0 0 1 1 1 1 0 0 1 0 1 2 0 1 1 0 1 0 1 1 0 1 0 1 0 0 0 1 1 1 1 1 1 1 0 0 1 1 0 0 0 1 1 1 0 0 1 1 1 1 1 0 0 0 1 2 1 1 1 1 1 0 0 0 1 1 1 1 1 2 1 0 1 1 0 1 2 1 0 0 0 1 2 2 0 1 1 1 1 1 1 0 0 1 0 1 2 1 0 1 1 2 2 0 0 1 1 1 1 1 0 0 1 1 1 0 0 1 1 1 1 0 0 0 1 1 1 1 1 1 1 1 1 0 1 1 1 1 1 1 1 2 1 1 1 2 1 0 1 1 1 1 2 2 1 1 1 1 1 1 1 1 2 1 1 1 1 0 1 2 2 1 1 1 2 2 1 1 2 1 1 2 2 2 2 1 1 2 2 2 2 1 1 2 2 1 1 2 2 2 2 1 1 2 2 2 2 2 2 1 1 2 2 1 1 2 2 2 1 2 2 2 2 2 2 3 3 2 2 2 2 2 3 3 2 2 2 2 2 2 2 2 2 2 2 2 2 2 2 3 3 2 2 2 2 2 2 2 3 2 3 3 3 3 3 3 3 3 3 3 3 3 4 3 3 3 4 4 4 4 4 4 4 4 4 4 4 4 4 4 4 4 4 4 3 3 3 3 3 3 3 4 3 3 2 3 3 3 3 3 4 3 3 3 3 2 2 3 3 3 3 2 2 3 3 4 4 3 2 2 2 3 3 3 3 2 2 2 2 2 3 3 2 2 2 2 2 2 2 2 2 2 2 2 2 3 3 2 3 3 2 2 3 3 2 2 2 2 2 2 2 2 2 2 2 2 2 2 2 2 2 2 2 2 2 2 2 2 1 1 1 2 2 2 2 2 2 2 2 2 1 2 2 2 2 2 2 2 2 2 2 1 1 2 2 2 2 1 1 1 1 1 2 2 2 2 2 2 1 2 2 2 2 1 0 0 1 1 1 1 1 2 2 1 2 2 2 1 1 1 1 1 2 2 1 1 1 2 2 1 1 0 1 1 1 1 1 1 1 1 1 1 1 1 1 1 1 0 0 0 1 1 2 1 1 0 0 1 1 1 1 0 1 2 1 1 1 1 0 1 0 1 2 2 1 1 2 2 0 0 1 1 1 1 1 0 1 1 1 2 1 0 2 2 1 1 1 0 1 1 1 1 1 1 1 1 1 1 1 2 2 1 0 0 0 1 1 1 2 0 0 1 1 0 0 0 1 1 1 1 1 1 1 1 1 1 0 0 1 2 0 0 0 1 1 0 1 1 0 1 1 2 1 0 1 0 0 2 0 1 1 0 1 2 1 1 0 0 1 -1 1 1 1 1 1 0 1 1 1 0 1 -1 2 -1 2 -2 5 -1 
1 3 -1 2 -1 1 1 1 0 1 0 1 0 1 1 1 0 2 1 1 -1 0 1 2 1 1 0 2 0 0 1 1 1 1 -1 2 0 0 1 1 0 1 0 1 0 0 1 1 0 0 1 2 2 1 1 2 1 1 1 0 0 0 1 1 0 1 0 0 0 1 1 1 1 0 0 1 1 1 0 1 1 1 0 1 1 1 1 1 0 1 1 2 0 0 1 0 0 1 1 0 0 1 0 1 2 1 0 1 0 0 1 0 0 0 1 2 1 2 1 1 1 1 0 1 1 1 1 1 1 1 1 1 1 1 1 2 1 0 0 1 2 1 1 1 0 1 1 1 1 1 1 1 1 1 1 1 1 1 1 2 2 1 1 1 1 1 1 1 1 1 1 2 1 0 0 1 2 2 1 1 1 1 1 1 1 1 1 1 1 2 1 1 1 2 2 1 1 1 1 2 2 2 1 2 1 1 1 1 1 1 2 2 2 2 2 2 1 1 2 2 1 1 1 1 2 2 2 2 3 2 1 1 1 2 2 2 2 2 2 2 2 2 2 2 2 2 2 2 2 2 2 2 2 2 2 2 2 2 3 3 2 2 2 2 2 2 2 2 2 3 3 3 2 3 3 3 2 2 2 3 3 3 4 3 3 4 4 3 3 3 3 4 4 5 4 3 3 3 3 4 4 5 5 5 4 4 3 4 5 5 5 5 5 4 4 4 4 3 3 3 3 3 3 3 2 2 3 4 3 3 3 3 2 3 3 3 3 3 3 3 3 3 2 2 3 3 3 3 2 3 3 3 3 3 2 2 2 2 2 3 2 2 2 2 2 3 2 3 3 3 3 2 2 2 1 1 2 3 2 2 2 3 2 1 1 2 2 2 2 2 2 2 1 1 2 3 2 2 1 1 2 2 2 2 2 2 2 2 2 2 2 2 2 2 2 2 2 3 2 1 1 1 2 2 2 1 1 1 0 0 1 1 1 2 1 1 1 1 2 2 2 2 2 2 1 1 2 2 1 1 1 1 1 0 0 0 1 2 2 2 1 1 1 1 1 1 1 1 1 1 2 2 2 1 1 1 1 1 1 1 1 1 2 1 1 1 0 0 0 1 2 2 1 1 1 2 2 1 1 2 1 1 1 2 1 0 0 1 0 1 1 2 1 1 1 1 2 2 1 0 -1 1 2 1 1 1 1 1 1 1 0 0 1 1 1 2 0 0 2 1 1 2 1 0 0 1 1 1 1 0 1 1 1 1 0 1 1 1 0 1 0 1 1 1 1 1 0 1 1 1 1 1 1 1 0 0 1 1 0 0 0 2 1 1 1 1 0 1 1 2 1 0 0 1 0 0 1 1 0 0 0 2 0 1 2 1 1 1 0 1 1 1 0 0 0 1 -1 2 1 1 0 0 0 1 0 1 1 1 0 2 1 1 0 1 0 1 0 3 -1 1 
-1 4 -2 1 0 1 1 1 1 1 -1 1 1 1 1 2 1 1 1 1 0 0 0 1 1 1 1 0 0 2 2 1 0 1 0 0 0 1 1 2 1 0 0 0 1 0 0 0 0 1 1 1 1 1 1 1 1 1 0 0 1 0 0 1 0 1 1 1 1 0 0 2 1 1 1 1 1 0 1 1 1 1 1 1 0 1 1 1 1 1 1 1 1 1 1 1 1 0 0 2 1 1 0 1 2 1 1 1 0 0 0 0 0 1 1 1 1 1 1 2 2 0 1 2 1 0 1 2 1 1 2 1 1 1 1 1 0 0 1 1 1 1 1 1 0 1 1 2 1 1 1 1 2 2 1 1 1 1 2 1 1 1 1 2 2 1 1 1 1 1 1 1 1 1 1 1 2 1 1 0 0 1 1 1 0 1 1 1 1 1 1 2 1 1 2 2 1 1 1 1 1 1 1 1 2 2 2 1 1 1 2 2 1 1 1 2 1 1 1 2 2 2 1 2 2 2 2 2 2 2 2 2 2 2 2 1 1 2 2 2 2 2 2 2 2 2 2 2 2 2 2 2 2 2 3 2 2 2 2 3 2 1 1 2 3 3 3 3 2 2 2 2 2 2 3 3 3 3 3 3 3 3 3 3 4 4 5 4 3 4 4 4 4 3 3 3 3 3 4 5 5 5 5 4 4 4 4 4 4 4 4 4 4 4 4 4 4 4 4 3 3 3 4 4 4 4 3 3 3 3 3 3 3 3 3 3 3 3 3 2 3 3 3 3 3 3 3 3 3 3 2 2 2 3 3 3 3 2 2 3 2 3 3 3 3 4 3 3 3 3 2 2 2 2 2 2 2 3 2 2 2 3 3 3 2 2 3 3 3 3 2 2 2 2 2 2 2 2 2 2 1 1 1 2 2 2 2 2 1 1 1 2 2 1 1 2 2 2 2 2 2 2 1 1 2 2 1 1 1 1 1 2 2 2 2 2 3 2 2 2 2 2 2 1 1 1 2 2 2 2 1 1 1 1 2 1 1 1 1 1 1 1 1 1 1 1 1 1 2 2 2 2 1 1 1 1 1 1 2 2 1 1 1 1 1 1 1 1 1 1 1 1 1 1 1 1 1 3 2 1 1 1 1 1 1 1 1 1 0 1 1 1 1 1 1 1 1 0 0 1 1 0 0 1 1 1 1 1 1 1 1 0 1 1 0 0 0 1 1 0 1 1 1 1 1 2 2 1 1 1 1 1 0 1 1 1 1 1 0 1 1 1 0 1 1 1 0 0 1 1 0 1 0 0 0 0 1 1 0 1 0 0 1 1 1 1 1 2 1 1 1 1 0 0 0 1 1 0 0 1 1 0 1 2 1 1 1 0 0 1 1 0 1 1 0 1 1 1 0 0 1 1 0 1 1 1 0 1 1 1 0 1 2 1 -1 1 1 2 -3 3 
3 -4 2 0 1 -1 2 0 1 0 1 1 1 0 2 1 1 0 1 1 1 0 0 2 1 0 1 1 1 0 1 2 1 -1 1 0 0 0 1 2 1 0 1 1 1 0 0 0 0 0 1 2 1 1 1 0 1 1 1 1 1 0 1 0 0 1 0 0 1 0 0 1 1 1 1 0 1 1 1 1 1 1 1 0 1 2 1 0 1 1 1 1 1 1 1 1 1 0 1 1 0 0 1 1 1 0 1 0 1 1 0 1 1 0 0 1 1 1 1 1 1 0 1 1 1 1 1 1 1 2 2 1 1 1 1 2 1 1 1 1 1 1 1 0 1 1 2 2 1 1 1 1 1 1 1 1 1 1 1 1 2 2 1 1 1 1 2 1 1 1 1 1 1 1 1 2 2 2 1 0 0 1 1 1 1 1 1 1 1 2 2 2 1 1 1 2 2 1 1 1 1 1 2 2 2 1 2 2 2 1 1 1 1 2 2 2 2 1 1 2 2 2 2 2 2 1 1 2 2 2 2 2 1 1 2 2 2 2 3 3 2 2 2 3 3 3 3 2 2 2 2 2 2 2 2 1 1 2 3 3 3 2 3 3 3 3 2 2 2 2 3 3 3 4 4 3 2 2 2 2 3 3 4 4 3 3 4 4 3 3 3 4 4 3 3 4 5 5 5 5 5 4 4 4 4 4 4 5 5 5 5 5 4 4 4 4 4 4 4 4 4 4 4 3 3 3 3 4 4 3 3 3 2 3 3 3 3 3 3 3 3 3 3 3 3 3 3 3 3 3 3 2 2 3 3 4 3 3 3 3 2 2 2 2 2 3 3 3 2 3 3 3 2 2 2 2 2 2 1 1 2 2 2 2 2 2 2 2 2 2 2 2 2 2 1 2 3 2 1 2 2 2 2 3 3 3 2 1 1 1 2 2 2 2 2 1 2 2 2 1 0 0 1 2 1 1 2 2 1 0 1 1 1 2 2 2 2 1 2 2 2 2 2 1 1 1 1 1 1 0 1 1 1 1 1 1 2 2 2 2 2 2 1 1 1 1 2 2 2 1 2 2 2 1 0 0 1 1 1 1 1 1 1 1 1 2 1 1 0 1 1 2 2 1 1 0 0 1 2 1 1 2 1 1 1 0 0 0 0 1 1 1 2 2 1 0 1 1 1 1 0 0 1 1 1 1 1 2 1 0 1 0 0 1 1 0 1 1 1 1 1 0 0 1 0 0 1 1 1 0 2 2 1 1 1 0 0 1 1 1 1 1 1 1 0 1 1 0 1 0 0 1 1 1 1 0 1 0 0 1 1 0 0 0 0 1 1 1 2 0 1 1 0 0 1 1 0 1 1 0 1 1 2 1 1 2 0 0 1 1 2 0 0 0 0 1 1 -1 1 1 0 0 1 0 0 0 1 1 1 0 2 0 0 -1 2 1 2 -2 6 -2 
-2 4 -2 0 0 1 0 0 0 1 1 1 1 1 1 1 1 1 1 0 0 2 0 0 0 1 1 -1 0 1 0 1 2 0 0 0 1 0 -1 2 1 1 1 1 0 1 1 0 1 1 0 1 0 1 1 1 1 1 1 1 1 1 1 0 0 1 2 1 1 0 0 1 0 1 1 1 1 0 0 1 1 1 1 1 2 1 0 1 1 0 1 1 1 1 0 1 1 1 1 1 1 0 1 1 0 0 1 0 1 2 1 1 1 1 1 2 1 1 1 2 1 1 1 1 1 1 1 1 2 2 1 1 1 0 1 1 1 1 1 1 1 1 1 2 2 1 1 1 1 0 0 1 1 1 2 2 1 0 1 2 2 1 0 1 1 1 2 1 1 1 2 1 0 0 1 2 2 1 1 1 0 1 2 2 1 1 2 2 1 1 2 1 1 2 2 1 1 1 1 2 2 2 1 1 1 2 2 2 1 1 1 1 1 2 1 1 1 1 2 2 2 1 1 1 2 2 1 1 1 1 2 2 2 2 2 2 1 1 2 2 2 2 2 2 2 2 3 3 3 3 2 2 2 2 2 3 2 2 3 3 3 2 2 3 2 3 3 3 2 2 3 3 2 2 3 3 3 3 3 3 3 3 3 3 3 3 4 4 3 3 3 4 4 4 4 4 5 5 4 5 5 4 4 5 6 6 5 5 5 5 5 5 5 4 4 3 4 4 4 4 4 4 4 4 4 4 4 4 4 3 3 3 3 3 3 2 2 3 3 2 2 3 4 3 3 3 2 2 2 2 2 2 2 3 3 4 3 2 2 3 3 2 2 2 2 2 2 2 2 2 2 2 2 2 2 2 2 2 2 2 2 3 3 2 2 3 3 3 3 2 3 3 2 2 2 2 2 2 1 2 2 1 1 2 3 2 2 1 1 1 1 2 1 1 1 1 1 2 2 2 2 2 2 2 2 2 2 1 1 2 2 2 2 2 2 2 2 2 1 2 2 2 2 1 0 1 1 1 1 1 1 1 2 2 2 2 2 2 1 1 2 2 1 1 1 1 1 1 1 2 2 1 1 2 1 1 2 2 1 1 0 0 1 1 1 1 1 1 2 2 1 1 2 1 0 0 1 1 1 1 1 1 1 1 1 1 2 1 0 0 1 2 2 1 1 0 0 1 0 0 1 1 1 0 0 1 1 1 1 0 1 0 0 2 1 1 1 2 1 1 0 0 0 0 1 1 2 1 1 1 0 0 1 1 1 1 1 1 1 1 1 1 1 1 0 1 2 0 1 0 0 0 0 1 1 0 0 1 1 1 0 0 1 1 0 1 1 1 1 1 1 0 0 1 1 0 1 2 0 1 3 0 0 1 1 1 0 2 1 0 1 1 1 1 1 0 0 1 1 0 0 2 1 0 1 1 0 1 0 1 1 0 1 1 -1 1 1 3 -2 3 
1 -1 -1 2 -1 2 0 2 -1 1 1 1 1 1 0 1 1 0 1 1 0 1 0 1 1 1 1 1 0 1 1 1 1 2 1 0 0 0 0 1 1 0 0 2 1 1 0 1 0 0 0 2 0 0 1 1 1 1 1 2 1 0 0 0 0 0 1 2 2 1 1 1 1 1 1 1 1 1 0 1 0 0 1 1 1 1 1 1 0 0 1 0 0 1 1 1 1 2 1 1 1 0 0 0 1 1 0 1 1 1 1 1 1 1 1 1 1 1 1 1 1 1 1 0 1 1 1 2 2 1 1 1 1 0 1 1 1 1 1 1 1 1 1 2 1 1 1 1 0 0 1 2 1 1 1 1 1 1 1 1 1 1 1 2 1 0 1 1 1 1 1 1 1 1 2 1 0 1 1 1 1 2 1 1 1 2 2 1 0 1 2 2 1 1 1 1 2 2 2 1 0 1 2 2 2 2 2 2 1 1 1 1 1 1 1 2 3 2 2 1 1 2 2 2 2 2 1 1 2 2 2 2 2 2 2 2 2 2 2 2 2 2 2 3 3 3 3 3 2 2 2 3 3 3 2 2 2 2 2 2 2 3 3 3 3 3 3 2 2 2 3 3 3 3 4 4 3 3 3 4 3 3 3 3 3 4 4 4 3 3 3 4 5 5 5 5 6 6 5 5 5 5 4 5 5 5 5 5 5 5 5 6 6 5 4 5 5 4 4 4 4 4 4 4 4 4 4 4 3 3 3 3 3 4 4 3 3 3 3 3 3 3 3 3 3 3 3 2 2 3 3 3 2 2 2 3 3 3 3 3 3 2 2 2 2 2 2 2 2 2 2 3 2 3 2 2 1 2 2 2 2 2 2 2 2 2 2 2 2 1 2 2 2 2 2 2 1 1 2 2 2 2 3 3 3 3 3 2 2 2 2 2 1 1 2 2 2 2 2 1 2 2 2 2 2 2 2 2 2 2 1 2 2 1 1 1 1 2 2 1 1 1 1 2 2 2 1 1 1 1 1 1 2 2 2 1 1 1 2 2 2 2 1 1 1 1 2 2 1 1 1 1 1 1 1 1 1 1 1 1 1 1 1 1 1 1 1 1 1 1 1 2 2 1 1 0 0 0 1 2 1 1 1 1 1 1 1 1 1 1 1 1 1 1 1 1 0 1 1 1 1 1 0 0 0 1 1 2 1 1 1 1 0 1 1 1 1 1 2 2 0 1 1 1 1 1 2 1 0 2 1 1 1 1 1 0 0 1 1 1 1 1 1 1 1 1 0 1 1 1 0 1 1 0 0 1 1 2 1 1 2 1 0 0 0 2 0 0 1 1 1 2 2 1 0 1 1 0 0 1 1 0 1 1 0 2 1 1 1 1 0 0 0 1 -1 0 1 1 0 0 1 1 0 2 1 1 0 1 0 1 -1 1 1 1 -1 3 -1 1 1 1 
1 1 0 0 0 1 0 2 0 1 1 1 1 1 0 1 1 0 1 1 0 1 1 1 2 0 0 1 0 0 1 2 1 1 2 0 0 1 2 0 0 1 1 0 1 2 1 1 1 0 0 1 1 1 1 1 0 1 1 2 1 0 0 0 1 1 1 2 1 1 1 0 1 1 0 1 1 1 0 0 0 0 0 0 1 2 0 0 2 1 0 1 2 1 0 1 0 1 1 0 0 1 1 0 0 0 1 1 1 1 1 1 1 1 1 1 1 1 1 1 1 1 1 1 1 1 2 2 1 1 1 1 0 1 1 2 2 1 1 1 1 1 1 2 2 2 1 0 0 1 0 0 0 1 1 1 1 1 1 2 2 2 1 1 1 1 1 0 1 2 1 1 1 0 0 1 1 2 1 0 0 1 2 1 0 1 1 1 1 1 1 1 1 2 2 1 1 2 2 2 2 2 1 1 1 1 1 2 1 1 1 1 1 2 2 2 2 1 2 3 2 2 2 2 2 2 2 2 2 2 2 2 1 2 2 2 2 1 2 2 2 2 2 2 2 2 2 2 2 3 3 3 2 2 2 2 2 2 2 2 2 3 3 3 2 2 2 3 2 2 2 3 3 3 3 3 3 3 3 4 4 4 3 3 4 4 4 3 4 4 5 5 5 5 5 5 5 5 5 5 5 5 5 5 6 6 6 6 5 5 5 6 5 5 5 5 5 5 5 5 5 4 4 5 5 4 4 4 4 4 3 3 4 4 4 4 4 3 3 3 3 3 3 3 3 4 3 2 3 3 3 3 3 3 2 3 3 3 3 2 2 3 3 3 2 2 2 2 2 2 2 2 3 3 3 3 2 2 2 2 2 2 2 2 1 2 2 2 2 2 2 2 2 2 2 2 2 2 2 1 2 2 2 2 2 2 2 2 2 2 2 2 2 2 2 1 1 1 1 2 2 2 3 3 3 3 2 1 1 2 2 2 2 2 2 1 1 2 2 1 2 2 2 2 1 1 1 1 1 1 2 2 1 2 2 1 1 2 2 1 1 1 0 0 2 2 2 1 1 1 1 1 1 1 1 1 1 1 1 1 0 0 1 1 1 1 1 0 1 1 2 1 1 1 1 1 1 1 0 1 1 1 1 1 1 1 1 2 2 1 1 1 2 2 1 0 1 2 1 1 1 1 0 0 0 0 0 1 2 2 1 1 1 1 1 1 1 1 1 1 1 1 1 1 1 1 2 2 1 0 0 1 1 1 1 1 1 2 1 1 0 1 2 0 1 1 1 1 0 1 1 1 1 0 0 1 1 1 1 1 1 0 1 1 1 1 1 1 1 0 0 1 0 0 1 1 0 1 2 0 0 1 0 -1 0 2 1 1 1 0 0 1 2 0 0 1 0 0 2 0 0 1 1 2 1 1 1 1 0 0 0 0 1 0 0 1 1 1 0 1 
1 0 1 0 2 0 1 1 0 1 0 0 1 1 0 1 2 1 1 0 0 1 1 -1 1 1 0 0 0 2 1 1 2 1 0 0 2 1 1 1 0 0 1 0 1 1 1 1 1 1 1 0 1 1 0 0 1 2 1 1 1 1 0 0 1 0 0 1 2 2 1 0 0 1 0 1 1 1 1 1 1 0 1 1 0 0 1 1 1 1 1 1 1 0 1 1 2 1 1 1 1 1 0 1 1 1 0 1 0 0 1 0 1 1 1 1 0 0 1 1 1 1 1 1 1 1 1 1 1 1 1 1 1 1 1 1 1 1 1 0 0 1 1 2 2 2 1 1 1 1 1 1 1 1 1 1 1 1 2 1 1 1 2 2 1 1 1 2 1 2 2 2 1 1 2 2 1 1 1 2 2 1 1 2 1 1 2 1 1 1 1 1 2 2 2 2 2 2 2 2 1 1 1 1 2 2 2 2 1 1 1 1 2 2 1 2 2 2 1 1 2 1 2 2 2 2 2 2 2 2 2 2 1 1 1 2 2 1 2 2 2 2 3 3 3 2 2 2 2 2 2 2 3 3 2 2 2 1 2 2 2 2 3 3 2 2 2 3 2 2 2 3 4 4 3 3 3 3 3 3 3 4 3 3 4 5 4 4 4 4 5 5 5 5 5 6 6 7 6 6 6 6 6 5 6 6 7 6 6 6 6 6 6 6 6 6 6 6 6 5 5 4 4 5 5 4 4 4 4 4 4 4 3 3 3 4 4 4 5 4 4 3 3 3 3 3 3 3 3 4 4 3 2 2 3 3 3 4 4 4 4 3 2 3 3 2 3 3 3 3 2 2 3 3 3 2 2 3 2 2 2 2 1 2 2 2 2 2 2 3 2 2 2 2 3 2 2 3 2 2 2 2 2 2 2 2 2 2 2 2 2 2 1 1 2 3 2 2 2 2 2 1 2 2 2 2 2 2 1 1 1 2 1 1 1 1 1 2 2 1 1 1 2 1 2 2 2 2 2 2 2 1 1 1 1 1 1 1 2 2 1 1 1 1 2 2 1 0 1 2 2 1 1 1 1 1 1 1 1 1 1 1 1 1 1 0 0 1 2 1 1 1 1 1 1 1 0 0 1 2 1 1 1 1 1 1 1 1 1 1 1 1 1 1 1 1 1 0 1 1 1 1 1 1 1 1 2 2 1 1 1 2 2 1 0 1 1 1 1 1 1 2 1 0 1 2 1 0 0 0 0 1 2 1 0 0 0 1 1 1 0 0 1 1 1 0 1 1 0 1 1 0 1 1 1 0 1 1 1 0 0 1 1 1 1 0 1 1 0 1 1 0 1 1 1 1 1 1 0 0 1 0 -1 1 1 0 1 2 0 -1 1 1 1 1 0 0 -1 1 1 0 2 1 0 1 2 0 1 0 1 0 0 0 1 1 2 0 2 0 1 1 
1 2 1 1 1 0 1 0 0 0 0 0 0 1 1 1 0 1 1 1 0 0 1 1 1 0 0 1 0 1 1 2 1 1 1 -1 0 2 1 0 0 -1 0 1 1 0 1 2 0 -1 1 2 1 0 1 1 0 1 1 1 1 1 1 1 0 0 1 1 1 1 1 0 0 1 0 0 1 1 1 0 1 1 1 0 0 1 2 1 1 1 1 1 0 0 1 1 1 1 1 1 0 1 1 1 0 0 1 2 1 0 0 0 1 1 1 1 1 1 1 0 0 1 1 1 1 1 1 0 0 0 1 1 1 0 0 1 1 1 1 0 0 1 2 2 1 2 2 1 1 1 1 1 1 1 1 1 1 1 1 1 1 1 1 1 1 1 1 2 1 1 1 2 2 1 1 1 1 2 1 0 1 1 2 2 1 1 2 1 1 2 1 1 1 1 1 1 1 1 2 2 2 2 1 1 2 2 1 1 1 1 1 1 1 1 2 2 2 2 1 1 2 2 1 2 2 2 2 2 2 2 2 2 1 2 2 2 2 2 2 2 2 2 3 3 2 2 1 2 2 3 3 3 3 3 2 3 2 2 2 3 3 3 3 2 2 2 2 3 3 3 3 3 4 4 4 3 3 3 4 4 4 4 4 4 5 5 4 5 5 4 5 5 6 7 6 6 7 7 6 6 7 7 7 8 7 7 7 7 7 7 6 6 7 6 6 5 5 5 5 5 5 5 5 5 5 5 4 4 4 4 5 4 3 3 4 3 3 3 4 4 3 3 3 3 3 3 3 3 4 4 3 3 3 3 3 3 4 4 3 3 3 3 3 3 2 2 3 4 3 2 2 2 2 2 3 3 3 3 3 2 2 2 2 2 2 3 3 3 2 2 2 2 2 2 2 2 3 3 2 2 2 2 2 2 2 2 2 2 1 1 2 2 2 2 2 2 2 1 1 2 2 2 2 2 2 2 1 1 1 2 2 1 2 2 2 2 1 1 2 1 2 2 2 2 2 2 2 2 2 2 2 2 2 2 1 1 2 2 2 1 1 2 2 2 2 2 1 1 1 1 1 1 1 1 1 1 1 1 1 1 1 1 1 1 1 1 1 1 1 1 2 2 1 1 1 1 1 1 1 1 1 1 2 1 1 0 1 1 1 1 1 1 1 2 2 1 1 1 1 1 1 1 1 2 2 1 1 1 1 1 0 1 1 1 1 1 0 0 1 1 1 1 1 1 1 1 1 1 1 0 1 0 0 1 1 0 1 1 1 1 0 1 0 1 1 0 1 1 1 1 0 0 1 1 1 1 2 1 0 0 0 1 1 1 1 1 1 1 0 1 0 0 1 0 1 2 1 1 0 1 0 0 1 1 0 1 1 1 0 1 1 0 1 1 0 1 0 0 1 1 1 1 1 1 0 0 2 1 0 1 2 1 0 0 2 1 0 2 1 1 
0 2 -1 1 2 1 0 -1 0 0 0 2 1 0 2 1 0 1 0 0 1 1 1 0 1 1 1 1 0 0 1 1 1 0 1 0 0 2 1 0 0 1 1 0 1 2 0 0 1 2 0 1 0 0 1 1 1 0 0 0 1 1 1 2 1 0 0 1 2 1 1 1 0 1 0 0 0 0 1 1 1 0 0 1 1 1 0 1 2 2 -1 1 1 0 1 0 1 1 1 0 1 1 1 1 1 1 1 1 1 1 1 0 0 1 2 2 1 1 1 1 1 0 0 1 0 1 1 1 0 2 2 1 1 1 1 1 1 1 1 1 1 1 2 2 2 1 1 1 2 1 1 1 1 1 1 0 0 1 1 2 1 1 1 1 1 1 1 1 1 1 2 2 2 1 1 1 0 0 0 1 1 1 1 2 2 1 0 1 2 2 1 1 1 1 1 1 1 1 2 2 2 2 2 2 2 2 1 1 1 2 2 2 2 2 2 2 2 1 1 1 1 1 2 2 2 2 2 2 3 2 2 2 2 2 2 2 2 2 2 2 2 2 2 3 3 3 2 2 2 2 2 2 2 3 3 2 2 2 2 2 2 3 3 3 3 3 3 3 3 3 3 3 4 5 4 4 4 4 4 4 4 4 4 4 4 5 5 5 5 5 5 5 6 7 6 6 7 7 7 8 8 9 9 8 8 8 7 7 7 8 7 7 7 7 7 7 6 6 6 5 5 5 5 5 5 5 5 5 5 4 4 4 3 3 3 4 4 4 4 4 4 4 5 4 3 3 4 3 3 3 4 4 3 3 3 3 3 3 4 3 3 2 2 2 2 2 3 2 2 3 2 3 3 2 2 3 3 2 2 2 2 2 2 3 3 3 2 2 2 2 2 2 2 2 2 2 2 2 2 3 2 2 3 3 2 3 3 2 2 2 2 2 2 2 2 2 2 2 1 1 1 1 1 2 2 2 1 2 2 2 1 1 1 1 1 1 1 1 1 1 1 2 2 1 2 2 2 2 0 1 2 1 1 1 1 2 2 2 2 2 2 1 1 1 2 2 1 1 1 1 1 1 2 1 1 2 2 2 1 1 1 1 1 1 0 1 1 1 1 1 2 2 2 1 1 1 1 1 1 2 2 1 1 1 1 1 1 2 1 1 1 1 1 1 0 0 1 1 0 1 1 1 1 1 1 1 2 1 1 0 0 0 1 2 1 1 1 1 1 0 1 1 1 1 1 2 0 1 1 -1 0 1 1 1 1 0 0 0 1 1 1 1 1 1 1 1 1 0 1 1 0 0 1 2 1 1 1 0 0 0 1 1 1 1 1 1 1 1 1 0 1 1 0 1 2 1 0 1 0 0 1 1 1 0 0 1 0 0 1 1 1 2 2 0 0 0 1 1 0 1 1 2 1 -1 0 2 0 0 1 0 1 1 2 1 1 0 0 1 0 3 
3 -3 2 0 1 0 1 0 -1 0 1 1 1 0 1 1 1 1 0 1 1 0 0 1 0 1 1 1 1 0 0 0 1 0 0 1 1 0 1 2 0 0 2 1 -1 1 1 1 1 2 0 0 0 1 1 1 1 0 0 0 0 1 1 0 1 1 1 0 2 2 1 1 1 2 1 0 1 0 0 1 1 1 1 0 1 2 1 0 0 1 1 1 0 0 2 1 0 1 1 0 1 0 0 1 0 0 1 1 2 1 1 1 0 1 1 1 1 2 1 0 1 1 1 1 1 1 1 1 1 1 1 1 1 1 0 1 1 1 0 1 1 1 2 1 0 1 1 1 1 1 1 1 1 0 0 1 1 1 1 1 1 2 2 1 1 1 1 1 1 1 1 1 1 2 2 1 1 1 1 1 1 1 1 1 1 1 1 1 1 2 2 1 1 1 1 2 1 1 1 2 2 2 2 2 3 3 1 1 1 2 2 2 2 2 1 1 2 2 2 2 2 2 2 2 2 2 2 2 2 2 2 2 2 2 2 2 2 3 2 2 2 2 2 3 2 2 2 2 2 3 3 3 2 2 2 3 3 2 2 2 3 3 2 2 3 3 3 3 4 4 5 4 4 4 4 3 3 4 4 4 4 4 4 4 4 5 6 5 5 6 6 7 7 7 7 6 7 7 9 10 10 11 12 11 10 10 9 9 9 9 8 8 7 7 7 7 7 7 7 7 6 6 5 5 5 5 5 5 5 5 5 4 4 4 4 4 4 4 4 4 3 3 4 4 4 3 3 3 4 3 3 4 4 3 3 3 4 4 3 4 3 2 2 3 3 3 3 3 2 3 2 3 3 2 2 2 2 2 2 3 3 2 2 3 3 3 2 2 2 2 2 3 2 2 2 3 2 2 2 2 2 2 2 2 2 3 2 2 1 2 2 3 2 2 2 3 2 1 1 1 2 2 2 2 2 2 2 2 3 3 2 2 1 2 2 2 1 1 1 2 2 2 2 2 1 1 1 1 1 2 2 2 2 2 2 2 2 2 2 1 1 1 1 1 1 2 1 1 2 2 1 1 1 1 1 2 2 2 2 1 1 1 1 0 0 1 1 2 2 1 1 1 1 1 1 1 1 2 1 1 1 1 1 2 1 0 1 1 0 1 1 1 0 0 1 2 1 0 1 1 1 1 1 1 1 1 1 1 1 1 1 1 0 1 1 1 0 0 0 1 0 1 2 1 1 2 1 1 1 0 1 1 1 1 1 1 1 1 1 1 1 1 1 2 1 0 1 1 1 0 1 1 0 1 2 1 0 1 1 0 1 1 1 1 0 1 1 1 1 0 1 0 0 1 1 0 1 1 0 1 2 0 0 1 0 -1 0 1 0 0 1 2 1 0 1 0 0 0 0 2 1 0 1 1 1 1 0 1 0 0 2 1 0 0 1 0 2 -1 3 0 
0 0 2 0 0 3 -1 -1 0 2 0 1 0 1 1 1 0 1 0 1 0 1 0 1 0 1 1 0 0 1 1 0 0 1 0 0 1 1 -1 0 1 1 -1 1 1 0 0 1 1 1 1 1 0 1 1 1 1 1 0 0 1 1 1 1 1 0 1 1 0 1 1 1 1 2 1 0 1 1 0 1 0 1 1 1 1 1 1 1 1 1 1 1 1 1 1 1 0 1 1 0 1 1 1 2 1 1 1 1 1 1 1 1 1 1 1 1 1 1 1 1 0 1 1 0 0 1 1 1 1 1 1 1 1 1 1 1 0 1 1 1 1 1 2 1 0 1 1 1 1 1 1 1 1 1 1 1 1 1 1 1 1 1 1 1 2 2 1 1 1 1 1 1 0 1 2 2 2 1 1 2 2 1 1 1 2 2 1 1 2 2 1 1 1 2 1 1 2 1 1 2 2 2 2 2 2 1 1 1 1 2 2 2 2 2 2 1 2 2 2 2 2 2 2 2 2 1 1 2 2 2 2 1 2 2 2 2 2 2 2 2 1 1 2 3 3 3 3 2 2 2 2 2 2 2 2 2 2 3 3 3 3 4 3 3 3 3 3 3 3 4 4 3 3 4 4 3 3 3 3 4 4 4 4 4 4 5 5 6 7 7 7 8 7 7 8 9 10 13 15 18 20 21 20 20 19 18 17 15 13 12 10 9 8 8 8 8 7 7 7 7 6 6 5 4 4 4 5 5 4 5 4 4 4 4 4 4 4 4 5 5 4 4 4 4 3 3 3 4 3 3 4 4 4 3 3 4 4 4 3 3 3 3 3 4 4 4 3 2 2 3 3 3 4 3 3 2 2 3 2 2 2 2 3 3 3 2 2 2 2 2 3 3 2 2 2 2 2 2 2 2 2 2 2 2 3 3 3 2 2 2 2 2 3 3 2 2 2 2 2 1 1 1 2 3 2 2 2 2 2 2 2 2 1 2 1 2 2 1 1 2 2 2 2 2 2 1 1 1 1 1 2 2 2 2 2 1 1 1 1 1 1 1 1 1 1 2 1 1 1 1 1 1 1 1 1 2 2 2 1 1 1 2 1 0 0 0 0 1 1 1 1 2 1 1 1 1 1 1 1 1 2 1 1 1 1 0 0 1 0 0 0 1 1 1 1 1 1 1 1 1 1 1 0 1 1 1 1 1 1 1 1 1 0 1 0 0 1 1 1 2 1 2 2 1 1 0 0 1 1 0 1 1 1 1 0 0 0 1 1 1 1 1 1 1 1 1 0 0 1 2 1 1 1 1 1 1 0 0 1 1 1 0 0 0 0 1 1 1 1 0 0 1 1 1 0 2 1 0 1 2 0 0 1 1 0 0 1 0 -1 1 0 1 0 1 0 0 1 1 0 0 0 0 0 0 0 2 0 0 0 1 1 1 1 2 0 2 0 0 1 1 
-1 3 -1 2 0 1 -1 2 1 2 1 1 0 0 1 1 0 0 1 1 0 1 1 1 1 0 0 0 0 0 1 1 1 1 1 1 -1 1 1 0 0 2 0 1 2 0 -1 0 1 1 1 2 1 1 1 1 0 1 2 2 0 0 0 1 1 0 0 1 0 1 1 0 1 1 1 1 1 1 0 1 1 1 0 1 1 1 1 1 0 0 1 1 0 1 1 1 0 0 1 1 1 1 1 1 1 1 1 1 1 1 1 1 2 1 0 1 1 1 1 1 0 1 1 1 1 1 1 2 1 1 1 1 1 1 1 0 0 1 1 1 1 2 1 1 1 1 0 1 2 2 1 1 1 2 2 2 2 2 1 1 1 1 1 1 1 2 1 1 2 2 1 1 1 2 2 2 2 2 2 2 1 1 2 2 2 1 1 2 2 2 1 2 2 1 1 1 1 2 2 2 2 2 1 2 1 1 1 0 1 2 2 1 1 2 2 1 2 2 2 2 2 2 2 2 2 2 1 2 2 2 1 1 2 2 2 2 2 3 4 2 2 2 3 3 3 3 3 3 3 3 3 3 3 3 2 2 3 3 3 3 3 3 3 2 3 3 3 3 3 3 4 4 3 4 3 3 3 4 4 4 4 4 4 5 5 6 5 6 7 7 7 8 8 8 10 14 19 25 31 36 39 40 40 40 38 36 34 30 25 22 19 15 12 10 9 8 7 7 7 7 7 7 6 5 5 5 5 5 5 5 5 4 4 4 3 4 5 4 4 4 3 3 4 4 3 3 3 4 4 3 3 3 3 3 4 3 3 3 3 3 4 4 4 4 4 4 4 3 3 3 3 3 3 3 2 3 3 3 3 3 3 3 3 4 3 2 2 2 2 2 2 3 2 2 2 2 2 2 2 2 2 1 1 1 2 2 1 2 2 2 2 2 2 2 2 2 2 2 2 3 2 2 2 2 2 3 2 2 2 3 3 3 2 1 1 1 2 2 1 2 3 3 2 2 1 2 1 1 2 2 2 3 3 2 2 2 1 2 1 1 1 1 1 2 2 1 1 1 1 1 1 1 1 1 1 1 2 2 1 1 0 1 1 1 1 0 1 1 1 1 1 1 1 1 1 1 1 1 0 0 1 1 1 1 0 0 0 1 1 1 0 1 1 1 1 2 1 0 0 0 1 0 0 1 1 0 0 1 0 1 2 1 0 1 1 0 0 1 1 1 1 2 1 1 2 1 0 0 1 1 0 1 1 1 0 1 1 0 1 1 1 1 0 0 1 1 1 1 0 1 1 1 2 1 0 1 1 2 1 1 1 0 0 1 2 1 0 1 2 1 0 2 0 1 1 2 1 0 1 1 0 1 0 -1 0 1 1 1 0 1 0 1 1 1 0 0 0 1 1 1 0 1 1 1 0 1 0 0 0 0 1 2 -1 2 0 2 -1 3 -2 1 
1 0 1 1 2 -2 1 1 1 0 1 1 1 0 0 -1 0 0 1 1 0 0 1 1 2 0 1 0 1 1 0 1 1 0 0 2 0 0 1 1 0 1 1 1 1 1 1 0 1 1 1 0 2 2 0 0 0 1 1 1 1 0 0 0 1 1 0 1 1 1 1 0 1 0 1 2 1 1 1 0 1 1 1 1 1 1 2 1 1 0 2 1 1 2 0 2 2 1 0 0 1 1 1 1 1 1 1 1 1 1 2 1 0 0 1 1 0 0 1 1 0 1 1 1 1 1 1 1 1 1 1 2 1 1 1 0 0 1 1 1 1 2 2 1 1 1 1 1 1 1 2 1 1 2 1 1 1 2 1 1 2 2 2 1 1 1 1 1 2 2 2 1 1 1 1 2 2 1 1 1 1 1 1 1 2 2 1 1 2 1 1 2 1 1 1 1 2 2 1 1 2 2 2 2 2 1 1 2 1 1 1 1 2 3 2 2 2 2 2 3 2 1 2 2 1 1 1 2 2 1 2 2 2 1 1 2 2 3 3 2 2 3 2 2 2 2 3 3 2 2 2 2 3 3 2 2 2 3 3 3 3 3 3 3 3 3 3 3 3 3 3 3 3 4 4 4 4 4 4 5 5 4 4 5 5 6 6 6 7 8 8 9 9 12 19 28 38 48 57 62 65 67 67 66 64 60 56 51 46 40 34 28 22 17 13 10 9 8 7 7 8 7 7 6 5 5 6 6 6 5 5 5 4 4 4 5 5 4 4 4 4 4 4 3 4 3 3 4 5 4 4 3 3 3 4 4 4 4 4 4 4 3 4 4 4 3 3 3 3 3 3 3 4 4 3 2 3 3 3 3 2 2 2 3 3 2 2 2 2 2 2 2 2 2 2 2 2 2 2 2 1 2 2 3 3 3 2 2 2 2 2 2 2 3 2 2 3 2 1 2 2 2 2 2 2 2 1 1 1 1 2 1 1 0 1 1 2 1 1 2 2 2 2 1 2 2 1 1 2 2 2 2 1 1 2 1 1 1 1 1 1 1 1 1 1 1 1 1 2 2 1 1 1 1 1 2 2 1 1 1 2 2 2 1 1 1 1 0 0 1 2 1 1 1 1 1 0 1 2 2 1 2 1 0 0 1 1 1 2 1 1 0 1 1 1 2 1 1 1 1 1 1 0 0 1 1 1 1 1 1 1 1 1 0 0 0 1 1 2 1 1 1 1 1 1 0 2 1 0 1 0 1 1 1 0 1 1 0 1 1 1 1 1 1 1 0 1 2 1 1 2 1 1 0 0 1 1 1 1 1 0 0 1 1 1 0 1 2 0 0 1 1 0 2 2 0 1 1 1 0 1 1 0 0 2 1 1 1 1 0 1 1 1 1 1 1 1 1 1 0 2 1 0 0 2 1 1 -1 1 0 1 1 1 1 1 0 2 0 0 0 
1 -1 2 -1 2 0 2 0 3 0 0 0 1 0 1 -1 0 0 1 1 2 0 1 1 2 0 1 0 1 0 0 1 1 0 0 1 1 0 0 0 1 0 0 2 1 0 2 1 0 0 1 0 1 1 1 0 1 1 1 0 1 0 1 1 1 1 1 1 1 2 1 0 1 1 1 1 1 2 1 -1 1 2 1 0 1 1 1 1 2 0 1 0 1 1 1 1 2 1 1 1 1 1 1 2 2 0 0 1 1 0 1 1 1 1 1 0 1 1 0 0 1 1 1 1 1 1 1 1 1 1 1 0 1 2 1 0 0 1 2 1 1 1 1 1 2 1 1 1 1 2 2 1 1 1 1 0 1 1 2 2 1 1 1 1 1 1 1 1 1 1 1 1 1 2 1 1 1 1 2 1 1 1 1 1 1 1 1 1 1 1 1 1 1 1 2 1 1 1 1 1 2 2 2 2 2 2 2 2 2 2 2 1 2 2 2 2 2 2 2 2 2 1 1 1 2 3 2 1 2 2 2 1 2 2 2 2 2 2 2 2 2 2 3 3 2 2 2 2 3 3 3 3 3 3 2 3 3 3 3 3 3 3 3 2 3 3 4 3 3 3 3 3 4 4 3 4 4 5 5 4 4 4 5 6 6 7 6 6 7 8 8 10 14 22 34 48 62 74 83 87 89 90 89 87 84 81 78 73 67 61 53 45 37 29 22 16 12 9 8 7 7 7 7 7 6 6 6 6 6 5 5 5 5 5 5 5 4 4 4 4 4 4 4 4 4 4 3 4 4 4 3 3 4 4 4 3 3 3 3 3 4 4 4 4 3 3 3 3 3 3 4 4 4 3 2 2 3 3 3 3 4 4 3 2 2 2 2 2 3 3 3 3 3 2 3 3 3 3 3 2 2 2 2 2 2 2 2 2 2 2 2 2 2 2 2 1 2 2 2 2 2 2 2 2 2 2 2 2 1 2 2 2 2 2 1 1 1 1 1 2 2 2 2 1 1 1 1 1 2 1 1 2 2 2 2 1 2 2 2 2 2 2 1 0 2 2 2 1 1 2 1 1 2 1 1 2 2 2 2 1 1 1 1 1 1 2 2 1 1 1 1 1 1 1 1 1 1 1 2 1 1 1 1 1 1 0 1 1 1 1 2 1 1 1 1 2 1 1 1 1 1 1 2 1 0 1 1 1 1 1 0 0 1 0 0 1 1 1 1 1 2 1 0 0 2 0 1 1 1 1 0 1 1 1 1 1 0 0 2 1 0 1 2 0 0 1 1 1 1 1 1 0 1 1 1 0 1 1 1 1 1 1 2 1 1 1 0 0 0 1 1 0 2 1 0 0 2 0 0 1 1 1 2 0 1 0 1 1 1 0 1 0 1 1 0 0 0 0 1 0 1 0 1 0 0 0 2 0 1 -1 1 0 1 0 1 0 2 -2 2 0 
0 0 2 0 0 1 2 0 1 0 0 1 0 0 0 0 1 1 0 1 1 1 0 0 1 1 1 0 1 2 0 1 1 2 1 0 1 2 1 -1 1 0 0 1 1 1 1 1 0 0 1 1 0 0 2 1 0 1 1 0 0 0 1 1 0 0 1 1 0 0 1 2 1 0 1 2 1 0 1 1 1 0 1 1 0 1 2 1 0 0 0 0 2 2 1 2 1 0 0 1 1 1 2 1 0 1 1 0 0 1 2 0 0 1 1 1 1 0 0 1 1 0 1 2 1 0 1 1 1 1 1 1 1 0 0 2 1 0 1 1 1 1 1 1 1 1 1 2 2 1 2 2 1 1 -1 -1 1 2 1 1 1 2 1 1 1 1 1 1 1 1 1 1 0 1 1 1 1 1 1 2 1 1 1 1 1 2 1 1 1 1 1 2 2 1 1 1 2 2 1 1 2 2 2 2 1 1 2 2 1 1 1 2 2 2 2 2 2 2 2 2 2 2 2 2 2 2 2 2 2 2 2 2 2 2 2 3 3 2 2 2 2 3 2 2 2 2 3 3 3 3 3 3 3 3 2 2 2 3 3 3 3 3 3 3 3 3 3 3 4 4 4 4 3 3 4 4 4 4 4 4 5 4 5 6 6 6 6 6 7 8 10 15 24 38 56 73 87 97 103 105 105 105 104 102 100 97 94 90 85 79 73 65 57 47 37 28 21 15 11 9 8 8 8 7 6 6 6 6 6 5 5 5 6 5 5 5 5 5 5 5 5 4 3 3 3 3 4 5 5 5 4 4 4 4 3 3 4 4 4 3 2 2 3 3 3 3 3 4 4 3 3 3 4 3 2 2 4 4 3 3 2 2 2 2 2 2 2 2 2 2 3 2 2 2 2 2 2 2 3 3 2 2 2 3 3 2 2 2 2 3 3 2 2 2 2 2 2 2 2 2 2 2 2 2 2 1 2 2 2 2 1 1 2 2 2 2 2 2 1 1 1 1 1 1 1 2 2 1 1 1 2 1 1 1 1 1 1 1 1 2 2 1 0 1 1 1 1 1 2 1 0 1 2 2 1 2 2 2 2 1 1 1 1 0 1 1 1 1 1 1 1 1 1 0 1 2 1 1 2 2 2 1 1 1 2 1 1 1 1 1 1 1 2 1 0 1 3 2 1 1 1 1 1 1 1 1 2 1 1 1 1 1 1 0 1 1 1 1 1 0 2 1 0 1 1 0 0 1 1 1 0 0 1 1 1 0 0 0 -1 0 1 1 1 1 1 0 0 1 1 0 1 0 0 0 0 0 1 1 1 1 0 0 1 0 1 2 0 0 1 1 0 0 2 1 1 1 1 0 1 2 0 1 2 1 1 1 1 0 0 0 1 1 0 1 1 1 0 0 1 1 1 0 1 1 1 2 1 0 0 1 0 0 0 1 1 1 1 0 3 0 
-1 4 -4 3 -1 3 -1 1 0 0 -1 1 0 1 0 1 1 2 1 2 0 1 1 1 -1 0 1 1 0 0 1 2 0 1 1 1 0 0 1 2 1 0 0 1 1 1 -1 1 1 1 0 0 1 0 0 1 2 1 1 1 1 1 1 1 0 0 0 0 1 1 0 1 0 1 1 0 1 2 0 1 1 0 0 1 0 1 1 2 0 1 1 1 1 1 1 1 0 1 1 1 0 2 1 0 1 2 0 1 2 1 0 1 1 0 0 2 2 1 1 0 0 1 1 1 1 1 1 1 1 2 1 1 1 1 1 0 0 1 2 2 1 1 1 0 0 1 1 1 2 2 2 1 0 1 1 1 1 1 1 1 1 1 1 1 1 1 1 1 1 1 1 1 1 1 1 1 1 1 0 1 2 2 1 1 1 1 2 2 1 2 2 1 0 1 2 2 1 1 1 2 2 1 0 1 2 2 1 1 2 3 2 2 1 2 2 3 2 2 2 2 2 2 2 2 2 2 2 2 2 2 2 3 2 2 2 3 3 2 2 2 2 2 2 2 2 3 3 3 3 2 3 3 2 2 2 3 3 4 3 3 4 4 3 3 3 3 3 4 4 4 3 3 4 4 5 5 4 4 4 4 4 5 5 5 5 7 8 8 8 9 13 22 39 60 80 96 106 112 115 115 115 114 113 111 109 106 103 100 97 93 88 82 74 65 55 44 33 24 17 12 9 8 8 7 7 7 6 6 5 5 5 5 5 6 5 5 4 4 4 4 4 5 4 3 3 4 4 4 4 4 3 4 4 4 3 3 4 4 3 3 3 3 4 4 4 4 3 3 3 3 3 3 3 3 2 3 3 3 3 3 3 3 3 2 2 3 3 2 2 3 3 2 2 2 2 2 2 3 3 2 2 2 2 1 1 2 2 2 3 3 2 2 1 1 2 2 2 2 2 2 3 3 2 2 2 2 2 2 2 2 2 2 2 3 2 2 2 2 1 1 1 2 3 3 1 1 1 2 2 2 2 2 2 1 1 1 1 1 1 1 2 2 1 1 2 2 2 1 1 1 0 1 2 2 1 2 1 2 1 1 1 1 1 1 1 2 2 1 1 2 2 1 1 1 1 1 1 1 1 1 1 1 1 1 1 1 1 2 1 1 2 1 0 1 1 1 1 2 1 1 0 1 0 1 1 1 1 1 0 0 1 2 0 -1 1 1 0 1 2 1 1 1 0 1 2 2 1 1 1 1 1 0 2 1 1 1 1 0 0 1 0 0 2 2 1 2 1 0 1 1 1 0 0 1 1 1 1 1 0 1 1 1 0 1 1 1 0 2 1 -1 0 1 1 0 1 1 0 2 1 1 0 2 1 1 0 0 0 1 1 0 0 0 1 1 -1 0 0 1 0 0 0 1 1 1 1 2 1 1 -1 1 -1 1 0 1 -1 3 -2 5 -3 2 
0 0 1 2 1 0 0 2 -1 0 1 1 0 0 0 2 2 1 0 1 1 1 1 1 1 0 -1 0 1 1 0 1 1 1 0 0 1 1 1 2 0 1 2 0 0 1 1 0 0 2 1 -1 0 1 -1 0 1 1 1 1 0 1 1 1 0 0 1 0 1 0 0 2 1 0 1 1 1 1 0 1 2 1 0 0 1 1 0 2 0 0 0 1 1 1 2 1 1 1 0 0 1 1 0 1 1 1 1 2 2 0 1 1 1 1 2 2 1 1 2 1 1 1 0 1 1 1 1 1 1 2 2 1 0 0 1 1 0 0 1 2 2 1 0 1 1 1 1 1 2 1 1 1 1 1 1 1 2 2 1 2 2 1 1 1 1 2 1 1 1 1 1 1 1 1 2 1 1 1 1 1 1 2 1 1 1 1 1 2 1 1 1 2 2 2 1 1 2 2 2 1 1 2 2 2 1 2 2 1 1 2 2 2 1 1 1 2 2 2 2 2 1 2 3 3 2 2 2 2 2 2 3 3 3 3 2 2 2 2 2 2 2 2 2 1 2 3 3 2 2 3 3 3 3 3 3 3 3 3 2 3 4 3 2 3 3 3 3 3 4 4 4 4 3 4 4 4 4 4 4 4 5 6 6 5 5 7 8 8 8 11 20 35 57 81 100 113 119 122 123 123 122 120 118 116 115 113 111 109 106 103 99 95 89 81 72 62 50 38 26 18 12 9 8 8 8 7 7 6 5 4 5 5 6 5 5 6 5 5 4 4 4 4 4 4 4 4 4 4 4 4 4 3 3 4 4 4 4 4 4 4 3 4 4 4 3 4 4 4 4 3 3 3 3 2 2 3 3 3 2 3 3 3 3 3 3 4 3 3 2 3 3 3 2 2 3 3 2 3 3 2 2 2 2 2 2 3 3 2 2 2 2 3 2 2 2 3 2 3 3 2 2 2 3 2 2 2 2 2 2 1 2 2 2 2 2 1 2 2 2 2 2 2 2 2 2 1 2 1 1 2 1 2 2 2 1 1 1 1 2 1 1 1 1 1 2 2 1 1 1 1 1 2 2 2 1 1 2 2 1 1 2 1 1 1 1 1 1 1 1 1 1 1 1 1 1 1 1 1 1 2 1 0 1 1 1 2 2 2 1 0 0 1 1 1 0 1 1 1 1 0 0 1 0 0 1 1 1 1 1 1 0 1 1 0 0 1 1 0 1 1 1 1 1 1 0 1 1 1 1 1 1 1 2 1 1 2 1 1 0 1 1 1 1 1 0 1 0 0 1 1 1 1 0 1 0 1 1 2 1 1 1 1 0 1 1 0 1 1 0 1 2 1 0 1 2 1 1 1 0 0 2 1 0 1 1 1 1 1 0 1 1 0 0 0 1 1 0 1 1 1 1 1 1 2 1 1 1 1 0 2 0 0 0 1 2 2 0 1 1 0 
1 0 2 0 2 2 0 1 0 1 1 -1 1 1 0 0 1 1 1 1 1 1 1 0 1 1 1 1 0 0 0 1 1 1 1 0 1 1 1 1 1 1 1 1 0 0 0 1 0 0 2 1 0 1 0 0 1 1 1 1 0 0 1 1 1 0 1 1 1 1 1 1 1 0 0 1 1 0 1 2 1 0 1 1 0 1 1 1 1 1 0 1 1 1 1 1 1 0 1 2 1 0 1 1 0 0 2 2 1 1 1 1 1 2 2 2 2 2 2 1 1 1 1 2 2 1 1 2 1 1 2 2 1 1 1 1 0 0 1 1 1 1 1 1 1 1 1 1 1 2 1 1 1 2 2 1 1 1 1 1 1 2 2 1 1 1 1 1 1 2 2 1 1 1 1 1 1 1 1 1 1 2 2 1 1 2 2 2 1 1 2 1 1 1 1 2 2 1 2 2 2 2 2 2 2 2 1 2 2 2 1 2 1 1 2 2 2 2 2 2 2 3 3 3 3 2 2 2 2 2 2 2 2 2 2 2 3 2 2 2 2 3 3 2 2 2 3 3 3 2 2 2 3 3 3 3 3 3 3 3 3 4 5 4 3 4 4 4 4 4 4 3 3 4 4 4 4 5 5 5 5 6 5 5 6 8 8 8 9 15 28 51 77 100 115 123 126 127 127 126 125 124 123 121 119 117 115 114 112 110 107 103 98 92 85 76 66 54 40 29 19 12 9 8 7 8 8 7 6 6 5 5 4 4 4 5 5 5 4 3 4 4 4 4 4 4 4 4 4 4 4 3 3 3 4 3 4 4 4 4 4 4 4 4 3 4 3 3 3 3 3 3 2 2 2 2 3 4 3 3 4 4 3 3 3 3 3 3 3 3 3 2 2 2 3 3 3 3 3 3 3 3 3 2 2 3 3 2 2 2 2 1 1 1 1 2 1 2 2 2 2 2 2 2 2 2 2 2 2 2 2 2 2 2 1 2 2 2 2 2 2 3 3 3 2 2 2 2 1 2 2 2 1 1 1 2 1 1 1 1 2 2 2 1 2 2 1 1 1 1 2 2 1 2 1 1 1 1 2 1 1 1 1 1 1 2 2 2 1 1 1 1 0 1 1 1 1 1 1 2 2 1 1 0 1 1 1 1 2 2 0 0 0 0 0 1 2 2 2 0 0 1 1 0 1 1 1 0 0 1 2 1 1 0 0 1 1 2 1 1 1 0 0 2 1 1 1 2 1 1 1 0 1 1 2 1 0 1 0 1 2 2 1 0 0 0 1 0 1 1 1 1 1 1 0 0 1 1 1 1 1 1 0 1 1 0 2 1 1 1 0 0 1 1 1 1 1 1 0 0 1 0 1 1 0 1 2 2 1 0 0 1 1 0 0 1 0 1 1 1 0 0 1 2 1 1 1 0 0 1 1 0 0 0 1 1 1 0 1 1 
0 1 1 -1 2 1 0 1 0 0 0 -1 0 1 -1 0 1 1 1 0 0 1 1 0 0 0 0 1 1 1 0 0 0 0 1 1 1 0 0 1 2 2 0 0 1 1 0 0 0 0 0 0 0 1 1 0 1 2 1 0 0 2 0 0 2 2 0 0 1 1 1 0 0 1 1 1 1 1 1 1 1 1 0 0 0 1 0 1 1 1 0 0 0 0 1 1 2 1 0 1 1 0 1 1 1 1 1 0 0 1 1 0 2 2 1 1 1 2 1 0 1 1 0 0 1 1 0 1 1 1 2 1 1 1 1 1 1 1 1 1 1 1 1 1 1 1 1 2 2 1 0 1 1 1 2 2 1 1 1 1 1 1 1 1 1 1 1 1 1 1 1 1 1 1 2 2 2 1 1 1 1 1 1 1 2 2 2 1 1 1 2 1 1 1 1 2 2 1 1 1 2 1 1 2 2 2 2 1 2 2 2 2 2 1 2 2 2 2 2 2 2 2 2 3 2 2 1 1 2 3 3 2 2 3 2 2 2 2 2 2 2 2 2 2 3 3 2 3 3 3 3 3 3 3 3 3 3 3 3 3 3 4 4 3 3 3 3 4 4 3 3 3 3 4 5 5 5 5 5 5 5 5 6 6 7 8 8 8 11 21 41 68 93 112 123 127 129 129 130 129 128 127 126 125 123 121 119 118 116 114 111 108 104 101 96 88 80 69 55 42 30 19 13 9 8 7 8 7 6 6 6 6 5 5 5 5 5 5 5 4 4 4 5 4 4 4 4 5 5 5 4 5 5 4 4 4 4 4 4 4 4 3 3 4 4 4 4 4 4 4 4 4 3 3 3 3 2 3 3 3 4 3 2 2 3 3 3 3 3 3 3 3 3 4 4 3 3 3 2 2 3 3 3 3 2 3 3 3 2 2 2 2 2 2 2 2 2 3 3 2 2 2 2 2 2 2 2 2 2 2 2 2 1 1 1 2 3 3 3 2 2 2 2 2 2 2 2 2 1 2 1 2 2 2 1 1 2 2 2 2 2 2 2 2 2 1 1 0 0 1 2 2 2 2 1 0 1 1 1 1 1 1 1 1 2 2 1 1 1 0 0 1 2 1 0 1 1 1 1 2 1 1 2 2 1 1 1 1 1 1 1 1 1 0 0 1 1 1 2 2 1 1 1 1 1 1 2 2 1 1 1 1 1 1 1 1 1 1 0 1 1 1 1 1 1 1 1 1 1 1 1 1 0 0 1 1 1 1 1 1 1 1 1 1 0 0 1 0 0 1 1 1 0 1 1 0 0 0 1 0 1 1 1 1 1 1 1 0 1 1 0 2 2 0 1 2 1 0 0 0 1 1 1 1 1 2 1 1 1 1 1 0 0 0 0 0 0 1 1 0 0 1 0 0 1 1 2 1 1 1 1 0 1 1 1 0 1 1 0 2 
3 -3 2 0 2 -1 2 1 1 0 1 1 1 0 0 1 1 0 1 0 1 1 1 1 1 0 1 1 1 1 0 0 1 1 1 1 1 1 1 1 0 2 1 0 0 2 1 0 0 0 0 1 1 1 1 1 1 0 1 2 0 1 1 1 0 0 1 2 0 -1 1 1 1 1 0 1 1 0 1 1 1 1 2 1 0 0 1 1 1 0 0 1 0 1 1 1 1 1 1 1 0 0 1 2 1 1 0 0 0 0 1 1 1 1 1 1 0 1 0 0 0 0 1 1 1 1 0 1 1 1 2 2 1 1 1 1 1 1 1 1 1 1 1 1 1 0 0 1 1 1 0 1 2 2 1 0 0 1 1 1 1 1 1 1 1 1 2 2 1 2 2 1 1 2 2 2 1 1 1 2 2 1 2 1 1 1 2 2 1 1 2 2 2 1 0 1 2 2 2 1 2 2 2 1 0 1 2 2 2 2 2 2 2 2 2 2 2 2 2 2 2 3 3 2 1 2 2 2 2 2 2 2 2 2 2 2 3 3 3 3 2 3 2 2 3 2 2 2 2 3 3 2 2 3 3 3 3 3 4 4 4 4 3 3 4 4 3 3 3 3 4 4 4 4 4 4 5 5 5 5 5 5 5 6 7 8 8 8 14 29 54 83 106 120 127 128 130 132 133 133 131 130 129 128 127 125 123 121 119 117 115 112 109 106 102 97 91 82 70 57 42 28 18 12 9 8 8 8 7 6 6 7 6 5 5 6 6 5 5 5 4 4 4 4 4 5 5 4 5 4 4 4 4 3 3 4 4 3 4 4 4 4 4 4 3 3 4 4 4 3 3 3 3 3 4 4 3 4 4 3 3 3 3 4 4 3 3 3 3 3 2 2 2 2 3 3 2 2 2 3 3 3 2 2 3 3 3 2 2 2 2 2 2 2 1 1 2 3 3 2 2 2 2 1 2 2 2 2 2 2 2 1 1 2 2 2 2 2 2 3 2 2 1 1 2 2 2 2 1 2 2 2 2 1 1 1 1 2 2 2 2 2 1 1 1 1 1 1 1 2 2 2 1 1 0 1 1 1 1 2 2 1 1 1 1 1 1 2 2 1 1 2 1 1 0 1 1 1 1 2 2 1 1 1 2 1 1 1 1 1 1 1 1 0 1 1 1 1 1 2 1 1 1 2 2 0 1 2 1 1 1 1 0 1 2 1 1 1 1 1 1 1 1 0 0 1 2 2 2 1 0 0 0 0 1 1 0 1 1 1 1 1 0 1 1 0 1 1 1 1 0 1 2 0 0 0 1 1 1 0 2 1 0 1 1 1 0 1 1 0 0 1 0 0 2 2 1 0 0 0 0 0 0 0 1 2 2 1 1 0 1 1 0 0 1 2 1 0 1 1 1 0 0 1 2 0 1 0 0 0 2 0 1 0 3 0 0 -1 5 -1 
-2 4 -2 -2 1 2 -1 -1 1 1 1 1 0 1 1 1 0 1 1 0 1 1 0 2 1 0 1 1 1 1 0 0 0 1 1 1 1 0 0 1 1 1 0 0 1 2 1 0 1 1 0 1 1 0 1 0 2 2 0 0 0 1 1 1 1 2 1 1 0 0 1 0 1 1 1 1 1 1 0 1 1 0 0 2 2 1 0 1 2 0 1 1 0 1 1 1 1 2 1 0 1 2 1 1 0 1 0 0 1 1 1 1 1 1 1 1 1 2 1 1 0 1 2 1 1 1 1 1 1 2 1 1 1 1 0 1 1 2 2 1 1 1 2 2 1 1 1 1 1 1 1 1 0 1 1 1 0 0 1 1 1 1 1 1 1 1 1 2 2 2 2 2 2 2 2 2 2 1 1 1 1 1 1 1 1 2 2 1 0 1 2 2 1 1 1 2 2 1 1 1 1 1 1 2 2 1 1 2 3 3 3 2 2 1 2 2 1 2 2 2 2 2 2 2 2 2 2 1 2 3 2 2 3 2 2 2 2 2 2 2 3 3 2 2 2 2 3 2 2 3 4 3 3 3 2 2 3 3 3 3 3 4 4 3 3 3 3 3 3 4 4 4 5 5 5 5 5 5 5 5 5 5 6 7 7 8 8 11 20 39 68 96 114 124 127 128 130 133 135 135 133 131 131 130 128 126 124 123 122 120 118 116 114 111 107 103 98 90 82 70 56 40 26 16 10 7 7 7 7 7 6 6 6 6 6 5 5 6 6 6 6 5 5 5 4 5 5 4 5 4 4 4 4 4 4 3 3 4 4 3 3 3 4 5 4 3 4 4 4 5 5 4 4 4 4 4 4 3 3 3 3 2 3 3 4 4 4 3 3 3 3 3 3 3 3 3 3 2 2 2 2 3 2 2 2 2 2 3 2 2 2 2 2 2 2 1 2 2 2 3 2 2 2 2 2 2 2 2 2 2 2 2 1 1 1 2 2 3 2 2 1 1 1 1 1 1 2 1 1 1 2 2 2 2 2 2 2 2 1 1 2 2 2 1 1 1 1 1 2 2 2 1 1 1 2 2 1 1 1 1 1 2 1 1 1 1 1 1 1 0 1 2 2 1 1 1 1 1 2 1 1 1 1 1 2 1 1 1 1 2 2 2 1 1 1 0 1 2 1 1 2 1 1 1 1 1 1 1 1 1 1 1 1 1 2 1 1 1 1 1 0 1 1 1 1 2 1 0 1 1 0 1 0 -1 0 1 1 1 1 1 1 1 1 1 1 1 1 0 0 2 1 0 1 1 1 1 1 1 0 0 2 0 0 1 0 1 1 1 1 0 0 1 1 1 1 0 1 1 0 -1 0 0 1 1 0 0 1 1 1 1 0 1 1 2 1 0 1 1 1 1 1 1 1 0 0 0 0 0 0 1 0 0 2 1 0 0 1 2 -3 3 
2 -3 1 1 -2 0 0 1 0 0 1 2 1 0 0 1 1 1 0 0 1 1 0 2 1 2 1 0 1 1 1 0 1 2 1 1 1 1 1 1 1 2 1 0 0 2 1 0 0 1 1 1 0 1 2 1 0 1 0 1 0 1 0 0 0 1 1 2 0 0 1 1 1 1 1 0 0 1 0 1 1 1 2 1 1 0 1 1 1 0 1 2 1 0 0 2 1 1 2 1 1 0 0 2 1 1 0 1 1 1 1 1 0 1 2 1 1 1 0 1 1 1 1 1 1 1 1 1 0 1 1 1 1 1 1 1 1 1 1 1 0 1 2 1 1 1 1 1 1 2 1 1 1 1 1 0 1 1 0 1 1 2 1 0 1 2 1 1 1 1 2 1 0 2 2 2 1 1 1 1 1 1 2 2 1 1 2 2 2 1 1 2 2 1 1 1 1 2 1 1 1 2 2 2 2 2 2 2 2 2 1 2 2 2 1 1 2 2 2 2 2 2 2 2 1 2 3 3 3 3 2 2 2 2 2 2 2 2 2 2 3 3 3 3 3 3 2 3 2 2 3 3 3 3 3 3 3 2 3 3 3 3 3 3 3 4 4 4 4 4 4 4 5 4 4 5 5 5 5 6 6 6 6 7 8 8 8 13 26 50 81 107 120 125 125 126 129 133 135 136 134 134 133 132 130 128 126 125 124 123 120 118 116 114 110 108 103 98 91 80 67 53 36 23 15 10 8 8 7 6 6 6 6 6 6 6 6 5 4 4 5 5 5 6 5 5 5 4 4 4 4 5 4 4 4 4 4 4 3 3 4 4 4 4 4 3 3 4 4 4 4 3 3 4 4 4 4 4 4 4 4 4 5 4 4 3 4 4 3 3 2 3 3 2 2 3 3 3 3 3 2 2 2 2 3 3 2 2 2 2 2 2 2 3 2 2 2 2 3 3 3 3 3 2 2 1 2 2 2 3 2 2 2 2 1 1 1 1 2 2 2 3 2 2 2 2 2 2 1 1 2 2 2 2 2 1 1 2 2 2 2 2 2 2 1 1 2 2 2 2 2 2 2 1 1 1 1 2 2 2 2 2 1 1 0 1 1 1 1 2 2 2 2 1 1 1 1 2 1 1 1 1 1 1 1 2 2 1 1 1 1 1 1 1 1 1 1 1 1 1 1 1 1 2 1 1 0 1 1 1 0 1 1 1 1 1 1 0 1 2 1 1 1 0 1 1 1 1 1 1 0 0 -1 1 1 1 1 1 1 1 0 1 1 0 0 1 1 1 0 1 0 1 1 1 1 2 1 1 1 1 1 0 0 1 0 1 0 0 0 1 1 1 1 1 0 1 0 1 1 1 1 1 0 1 1 1 1 1 0 1 1 1 0 1 2 2 1 0 1 2 0 1 1 1 1 1 0 1 0 1 1 1 0 1 2 1 -1 -1 4 -1 
0 4 -2 2 -1 2 -1 1 0 1 0 1 1 2 1 0 0 1 0 1 0 1 0 2 1 2 0 0 0 0 0 0 0 1 0 1 1 2 0 0 1 2 1 1 0 0 0 1 0 1 0 1 1 1 1 1 0 1 0 0 0 1 0 1 1 1 1 1 1 1 2 1 0 0 0 1 0 1 0 1 1 0 1 1 1 0 0 0 0 2 1 1 2 1 0 1 1 0 1 1 2 1 1 2 0 0 1 1 0 1 1 1 1 1 1 1 1 0 0 1 1 1 0 0 1 1 1 1 1 1 1 1 1 2 1 1 1 2 1 1 1 2 2 1 1 2 1 2 2 2 2 2 1 1 1 1 1 1 1 2 1 0 1 1 1 1 0 0 1 1 2 1 1 1 1 2 1 2 1 1 1 1 1 1 1 1 2 2 1 1 1 2 2 1 1 2 1 1 1 2 2 2 2 3 2 2 2 2 2 2 2 2 1 1 1 2 2 1 1 2 2 3 2 2 3 3 2 2 3 3 3 3 3 2 2 2 2 3 3 3 3 3 3 3 2 3 3 3 3 2 3 3 4 4 4 4 4 3 3 3 3 3 3 3 3 3 3 4 4 4 4 4 5 5 4 4 5 5 5 5 6 7 7 8 9 9 10 17 34 61 92 114 124 126 124 123 127 131 134 136 137 136 135 134 132 131 129 127 126 125 123 121 119 117 114 111 107 103 97 89 79 65 48 32 19 11 8 8 8 7 7 7 6 6 6 6 6 5 5 5 5 5 5 6 5 4 4 4 4 5 4 5 4 4 4 5 4 5 5 4 4 4 4 4 4 4 4 4 4 4 4 4 3 3 4 4 4 4 4 3 3 3 3 3 3 3 3 4 3 3 2 2 2 2 2 3 4 3 2 2 3 3 2 2 2 2 2 2 2 3 2 2 2 2 2 2 2 2 2 2 2 2 2 2 2 2 2 2 2 3 2 3 2 2 2 2 2 2 2 2 1 2 2 2 2 2 1 2 1 1 2 2 2 2 2 2 2 2 2 2 2 2 2 1 1 1 1 1 1 2 2 1 1 1 2 1 1 1 1 1 2 1 1 1 1 1 1 1 1 1 1 2 2 2 1 1 1 1 1 2 1 1 1 1 1 1 1 1 1 2 1 1 1 0 0 1 1 1 1 1 1 1 1 1 0 0 0 0 1 1 1 1 1 2 1 1 1 0 0 1 1 1 0 1 2 1 0 1 -1 0 1 1 1 1 1 1 2 2 1 2 1 0 1 1 1 0 -1 1 1 2 1 0 0 1 1 2 2 1 1 1 0 1 0 0 1 1 0 1 0 1 1 1 2 1 0 1 0 1 1 0 0 0 1 2 0 1 1 1 0 1 0 1 0 1 0 0 1 2 1 1 0 1 1 2 0 1 0 1 0 1 0 2 1 2 0 1 -1 3 -3 2 
1 0 2 1 0 1 1 1 1 1 1 0 0 0 1 1 1 1 1 1 0 0 0 1 0 1 1 1 1 0 1 1 1 0 0 0 1 1 0 0 0 1 2 1 1 0 0 0 -1 1 1 1 2 0 0 1 0 0 1 -1 1 1 1 1 0 0 0 1 1 1 1 1 1 1 1 1 0 1 0 1 1 0 1 1 1 0 1 1 0 1 1 1 1 0 0 1 0 0 2 1 0 1 1 1 1 1 2 1 0 1 0 1 1 1 0 0 0 0 1 1 1 1 1 1 1 0 1 2 1 0 0 1 1 1 1 1 1 1 2 2 2 1 1 1 2 2 2 1 1 1 2 1 1 1 1 1 2 1 0 2 1 0 1 1 1 2 1 1 2 1 1 1 1 1 2 2 1 1 2 1 1 1 1 1 1 1 2 2 2 2 3 2 1 1 2 1 1 1 1 1 2 2 2 2 2 2 2 2 2 2 2 2 2 2 3 2 2 2 2 2 2 2 2 2 2 3 3 3 3 2 2 2 2 2 2 3 3 3 2 2 3 3 3 3 3 3 3 4 3 2 2 3 4 4 4 4 4 3 3 3 3 3 3 3 4 4 4 4 4 5 4 5 5 5 5 5 5 5 5 5 6 6 7 9 9 8 10 20 41 72 102 120 125 124 122 122 125 129 133 136 137 138 137 135 133 132 130 129 128 126 124 123 121 118 116 114 112 107 102 96 87 75 59 42 27 16 10 8 8 7 7 7 7 6 6 6 6 6 5 5 5 5 5 5 5 5 4 4 4 5 5 5 5 4 4 5 4 4 5 4 4 5 4 4 4 4 4 4 3 4 4 3 3 3 4 4 4 5 4 4 3 3 3 3 3 3 4 4 3 2 2 3 3 3 3 4 4 3 3 3 3 3 3 3 3 3 3 2 3 2 2 2 2 2 2 2 2 2 3 2 2 2 2 2 2 2 2 2 2 2 2 2 2 2 2 1 2 2 2 2 2 2 3 2 2 2 2 3 2 2 2 2 2 2 1 2 2 2 2 2 2 1 1 1 2 2 1 1 2 1 2 2 2 1 1 1 1 2 2 2 2 1 1 1 1 1 1 1 2 1 1 1 1 1 1 1 1 2 2 1 1 1 1 1 1 1 2 2 2 1 1 1 1 1 2 2 1 1 2 1 1 1 1 1 1 1 0 1 1 1 2 1 1 2 1 0 0 0 1 0 2 2 1 1 2 1 0 1 1 0 0 0 1 1 1 1 1 2 1 1 1 1 1 0 0 1 1 2 1 1 0 0 0 1 2 1 1 0 1 1 0 1 1 0 2 0 0 1 0 1 1 1 2 1 0 1 1 2 1 0 1 1 1 0 0 1 1 0 0 1 1 1 1 0 1 1 2 1 0 0 0 1 0 1 1 1 0 0 0 1 0 1 0 0 1 1 1 0 2 0 
1 0 2 -2 2 1 1 0 1 0 0 0 1 1 0 0 1 1 2 1 0 0 1 1 0 0 0 1 1 1 1 0 1 1 1 1 1 1 0 0 1 1 1 1 1 1 1 1 0 1 1 1 2 1 1 2 1 0 1 -1 0 0 1 1 0 1 1 1 1 1 1 1 0 1 2 2 1 0 0 1 1 0 0 0 1 1 0 0 1 1 1 1 1 0 1 1 1 1 1 1 0 1 1 0 1 1 1 1 1 2 1 1 1 1 1 1 1 0 1 0 1 1 1 1 1 1 1 1 0 0 1 1 1 1 2 1 1 1 1 2 2 1 1 1 1 1 2 1 1 1 2 1 1 1 1 1 1 1 1 2 1 1 1 1 2 2 1 1 1 2 2 2 1 1 1 1 2 2 2 1 2 2 1 1 1 2 3 2 1 1 2 2 2 2 2 2 2 2 1 2 2 2 2 2 2 3 2 2 2 2 2 2 2 2 2 2 2 1 1 2 2 1 2 3 3 3 3 3 3 3 3 3 2 2 3 3 3 3 3 3 3 3 2 3 3 3 3 3 3 3 3 3 3 4 4 4 3 4 3 3 4 4 4 4 4 4 3 3 4 4 4 4 5 5 5 5 5 5 6 6 7 6 7 9 9 9 14 26 50 81 108 123 127 125 122 121 122 126 132 136 138 139 138 136 135 133 132 131 130 128 126 124 122 120 118 116 113 110 105 101 94 84 70 53 35 21 13 9 8 8 8 7 7 7 7 6 6 6 6 6 6 6 5 5 5 5 6 6 5 5 5 4 5 5 4 4 5 4 5 4 4 5 4 3 4 4 5 4 4 4 5 4 4 3 3 3 3 3 3 3 3 3 3 3 3 4 4 4 3 3 3 3 3 2 3 3 3 2 3 3 3 3 3 2 2 3 3 2 2 2 3 3 3 2 2 2 2 2 2 2 2 2 2 3 3 2 2 2 3 2 2 2 2 1 2 2 2 2 2 2 2 1 1 2 2 2 2 2 1 1 2 1 2 2 1 1 2 2 2 2 1 1 1 1 1 1 1 2 2 1 2 2 1 1 2 2 1 1 2 1 1 1 2 2 1 1 1 1 1 2 1 1 1 1 1 1 1 2 2 2 2 1 1 0 0 1 2 2 2 2 1 1 1 1 1 1 1 1 1 0 0 1 1 1 1 0 0 1 1 0 1 1 1 2 1 1 0 1 2 1 1 1 1 0 1 1 0 1 1 1 1 1 1 0 1 1 1 1 1 1 0 0 1 1 2 1 0 1 2 1 0 0 0 1 1 0 1 0 0 1 1 2 0 0 1 0 2 2 0 0 1 1 1 0 0 0 0 1 1 0 0 0 1 1 0 0 1 1 0 0 1 1 1 1 1 1 2 0 0 0 1 1 1 1 1 0 1 0 0 0 1 1 2 0 1 0 2 -2 2 0 
0 1 -1 2 1 0 0 2 0 0 0 1 0 1 0 1 1 1 0 0 1 1 1 1 0 1 0 0 0 1 1 1 1 0 0 1 1 1 1 0 0 1 2 1 1 1 0 1 0 1 1 1 2 1 0 1 1 0 1 1 1 0 0 1 0 1 1 1 1 0 0 1 1 0 1 1 1 1 1 0 0 0 1 1 0 1 1 1 0 0 2 1 0 1 1 0 1 2 1 1 1 1 0 1 2 1 1 2 1 0 1 2 1 1 1 1 0 1 1 1 1 0 1 1 1 1 2 2 1 0 1 1 1 1 1 1 1 2 2 1 1 1 1 1 1 1 1 1 1 1 1 1 2 2 1 1 1 1 1 1 1 1 2 1 1 2 2 2 2 1 1 2 1 1 2 1 1 1 1 1 1 1 1 1 2 2 2 2 1 2 2 2 2 2 2 2 2 1 1 1 2 1 1 2 2 2 2 2 2 2 2 3 2 1 1 2 3 2 1 2 2 2 2 2 2 3 3 3 2 2 2 3 3 2 2 3 3 3 3 3 3 3 3 3 3 2 2 3 4 3 3 3 4 4 4 4 3 3 4 4 4 3 3 4 5 6 4 4 4 5 5 5 4 4 5 7 7 6 6 6 6 6 7 10 9 9 15 31 58 91 115 126 128 125 123 121 120 122 128 134 138 139 139 138 136 134 132 131 130 128 127 125 123 121 119 117 115 112 108 104 98 89 78 62 44 28 17 11 9 8 7 7 6 6 6 6 6 6 6 6 6 6 6 5 6 6 6 6 5 5 5 4 5 6 5 4 4 4 4 4 3 4 4 4 4 5 5 4 4 4 5 5 4 4 4 4 4 4 3 4 4 4 4 4 4 3 3 3 3 3 3 3 3 3 3 3 3 3 3 3 3 3 3 3 3 3 2 2 2 3 3 2 2 3 3 2 2 2 2 2 2 2 3 3 2 3 3 2 2 1 1 2 2 2 2 2 2 2 2 2 1 1 2 3 3 2 3 3 2 2 2 2 2 2 2 2 2 2 2 2 1 1 1 1 2 2 1 1 2 2 2 1 1 1 2 1 1 2 2 1 1 1 1 2 1 1 2 2 1 1 1 0 0 1 1 2 1 2 2 2 1 0 0 0 1 1 2 1 2 2 1 0 0 1 1 2 2 0 0 1 0 0 0 0 1 1 1 1 2 1 0 0 1 1 1 2 0 0 1 1 1 1 2 0 -1 1 1 1 1 2 0 0 1 1 1 1 1 1 1 1 1 1 1 0 0 1 2 1 1 0 0 1 1 2 1 -1 0 1 1 1 0 1 1 1 1 1 1 1 1 1 2 1 1 0 1 1 1 1 0 1 1 1 0 0 1 1 1 0 0 0 1 1 0 1 1 2 1 0 0 0 0 1 1 1 1 1 0 1 0 1 1 1 -1 1 0 2 -1 1 0 0 
-2 5 -4 2 0 1 1 1 0 0 0 1 0 1 1 0 0 1 2 1 1 1 1 1 0 1 1 1 1 1 1 1 1 1 1 1 1 0 1 1 1 1 1 1 1 1 1 1 1 1 1 2 1 2 1 0 1 1 1 1 1 1 1 1 1 2 2 1 1 1 1 1 0 1 1 1 1 1 0 0 2 2 0 0 2 2 1 1 1 0 0 0 0 0 -1 1 2 2 1 1 0 0 1 1 1 1 1 0 1 1 1 0 1 2 0 0 1 1 0 0 1 1 1 1 0 1 1 0 1 2 1 1 1 1 1 1 2 1 1 1 1 1 0 1 2 2 1 1 1 1 1 1 1 2 2 2 1 1 1 1 2 1 1 1 2 2 1 1 0 1 2 2 2 1 1 1 1 2 2 1 2 1 1 1 2 2 2 1 0 1 2 2 2 2 2 3 3 2 1 2 2 2 1 2 3 3 2 1 1 2 3 2 1 2 3 3 2 1 2 2 2 2 2 3 3 3 3 3 3 3 3 2 3 3 3 3 3 2 3 4 4 3 3 2 3 3 3 3 4 4 3 3 3 2 4 4 3 3 4 4 4 4 4 4 3 3 4 5 5 4 4 5 6 6 6 5 5 6 7 7 7 7 8 9 9 11 20 37 67 98 119 128 130 127 124 121 119 121 126 133 138 140 140 139 137 135 134 133 130 128 127 126 124 122 119 117 114 111 108 104 99 92 82 68 51 33 20 13 11 10 9 8 8 7 7 7 6 6 8 8 6 6 6 6 6 5 5 7 6 5 6 5 4 5 5 4 6 6 5 5 5 5 5 4 4 5 5 4 4 4 4 4 4 4 4 3 4 3 3 4 4 4 3 3 4 4 3 3 3 3 4 4 3 3 3 3 3 3 2 2 2 2 2 2 2 3 3 2 1 2 3 2 2 3 3 3 2 2 3 2 2 2 3 3 2 2 2 2 1 1 1 1 1 2 2 2 2 2 2 1 2 2 2 2 2 2 1 1 1 1 1 2 2 1 1 1 2 1 1 2 2 1 1 1 2 1 1 1 1 2 2 1 0 1 2 2 1 0 0 1 1 1 1 2 2 1 1 1 1 2 1 1 1 1 1 2 1 1 1 1 1 1 1 1 1 1 1 1 1 2 2 1 0 1 1 1 2 1 0 1 1 0 1 1 1 1 2 2 1 2 1 1 0 1 0 0 2 2 1 1 1 0 0 0 1 0 1 1 1 2 1 2 1 0 0 1 2 1 1 0 0 0 0 1 1 1 1 0 1 1 2 1 0 1 2 1 0 0 0 1 1 1 0 0 0 1 2 1 1 1 1 1 1 1 1 0 0 2 1 0 0 2 1 1 0 0 0 1 1 1 0 0 1 1 0 0 1 1 0 0 1 2 1 1 1 1 1 1 1 1 1 2 1 2 -1 2 0 4 -4 3 
3 -5 4 0 1 0 2 -1 2 0 0 1 2 1 1 1 2 1 1 0 1 1 1 0 1 1 1 0 0 1 1 0 1 1 1 1 0 0 1 0 1 1 1 0 1 0 0 2 1 0 2 2 0 1 2 0 0 0 1 2 1 1 2 1 1 0 1 1 1 1 1 2 1 -1 0 1 2 1 2 2 0 0 1 1 0 1 2 1 1 1 1 0 1 0 0 1 1 0 0 2 1 0 1 0 0 1 1 0 1 1 1 1 1 0 0 1 1 1 1 1 1 0 1 1 1 1 2 1 1 1 1 1 1 1 1 2 1 1 2 2 1 1 1 1 1 1 1 1 0 0 1 0 1 1 1 1 1 1 1 1 1 2 1 1 0 1 1 1 1 1 1 2 2 1 1 1 2 2 2 2 2 1 1 2 2 2 1 1 2 1 1 2 2 2 2 1 2 2 2 2 1 1 1 2 2 1 2 3 2 2 2 2 2 2 2 2 2 2 2 2 3 3 2 2 2 2 3 3 2 2 2 3 3 3 2 2 3 3 3 3 3 3 3 4 3 2 2 3 4 4 3 3 2 3 4 3 3 3 4 4 5 4 4 3 4 4 4 4 4 5 6 5 4 5 6 7 7 7 7 7 7 7 9 10 10 13 23 43 76 106 123 131 130 128 127 124 120 119 123 129 135 139 141 140 138 136 135 133 131 129 128 126 124 122 119 117 115 112 109 104 98 91 83 70 54 37 22 13 10 9 9 9 8 8 7 8 7 6 6 6 6 7 7 7 7 6 5 6 6 5 6 5 5 6 6 4 5 5 5 6 5 4 4 4 5 6 5 5 6 5 5 5 5 5 4 4 4 4 4 4 3 4 4 4 4 4 3 3 4 3 3 4 4 3 3 3 3 3 3 2 2 3 3 3 3 3 3 3 3 2 2 2 3 3 3 3 3 3 3 3 2 2 2 2 3 2 2 2 2 1 2 2 2 2 2 2 3 2 2 2 2 2 2 2 2 2 2 2 2 1 1 3 2 2 1 1 1 2 2 2 1 2 2 2 2 1 2 2 1 2 2 2 1 1 2 2 1 2 2 2 1 0 1 1 1 2 2 1 1 1 1 1 1 0 1 1 1 1 2 1 1 1 0 0 1 1 1 1 1 1 2 1 -1 0 1 2 2 2 1 1 1 1 0 0 2 1 1 1 2 2 2 1 0 1 2 0 1 2 1 0 1 0 0 0 1 0 1 2 1 1 1 1 1 1 1 1 1 1 0 1 1 1 0 0 0 1 1 1 1 0 1 2 2 1 1 1 1 1 1 1 0 0 1 0 0 2 1 0 1 1 1 1 1 0 0 2 1 0 1 2 2 1 0 0 1 1 1 1 0 1 1 1 1 0 1 1 1 0 0 1 1 0 1 1 2 1 1 -1 1 0 1 0 1 0 2 1 1 -4 5 -2 
0 2 0 0 1 1 0 0 1 0 1 2 1 1 1 1 1 1 1 1 0 0 1 1 0 0 0 1 1 0 1 1 1 1 1 1 0 0 0 -1 0 1 1 0 0 0 1 1 1 0 1 1 0 1 1 1 1 1 0 1 1 1 2 0 1 1 0 -1 0 2 1 1 1 1 1 1 1 1 1 0 0 2 0 0 1 1 1 1 2 1 0 0 0 0 1 0 0 1 1 0 0 2 1 0 0 1 0 1 2 2 2 1 0 1 1 1 1 2 1 0 1 2 2 1 1 1 1 0 1 2 1 1 1 1 1 1 1 1 2 2 1 1 1 0 1 1 1 1 1 1 1 1 1 1 1 1 1 1 1 1 1 1 1 2 1 1 1 1 1 1 1 1 2 2 1 1 1 1 1 2 2 1 1 1 1 2 1 1 1 1 1 2 1 1 1 1 2 1 1 1 2 1 1 2 2 2 2 1 1 2 2 2 1 2 3 3 2 2 2 2 2 2 3 3 3 3 3 3 3 3 4 3 3 3 3 3 3 3 3 3 3 3 3 3 3 3 3 3 3 4 4 3 3 3 3 3 3 4 4 4 4 4 4 4 4 3 4 5 4 4 5 5 5 6 6 6 6 7 7 7 7 8 10 10 10 14 27 51 84 111 126 131 131 129 128 125 122 121 123 128 134 139 141 141 140 138 137 135 132 130 129 127 125 123 120 117 114 112 109 104 98 92 83 70 54 37 24 15 11 10 10 9 8 7 7 6 6 7 8 8 6 6 7 7 6 6 5 5 6 6 7 7 6 7 7 5 5 5 6 6 5 5 5 5 4 5 4 4 5 5 5 5 5 5 5 5 4 4 4 4 4 5 4 3 3 3 4 4 3 3 4 4 4 4 4 4 3 3 3 3 3 3 3 3 3 3 3 2 2 3 3 2 2 3 3 3 3 3 3 3 2 2 2 3 3 3 3 3 3 2 2 2 3 3 3 2 2 2 2 2 2 1 2 2 2 2 2 2 2 2 2 3 2 1 1 1 1 1 1 2 2 2 1 1 2 1 1 1 2 2 2 2 1 1 1 1 1 0 1 2 1 1 2 2 1 1 1 1 1 1 1 2 2 1 1 2 1 1 1 1 1 1 1 1 1 1 0 1 1 1 1 1 1 1 1 1 2 2 2 1 1 1 1 1 1 1 1 2 1 1 1 2 1 0 1 1 1 2 1 1 0 1 0 0 0 1 0 1 1 0 0 1 1 0 1 1 1 1 1 0 1 2 0 0 1 1 0 0 0 0 2 1 1 1 1 1 0 1 0 1 1 0 1 1 1 1 1 0 1 2 1 1 1 1 1 0 0 1 1 1 1 1 0 0 1 1 0 1 1 2 1 0 0 1 0 0 0 1 1 1 1 0 1 1 0 0 0 0 2 1 0 1 1 1 0 -1 2 1 -1 2 
1 2 0 1 0 1 0 1 1 0 1 1 1 1 1 0 1 1 1 1 0 1 1 1 0 1 1 1 0 1 1 1 1 2 1 1 0 1 0 0 0 1 1 1 0 1 1 1 0 0 1 1 1 0 0 1 1 1 0 2 1 0 1 1 1 0 0 0 1 1 1 1 2 1 1 2 1 0 1 0 0 1 0 1 1 0 1 2 1 1 1 1 1 1 1 1 1 0 0 0 1 1 1 1 1 1 0 1 1 1 1 1 1 1 1 1 2 1 0 1 1 1 0 1 1 1 0 1 1 1 0 1 2 1 1 2 2 1 1 2 1 1 1 1 1 2 1 1 1 1 2 2 1 1 1 1 0 1 1 1 1 1 2 2 1 1 2 1 1 1 1 1 1 1 1 2 2 1 1 1 2 2 2 2 1 1 1 1 1 1 1 2 1 2 2 2 2 2 1 1 2 2 1 1 2 2 2 2 2 3 2 1 2 2 3 2 1 2 2 3 2 2 2 2 2 2 3 3 3 4 3 2 2 3 3 3 3 3 3 4 3 3 2 3 3 3 3 3 3 3 3 4 3 2 2 4 4 4 4 4 4 4 5 5 4 3 4 5 5 4 4 5 5 6 6 5 5 6 7 7 7 9 11 11 12 17 32 58 91 115 128 133 132 131 129 127 123 122 123 127 132 138 141 142 140 139 138 136 134 132 130 127 125 123 120 117 115 113 110 105 99 92 83 71 56 39 25 15 11 11 11 10 9 9 9 8 8 7 8 8 7 6 6 6 7 8 7 7 7 6 6 7 6 7 7 6 7 6 5 5 6 5 5 5 5 5 5 5 5 5 4 5 5 5 4 4 4 4 4 4 4 4 4 4 4 3 4 4 4 4 4 3 3 3 4 3 3 3 3 3 3 3 3 3 3 3 3 3 2 3 3 3 3 3 2 2 2 3 3 3 3 2 2 2 2 3 3 3 2 3 3 3 2 2 2 2 2 1 1 2 2 2 2 2 1 2 1 2 2 2 2 2 1 2 1 1 1 1 1 1 1 1 1 2 1 1 2 2 1 2 2 1 1 1 1 2 2 1 0 1 1 1 1 1 1 2 2 2 2 2 2 2 2 1 1 1 2 2 1 1 1 1 1 1 0 0 1 2 1 1 2 1 1 1 1 1 2 1 2 2 1 0 1 1 0 0 1 1 1 1 1 1 1 0 1 1 1 1 1 1 0 0 0 0 0 1 1 1 1 1 0 0 1 1 1 1 1 1 1 1 1 2 0 1 1 0 1 1 0 1 1 1 0 1 1 1 0 1 0 1 2 1 0 0 0 1 1 1 0 0 1 2 1 0 -1 0 1 1 1 1 1 1 1 0 0 0 1 2 1 1 0 1 1 1 1 1 0 0 0 1 1 1 1 1 0 0 1 0 1 1 1 2 0 1 1 0 0 2 -1 1 
4 -4 4 0 1 0 1 0 1 0 0 1 1 1 1 0 2 1 0 0 0 0 1 1 0 0 1 0 1 1 0 0 0 1 1 1 1 1 1 -1 0 0 1 1 0 1 1 0 0 0 1 0 0 0 1 1 1 1 0 0 0 1 1 1 1 0 1 1 0 0 1 0 1 2 1 1 1 1 1 -1 0 1 1 1 1 1 1 1 0 1 1 0 0 2 1 -1 0 0 0 0 2 2 1 0 0 1 1 1 0 1 2 2 1 1 1 1 1 1 1 2 1 1 1 1 0 0 1 1 0 1 1 1 0 1 2 1 1 1 2 2 1 1 1 1 1 1 1 1 2 1 1 2 1 1 1 1 1 1 1 1 2 2 1 1 1 2 1 1 1 2 2 1 1 2 2 2 1 1 2 1 1 1 1 1 1 2 1 1 2 1 1 2 2 2 2 2 2 2 1 0 1 2 3 2 1 1 2 3 2 1 2 3 3 2 2 2 2 3 3 2 2 2 3 3 2 2 3 3 2 2 2 3 2 2 2 3 3 3 3 3 3 3 3 3 3 3 3 3 4 3 3 3 4 4 4 4 4 4 5 4 4 4 4 5 5 5 5 5 5 6 7 6 4 5 6 6 6 6 6 7 9 10 12 11 12 19 37 66 99 121 131 133 131 131 130 128 125 124 123 125 130 136 140 141 140 139 138 137 136 133 131 129 127 124 121 119 116 113 110 106 100 93 84 71 56 40 26 18 13 11 10 10 10 10 10 9 9 8 8 8 7 8 8 7 7 7 8 7 8 7 6 6 5 6 6 5 6 7 6 5 5 5 5 6 6 5 5 4 5 6 5 5 5 5 5 5 5 5 5 4 4 4 4 3 4 4 4 4 4 4 4 5 4 3 3 3 3 3 4 3 4 4 4 4 3 3 2 3 3 3 3 3 3 2 2 2 3 2 2 2 2 3 2 2 3 2 2 3 3 3 2 3 3 3 2 2 2 2 2 2 2 2 2 2 2 3 2 2 2 2 3 2 1 2 2 1 1 2 3 2 1 1 2 2 1 1 2 2 2 2 2 2 2 1 1 1 1 0 1 2 2 1 2 2 1 1 1 2 2 1 1 2 2 1 1 1 2 2 1 1 1 1 1 1 1 2 1 1 2 2 1 1 1 1 0 1 1 1 2 1 2 1 0 1 1 1 1 2 1 0 0 0 2 1 1 1 0 0 0 1 1 1 1 1 0 1 2 1 1 1 0 0 2 2 1 1 1 0 1 1 1 2 1 0 0 1 2 1 1 1 0 1 2 1 0 0 0 1 2 1 1 0 1 1 1 1 0 0 0 1 1 1 0 0 1 1 1 0 0 1 1 1 0 0 2 1 0 0 1 1 1 0 0 1 1 1 1 0 -1 1 2 0 0 1 1 0 0 -1 1 1 1 1 1 1 2 0 1 -3 5 -2 
-2 8 -3 0 1 2 0 1 0 1 0 1 1 1 0 0 0 0 1 1 0 0 1 1 1 1 1 1 1 1 0 2 0 0 0 2 1 1 2 0 1 0 0 1 0 1 2 1 0 0 0 1 1 0 1 0 0 0 0 0 1 1 0 0 2 2 1 1 1 1 1 0 1 1 1 1 1 1 0 1 1 1 1 1 1 1 1 1 1 2 1 1 1 1 0 1 1 0 1 0 0 1 1 1 1 1 1 1 1 1 1 2 2 2 1 0 1 1 1 1 1 2 1 1 1 0 0 1 1 1 1 0 1 1 1 0 1 1 1 1 1 1 1 0 1 1 1 1 1 1 1 1 1 1 1 1 1 1 1 1 1 1 1 3 2 1 1 1 1 1 1 1 2 3 2 2 2 2 1 1 1 2 2 1 1 1 1 1 2 2 2 3 2 1 3 3 2 2 1 1 2 2 1 1 2 3 2 2 2 3 2 1 1 2 3 3 2 1 2 2 3 2 2 3 3 2 2 2 3 3 3 2 1 2 3 3 3 2 3 3 3 3 2 3 4 4 4 4 4 4 4 5 4 4 4 4 5 5 4 4 5 5 5 5 4 4 5 6 5 4 4 5 5 6 6 6 7 8 9 9 8 9 9 9 12 22 43 74 105 123 132 135 133 131 129 128 127 125 124 125 129 133 138 141 141 141 139 138 136 135 132 130 128 126 124 121 118 115 111 107 102 96 87 75 60 43 28 18 13 12 12 11 11 11 10 9 9 8 8 9 8 8 8 8 8 8 8 8 9 8 7 7 7 7 6 6 6 7 6 5 6 6 6 6 6 5 6 6 6 5 5 5 5 5 5 5 5 4 4 4 3 3 4 4 4 4 4 4 5 4 4 4 4 4 3 3 3 3 3 3 4 3 3 3 3 2 2 2 3 2 2 2 2 2 3 2 2 3 3 3 3 3 3 3 3 3 3 3 2 2 3 3 3 3 3 3 2 2 1 2 2 2 2 2 2 2 1 2 2 1 2 2 1 1 1 1 2 1 2 2 2 2 1 1 1 1 2 1 1 2 2 1 1 1 1 1 2 2 1 1 1 1 2 2 1 1 1 1 2 1 0 1 1 1 1 1 1 1 1 1 1 1 1 1 1 1 1 1 1 2 1 1 1 1 1 0 0 1 2 1 2 1 1 1 0 0 1 2 2 1 1 0 1 1 1 1 1 1 1 1 1 1 1 2 1 0 1 0 1 1 2 1 1 1 1 1 1 1 1 1 0 0 1 1 1 1 1 1 0 1 1 1 1 1 1 1 0 0 1 1 1 1 1 0 0 1 1 1 0 0 1 1 1 0 0 0 1 1 1 1 0 1 1 0 1 0 1 0 1 0 0 1 1 2 1 0 0 2 1 0 0 1 1 1 0 0 0 1 1 1 1 2 2 3 -1 0 0 5 -6 3 
4 -5 3 2 0 0 1 2 0 1 -1 1 0 1 -1 0 1 1 0 -1 0 1 0 0 0 1 1 1 1 2 1 1 -1 1 1 1 0 1 1 0 1 0 0 2 0 1 1 1 1 1 0 1 0 0 1 0 -1 0 0 0 0 1 1 1 1 0 0 1 1 1 1 1 1 1 1 1 1 2 1 1 1 1 1 0 0 1 1 0 1 1 1 2 2 1 0 1 1 0 1 1 0 1 1 1 1 1 1 1 1 2 2 2 1 1 1 1 1 0 1 1 1 1 2 2 1 0 0 1 1 1 2 1 0 0 1 1 1 1 1 2 2 1 1 1 1 1 1 1 1 1 1 2 1 1 1 1 1 2 1 1 1 2 2 1 0 1 1 1 1 2 3 2 1 1 1 2 2 1 1 2 2 1 0 1 2 2 1 1 2 2 1 2 2 2 2 2 2 3 2 1 2 2 2 2 2 2 3 3 2 2 2 3 2 2 1 2 2 3 3 2 2 2 3 3 2 2 2 3 3 3 2 2 3 3 3 3 3 3 3 3 3 3 3 4 4 4 4 4 4 4 4 5 5 5 5 4 4 5 5 5 5 4 5 6 6 6 5 5 4 5 6 6 6 7 8 9 9 8 7 7 8 9 10 10 14 25 47 81 111 127 132 132 131 132 131 130 128 126 124 124 126 132 138 142 142 141 140 139 138 135 133 132 129 127 125 123 120 117 113 109 104 98 90 80 67 50 33 21 15 12 12 12 11 11 11 11 10 9 9 8 8 8 9 9 8 8 8 8 8 8 7 8 8 7 8 8 6 7 7 6 7 6 6 6 6 6 6 5 5 5 5 5 5 5 5 5 5 5 4 4 3 3 4 4 4 4 4 4 4 4 4 5 5 5 4 4 4 4 3 4 5 5 4 3 3 3 2 2 2 3 3 2 3 3 3 3 3 3 2 3 2 2 2 2 3 3 2 2 2 2 2 2 2 2 2 3 3 2 2 2 2 2 2 2 2 3 2 3 3 2 1 1 1 1 2 1 1 2 2 2 2 2 1 2 1 1 2 2 1 2 1 1 1 1 1 1 1 1 1 2 2 2 2 2 1 1 1 1 1 2 1 1 0 1 1 1 2 2 2 2 1 1 1 1 1 1 2 1 1 1 2 1 1 1 1 1 1 1 1 1 1 1 1 2 1 1 1 0 0 1 1 1 1 2 1 1 1 1 1 0 1 2 1 1 1 1 1 2 1 0 1 2 2 2 1 0 0 1 1 1 1 0 0 0 1 1 1 0 0 1 1 2 1 1 0 0 0 1 2 1 0 1 0 0 1 2 0 0 1 1 1 0 0 0 1 2 2 0 0 1 0 1 0 1 1 1 1 0 0 0 1 2 1 0 0 2 1 0 -1 1 2 2 -1 0 0 1 -1 0 0 1 1 1 0 1 2 2 -1 -2 6 -3 
-3 7 -2 1 2 1 1 1 0 1 0 1 1 0 0 1 0 0 0 1 1 0 0 1 1 1 0 2 2 2 0 0 0 0 1 1 1 1 1 0 1 1 0 1 0 1 2 1 1 1 0 1 1 1 1 1 0 1 1 1 1 1 1 0 1 1 0 -1 0 1 1 1 1 0 0 0 1 1 0 2 1 1 1 0 1 0 0 1 1 2 2 1 0 0 2 2 1 2 2 -1 -1 2 2 1 1 1 1 0 1 1 1 2 1 1 1 0 0 1 1 1 2 2 2 1 1 0 0 1 1 1 1 2 1 1 1 1 1 1 1 1 2 2 2 1 1 1 1 1 1 1 2 2 1 1 1 2 2 1 0 1 1 1 1 1 1 2 1 1 1 1 1 1 2 2 2 1 1 2 2 1 1 2 2 2 0 0 1 2 2 1 1 2 2 1 1 2 2 2 2 2 2 2 2 2 1 2 2 3 3 2 2 2 2 2 2 2 2 2 2 2 2 3 3 2 2 3 3 3 2 2 2 3 3 3 2 2 2 3 2 3 3 3 3 3 4 4 3 3 4 4 5 5 4 4 4 4 4 5 5 5 6 6 6 6 6 6 6 5 5 5 6 7 8 9 8 7 7 8 8 8 8 10 10 10 15 28 53 87 113 127 133 134 134 133 131 131 129 127 125 125 125 129 134 139 142 142 141 139 138 135 133 132 130 127 125 123 120 117 114 111 107 102 95 86 72 55 38 25 18 15 14 13 12 11 11 12 12 12 11 11 11 10 9 10 9 8 9 9 9 8 7 7 9 8 8 8 7 8 7 6 7 7 6 7 7 6 6 6 5 5 5 5 5 5 5 5 5 5 5 5 4 4 5 5 4 4 4 5 5 4 5 5 5 4 3 3 4 4 4 3 3 3 2 3 3 3 2 2 3 2 2 3 3 4 3 3 3 2 3 3 3 3 3 3 3 3 3 3 3 2 2 3 3 3 2 1 2 2 2 2 2 1 1 1 2 2 2 3 2 1 2 2 2 2 2 2 2 2 2 1 2 2 1 2 1 1 1 1 1 2 2 2 1 2 1 1 1 1 1 1 1 2 2 2 1 1 1 1 2 1 1 1 1 1 1 1 1 1 1 1 1 1 1 1 1 1 1 1 1 1 1 1 2 1 2 1 1 1 1 1 1 1 2 1 1 0 0 0 1 1 1 2 1 0 0 1 1 1 2 0 0 2 1 0 2 2 1 1 1 2 2 1 0 0 0 1 1 1 1 0 1 0 1 1 1 1 1 1 0 0 1 1 1 1 1 1 1 1 1 1 1 1 0 0 0 0 1 1 1 1 1 1 0 0 1 1 1 0 1 2 0 1 1 1 1 1 1 0 1 1 1 1 2 1 0 1 0 1 1 1 0 0 0 0 -1 0 0 1 1 1 1 0 0 1 1 0 0 4 -5 2 
3 -2 3 -1 1 1 1 0 1 2 1 0 1 1 1 0 1 1 1 0 0 1 1 0 0 0 1 1 1 1 1 1 1 0 1 1 1 0 0 0 1 0 0 0 1 1 1 0 2 1 0 1 2 1 0 2 2 0 1 1 2 1 2 1 0 0 0 0 1 0 1 1 1 0 1 1 0 0 1 2 0 0 2 1 1 0 0 0 0 1 2 1 1 0 1 1 1 2 0 0 2 2 0 1 1 -1 0 1 2 1 2 2 1 1 1 1 0 1 0 0 2 1 1 1 1 1 1 0 0 1 2 2 1 1 1 0 0 1 1 2 2 2 2 1 1 1 1 1 1 2 2 1 1 1 2 2 1 1 2 2 1 1 2 2 1 1 2 1 1 1 2 3 2 1 1 2 2 2 2 2 2 2 2 2 2 2 2 2 2 2 2 2 2 2 2 2 2 2 2 2 2 2 2 2 3 2 2 2 2 3 3 2 3 3 2 2 3 2 2 2 2 2 3 3 3 2 2 2 3 3 3 3 4 4 3 2 3 3 3 4 4 4 3 3 3 3 4 4 4 4 4 4 4 5 5 4 5 6 6 5 5 5 6 6 5 5 5 5 5 7 8 7 7 6 7 7 8 8 8 9 10 11 11 11 17 31 59 93 118 131 135 134 134 134 132 131 129 126 124 122 123 127 132 137 141 142 141 139 138 136 134 133 130 127 126 124 122 120 117 113 108 103 98 90 78 63 46 30 20 15 14 13 12 13 13 12 12 12 12 12 12 11 11 11 10 9 9 9 9 9 8 8 9 8 8 8 8 8 8 8 8 7 6 7 7 6 6 6 6 6 7 7 7 6 6 6 5 5 6 5 4 4 5 5 5 5 4 5 5 4 4 4 5 5 4 4 4 4 4 4 5 4 4 3 4 4 3 2 3 3 3 3 3 3 3 3 3 3 2 3 3 3 3 3 3 2 2 3 3 3 3 2 2 2 3 3 2 2 3 3 2 1 1 2 2 2 2 2 3 2 1 1 1 2 2 2 2 2 1 1 1 2 1 1 1 2 1 1 1 2 2 2 2 2 2 1 1 1 1 1 1 1 2 2 2 1 2 1 1 1 1 1 1 1 2 2 2 2 1 2 2 1 1 1 1 2 2 2 1 1 1 1 2 2 1 1 1 2 1 1 1 1 1 1 1 1 1 0 1 1 1 2 1 1 0 1 1 0 2 1 0 1 2 0 0 2 2 2 1 1 1 0 1 1 1 1 0 1 1 0 1 1 0 0 2 2 1 1 1 0 1 1 1 0 0 0 1 1 1 1 0 0 0 1 1 0 1 1 1 0 1 1 0 0 1 0 1 0 1 1 0 0 1 1 1 1 1 1 0 0 1 1 2 1 1 1 1 1 0 0 0 0 0 0 0 0 0 0 1 1 1 0 1 1 2 1 1 -2 5 -2 
0 2 1 0 1 -1 1 1 1 -1 1 1 1 0 1 0 0 0 1 1 0 0 1 1 0 0 0 1 1 1 1 0 1 0 1 1 0 1 1 1 0 0 0 -1 -1 0 1 0 0 1 1 1 0 1 1 2 1 2 2 1 1 1 1 0 0 1 1 0 0 0 1 0 1 2 2 0 0 0 0 0 1 1 1 1 2 0 0 1 1 2 1 0 0 0 0 1 1 2 1 1 1 1 1 1 -1 -1 1 1 1 1 2 1 1 2 1 1 0 0 1 2 1 1 1 1 0 1 2 1 0 1 2 2 1 1 1 1 1 0 1 1 1 1 2 1 1 1 1 1 1 1 1 1 1 1 1 2 2 1 1 2 2 2 1 1 2 2 2 1 1 1 2 2 2 1 1 1 1 2 2 1 1 1 2 2 2 1 2 3 2 2 1 1 2 2 2 1 2 2 2 2 1 2 3 2 1 0 1 2 3 2 2 2 2 2 2 3 3 2 2 2 2 3 3 4 4 3 3 3 3 3 3 3 4 4 3 3 3 3 3 4 4 3 3 3 4 5 4 4 4 5 4 4 5 5 5 5 4 4 5 6 7 7 6 5 5 5 6 7 7 8 7 6 6 6 7 8 9 10 10 10 10 11 10 11 18 35 65 99 121 132 135 134 133 133 131 129 127 126 125 122 121 124 129 134 138 140 139 138 137 135 133 132 131 130 128 125 122 121 119 117 112 106 102 96 85 71 55 40 27 20 18 18 16 15 14 14 13 13 13 12 12 12 12 12 12 12 11 10 10 10 9 9 10 8 7 8 8 8 8 8 8 8 7 8 8 8 7 7 7 7 7 6 6 6 6 6 6 6 6 6 6 6 5 5 5 5 5 5 5 4 4 4 4 4 4 4 5 4 4 4 4 4 3 3 3 3 3 3 3 3 3 3 2 3 3 3 3 3 3 3 3 3 3 4 3 3 3 3 3 2 3 3 3 2 3 3 2 2 2 2 2 2 2 2 2 2 2 2 2 2 2 2 2 2 2 2 2 2 2 1 1 2 2 2 2 1 1 2 2 1 1 2 2 2 1 2 2 2 1 1 1 2 2 2 2 2 2 2 1 2 2 1 1 1 2 1 1 1 1 1 1 1 2 2 2 2 2 2 1 1 1 1 1 2 1 1 1 1 1 2 2 1 1 1 1 1 1 0 1 2 1 0 1 2 1 0 2 0 0 2 1 1 2 2 1 1 2 1 0 1 1 0 0 0 0 2 1 1 1 1 0 1 2 1 1 1 1 1 1 1 0 0 1 1 1 0 0 0 0 1 1 1 1 0 1 1 1 1 1 0 1 1 0 0 0 0 1 0 0 1 2 1 1 0 1 2 0 0 1 1 2 1 2 1 1 1 1 1 0 0 1 0 0 0 2 1 0 1 2 1 1 0 1 0 3 0 0 1 0 1 
1 2 1 1 1 2 1 1 0 1 1 0 0 0 1 1 1 0 0 1 1 0 1 2 1 1 0 1 1 1 1 1 2 0 1 1 1 1 1 1 1 1 0 0 0 -1 0 1 1 0 1 1 0 1 1 2 2 2 1 0 2 1 1 1 1 1 1 1 1 1 1 1 1 1 0 1 1 0 0 0 1 0 0 2 2 1 0 0 1 2 0 0 1 1 0 1 1 1 1 1 1 1 1 0 0 1 1 0 1 1 0 0 2 1 0 1 1 0 0 1 0 1 1 0 1 2 1 1 2 1 1 2 2 1 0 0 0 1 1 1 1 2 1 1 1 2 1 1 1 2 2 0 0 1 1 1 1 2 2 2 2 2 2 1 1 2 2 1 0 1 2 2 2 1 1 1 2 1 1 0 1 2 2 1 1 1 2 2 1 1 2 2 2 2 2 2 2 2 2 2 2 1 2 3 2 2 2 2 2 2 2 2 2 2 2 3 3 2 2 2 2 3 3 3 3 3 3 3 3 3 4 4 4 3 3 3 4 4 3 4 4 4 4 4 3 4 4 4 4 3 3 4 5 6 6 5 4 4 5 6 6 5 5 5 5 5 6 6 7 7 6 6 7 8 9 10 9 9 9 9 10 12 11 13 21 41 73 104 124 132 134 132 132 131 130 128 126 124 122 120 120 121 125 130 133 134 133 133 133 133 133 133 132 131 130 128 127 125 123 121 117 113 109 103 96 86 73 59 46 38 34 31 28 26 23 21 19 18 17 15 14 13 12 12 13 12 12 11 10 11 11 11 12 11 10 9 9 9 10 10 9 8 8 8 9 8 7 7 7 7 8 7 7 7 7 7 6 6 6 5 5 5 5 5 5 5 5 5 5 5 4 3 4 4 4 4 5 4 4 5 4 3 4 4 4 3 3 3 3 3 3 3 3 3 3 3 4 4 3 3 3 2 3 3 2 1 2 2 3 3 2 2 2 2 3 3 3 2 2 2 1 1 2 2 2 2 2 2 3 3 2 2 2 1 2 2 2 2 2 1 2 3 2 2 1 2 1 0 1 2 2 2 1 2 1 1 2 2 1 1 1 1 2 2 2 2 2 2 1 1 1 1 1 1 1 1 1 1 2 2 2 1 2 1 1 1 1 1 1 1 1 2 1 1 1 1 1 2 2 1 1 1 0 1 2 1 2 2 0 0 1 1 0 1 1 0 0 1 1 1 2 2 1 1 1 0 1 1 1 0 2 1 1 1 1 1 1 0 1 2 1 1 1 2 2 0 1 2 1 1 1 1 1 0 0 0 1 1 1 1 0 1 1 1 1 1 1 0 1 1 1 1 1 2 0 0 0 1 1 0 1 0 1 1 2 1 0 1 1 1 1 1 1 1 1 1 1 1 1 0 0 0 0 1 1 0 1 1 1 1 0 0 1 1 0 1 0 1 0 1 
2 -4 5 -1 1 0 1 1 0 0 2 0 1 1 1 0 1 1 0 0 1 1 1 1 1 1 1 1 2 1 1 0 1 0 1 1 1 1 0 1 1 2 0 0 1 0 1 0 0 1 1 1 0 1 0 1 2 2 1 1 1 1 1 0 0 2 1 0 1 1 1 0 0 1 1 1 0 0 1 0 0 1 1 1 0 0 1 1 1 0 1 2 0 0 1 1 0 1 3 1 0 1 0 -1 1 2 1 1 1 0 1 1 1 1 2 1 0 0 2 1 0 2 1 1 1 1 1 1 1 1 2 1 1 1 1 1 1 2 2 1 1 1 1 0 1 1 2 1 1 1 1 1 1 1 1 1 1 2 2 2 2 2 1 1 2 2 1 1 1 1 1 1 2 2 1 1 2 1 1 1 1 1 1 2 2 2 2 2 1 1 2 2 2 2 2 2 2 2 2 2 2 1 2 3 3 2 2 2 3 3 3 2 2 2 2 3 2 2 3 3 2 2 3 3 3 3 3 3 3 3 3 3 3 3 4 4 4 4 4 4 4 2 2 4 5 5 5 4 4 4 4 4 4 4 4 4 5 5 5 6 6 6 6 6 6 6 7 7 7 8 8 9 10 11 11 10 8 8 9 10 11 12 12 15 25 46 78 107 124 131 131 130 130 128 125 123 121 120 118 115 114 113 115 118 121 122 123 125 127 129 131 132 133 133 133 132 131 129 128 127 125 123 120 116 111 103 94 84 74 67 63 59 54 49 44 40 38 34 31 28 25 22 19 17 16 15 15 14 13 12 12 11 12 12 11 11 11 10 10 10 10 10 10 9 10 10 9 8 8 7 7 6 6 7 7 7 6 6 6 7 7 6 6 6 5 5 5 6 6 6 6 5 5 4 3 3 4 4 4 4 4 3 3 3 3 4 4 4 4 3 3 3 3 4 4 3 3 3 3 3 3 3 3 3 3 2 2 3 3 3 3 3 3 3 3 2 3 2 2 2 2 2 2 2 2 2 2 2 2 2 2 2 2 2 2 2 1 2 2 3 2 2 2 2 2 1 2 1 2 2 2 2 1 1 1 2 2 1 1 1 1 1 1 1 2 2 2 2 2 1 1 1 1 1 1 1 1 1 1 1 1 2 2 1 1 1 1 0 1 1 1 2 2 2 2 1 1 1 2 1 1 2 0 0 1 2 1 2 1 1 0 1 0 0 2 1 0 1 2 1 1 2 1 0 1 1 0 0 2 1 1 1 1 1 1 1 1 1 2 1 0 1 0 1 1 0 1 1 1 1 2 1 0 1 2 1 1 0 0 1 1 1 1 1 0 1 2 0 1 0 1 1 1 1 0 1 1 1 2 0 1 1 1 0 0 1 1 1 0 1 1 0 0 0 1 1 1 1 1 1 0 0 1 1 1 1 1 0 0 2 1 -1 1 0 0 0 2 -3 5 -1 
-1 3 -1 2 0 3 0 1 0 1 0 1 0 1 1 1 0 1 1 0 -1 1 1 1 0 1 0 1 1 1 1 0 0 0 0 0 0 1 0 1 0 2 1 1 1 0 0 1 1 1 0 1 1 1 0 0 1 1 0 0 0 1 1 1 2 2 0 0 1 1 0 1 1 0 0 0 1 0 1 1 0 1 0 1 0 0 1 1 1 0 0 1 1 2 1 0 1 2 1 1 1 0 0 0 1 1 0 2 1 1 1 1 0 1 1 1 1 1 1 1 1 1 0 1 2 1 0 1 1 1 2 1 1 1 1 1 1 1 1 2 2 2 2 2 1 1 2 1 0 1 1 2 2 1 1 1 1 2 2 1 1 1 1 2 2 2 1 1 1 1 2 2 2 2 2 2 2 1 1 2 2 2 1 1 2 2 2 2 1 1 1 2 2 2 2 1 1 2 3 2 1 1 2 3 2 2 2 2 2 2 3 3 3 2 2 3 2 2 3 2 2 3 3 2 2 2 3 3 3 4 4 4 4 4 4 3 3 5 4 3 3 3 4 4 4 4 4 3 4 4 5 4 5 6 6 5 5 5 5 5 5 6 6 6 7 7 8 8 8 9 9 10 10 10 9 8 8 10 11 12 14 17 19 25 37 58 87 111 123 126 124 121 119 116 113 110 108 106 103 101 100 99 99 100 102 105 109 115 120 125 129 133 134 134 134 134 134 134 132 131 131 130 127 125 123 120 115 109 103 98 93 89 84 79 74 70 65 61 56 51 47 43 38 34 30 27 23 20 17 16 15 14 13 13 13 13 13 12 12 12 11 11 9 9 10 10 9 8 8 9 9 8 7 8 7 7 7 7 7 6 5 5 5 6 6 6 7 7 5 5 5 5 4 5 5 4 4 4 4 5 4 4 4 4 4 5 4 4 3 4 4 4 4 3 4 4 3 3 3 2 2 2 2 3 2 2 2 3 3 2 2 3 3 4 3 3 3 2 2 2 2 2 2 2 3 2 2 2 2 3 3 2 2 2 1 2 2 2 2 2 2 2 2 2 2 2 2 2 2 2 2 2 2 2 1 1 1 2 1 1 1 2 2 2 2 2 1 1 1 1 1 1 1 1 1 1 1 1 1 2 2 2 2 1 1 1 1 1 1 1 1 1 0 0 1 1 1 1 2 1 1 1 1 1 1 2 1 1 0 1 0 1 1 0 0 1 1 0 1 2 1 1 2 2 0 0 1 0 2 2 1 1 1 1 0 0 1 1 1 1 1 1 0 1 1 1 1 1 1 1 1 2 1 1 0 1 2 1 1 1 0 0 1 2 1 1 1 0 1 1 1 0 0 1 1 1 0 0 1 1 1 1 1 1 0 1 0 1 0 1 0 0 0 0 0 1 1 1 0 1 2 2 1 1 1 0 -1 1 0 2 1 1 0 1 0 1 -1 3 -1 1 
-1 5 -3 2 -1 2 0 1 1 1 -1 1 1 1 0 1 0 0 0 2 1 1 0 1 1 0 -1 1 0 0 0 0 0 1 1 0 0 0 0 1 0 1 0 1 1 0 1 1 1 1 1 1 0 1 0 0 0 0 0 1 0 1 1 2 1 1 1 1 1 1 1 2 0 1 1 0 1 0 1 1 1 1 1 1 -1 0 1 0 0 0 1 1 1 1 0 0 1 1 1 2 0 0 1 0 0 1 1 1 0 1 1 0 1 1 1 1 2 1 0 1 2 1 1 2 2 1 1 1 0 0 1 1 1 1 1 2 2 2 1 1 2 1 0 0 1 1 2 1 1 2 2 1 1 1 1 1 1 1 1 1 1 1 1 1 1 2 1 1 2 2 1 1 1 1 2 2 2 2 2 1 1 2 2 2 1 1 2 2 1 2 2 2 2 2 2 2 2 2 2 3 2 2 2 2 2 2 2 2 2 3 3 3 3 2 3 3 3 3 3 3 3 3 2 2 3 4 4 4 4 3 3 3 3 3 4 4 4 4 3 2 3 3 3 4 5 4 4 4 4 4 5 5 4 4 5 6 6 5 5 5 6 7 7 7 7 7 7 9 10 9 8 9 9 10 10 11 12 14 18 22 26 31 37 45 56 72 92 107 112 111 107 103 99 94 90 87 86 85 82 79 77 76 75 77 81 87 96 106 115 123 128 131 133 134 134 134 135 134 133 133 133 133 132 131 129 128 125 123 120 118 115 112 110 107 103 99 95 91 87 82 77 73 68 62 57 51 45 39 33 28 24 20 18 17 16 16 15 14 14 14 13 12 11 10 11 11 10 10 10 9 9 9 7 6 7 7 6 7 8 8 8 6 5 5 5 5 6 6 7 6 6 5 4 4 4 5 5 4 4 4 4 3 4 3 3 4 4 4 4 3 3 4 4 3 3 3 3 3 4 3 2 3 3 3 3 3 3 3 3 2 2 3 2 3 2 2 2 2 2 2 2 2 2 2 2 3 2 1 1 2 2 2 2 2 2 2 1 2 2 2 2 2 2 2 2 2 1 1 2 2 1 1 1 1 1 1 2 2 1 1 2 1 1 1 1 1 1 2 2 2 1 1 2 2 1 2 2 1 1 1 2 2 2 2 2 2 2 2 1 1 1 0 1 1 1 1 1 1 1 1 1 1 1 1 0 1 2 2 1 1 1 1 1 0 1 2 2 1 1 1 2 1 1 2 1 1 2 1 1 1 1 1 0 1 1 1 1 1 1 1 1 0 0 1 0 1 1 1 2 1 0 1 1 1 1 2 2 1 0 0 1 1 0 1 1 2 1 1 0 1 0 0 0 1 0 0 0 2 1 1 1 1 0 1 0 1 0 0 1 2 0 0 0 1 1 2 0 2 1 1 1 1 0 2 0 0 -1 2 -1 1 1 2 0 1 0 1 -1 5 -3 2 
3 -3 2 1 1 -1 2 0 2 0 1 0 1 0 1 0 1 2 2 1 1 1 1 0 0 0 0 1 1 0 1 1 1 1 1 0 1 0 1 1 0 0 0 0 1 0 0 1 2 2 1 1 1 1 0 0 1 0 0 0 0 1 2 1 1 1 1 1 1 0 0 1 1 2 2 1 1 0 1 1 1 1 1 1 1 0 0 0 0 -1 1 1 1 1 1 1 1 1 1 1 1 1 1 1 2 1 1 1 1 1 1 1 1 0 1 1 1 1 1 1 1 1 1 1 1 1 1 1 1 1 2 2 1 1 1 1 1 1 1 1 1 1 2 1 1 1 1 1 1 1 1 1 2 2 1 1 1 1 2 2 1 1 2 2 2 1 1 1 1 1 1 2 2 2 2 2 1 1 1 2 2 1 1 1 2 2 2 2 1 2 2 1 2 2 2 2 3 2 2 3 3 3 3 3 3 2 3 2 2 2 3 3 3 3 3 3 3 3 3 3 3 3 3 2 2 2 3 3 4 5 4 4 4 4 3 3 3 4 3 4 5 5 4 4 4 3 3 4 4 4 5 5 6 6 6 6 5 5 5 6 6 7 7 7 8 8 9 9 9 9 9 9 9 11 14 16 21 27 35 43 50 56 62 67 72 79 89 93 92 87 82 77 72 68 65 63 61 59 57 55 54 54 54 56 63 73 86 99 109 117 122 125 127 127 127 127 129 130 129 129 129 130 130 130 130 130 130 129 128 127 127 125 124 122 121 119 117 114 111 108 104 101 97 93 88 82 75 67 59 52 45 39 35 32 30 28 27 25 24 22 19 17 15 12 11 11 11 10 10 10 10 10 10 9 9 8 7 7 7 7 7 6 6 7 7 6 6 6 6 5 5 6 5 5 5 5 5 4 4 4 4 4 4 4 4 4 4 4 3 4 4 4 4 4 4 3 3 3 3 3 4 4 3 3 3 2 3 3 2 1 2 2 3 3 3 3 2 2 2 2 2 2 2 3 2 2 3 3 2 3 2 2 3 2 2 2 3 2 2 1 2 3 3 2 1 2 2 2 2 1 1 1 1 2 2 1 1 2 1 1 1 1 1 2 2 2 1 1 1 1 1 1 1 1 1 1 1 1 2 2 2 1 1 0 1 2 1 1 1 1 2 1 1 1 1 1 2 1 0 1 2 2 2 1 1 1 0 1 2 1 1 0 1 1 1 1 1 2 1 0 1 1 1 1 2 2 1 1 2 1 0 1 0 0 1 0 1 1 0 0 1 2 1 1 0 2 1 0 1 0 1 1 1 1 1 1 1 1 0 0 1 1 0 1 1 1 1 0 1 1 1 0 0 0 1 0 0 0 1 0 1 0 0 2 0 1 2 1 1 0 0 1 2 0 0 1 0 0 0 1 2 1 1 1 2 1 0 0 1 1 1 1 1 0 1 0 3 -1 4 -1 
2 -1 2 0 1 0 1 1 2 0 1 1 1 0 2 0 0 0 1 0 1 1 2 1 1 0 1 0 1 0 1 0 0 1 1 0 2 0 1 1 0 1 1 1 1 0 0 1 2 1 2 1 1 1 1 0 1 2 2 1 0 1 1 0 0 1 1 0 1 1 0 0 0 2 2 1 1 1 1 1 2 1 2 2 1 0 1 1 1 0 1 1 0 0 1 0 0 1 1 1 0 1 2 1 1 0 1 1 1 1 1 1 1 0 1 1 0 1 1 1 2 2 1 0 1 2 2 1 1 1 0 0 1 1 1 1 2 2 2 1 1 1 1 0 1 1 1 1 1 1 1 1 1 1 1 1 1 1 1 2 2 2 2 2 2 1 0 1 2 2 1 1 2 1 2 1 2 2 2 2 2 2 2 2 1 0 1 3 3 2 2 2 3 3 2 2 3 2 2 3 2 3 3 2 2 2 3 3 3 2 2 3 3 2 2 4 4 3 3 2 2 3 3 2 3 3 3 2 3 4 4 3 3 4 5 4 4 4 4 4 4 5 5 4 4 5 5 5 4 4 5 5 5 5 5 5 6 6 7 7 7 7 8 8 8 8 8 8 9 10 11 12 15 20 25 32 42 52 62 70 76 77 77 76 73 72 71 70 67 62 57 53 50 46 43 42 42 40 38 37 38 38 39 42 50 61 75 88 97 102 105 107 109 110 110 110 111 112 114 116 117 119 120 121 123 123 125 126 126 126 127 128 128 128 129 128 127 126 125 123 122 120 119 116 113 108 102 95 87 79 71 63 57 54 52 51 48 44 41 39 35 31 27 23 20 18 15 13 11 10 9 9 9 9 9 9 8 8 8 7 7 7 8 7 7 6 5 5 5 6 6 6 5 5 5 5 5 5 5 4 4 4 3 3 3 4 4 4 4 4 4 4 3 3 3 4 4 4 4 4 4 4 3 3 3 3 3 3 2 2 3 4 4 3 3 3 3 3 3 2 3 3 2 3 3 2 3 2 2 2 2 2 3 3 3 4 3 2 2 2 2 3 3 2 2 2 1 2 2 1 1 1 2 2 2 1 2 2 2 1 1 1 1 1 1 1 1 1 1 1 1 1 1 1 1 1 1 1 2 1 1 1 1 1 1 1 1 1 1 1 2 0 0 2 2 1 0 1 1 1 1 1 1 0 1 1 1 0 1 1 1 0 1 1 1 1 1 1 1 1 0 0 1 1 1 1 0 0 1 1 0 1 1 1 1 1 2 0 0 0 0 1 2 1 0 0 1 0 1 0 1 1 0 1 2 1 0 1 1 0 1 1 1 1 1 1 2 1 0 1 1 0 1 1 0 -1 0 1 1 0 1 1 1 1 0 1 1 0 2 2 1 0 1 1 1 0 0 0 1 0 0 0 1 0 1 1 0 0 2 0 0 1 1 1 1 0 2 -1 3 1 
-2 5 -2 2 0 2 -1 1 1 2 0 1 0 1 1 0 0 1 0 1 1 1 1 1 0 1 1 1 1 1 0 0 0 1 0 0 0 0 1 1 0 1 1 1 0 0 0 0 0 0 0 1 1 1 0 1 2 2 1 1 1 2 0 0 1 1 0 0 1 0 -1 0 1 1 1 1 1 1 0 1 1 0 1 2 0 1 1 1 1 2 1 0 1 2 1 1 1 1 0 0 1 1 1 1 2 2 1 0 0 2 1 1 1 1 1 1 1 2 1 1 1 0 1 1 1 1 1 1 1 1 1 2 2 0 0 1 2 1 1 1 1 1 1 1 2 1 1 2 2 1 1 1 1 1 2 2 2 1 1 2 1 1 1 2 2 1 1 2 2 2 2 2 2 2 2 2 2 2 1 2 2 1 1 2 2 2 2 2 2 2 3 2 1 2 2 2 2 1 2 2 2 2 2 2 3 2 2 2 2 2 2 3 3 3 3 4 3 3 3 2 2 3 3 3 3 3 3 2 3 4 4 4 4 4 4 3 4 4 4 4 5 5 5 4 3 4 5 5 5 5 5 6 6 6 6 6 6 7 7 8 8 8 9 9 9 9 9 10 12 14 18 22 28 36 45 56 68 80 88 93 93 90 83 74 65 58 53 49 45 41 38 36 34 32 31 31 30 30 29 29 30 30 32 35 41 51 63 72 78 81 83 84 85 86 86 87 88 90 92 93 95 98 101 103 105 106 109 111 112 114 117 120 123 125 126 127 127 128 129 129 129 129 128 127 125 121 117 113 107 101 95 88 83 80 77 75 73 71 67 62 57 51 46 40 34 29 24 20 17 14 12 11 10 10 10 10 9 8 8 8 7 6 7 7 7 8 7 6 5 5 5 6 5 5 5 5 5 5 5 5 5 5 5 5 5 4 4 4 4 4 4 3 3 4 4 3 3 2 3 3 3 4 3 3 3 3 2 2 3 4 4 4 3 3 3 4 3 3 2 2 3 3 2 2 2 2 3 2 2 3 3 2 2 2 2 2 2 1 1 2 2 2 2 2 2 2 2 2 2 2 2 2 1 1 1 2 1 1 2 2 2 1 1 1 2 2 2 1 1 1 1 2 2 1 1 2 2 1 1 1 1 1 1 2 2 2 1 1 1 0 1 2 1 1 1 0 0 0 1 1 0 1 2 2 1 1 1 1 1 1 2 1 1 1 0 1 1 1 1 2 1 1 1 1 0 0 1 1 1 1 0 0 0 1 1 0 1 1 -1 1 0 1 1 1 1 0 0 1 1 -1 0 1 1 0 1 2 1 1 1 1 1 1 1 1 0 1 1 1 1 1 0 0 0 1 1 0 0 1 1 0 0 1 1 1 1 1 1 1 1 0 0 1 0 1 0 0 0 1 1 2 0 1 1 1 0 1 1 1 0 1 1 2 0 2 0 1 0 4 -2 3 
3 -2 2 2 0 0 1 1 1 1 1 1 0 1 0 1 1 2 0 1 2 1 0 1 0 0 1 1 1 0 0 1 0 0 0 1 1 1 1 1 0 1 0 1 1 0 0 1 1 0 -1 1 1 0 0 1 1 1 1 1 1 1 0 1 1 0 1 2 0 0 1 2 1 0 1 2 0 1 1 2 1 0 1 1 0 1 1 1 2 1 0 0 0 0 1 1 0 0 1 1 1 2 1 1 2 2 1 1 2 1 0 1 1 1 0 0 1 1 1 1 2 1 0 1 1 1 1 1 2 1 0 2 2 1 1 1 1 1 1 1 1 1 1 2 1 1 2 2 1 1 1 1 1 1 1 1 1 1 1 1 1 1 2 2 2 2 2 2 2 2 2 1 1 1 2 2 1 2 2 2 1 1 1 2 1 1 2 2 2 2 1 1 2 2 1 1 2 2 2 1 2 2 2 2 2 2 2 3 3 3 3 3 3 3 3 3 4 3 2 2 3 3 3 3 3 3 4 2 2 3 4 3 4 4 4 4 4 4 5 5 4 4 4 5 5 5 5 5 5 5 5 6 6 7 6 6 7 7 7 8 9 9 9 10 9 9 11 14 19 24 30 39 49 60 72 84 94 101 105 107 103 93 80 66 53 43 37 33 30 28 27 26 26 25 25 26 26 26 27 27 28 28 30 33 38 46 55 62 65 66 67 68 68 69 70 70 71 73 75 76 77 79 81 82 84 86 89 91 92 95 99 103 107 110 112 115 117 121 124 127 130 132 132 131 129 127 124 121 117 113 108 104 100 98 96 94 92 90 87 84 80 75 69 63 56 49 41 33 26 21 17 13 11 11 10 10 10 9 9 9 7 7 8 8 7 8 8 7 7 6 5 5 5 5 6 6 6 6 6 5 4 5 5 5 4 4 4 4 3 4 4 3 3 4 4 4 4 3 3 3 3 3 4 4 3 3 3 2 3 3 4 4 3 3 3 2 2 2 2 2 1 2 2 2 2 2 2 2 2 1 1 1 1 2 2 2 2 1 1 1 1 2 2 2 1 2 2 2 1 2 2 2 2 2 2 2 2 2 2 1 1 1 1 1 1 2 1 1 2 2 1 1 2 1 1 1 1 1 1 2 2 1 0 1 1 0 0 1 1 0 0 1 1 2 1 0 0 0 1 2 2 1 0 0 1 1 1 1 1 1 1 2 1 1 1 1 0 1 2 2 1 1 0 1 1 0 0 1 1 1 2 2 1 2 1 0 1 2 0 0 0 0 1 1 1 1 0 1 2 2 1 0 1 1 1 2 2 1 1 2 1 1 1 1 0 1 1 1 1 0 0 1 0 0 0 2 1 1 1 1 1 1 1 1 1 0 1 1 1 0 1 3 0 1 0 1 1 0 0 2 1 0 1 1 1 1 1 1 0 1 1 1 0 1 1 1 0 -2 3 -1 
1 2 1 0 0 1 1 1 0 1 1 1 1 1 1 2 1 2 1 1 0 1 1 1 0 1 1 1 1 0 0 1 0 1 0 1 1 1 0 1 1 1 1 1 1 0 1 1 0 0 0 1 0 0 0 0 1 0 1 1 0 0 1 1 0 2 2 1 0 2 2 1 1 1 1 0 -1 1 0 1 1 0 0 0 1 2 1 1 2 1 0 1 0 1 1 1 0 0 2 2 1 1 1 1 2 2 1 1 0 0 2 2 1 1 1 1 0 1 2 1 1 1 2 2 1 2 2 0 1 1 2 1 0 1 1 1 0 1 1 1 1 1 2 1 1 2 2 2 2 2 1 1 1 0 0 1 1 1 1 1 1 1 1 2 2 2 1 1 2 2 2 1 1 1 1 1 1 1 2 2 1 1 1 1 2 2 2 1 1 1 1 2 2 1 1 1 1 2 2 2 3 3 3 2 1 1 2 3 3 3 3 3 3 3 3 3 3 3 3 3 3 2 2 3 3 3 4 4 4 3 2 2 4 4 4 4 4 4 4 3 3 3 4 4 4 3 5 6 6 5 6 7 7 7 7 7 7 7 8 10 11 11 10 9 9 12 17 24 33 43 53 64 76 87 96 104 110 115 116 115 107 95 78 60 44 32 26 23 22 21 22 23 24 24 25 27 28 29 31 33 35 37 40 43 49 55 62 67 69 70 71 71 71 72 72 74 75 75 76 76 76 75 75 75 75 76 77 77 78 80 83 87 90 93 95 98 101 106 113 122 129 133 134 134 132 130 128 125 123 120 117 114 113 111 109 107 106 104 102 99 96 92 88 83 77 71 63 55 47 38 31 24 18 14 12 10 10 10 10 10 10 10 8 7 6 7 7 7 7 7 7 6 5 5 5 6 6 6 6 6 5 5 5 5 5 5 5 4 3 3 4 3 3 4 3 4 4 3 3 3 3 3 3 3 3 3 3 3 3 3 2 2 2 3 2 2 2 1 2 2 1 2 2 2 2 1 1 3 3 2 2 2 1 2 1 0 1 1 2 1 1 1 1 2 1 1 2 2 1 1 2 1 1 2 2 2 2 1 2 2 2 2 1 2 2 2 1 1 1 2 2 2 1 1 1 1 1 1 1 1 1 2 2 2 2 2 1 0 1 1 1 1 1 2 1 0 1 1 1 1 0 1 0 0 1 2 1 0 1 2 0 1 1 1 0 0 1 1 1 0 1 1 0 0 1 1 0 1 2 0 1 2 0 0 1 1 1 1 1 1 0 0 1 1 1 1 2 2 1 1 1 0 1 2 1 1 2 1 1 1 1 1 0 1 0 0 0 1 2 1 0 0 1 1 0 1 1 1 0 1 2 1 0 0 1 1 1 0 1 0 0 2 1 1 0 0 1 2 0 1 1 0 0 0 1 2 0 1 1 1 0 1 1 0 0 0 1 1 0 1 
0 3 -1 2 0 1 0 1 0 1 0 0 0 1 1 1 0 2 1 2 0 0 1 1 0 0 1 1 1 1 1 1 1 1 1 1 0 1 1 2 0 0 2 0 0 1 1 1 1 1 1 1 1 1 0 0 0 1 1 0 1 2 0 0 1 2 0 0 1 1 1 1 1 1 1 1 1 2 1 1 1 1 1 1 1 1 1 1 0 0 1 0 0 2 2 0 1 1 1 1 0 1 1 1 1 2 1 -1 0 1 2 1 1 2 1 1 2 2 2 1 1 2 1 1 1 1 1 1 1 2 2 2 2 1 0 1 1 1 0 1 2 2 1 2 2 1 1 1 1 2 1 0 0 1 1 2 2 1 1 1 1 1 1 2 2 1 1 1 1 1 2 3 2 1 1 2 2 2 2 1 1 1 1 2 2 1 1 1 2 3 3 3 3 2 2 2 2 2 2 2 3 3 2 2 2 2 2 2 2 3 3 3 3 3 2 2 1 2 2 3 3 4 4 3 2 2 3 3 4 4 4 4 4 4 4 4 4 5 5 4 4 5 5 5 4 4 4 5 5 5 6 7 7 7 7 8 8 8 9 9 9 9 9 10 14 21 31 43 56 68 80 90 99 106 111 116 118 119 119 114 104 88 68 49 34 25 21 20 21 22 23 25 27 30 34 37 40 44 47 50 54 58 62 66 71 76 81 84 85 85 86 87 87 87 87 88 88 89 89 89 89 87 86 85 83 82 81 80 80 80 80 81 82 83 83 84 87 94 105 119 131 138 139 136 134 133 131 129 127 125 122 121 120 119 118 116 114 112 111 110 109 106 102 99 94 89 82 75 67 58 49 40 32 25 19 15 12 10 9 9 10 10 9 9 9 9 9 8 7 7 8 8 7 6 6 6 6 6 6 5 5 5 5 5 5 5 4 4 4 4 5 4 4 4 4 4 3 3 4 4 4 3 3 3 3 3 3 3 3 2 2 2 3 2 2 2 2 2 3 3 2 2 3 2 3 3 2 3 3 2 2 2 2 3 2 2 2 2 2 2 1 1 2 2 1 1 1 2 2 1 1 1 1 1 2 2 2 1 1 1 1 1 2 2 1 1 2 2 1 1 1 1 2 2 1 1 1 1 1 2 1 1 2 2 1 1 1 1 1 1 2 1 0 1 1 1 0 0 2 2 1 1 1 1 0 1 2 1 1 1 0 0 1 2 2 1 1 0 1 1 0 -1 0 1 1 2 1 0 1 2 1 1 2 1 0 0 1 1 1 1 0 0 1 1 1 0 1 2 1 1 1 1 0 1 2 1 0 0 2 1 1 2 1 1 0 0 1 1 1 2 2 0 0 1 1 1 0 2 1 0 1 1 1 1 1 1 1 0 0 1 0 1 1 1 0 0 0 2 1 1 1 1 1 1 0 0 0 1 1 1 1 2 0 0 1 1 0 3 -2 2 
3 -1 3 0 0 0 2 0 0 0 1 0 2 1 1 0 1 1 1 -1 1 1 1 0 2 2 1 0 1 1 0 -1 0 1 1 0 1 1 0 0 1 0 1 0 2 1 -1 1 2 1 1 0 1 1 0 1 1 0 1 1 1 -1 0 1 1 0 1 2 1 0 1 1 1 1 1 1 1 1 1 2 1 0 1 2 2 1 1 1 0 0 1 0 1 1 0 0 3 1 0 2 2 0 0 1 1 2 1 0 1 2 1 1 2 1 0 1 1 0 0 1 1 2 1 2 1 1 1 1 1 1 1 1 2 2 2 2 1 1 1 2 2 1 1 2 1 0 0 1 2 2 2 1 1 1 1 1 1 2 1 1 1 2 2 1 1 2 2 1 1 1 2 2 1 1 1 2 2 1 1 2 2 2 1 2 3 2 2 2 2 3 2 2 2 1 2 2 2 3 3 2 3 3 3 3 3 2 3 2 1 2 3 3 3 3 3 2 3 3 3 3 3 3 4 3 2 3 3 4 4 3 3 3 4 4 5 6 6 5 4 4 4 4 4 4 5 6 6 6 6 6 6 6 6 7 8 8 8 9 10 11 11 10 12 18 26 38 52 67 81 93 102 109 114 117 120 121 119 115 109 101 88 71 53 38 27 22 21 23 26 29 32 37 42 48 55 60 65 70 74 77 81 84 88 91 93 96 99 102 102 103 103 103 102 102 102 103 104 104 103 103 103 102 101 99 98 97 95 93 91 91 90 89 89 88 86 85 86 92 104 120 133 140 141 139 137 135 133 131 130 128 127 126 124 124 123 121 120 118 117 116 116 114 111 109 107 103 99 94 87 79 70 60 51 41 32 24 19 15 13 11 10 10 9 9 8 9 9 8 7 7 8 8 7 8 7 7 6 6 6 6 6 6 5 4 4 4 5 5 4 4 4 3 3 4 4 4 5 4 3 3 3 4 4 3 2 2 3 3 3 3 2 2 3 3 3 3 2 2 2 3 2 3 3 3 3 3 2 3 2 2 2 3 3 3 2 2 2 2 3 2 2 1 2 3 3 2 2 2 1 1 1 1 2 2 2 1 1 2 2 2 1 2 2 2 2 1 1 1 2 2 1 2 2 2 1 2 1 0 1 2 1 1 2 2 2 1 1 1 1 0 1 2 1 0 1 2 2 1 2 2 2 1 0 1 2 1 1 2 1 1 1 2 1 2 3 2 1 1 0 0 1 0 2 2 0 0 1 1 1 1 1 0 2 1 1 1 1 1 1 0 1 0 1 1 0 1 1 1 1 1 0 1 2 1 1 1 1 0 0 1 1 1 1 2 2 0 1 1 1 2 2 1 1 0 1 1 0 0 0 1 2 0 1 0 0 0 2 1 0 0 2 2 1 -1 0 1 1 0 0 0 1 0 1 0 1 0 1 -1 1 1 2 1 1 0 2 0 1 -1 2 0 
0 0 1 0 2 0 0 1 1 0 0 0 1 0 1 1 1 0 1 0 0 0 1 0 1 0 -1 1 1 1 1 1 1 1 1 0 0 1 0 1 0 0 2 1 1 1 1 1 0 0 2 0 0 1 1 1 -1 0 2 1 0 1 2 0 0 2 2 0 0 0 1 0 0 0 1 2 1 0 2 1 0 0 1 1 1 1 0 1 0 0 0 1 1 0 2 1 1 1 2 1 -1 0 2 2 1 1 1 1 1 0 1 2 1 1 2 1 0 1 1 0 0 1 1 1 0 0 1 2 1 1 1 1 2 2 2 2 1 1 1 1 1 1 2 2 1 1 2 2 2 2 2 1 1 1 2 3 3 1 1 1 1 1 1 1 2 2 1 1 2 2 1 1 2 3 2 1 2 3 3 2 1 2 3 2 1 0 1 2 3 2 2 2 2 1 1 2 3 3 2 2 2 2 3 3 3 3 3 3 3 2 2 3 3 3 3 3 3 2 2 3 4 4 5 4 3 3 3 3 3 3 5 5 3 2 3 4 5 4 4 5 6 5 4 5 6 6 6 5 5 6 7 7 8 8 8 9 10 10 9 9 11 13 20 30 44 61 77 91 103 112 117 118 119 119 117 112 106 98 89 77 64 52 40 30 26 26 30 36 41 46 53 60 67 73 79 86 91 95 98 100 103 105 107 109 110 112 113 113 113 113 113 113 113 112 112 113 113 112 112 112 112 112 111 111 109 107 107 106 105 103 102 100 99 97 96 94 95 100 112 127 137 141 141 139 137 136 135 134 133 131 130 129 128 127 126 125 125 124 122 121 120 118 116 115 113 111 109 105 100 95 89 81 72 62 51 41 32 24 18 14 12 11 10 10 10 10 10 10 9 8 8 8 8 8 8 7 7 6 6 5 5 5 5 5 5 5 4 4 5 5 5 5 4 4 4 4 4 3 3 4 4 3 3 3 4 3 3 3 4 3 3 3 3 3 3 2 2 3 3 2 2 2 3 3 3 2 1 2 2 2 2 2 2 2 2 2 2 2 2 2 1 2 3 2 2 2 2 2 2 1 2 2 1 1 1 1 1 1 2 2 2 2 1 1 1 1 2 1 2 1 1 1 2 2 2 1 1 1 1 1 1 1 1 1 2 2 1 0 1 2 2 1 1 1 1 1 0 1 2 1 2 2 1 1 1 1 1 2 2 1 1 1 1 1 1 0 0 1 1 0 1 1 1 1 1 1 0 1 1 1 1 2 2 0 1 0 0 0 0 0 1 2 0 1 1 0 0 0 1 1 1 1 0 1 2 1 0 1 1 1 1 2 2 1 1 0 1 1 1 2 1 0 1 1 1 1 1 1 0 1 2 1 1 0 1 1 0 0 1 1 0 0 1 0 1 1 0 1 1 1 1 0 1 1 1 0 0 0 1 1 0 1 2 2 1 0 2 0 0 1 
1 1 0 2 -1 2 0 2 0 2 -1 0 0 2 1 1 1 1 0 0 -1 0 0 1 1 1 0 1 -1 0 0 1 1 1 1 1 0 1 0 1 1 0 1 1 1 1 0 0 1 1 0 0 1 1 -1 0 1 1 0 0 1 1 0 1 2 1 0 1 1 0 0 0 0 1 1 1 0 1 1 -1 0 1 0 0 1 2 1 1 1 2 0 -1 0 1 1 0 2 2 0 0 2 2 1 1 1 1 1 1 1 2 1 0 1 2 2 0 0 1 1 0 0 1 1 0 0 1 2 2 1 1 1 1 1 1 1 2 1 1 1 2 2 1 1 1 2 2 1 1 1 1 2 2 2 1 1 2 2 2 1 1 1 2 2 2 1 2 2 1 1 1 2 2 2 1 1 2 2 2 2 1 2 2 1 1 1 2 2 2 1 2 2 2 2 1 2 3 3 3 2 2 2 3 2 1 2 3 3 2 2 2 3 4 3 3 3 3 4 5 4 3 3 3 3 3 3 4 3 3 3 4 4 4 4 4 5 5 4 4 4 4 5 4 4 6 6 6 6 6 6 6 6 7 8 8 9 9 9 10 11 13 17 25 37 52 68 84 99 110 117 120 121 120 117 112 105 95 85 75 65 54 45 38 33 31 33 40 48 57 65 72 80 88 94 99 103 107 110 112 114 114 115 116 117 117 117 117 117 118 118 118 118 118 118 117 117 118 117 117 116 116 116 117 116 116 116 115 114 114 114 113 112 111 109 108 106 106 107 113 124 134 141 143 142 140 138 137 136 135 134 133 132 131 130 129 129 128 126 126 125 125 124 122 121 120 119 117 115 113 111 107 102 96 89 81 71 60 50 40 31 23 18 14 12 10 10 9 9 10 10 9 9 9 9 8 7 8 8 8 7 7 7 6 5 5 4 5 6 5 5 5 5 4 4 3 4 4 4 4 4 4 4 3 3 3 3 3 3 3 3 4 4 4 3 2 2 3 3 3 3 2 2 2 2 2 3 3 2 2 2 2 2 2 2 2 2 2 2 2 3 2 1 2 2 2 2 2 2 2 2 1 2 2 2 1 1 2 2 2 2 2 2 2 1 1 2 2 1 1 1 2 2 2 2 1 1 1 1 2 2 2 1 1 1 1 1 1 1 1 0 0 1 1 1 1 1 2 1 1 2 2 2 1 1 1 1 2 1 1 1 2 1 1 1 0 0 1 1 1 0 1 1 1 2 1 0 0 1 2 1 1 1 1 2 2 2 1 0 1 2 1 -1 1 1 0 0 1 1 1 1 1 0 1 2 2 1 1 0 1 1 1 1 1 1 1 1 0 0 1 1 2 1 0 1 1 1 0 0 2 1 1 0 0 1 1 1 1 0 1 1 1 0 1 2 1 0 0 1 2 0 0 0 2 1 1 -1 0 0 1 -1 1 0 2 1 2 0 3 -1 1 1 1 
0 2 -1 1 0 1 0 1 0 1 0 1 1 1 0 1 2 1 0 0 0 1 0 1 1 1 0 0 1 2 1 0 1 2 2 1 0 1 1 1 1 1 1 1 1 1 1 1 0 0 1 1 1 1 1 1 0 0 1 2 1 0 1 2 0 0 3 2 0 1 1 0 1 1 1 1 1 1 1 0 1 0 0 2 1 0 1 2 2 1 0 1 1 -1 0 3 1 0 0 2 1 0 1 1 1 1 1 1 1 1 0 1 2 1 1 1 1 1 1 1 1 0 1 1 1 0 0 1 2 2 1 1 1 1 1 1 1 1 1 1 1 2 1 1 1 2 2 1 1 2 1 1 1 2 2 2 1 1 1 1 1 2 1 1 1 2 2 1 1 2 2 1 1 2 2 2 1 1 2 2 2 2 2 2 2 1 1 2 2 2 2 2 3 3 2 2 2 2 3 2 1 2 2 3 3 2 2 2 3 3 2 3 3 2 3 3 3 3 3 3 4 4 3 3 4 4 3 3 3 3 4 4 4 4 3 3 4 5 5 5 5 5 5 5 5 5 5 5 7 7 8 8 8 8 9 10 10 11 13 19 30 45 61 78 93 107 115 120 121 120 118 113 104 93 81 70 61 53 45 41 38 36 38 44 54 66 76 86 93 99 103 108 111 115 116 118 119 121 122 122 122 122 122 123 123 122 122 122 122 122 121 121 121 121 121 121 121 120 120 120 120 120 120 120 119 118 118 118 117 116 115 116 115 113 113 114 117 123 133 142 146 146 144 141 140 140 139 138 136 135 134 133 132 131 131 131 130 129 128 128 126 124 123 123 121 120 118 117 116 114 111 107 103 96 88 79 68 58 46 36 28 24 19 15 13 12 10 10 10 10 10 10 10 10 8 7 7 7 7 7 6 6 6 6 5 5 6 6 6 5 5 5 5 5 4 4 4 3 3 4 3 3 3 4 4 4 3 3 3 3 3 3 3 3 3 2 2 3 3 3 3 3 2 2 2 2 2 2 2 2 3 2 2 2 2 2 1 1 2 3 2 2 2 3 2 2 2 2 2 2 2 2 2 2 1 1 2 1 1 2 2 2 1 1 1 2 3 2 1 1 2 2 1 1 1 1 1 1 2 2 2 2 2 2 1 1 1 2 2 1 1 1 1 1 1 1 0 1 1 2 2 1 1 1 1 1 0 2 1 0 1 0 0 1 1 1 0 1 1 1 1 0 -1 1 2 1 0 2 1 1 1 1 1 1 0 1 1 0 1 1 0 1 1 0 0 0 1 1 0 1 1 0 1 2 1 1 1 0 0 1 2 2 1 0 0 1 1 1 1 1 1 2 1 1 0 1 1 1 0 1 1 0 0 1 1 2 0 0 0 1 2 1 0 1 1 1 0 0 1 1 2 1 0 1 1 1 1 0 1 1 0 0 1 2 0 2 0 3 0 2 
2 -2 2 0 2 -1 1 1 0 0 1 1 1 0 1 1 2 1 1 1 0 0 1 1 1 0 0 0 1 1 1 1 1 0 1 1 1 1 1 0 1 1 1 0 1 1 1 -1 0 1 1 0 1 1 1 0 0 1 1 0 0 1 1 1 1 1 2 1 0 1 0 0 2 0 1 2 1 1 1 1 1 1 1 2 1 0 1 1 1 1 1 0 0 1 2 1 0 1 2 0 1 1 1 0 1 1 1 1 1 1 1 2 1 1 2 0 0 2 2 1 1 1 2 1 0 0 1 1 2 2 2 1 1 1 1 1 1 1 2 2 2 1 1 1 2 2 2 2 2 1 1 2 2 1 1 1 2 1 1 1 2 2 1 1 1 2 2 1 2 2 2 1 1 2 2 1 1 2 2 2 1 1 2 2 2 2 2 2 2 1 2 3 3 2 2 2 3 2 2 2 3 3 4 3 2 3 4 3 1 1 2 3 3 2 2 3 3 3 3 2 2 3 3 4 4 3 4 4 4 4 4 4 4 4 4 5 5 5 4 4 5 6 6 5 5 5 6 6 6 7 7 8 9 9 9 10 11 15 23 36 53 70 86 100 112 119 122 123 120 114 106 94 83 71 60 50 43 39 37 38 42 50 59 69 81 93 102 108 112 116 119 121 123 124 125 125 125 125 126 126 126 126 126 126 126 125 124 124 124 124 124 124 124 124 123 122 123 122 121 121 121 121 122 123 123 122 122 122 121 121 120 120 119 118 118 120 123 130 139 145 148 147 144 142 141 141 140 138 137 136 136 135 135 134 133 131 130 130 130 129 128 128 127 126 125 124 122 120 120 119 117 114 111 107 102 95 86 76 65 55 46 39 33 28 21 16 13 11 10 9 9 10 10 10 9 8 8 8 8 8 8 7 7 7 6 5 5 5 5 5 4 4 4 4 4 5 5 4 4 3 3 3 4 4 4 3 3 3 3 3 4 3 3 3 3 3 3 3 3 3 3 2 2 3 3 2 2 2 2 2 2 2 3 3 2 2 2 3 3 2 1 1 3 3 2 2 2 3 3 2 2 2 2 2 2 3 2 1 1 1 1 2 2 2 2 1 2 1 1 2 1 1 2 1 1 1 1 1 2 2 1 1 2 2 2 1 1 1 1 0 0 0 1 1 1 1 2 1 1 2 2 2 1 0 1 2 1 1 1 0 1 1 1 0 1 2 2 2 1 1 0 1 1 0 1 1 1 1 0 1 1 0 1 2 0 0 1 1 1 1 1 0 0 1 1 -1 0 2 1 1 1 1 1 2 1 1 1 0 1 1 1 0 1 0 0 1 0 0 1 1 0 0 1 1 1 0 1 1 1 0 0 0 2 1 2 1 0 0 1 1 2 1 1 1 1 1 0 0 1 1 1 0 0 1 1 0 0 0 2 0 0 0 1 0 0 0 1 -1 4 0 
-1 2 0 -1 2 0 1 1 1 1 1 1 1 1 1 0 1 1 1 0 0 1 1 1 1 -1 0 0 1 1 1 1 2 2 1 1 1 0 0 0 1 1 1 0 1 1 0 -1 1 0 0 0 1 1 0 0 1 1 0 1 1 1 0 1 1 0 1 1 1 1 0 0 2 0 1 1 0 1 2 1 0 2 1 0 0 1 2 0 2 2 0 -1 1 2 0 1 1 0 0 1 2 1 1 1 1 1 1 1 1 1 1 1 1 1 1 0 1 1 1 1 1 1 2 1 0 0 1 1 1 1 2 2 1 0 1 1 1 1 1 1 1 1 1 2 2 2 2 2 1 1 2 2 1 1 2 2 1 1 1 1 2 1 1 2 2 1 2 2 3 2 2 2 2 2 2 2 2 2 2 2 2 3 3 2 2 3 3 2 2 2 2 1 1 1 2 2 2 2 2 2 2 2 2 3 3 3 3 3 3 3 3 3 3 3 3 3 3 2 3 3 3 3 3 3 4 3 3 3 4 4 3 3 4 4 4 4 5 5 5 5 6 6 5 5 6 6 7 7 7 8 8 9 10 10 10 11 16 26 42 60 78 95 108 117 122 123 122 118 110 99 86 72 60 49 40 35 34 37 43 52 64 76 87 97 106 113 119 123 125 126 127 128 128 128 128 128 129 128 128 128 128 128 128 127 127 127 128 127 127 127 126 125 125 124 124 123 123 123 123 123 123 122 122 123 123 123 124 124 123 122 122 121 121 121 121 123 128 135 143 147 149 147 145 144 143 143 142 141 140 139 137 136 136 136 134 133 133 132 132 131 130 129 128 127 126 126 125 123 122 121 120 118 116 114 110 106 99 91 83 74 68 63 58 51 42 32 24 18 14 11 11 10 10 9 9 9 9 9 9 8 7 7 7 7 7 6 5 5 6 5 5 5 4 4 4 4 4 4 4 4 3 3 3 4 4 3 3 3 3 4 4 4 3 3 4 3 3 2 2 3 4 4 3 2 2 2 3 2 2 2 2 2 2 3 2 2 2 2 3 2 1 2 2 2 2 2 2 2 2 2 2 3 2 1 2 2 2 2 1 2 2 2 2 1 2 2 1 1 2 2 1 1 2 1 1 1 2 1 1 1 1 1 2 2 2 1 1 1 1 1 1 1 2 2 1 0 1 2 1 2 1 2 3 2 1 1 0 1 1 0 0 1 1 1 1 1 2 1 1 2 2 1 0 1 2 1 2 1 1 1 2 1 0 2 2 0 0 1 2 0 1 1 1 1 2 1 0 2 1 1 0 1 1 1 1 1 1 1 1 1 1 0 1 0 0 1 1 1 1 0 1 1 1 1 2 1 1 1 1 1 1 0 1 1 2 -1 0 1 1 1 1 0 1 1 0 0 1 1 2 0 1 1 1 0 0 1 1 0 0 0 2 0 1 1 0 1 2 1 -1 1 
1 -1 1 0 1 0 1 0 1 1 0 1 1 0 1 1 1 2 1 0 0 0 1 1 1 -1 1 1 0 1 2 1 1 1 1 1 0 0 1 1 1 1 1 1 1 1 1 1 1 0 0 1 0 1 2 1 0 0 0 1 1 1 0 1 1 1 1 2 1 0 1 2 1 0 1 0 0 1 0 0 2 2 -1 0 3 1 1 2 2 0 0 2 1 0 1 2 1 -1 0 1 1 1 0 1 1 1 1 1 1 1 1 2 1 1 1 1 1 0 1 2 2 1 0 0 1 1 1 1 2 2 0 0 1 2 1 0 0 2 2 1 1 2 1 1 2 2 2 2 2 2 2 1 1 2 1 1 1 2 2 2 2 2 3 2 1 1 2 2 2 2 3 2 1 1 2 2 1 1 2 3 3 2 1 2 3 3 2 2 3 3 3 2 2 3 3 3 2 3 3 3 3 2 2 2 3 3 3 3 3 3 3 2 3 4 4 4 3 3 3 3 3 2 3 4 5 5 4 3 4 4 5 4 4 5 5 6 6 6 5 5 6 6 5 5 7 8 8 8 8 9 9 9 10 11 12 17 29 47 68 88 103 114 121 124 124 121 115 106 94 79 64 51 41 34 31 33 41 51 64 79 92 101 109 117 122 126 128 130 131 131 131 131 132 133 133 132 132 131 131 131 130 129 129 129 129 128 128 128 128 127 126 126 126 125 124 124 124 124 123 123 123 122 123 123 123 123 124 125 125 124 124 125 124 123 124 126 131 139 146 149 150 148 147 146 144 143 143 141 140 140 139 138 137 137 136 136 134 133 133 133 132 131 130 130 129 128 127 126 125 124 123 121 119 117 115 112 108 103 96 90 85 83 81 76 68 56 43 32 23 17 13 11 10 9 9 9 9 9 9 9 8 8 7 7 7 7 6 5 5 5 5 5 5 5 4 4 4 4 5 4 4 3 4 4 3 3 3 4 4 3 3 3 3 3 4 3 3 3 3 3 3 3 3 2 3 3 3 3 2 2 2 2 2 2 2 3 3 2 3 3 2 2 2 2 2 2 2 2 2 2 1 1 2 2 1 1 1 2 2 2 2 2 2 2 1 1 2 2 1 1 1 1 2 2 2 1 0 1 2 2 1 2 2 1 1 1 1 2 2 1 1 1 1 1 1 1 1 1 1 2 2 1 1 1 1 1 1 1 1 1 1 2 2 1 1 0 0 0 1 2 1 2 1 1 1 1 1 1 1 0 0 2 2 0 0 2 0 0 3 2 1 1 2 0 0 2 1 1 1 0 0 1 1 0 0 1 1 0 0 0 0 1 0 0 1 1 1 1 1 0 0 1 1 1 1 1 1 1 0 0 1 1 1 1 1 0 1 1 0 0 1 1 1 1 0 2 1 1 0 1 1 0 0 1 1 1 0 0 1 1 1 0 1 1 0 1 1 0 3 0 
2 0 2 0 1 -1 0 1 1 1 0 1 1 0 1 1 0 0 0 1 2 1 0 1 2 0 0 1 1 2 1 0 1 1 0 1 0 1 1 -1 1 2 1 0 1 1 0 0 1 1 1 0 0 2 1 0 1 1 1 0 0 0 1 1 1 1 1 1 1 1 0 0 1 2 1 0 2 1 0 1 1 1 1 2 1 0 2 1 -1 1 2 1 0 2 1 -1 1 1 0 0 1 1 0 1 1 0 1 1 1 1 2 1 1 2 1 1 0 0 1 1 1 0 1 1 1 1 2 2 1 1 1 1 0 1 1 2 2 1 1 1 1 1 1 2 2 1 1 2 1 1 1 2 2 1 1 1 2 1 1 2 2 2 2 2 2 1 1 2 2 2 1 1 2 2 2 1 2 2 2 1 2 3 3 3 2 2 3 4 3 2 3 3 3 2 1 2 3 3 3 2 2 3 3 2 2 3 4 4 3 2 3 3 4 4 3 3 4 4 4 3 3 4 3 3 4 4 4 4 4 4 4 4 5 5 5 6 5 5 5 6 7 7 6 6 7 8 8 8 8 9 10 11 10 12 17 29 48 70 91 108 119 125 125 124 120 113 102 88 73 57 43 34 28 28 34 45 59 76 90 103 113 121 125 129 131 132 133 133 133 133 133 133 134 134 133 134 134 133 133 132 132 132 131 130 130 130 129 129 129 128 128 128 128 128 127 127 126 126 125 124 124 124 124 123 123 124 125 125 126 126 126 126 125 125 126 128 134 142 148 151 152 151 149 149 148 146 145 144 144 143 141 140 139 139 138 137 137 136 135 134 134 133 133 131 131 130 128 128 127 126 124 124 122 121 118 116 113 110 107 102 98 97 98 98 94 85 72 58 45 34 25 18 14 11 10 10 10 10 10 10 9 9 8 7 7 7 7 7 6 6 6 6 6 6 6 5 5 5 5 5 5 5 4 4 3 3 4 4 3 3 3 3 3 2 3 3 3 2 2 3 3 3 3 3 3 3 3 2 3 3 2 1 2 2 2 2 2 2 2 2 2 2 2 2 2 2 2 1 2 2 2 2 1 2 2 2 2 2 2 2 2 1 1 2 2 2 1 1 1 2 2 2 1 1 1 1 1 1 2 1 1 1 1 2 2 1 1 1 1 1 1 1 1 1 0 1 1 2 1 1 2 1 1 2 2 1 2 0 0 2 1 1 1 1 0 1 1 0 1 2 1 1 1 1 0 1 2 1 2 2 1 0 1 2 0 1 1 1 1 1 1 -1 0 3 1 0 1 1 1 1 1 0 0 1 1 1 1 0 -1 1 1 0 0 0 1 1 1 0 1 2 1 0 0 1 1 1 0 0 1 1 0 1 1 1 1 0 0 1 0 1 1 1 1 0 0 1 1 0 1 1 1 1 1 1 1 1 0 1 1 1 1 1 1 1 0 1 2 0 2 0 
1 3 0 0 1 1 1 0 1 2 0 0 1 0 1 1 0 1 1 1 1 1 2 2 2 1 1 1 0 1 1 0 1 -1 0 2 1 0 1 1 1 0 -1 0 1 0 1 1 1 0 1 1 1 2 1 2 2 0 1 1 1 0 1 0 1 1 0 0 0 0 0 1 1 1 2 2 2 0 1 1 0 2 1 0 2 2 1 0 1 2 1 1 1 0 0 1 2 1 1 1 1 1 1 1 1 1 1 1 2 2 2 0 1 2 1 1 1 1 1 1 0 1 2 0 1 1 2 1 1 1 1 1 2 2 2 1 0 1 1 1 1 2 1 0 0 1 1 1 2 2 2 1 1 1 1 1 1 1 2 2 2 2 2 2 2 1 1 2 2 2 2 1 1 1 1 2 2 2 2 2 2 2 2 2 3 3 2 2 2 3 3 2 2 2 2 3 3 1 1 3 3 2 1 2 3 3 2 1 2 4 3 2 2 4 5 4 3 3 4 4 4 3 3 4 5 5 4 4 4 4 4 5 5 5 5 4 5 6 6 6 6 6 7 7 7 8 8 9 10 10 11 11 12 16 29 48 71 94 112 122 127 128 125 119 109 97 82 66 51 39 31 27 30 37 50 67 85 101 113 121 127 130 133 135 135 134 135 135 134 134 135 136 136 136 136 137 136 135 135 135 134 133 133 132 132 132 132 131 131 130 130 129 129 128 127 127 126 126 126 126 125 125 124 124 124 124 125 126 126 126 127 127 126 126 127 129 133 141 148 151 152 151 150 149 148 147 146 145 145 144 143 142 141 140 139 139 138 138 137 135 134 134 134 134 133 132 131 130 129 128 127 125 124 123 122 120 118 116 112 109 106 105 107 110 111 107 99 88 74 59 46 34 25 18 14 11 10 10 10 10 10 10 9 8 8 8 7 6 6 6 6 6 6 6 6 6 4 4 4 5 5 4 4 4 4 4 4 4 4 3 3 3 4 4 3 2 3 3 4 3 3 3 3 3 3 2 2 2 2 3 3 2 3 2 2 2 2 2 2 2 3 3 2 1 1 2 2 2 2 2 2 2 2 2 2 2 1 1 2 2 2 1 1 1 2 2 2 2 2 2 1 1 2 2 2 1 1 2 2 1 1 1 1 1 0 0 1 1 1 1 1 0 1 1 1 1 2 2 0 0 1 1 2 1 1 1 1 0 0 1 1 1 2 2 1 0 0 1 1 2 1 1 0 0 1 1 1 0 1 0 1 1 1 1 1 1 1 1 0 0 2 1 0 1 0 1 2 1 1 1 2 1 1 1 1 0 0 2 1 0 0 1 1 1 1 0 1 0 1 1 1 0 0 1 0 0 1 1 1 0 1 1 0 1 2 0 0 1 0 0 0 0 2 1 0 0 0 1 1 0 0 1 1 0 1 1 0 2 2 0 1 0 1 1 0 1 2 2 0 1 
2 -1 1 1 0 0 1 1 1 2 0 1 1 0 1 0 0 1 1 1 2 1 1 1 1 1 1 1 1 2 1 0 0 0 0 1 0 1 1 0 1 1 0 1 1 1 2 1 1 1 1 1 1 1 0 1 1 1 2 1 0 0 1 0 1 1 0 1 1 1 -1 1 1 1 1 1 2 1 0 1 1 1 1 1 1 -1 0 1 1 1 2 2 0 0 1 0 0 2 1 0 2 2 1 1 1 1 1 1 1 1 1 1 1 2 1 1 1 1 2 2 0 0 1 1 2 2 1 1 2 2 1 1 1 1 1 2 2 1 1 1 1 1 1 1 1 2 1 1 2 2 0 1 1 2 1 1 1 2 2 1 2 2 1 1 2 2 2 3 2 1 2 3 2 1 2 2 2 2 2 2 2 2 3 2 2 2 2 2 1 2 3 2 2 2 1 1 2 3 3 3 2 3 3 3 2 2 3 3 3 2 2 3 4 4 4 3 3 3 3 3 4 3 3 3 4 4 4 5 5 4 5 4 4 5 5 6 6 6 6 6 7 7 7 7 7 7 9 9 10 10 11 13 17 28 47 72 95 113 124 129 130 126 119 107 93 76 60 46 35 28 26 31 43 58 76 94 109 120 127 131 134 136 136 137 137 136 136 135 136 137 137 137 138 138 138 138 137 136 136 136 135 135 134 133 133 133 132 132 131 131 131 130 130 129 129 129 128 127 126 126 125 125 124 125 125 125 125 125 126 127 127 127 127 127 128 130 134 141 148 151 153 152 151 150 150 149 147 146 145 145 145 144 143 142 141 140 139 139 138 138 137 137 136 136 135 133 132 132 131 130 129 128 127 126 124 123 121 120 117 114 111 110 111 115 118 120 118 111 100 88 74 60 45 33 24 18 14 11 10 10 10 10 10 9 9 9 7 6 6 6 6 6 6 5 5 6 5 5 5 4 4 4 4 4 4 4 4 4 4 4 3 2 3 4 4 3 3 4 3 3 3 3 3 3 3 2 2 2 3 3 2 2 2 3 3 3 2 2 2 2 2 1 1 2 2 2 2 2 2 2 2 2 2 2 2 2 2 2 2 2 2 2 1 1 1 1 1 1 2 2 2 2 1 0 1 1 1 2 2 1 1 1 0 1 1 0 0 1 1 1 1 2 2 1 1 2 1 2 2 1 1 1 1 1 1 1 1 1 1 1 2 1 1 0 1 2 1 1 1 1 0 2 2 1 1 1 1 1 2 1 0 0 1 1 1 2 1 1 1 0 1 1 0 2 1 0 0 0 1 1 1 1 1 1 2 2 1 1 1 1 1 1 0 1 2 1 0 0 1 1 1 1 1 1 0 1 1 0 1 0 0 1 1 1 1 1 1 1 -1 0 0 0 1 1 0 1 2 1 0 0 0 1 1 0 0 1 1 1 1 1 1 1 0 0 1 2 0 0 2 0 
1 1 0 1 0 1 0 1 0 2 0 1 0 1 1 1 0 1 0 1 1 1 0 1 2 2 1 0 1 2 1 0 0 1 0 1 0 1 0 0 1 1 0 0 1 1 1 1 1 1 0 1 1 2 1 2 1 1 1 2 1 0 1 2 1 -1 0 2 -1 -1 1 2 0 0 2 2 1 1 2 0 0 1 2 0 0 1 1 0 1 2 0 0 1 1 0 0 1 1 0 1 2 1 1 2 1 1 1 1 1 2 1 1 2 1 1 2 2 1 1 2 0 1 2 1 1 2 1 1 1 2 2 1 1 1 1 1 1 1 1 2 1 1 1 1 1 1 1 1 1 0 0 1 1 1 1 2 2 2 1 1 2 2 1 2 2 2 1 1 3 3 2 1 2 2 2 2 2 2 2 2 1 2 2 2 2 2 1 1 2 2 2 3 3 3 2 2 2 1 1 3 3 2 2 2 2 2 2 2 2 3 3 3 3 3 4 4 3 3 2 3 4 4 3 3 4 5 5 5 5 4 5 5 6 5 5 6 7 7 6 6 7 7 7 8 8 9 10 10 10 11 13 18 27 46 71 95 114 126 132 132 128 120 108 92 73 55 41 31 25 27 35 49 66 83 100 114 124 131 135 138 139 138 137 137 137 137 138 139 140 139 139 138 138 138 139 139 138 138 138 138 137 137 135 134 134 133 132 132 132 131 131 130 129 129 129 129 128 128 127 127 127 127 126 125 125 125 126 125 125 126 127 127 127 127 128 131 134 140 147 152 154 154 153 152 153 152 149 148 147 146 146 146 144 143 142 141 141 140 140 139 138 137 137 137 136 135 134 134 133 132 131 129 128 127 126 125 124 123 121 117 114 112 112 115 119 124 127 126 121 113 102 89 74 60 46 35 25 18 13 11 9 9 9 10 9 9 9 8 7 7 7 6 6 6 6 6 5 5 4 4 4 4 4 4 4 4 4 4 4 4 4 3 3 3 3 3 3 4 3 3 4 4 4 4 2 1 1 2 2 3 2 3 3 3 2 2 2 2 2 2 2 2 2 2 2 2 2 2 2 2 2 2 2 2 1 1 1 2 2 2 2 1 1 1 1 1 1 2 2 2 2 2 2 1 2 2 1 1 1 1 2 2 2 1 1 1 1 1 1 2 2 2 1 1 1 2 2 2 1 0 1 1 1 1 1 1 1 2 1 1 1 1 1 1 2 1 1 1 1 2 1 1 1 2 1 1 1 1 0 0 1 1 0 1 1 1 1 2 1 0 1 2 1 0 0 1 1 1 1 1 1 1 2 2 0 1 1 1 1 1 1 1 1 1 1 0 1 1 1 1 0 0 1 1 0 1 1 1 0 1 1 2 1 1 1 1 0 1 0 1 0 0 0 1 1 1 1 1 0 1 0 0 1 1 0 1 0 1 1 1 0 1 0 2 0 1 -1 2 0 2 
-1 3 -2 1 0 1 0 1 0 1 1 1 1 1 1 1 0 0 1 1 0 0 0 1 1 0 0 1 1 0 1 1 0 0 0 1 1 1 1 1 1 1 1 1 1 1 1 1 0 0 0 0 0 0 1 1 1 1 1 1 1 1 0 0 0 1 2 1 0 2 0 -1 1 2 0 1 2 1 0 0 2 1 1 1 1 0 0 2 2 0 1 1 0 0 1 1 0 1 1 0 0 1 1 0 0 2 1 1 1 1 0 0 2 1 2 1 1 2 2 1 1 1 1 1 1 1 2 2 1 1 2 1 1 1 1 1 2 2 1 2 2 2 1 1 1 1 1 1 1 2 1 1 1 1 1 2 2 2 2 2 2 1 1 1 1 2 2 2 2 3 2 2 2 3 2 1 2 2 2 1 1 2 3 2 2 2 2 2 2 2 3 3 3 2 2 2 3 2 2 3 3 3 2 2 2 3 3 3 3 3 3 3 3 3 3 3 3 3 4 4 4 4 4 4 4 4 5 5 4 5 6 6 5 4 6 7 6 6 6 7 7 7 7 7 8 9 10 11 12 13 17 27 46 70 95 116 128 133 134 130 121 109 92 71 52 37 28 25 27 37 53 72 91 107 119 129 135 138 139 139 138 138 139 140 141 141 141 140 139 138 139 140 140 140 140 140 140 140 139 139 138 138 137 136 136 135 134 133 132 132 132 132 131 131 131 130 129 129 128 128 128 127 126 125 125 125 125 125 125 126 125 126 127 128 128 129 132 138 145 151 153 154 154 154 153 152 151 150 149 148 147 146 146 145 144 143 142 141 141 140 140 138 137 137 137 136 135 134 133 133 133 132 130 129 128 127 126 125 124 122 118 115 114 115 118 123 128 132 131 127 121 112 101 88 74 60 47 35 25 18 13 10 9 9 10 11 10 9 8 7 7 6 6 5 5 5 6 6 6 6 5 4 4 5 5 4 4 4 4 4 4 3 3 3 3 3 3 4 3 3 3 3 3 4 3 3 2 2 3 3 2 3 2 2 2 3 3 3 3 2 2 2 2 2 2 2 2 1 1 2 3 2 1 1 1 1 2 3 2 1 1 1 1 1 1 2 2 2 2 2 2 1 2 1 1 1 2 2 2 2 1 1 1 1 1 1 1 1 1 1 1 1 1 1 1 1 1 1 1 1 1 0 1 0 1 2 1 2 1 1 1 1 2 1 1 1 2 1 0 0 1 2 1 1 2 1 0 1 2 1 0 1 1 0 0 1 1 0 1 2 2 1 1 1 0 0 1 1 0 1 1 0 1 2 1 1 1 1 1 0 1 1 1 1 1 1 1 0 1 1 0 0 2 1 0 0 0 1 0 0 0 1 1 1 1 1 1 1 2 1 0 1 1 1 1 0 1 2 1 0 0 1 1 1 0 1 1 2 1 0 0 1 0 1 0 0 0 3 -3 3 
2 -3 3 0 2 0 1 -1 2 1 1 0 2 1 1 0 1 1 1 0 0 0 0 -1 1 1 1 0 1 0 1 0 0 1 1 0 0 0 1 1 1 0 1 1 1 0 0 1 1 0 0 1 1 1 2 2 2 1 1 1 1 1 0 1 2 1 0 1 2 1 0 0 2 1 0 2 1 0 2 2 1 1 2 2 0 1 1 1 1 1 1 0 1 1 1 0 0 1 0 1 1 1 1 1 1 1 1 2 2 1 1 1 1 0 1 0 1 2 1 1 2 2 1 1 1 1 1 1 1 1 1 1 1 1 1 1 1 2 2 1 2 2 2 2 2 1 1 1 1 2 2 2 2 1 1 1 2 1 1 1 1 1 2 2 2 2 2 1 1 1 2 1 1 1 2 2 2 2 2 2 2 2 2 2 3 3 2 1 2 2 3 2 2 3 4 2 1 2 2 3 3 2 2 3 3 2 2 3 4 4 4 4 3 4 4 4 4 3 4 5 5 4 3 4 5 5 4 4 4 5 5 5 5 5 5 6 6 5 6 7 7 7 8 9 10 10 11 11 13 17 26 44 69 95 116 129 135 135 131 123 111 94 74 53 37 27 24 26 36 54 76 97 114 125 132 137 140 140 140 140 141 141 141 141 142 142 141 141 141 141 141 141 141 141 141 141 140 140 140 140 139 139 139 138 138 137 136 136 134 134 133 133 132 132 131 131 130 129 129 129 129 128 128 128 128 128 127 125 125 125 125 125 126 127 128 130 132 137 143 149 153 155 155 155 155 154 154 153 151 150 149 148 147 147 146 145 144 143 142 141 140 140 139 138 138 138 137 136 135 134 134 133 132 131 130 128 128 128 127 124 122 119 118 116 118 121 127 132 135 135 133 129 122 113 102 89 74 59 44 32 23 15 11 10 10 10 10 10 9 8 8 7 7 7 7 7 6 5 5 5 5 4 4 5 5 4 4 3 3 4 5 4 3 2 2 3 2 2 3 3 3 4 4 3 3 3 2 1 2 3 2 3 3 3 3 3 2 2 2 2 3 2 1 2 2 2 2 1 1 2 2 2 2 2 1 1 2 1 2 2 2 1 1 2 1 1 2 2 2 2 2 2 2 2 2 2 2 1 2 1 1 1 2 2 1 1 2 1 1 1 1 1 1 0 1 1 1 0 1 1 1 0 1 1 1 2 1 1 1 1 1 1 1 1 2 1 0 1 1 1 0 0 1 1 1 1 1 1 0 1 1 1 1 2 1 0 1 2 1 1 1 1 0 0 1 0 1 2 0 0 1 2 2 2 2 1 0 0 2 1 1 1 1 1 1 1 1 2 2 0 1 1 2 0 0 0 0 1 1 0 1 1 2 1 0 0 1 0 1 1 0 1 1 1 1 0 0 0 1 0 1 1 1 0 0 1 2 1 1 0 2 0 1 -1 2 0 1 -2 3 1 
1 -1 2 0 0 0 2 0 0 1 1 1 1 0 1 1 1 0 1 1 1 0 -1 0 1 0 0 1 2 0 0 0 1 2 0 0 2 1 0 0 0 1 2 0 1 1 0 0 0 1 1 0 1 1 2 1 1 1 1 1 0 0 0 1 1 0 1 1 0 1 2 1 0 1 1 0 0 1 3 1 1 1 0 1 2 2 1 0 1 1 1 1 1 1 1 1 1 2 1 1 1 1 1 1 1 1 2 2 1 1 1 1 1 1 1 0 1 2 1 1 2 1 1 1 1 1 1 1 0 0 1 1 1 1 1 1 2 2 1 1 2 2 2 2 2 1 1 2 2 2 1 1 2 2 1 2 2 1 1 1 2 2 1 1 1 1 1 2 2 2 2 1 2 2 3 3 3 2 2 2 1 2 3 3 3 3 2 2 3 2 2 3 3 2 2 2 3 4 3 2 2 2 2 2 2 2 3 4 3 2 3 4 4 3 2 3 3 3 3 4 5 5 4 4 4 4 4 4 5 5 5 6 6 5 6 6 6 6 7 7 7 8 9 10 10 10 11 12 16 26 43 67 94 117 131 137 138 134 126 114 97 76 54 36 26 23 26 36 54 78 100 118 130 136 140 141 142 141 141 142 142 142 142 142 143 143 142 142 142 142 143 143 142 142 141 141 141 141 141 141 140 140 140 140 139 138 138 137 137 135 134 133 133 133 133 132 132 130 129 130 129 128 127 127 127 127 127 126 125 125 125 125 126 126 127 128 131 134 140 146 151 154 155 155 155 155 155 154 153 151 151 150 150 148 147 147 146 145 144 144 144 143 141 140 140 139 139 138 137 137 136 134 134 134 133 131 130 129 128 126 125 123 121 119 119 121 125 130 133 135 136 135 133 128 121 111 100 86 71 56 41 28 19 14 11 10 9 9 9 8 8 8 7 7 7 6 6 5 5 5 5 5 5 5 4 3 3 3 4 4 4 4 4 3 3 3 4 3 3 3 3 3 3 3 4 4 3 3 3 3 3 3 3 3 3 3 3 3 2 2 2 2 1 2 3 2 1 1 2 2 2 1 2 2 2 2 2 2 3 2 2 2 2 2 2 2 2 2 1 1 2 2 2 2 1 2 2 2 2 1 1 1 1 1 2 2 2 1 1 1 1 1 1 1 2 0 0 1 2 2 1 1 1 1 0 2 1 1 1 2 2 1 1 0 1 1 1 2 2 1 1 0 1 0 0 1 1 1 1 1 1 1 1 1 1 1 1 1 2 1 0 2 1 0 1 0 0 0 1 1 0 1 2 1 1 2 1 0 1 1 1 1 1 1 1 1 1 1 1 1 1 1 2 0 0 0 0 1 0 0 1 1 0 1 1 1 1 -1 0 1 0 0 0 1 1 1 0 0 1 1 1 1 1 1 0 1 1 1 0 0 1 0 1 0 2 0 1 0 2 0 
-1 5 -4 1 0 2 -1 1 0 2 1 1 0 1 0 1 1 1 1 1 0 1 1 0 0 1 1 1 1 0 0 0 1 1 0 0 1 0 1 1 1 0 0 0 1 1 -1 1 1 1 0 1 2 0 0 1 2 1 0 1 1 1 0 0 1 0 0 1 2 2 1 1 1 2 0 0 1 2 2 1 2 0 0 2 1 1 1 0 1 1 1 0 1 1 1 0 1 1 0 1 1 1 1 1 1 0 0 0 2 2 1 1 1 1 0 1 2 1 0 1 2 2 1 1 1 2 1 1 1 1 2 1 1 1 0 1 1 2 2 2 1 2 2 2 1 1 2 2 1 1 2 2 1 1 2 2 1 1 1 1 1 2 2 2 2 2 2 2 2 2 2 2 2 2 2 2 3 3 2 2 1 2 2 2 2 3 3 2 2 2 2 3 3 2 2 3 3 3 3 3 3 2 2 2 3 3 3 3 3 4 4 3 3 4 4 3 4 4 4 4 4 5 4 4 4 5 5 5 5 5 5 6 6 6 6 6 6 7 8 8 7 8 9 11 11 11 11 16 26 42 66 93 116 131 138 139 137 130 118 100 78 57 39 27 23 25 35 52 75 100 120 133 139 141 141 142 142 141 142 143 144 143 143 143 143 143 143 143 143 143 143 143 142 142 143 143 142 142 142 142 141 141 141 140 139 139 139 139 138 138 137 135 134 134 133 132 131 131 131 131 130 130 129 129 129 129 128 127 126 126 125 125 125 126 127 127 129 132 137 144 149 153 155 156 156 156 156 156 155 153 152 151 151 150 149 148 147 146 146 145 144 144 142 142 141 140 140 140 139 139 137 136 135 135 135 134 133 132 130 127 126 125 123 122 122 123 126 129 132 134 135 137 138 136 133 128 121 110 97 82 66 50 36 24 17 12 10 9 10 10 9 9 9 8 8 7 6 5 5 5 4 4 5 6 5 4 4 4 4 5 5 4 3 4 4 4 3 2 3 3 3 3 3 3 4 4 3 3 4 4 3 3 3 3 3 2 2 3 2 2 2 2 1 1 2 3 2 1 1 2 2 2 2 2 2 2 2 2 2 2 2 3 2 2 1 1 1 2 2 2 1 1 2 2 2 1 2 2 2 2 1 1 2 2 2 1 1 1 1 1 1 1 0 0 1 1 1 1 1 2 2 1 0 1 1 1 2 2 2 1 1 1 1 1 0 1 2 1 1 1 1 0 1 1 0 1 2 1 0 1 1 0 0 1 1 1 1 1 0 2 0 1 1 2 2 0 1 0 1 1 1 1 2 1 0 1 1 1 1 1 1 0 1 2 1 0 0 2 1 0 1 1 2 0 1 0 0 1 0 1 0 0 1 1 1 1 1 0 0 1 0 0 1 1 1 0 0 1 2 1 0 1 1 1 0 1 0 1 0 1 0 1 0 2 -1 1 0 4 -5 4 
3 -4 3 1 1 -1 1 1 1 0 0 1 2 1 0 0 1 1 1 0 0 1 0 -1 1 1 1 0 1 0 1 1 1 1 0 0 1 2 2 0 1 1 1 1 0 1 0 2 0 0 2 2 1 0 1 1 -1 0 2 1 0 1 2 1 0 1 0 0 1 2 1 1 1 2 0 1 1 2 2 2 1 0 1 2 1 1 -1 0 0 0 0 1 1 0 1 1 1 0 1 1 0 0 1 2 0 0 1 1 1 0 1 2 1 1 0 1 1 1 1 2 1 1 1 1 1 1 1 1 1 1 1 1 1 0 0 1 1 1 1 2 3 2 1 0 1 1 1 2 2 2 1 1 1 1 2 2 2 2 2 1 1 2 2 1 1 2 2 2 1 1 2 3 1 1 2 3 3 2 1 3 3 2 1 2 2 3 2 1 2 3 2 2 2 2 2 3 2 2 3 3 3 2 3 4 3 3 4 4 4 3 2 2 3 4 4 4 4 4 4 5 5 5 4 4 5 5 5 5 6 5 5 6 6 6 6 6 7 8 9 9 9 10 10 11 11 11 15 26 43 66 92 116 132 139 141 140 135 125 107 84 61 42 28 22 24 32 49 72 97 119 133 140 142 142 142 143 143 143 144 144 143 143 142 143 144 145 144 144 143 143 144 144 144 143 143 143 143 142 142 142 142 142 141 141 140 140 140 140 140 139 138 138 137 136 135 134 133 133 132 132 131 131 130 129 130 129 128 128 128 128 127 126 126 126 126 126 127 129 133 139 144 149 153 155 155 156 157 157 155 154 154 153 153 151 151 150 149 148 148 147 146 146 145 144 143 142 141 141 141 141 139 137 138 137 136 135 134 134 133 130 128 127 126 124 124 125 127 129 129 129 130 132 134 135 135 135 132 126 118 107 93 77 60 45 32 22 15 11 10 10 9 9 9 8 8 8 7 7 7 7 6 5 5 6 5 5 4 4 4 4 5 4 3 3 4 5 5 3 3 3 4 4 2 2 3 4 3 3 3 3 3 2 3 3 3 3 2 2 2 2 2 2 2 2 3 3 2 2 2 2 2 1 2 2 2 2 1 2 3 2 2 2 2 2 1 1 1 1 1 1 1 2 1 1 1 1 1 1 1 1 1 1 2 2 1 1 2 2 1 2 2 2 1 1 1 1 1 1 1 2 2 1 1 1 2 1 2 1 1 0 0 1 0 1 1 1 1 1 2 1 1 1 1 1 1 2 1 2 2 1 1 0 0 0 1 1 1 0 0 1 0 1 1 2 1 0 2 1 0 1 2 1 0 1 1 0 -1 1 1 0 1 1 1 0 1 1 0 0 1 1 0 1 2 0 1 1 1 1 1 1 1 1 1 1 1 1 1 1 1 0 0 1 0 0 1 1 0 0 1 0 1 1 2 1 1 0 1 0 0 1 2 1 0 -1 2 1 1 -2 5 -1 
0 0 3 0 0 1 1 1 1 0 1 1 1 0 1 2 2 1 1 1 1 0 0 0 1 0 1 1 1 -1 0 1 1 1 1 1 1 1 1 1 1 0 2 1 0 1 0 1 0 1 1 0 2 2 0 -1 0 2 1 0 1 1 0 1 2 1 0 1 2 1 0 1 1 1 0 1 1 2 1 0 1 0 1 0 1 2 1 0 1 1 1 1 1 2 1 0 0 1 1 0 1 2 1 0 1 1 1 0 1 1 1 0 1 1 1 1 1 1 1 1 1 1 1 1 2 2 1 0 1 2 2 1 1 2 2 1 0 1 2 2 1 1 1 1 1 0 1 2 2 1 1 2 2 1 1 2 2 1 1 2 3 2 1 1 2 2 2 2 2 2 2 2 2 2 2 2 2 3 3 3 2 2 3 3 3 2 2 2 2 1 2 2 3 3 2 3 3 3 3 3 3 3 3 3 3 3 3 3 3 3 3 3 3 4 4 4 4 4 4 4 4 5 5 5 5 5 6 5 5 5 6 6 6 6 6 7 8 8 8 9 10 10 10 11 12 16 25 42 66 92 116 132 141 143 142 140 132 116 95 70 47 31 23 23 30 45 68 93 117 133 142 144 143 143 143 144 144 144 144 144 145 145 146 146 145 145 144 144 144 144 145 144 144 144 144 144 143 142 142 142 142 142 142 141 141 142 141 141 141 141 140 139 138 137 136 134 133 132 133 133 132 131 131 131 131 130 130 129 128 128 128 128 127 126 126 126 126 127 130 135 141 146 151 153 155 156 157 157 156 155 155 155 154 153 152 151 150 150 149 148 147 146 145 145 145 145 145 143 142 141 140 139 138 138 137 137 136 136 135 132 131 130 128 127 127 127 128 126 124 123 122 124 128 130 132 134 135 134 131 125 115 102 87 71 54 40 28 19 14 11 9 9 9 9 8 8 8 7 7 6 7 6 5 5 5 5 5 5 4 4 4 4 4 4 4 4 3 3 3 3 3 3 3 3 3 3 3 3 3 3 2 3 3 3 3 2 3 3 3 2 2 1 2 2 2 2 2 3 3 2 2 2 2 2 2 2 2 2 2 2 2 2 2 2 1 1 1 2 2 2 1 1 1 1 1 2 2 1 1 1 1 1 1 1 2 1 1 1 2 2 1 1 0 1 2 2 1 1 1 1 1 2 1 1 1 1 1 1 1 0 0 1 0 2 2 0 0 1 2 1 1 1 1 1 1 1 2 1 2 1 1 0 -1 0 2 1 1 1 1 1 1 1 1 1 2 2 1 1 1 0 1 2 2 0 0 1 0 0 1 1 1 0 2 2 1 1 1 1 0 1 1 0 1 0 1 1 2 1 0 1 2 2 1 0 1 2 1 0 1 0 1 1 0 1 1 0 0 1 1 1 1 1 1 1 1 0 0 0 1 1 0 0 1 1 1 0 1 -1 2 1 
-1 5 -2 1 2 2 -1 0 2 1 0 0 0 1 1 0 1 1 1 0 1 1 0 0 -1 0 1 0 0 1 1 1 1 1 1 1 2 1 0 1 0 0 2 2 1 1 1 2 1 1 1 1 2 1 0 1 1 1 1 2 1 0 0 2 2 0 1 1 2 1 1 2 1 1 2 1 1 2 1 0 0 0 2 1 1 2 0 1 2 1 1 2 1 1 0 1 1 0 1 1 1 0 1 1 1 1 1 0 1 0 0 1 1 1 1 1 1 1 1 1 1 1 1 1 1 1 1 0 1 1 1 1 1 1 1 2 2 1 1 1 2 2 1 0 1 1 1 1 1 1 2 2 2 2 2 1 1 1 1 1 1 1 2 2 1 1 1 2 2 1 1 3 3 2 2 2 3 3 2 2 3 3 3 2 2 2 1 1 1 2 3 3 2 2 2 4 4 3 3 3 3 3 3 3 3 3 4 4 3 4 4 3 3 4 4 5 4 3 3 4 4 5 5 4 4 4 5 5 5 5 5 6 6 7 8 8 8 9 9 9 10 11 11 12 15 24 40 64 90 114 132 141 145 144 142 138 127 107 82 56 36 25 22 26 40 62 90 115 133 143 145 144 143 143 145 147 146 145 145 145 146 146 146 146 146 145 146 146 145 144 145 145 145 144 144 144 144 144 143 143 143 144 143 142 142 142 142 141 141 141 141 140 140 139 138 137 136 135 134 134 133 133 132 131 131 131 130 130 129 128 128 127 127 127 127 126 126 126 128 131 136 142 147 150 153 154 156 157 157 157 156 156 156 155 153 153 152 152 151 150 149 148 147 147 146 145 144 144 144 144 142 140 140 140 139 138 138 136 135 134 133 133 131 130 131 130 129 124 118 114 113 114 117 121 124 128 132 135 135 133 129 121 111 97 82 66 49 34 24 17 12 9 8 8 9 9 8 8 8 9 8 6 5 5 5 4 4 4 4 4 4 4 4 4 4 4 4 4 4 3 3 4 3 3 3 4 3 3 3 2 2 2 3 3 3 3 3 3 2 2 3 2 2 2 2 2 2 2 2 1 2 2 2 2 2 2 1 2 2 2 2 2 2 2 1 2 2 1 1 2 2 2 1 1 1 1 1 1 1 1 1 1 1 1 1 1 1 1 1 1 1 2 1 2 2 2 1 1 1 1 2 2 1 2 1 1 1 1 1 1 1 2 1 1 1 1 1 1 1 2 1 1 1 1 1 1 1 1 1 1 1 1 0 0 1 1 1 2 1 1 0 1 2 0 0 1 0 0 1 1 1 2 2 1 0 1 1 1 1 2 2 0 1 2 1 0 0 1 0 1 1 0 0 1 1 1 1 2 1 2 0 0 1 1 1 1 0 0 0 0 1 1 0 1 0 0 1 1 1 0 0 1 1 1 0 1 2 0 1 1 1 1 1 1 0 0 0 3 -4 3 
4 -5 4 2 0 -1 2 2 1 0 1 1 0 0 1 2 1 1 1 1 1 0 0 1 0 1 1 0 1 1 1 2 1 1 1 1 1 1 0 0 0 1 1 0 2 2 -1 1 1 1 1 1 2 1 1 2 0 1 2 2 -1 0 0 1 0 1 1 0 1 2 1 0 1 1 1 0 1 2 -1 0 1 0 0 0 1 1 1 2 1 0 1 1 0 1 0 1 2 1 1 1 1 2 1 1 1 2 1 1 1 1 1 1 1 1 2 2 2 1 1 1 0 2 1 1 2 1 1 1 1 2 1 1 1 2 2 2 1 2 2 2 0 0 1 2 2 1 1 2 2 1 1 2 2 2 1 1 2 1 1 1 1 2 2 1 1 2 2 1 1 2 3 3 2 2 3 2 1 2 2 3 3 2 2 3 3 3 2 2 2 3 3 2 2 3 3 3 3 3 3 3 2 2 3 4 4 3 2 3 3 5 5 3 3 4 5 4 3 3 4 4 4 5 4 5 5 5 4 4 5 6 5 6 6 7 8 9 9 9 9 11 11 11 12 15 24 39 62 89 113 131 142 146 146 144 141 135 120 96 68 45 29 22 22 32 52 81 109 130 142 147 146 145 145 146 146 146 145 146 147 147 147 147 146 146 146 146 146 146 146 147 146 146 145 145 144 144 145 145 145 144 144 144 144 144 143 143 143 143 142 142 142 141 140 140 139 138 137 136 136 135 134 134 134 134 133 132 132 131 130 129 129 128 128 128 127 127 127 127 127 128 132 137 143 147 150 153 155 156 157 157 158 157 157 156 155 154 153 153 153 152 150 150 149 148 148 148 147 146 145 145 144 143 142 142 141 140 139 138 137 136 134 134 133 133 134 133 131 124 114 107 104 105 109 112 115 119 123 128 132 134 134 132 127 118 106 92 75 59 43 31 21 15 10 8 8 9 9 8 7 7 7 6 6 6 5 5 5 5 5 5 4 3 4 5 4 4 3 3 4 4 3 3 3 3 4 4 3 3 3 3 3 3 2 2 2 2 2 2 2 3 3 2 2 2 2 2 2 2 2 2 2 2 2 2 2 1 1 1 1 2 2 2 2 2 2 2 2 1 2 2 1 1 2 2 2 2 1 2 2 1 1 2 2 2 2 1 0 1 2 1 1 1 1 2 1 1 1 1 1 1 2 2 2 2 2 1 1 1 2 2 1 0 0 1 1 1 1 1 1 1 1 1 1 2 1 1 1 -1 0 2 1 1 1 0 1 1 1 2 1 1 1 0 2 2 1 1 0 1 0 1 1 1 1 2 0 0 1 2 1 0 1 2 0 1 2 1 0 2 1 0 0 2 1 -1 1 2 0 1 0 0 0 1 1 0 0 1 1 0 0 0 0 1 0 0 0 1 1 0 0 2 1 1 0 0 1 1 1 0 1 1 1 0 0 0 3 1 0 -4 6 -3 
-2 7 -2 3 0 1 0 1 1 2 0 1 0 1 1 1 0 1 2 1 1 0 0 1 0 1 0 1 1 1 1 1 1 1 0 1 2 1 0 2 1 0 0 1 1 0 0 2 0 -1 1 1 0 1 1 1 0 2 2 1 1 1 0 0 1 1 0 0 2 2 0 0 1 1 1 1 0 0 0 1 0 0 1 0 1 1 0 1 1 1 2 1 0 1 1 1 2 1 1 1 1 0 1 2 2 1 1 2 1 0 1 1 2 2 2 1 1 1 1 1 1 1 1 1 1 1 1 1 1 2 1 1 1 1 1 1 2 2 2 1 0 1 1 1 1 1 2 2 2 2 2 1 1 1 2 2 2 1 1 2 2 1 1 2 2 1 1 1 2 2 1 1 3 3 2 2 2 3 2 2 2 2 3 3 2 2 3 3 3 2 2 3 3 2 2 4 4 4 3 2 2 3 3 3 2 2 4 4 3 3 4 4 4 4 4 4 4 5 5 5 5 5 5 5 5 4 5 6 7 6 5 6 7 8 8 8 9 9 10 11 12 13 16 23 38 60 87 111 129 141 147 147 146 145 142 133 112 83 55 36 25 21 25 40 67 98 124 140 146 147 146 145 146 147 147 147 147 148 148 148 147 147 146 147 147 147 147 147 146 146 147 147 146 145 145 146 145 145 145 145 145 144 143 144 144 144 143 142 143 144 143 141 141 141 141 140 139 137 137 137 136 135 134 133 133 133 132 132 131 131 130 129 129 129 128 128 127 126 126 128 130 133 137 141 145 149 152 154 155 156 156 157 157 157 156 156 156 156 155 153 153 152 151 150 149 148 148 147 147 146 145 144 144 143 142 141 141 140 139 138 137 136 135 136 136 136 132 124 113 105 100 99 100 101 104 108 112 118 123 128 132 134 134 131 125 115 102 86 69 52 37 25 16 11 9 8 9 9 8 9 8 7 5 6 6 6 5 5 5 5 5 4 4 4 4 5 5 4 3 3 4 3 3 3 3 3 3 4 3 3 3 3 3 2 2 2 2 2 2 3 3 3 2 3 3 2 2 2 2 1 1 2 2 2 3 2 2 2 1 2 2 2 3 3 2 2 2 1 2 2 1 2 2 2 1 2 2 2 2 1 2 2 1 2 2 1 1 1 1 2 2 1 1 2 1 1 0 0 1 1 1 1 1 1 1 1 0 1 2 2 1 1 1 0 1 1 1 1 0 0 1 1 1 1 0 1 1 1 1 1 0 1 1 2 1 1 1 2 1 1 1 0 1 2 1 0 0 0 0 1 2 1 0 1 2 1 0 0 2 1 0 2 1 0 1 3 1 0 0 2 0 0 1 1 0 2 1 0 0 1 1 0 0 2 1 1 1 0 0 2 2 1 -1 1 1 1 0 1 2 1 -2 0 1 1 0 0 0 2 1 1 0 1 0 2 0 1 -1 3 -4 3 
1 3 0 0 2 0 0 0 1 2 1 0 1 0 1 1 1 1 1 1 1 1 0 1 0 1 1 0 0 0 1 1 0 0 1 1 1 0 2 2 0 1 1 0 1 2 1 0 0 0 0 0 2 2 1 0 2 1 1 1 2 1 0 1 1 1 1 2 1 0 1 1 1 1 1 0 0 0 1 1 0 0 0 1 1 1 1 1 1 1 1 1 1 1 1 0 1 1 1 1 1 1 1 1 1 1 1 1 0 1 2 1 1 1 1 0 0 1 0 1 2 2 3 2 1 1 2 1 0 1 1 1 1 2 1 1 1 1 2 1 1 1 1 1 1 1 2 2 2 2 2 1 1 2 2 1 2 2 2 2 1 1 2 2 2 1 1 2 2 1 2 2 2 2 2 3 3 2 2 2 3 2 2 2 3 3 3 1 2 4 3 2 2 3 5 4 3 2 3 3 4 3 3 3 4 3 3 3 3 4 5 4 3 3 5 5 4 4 5 5 5 5 5 5 5 5 6 7 7 6 6 7 8 8 7 8 9 11 11 12 13 15 21 36 59 86 111 130 141 147 149 148 147 146 141 126 102 73 47 30 22 22 32 52 83 113 135 145 147 146 146 146 148 148 147 147 148 149 149 148 148 148 148 148 147 147 147 148 148 148 148 147 147 146 146 146 146 146 146 145 145 145 145 145 144 144 144 144 144 143 143 143 143 141 141 142 141 139 138 137 137 137 136 135 135 133 133 133 133 132 132 131 131 131 130 129 129 129 128 128 129 131 135 138 141 145 148 151 153 154 155 156 157 158 158 157 157 156 156 155 154 153 152 152 151 150 150 149 148 147 146 146 145 145 145 143 142 141 140 139 138 138 137 138 138 137 133 124 115 107 102 99 98 96 96 97 99 103 108 115 123 129 133 134 133 129 121 110 96 78 60 43 29 18 12 10 9 8 8 8 8 7 7 7 7 7 6 5 5 5 5 5 5 4 4 4 4 4 4 4 4 3 3 2 3 3 3 3 3 3 3 3 3 3 3 2 2 2 2 3 3 2 3 3 3 2 2 3 2 2 2 2 2 1 2 2 2 2 2 2 2 2 3 2 2 2 2 1 2 2 1 1 1 2 1 2 2 2 2 2 2 2 2 1 1 1 1 2 2 1 2 1 1 1 1 1 2 1 1 1 1 1 1 0 0 1 1 1 1 2 2 0 1 1 1 1 0 1 1 1 1 2 1 0 0 1 2 1 0 0 1 2 2 1 0 1 1 1 1 0 1 1 1 1 1 0 0 1 2 1 -1 1 2 1 0 1 2 1 1 1 0 0 1 2 0 -1 1 2 1 1 1 0 0 2 2 0 0 1 1 0 1 1 0 2 2 1 0 1 2 1 0 1 2 1 0 0 2 1 0 0 1 1 0 0 1 1 0 1 1 0 1 0 1 1 1 1 3 0 -1 2 
3 -4 5 1 0 -2 2 1 -1 0 2 0 0 0 2 1 0 0 2 2 1 0 1 1 1 0 0 0 1 0 1 0 1 1 0 0 1 2 1 1 2 2 0 1 2 2 0 0 1 0 0 1 1 0 1 1 1 0 1 1 1 0 0 1 1 2 1 2 1 1 2 1 1 2 2 0 0 1 2 1 0 0 0 1 2 1 1 0 1 3 1 0 1 1 1 1 1 1 1 0 1 1 1 1 1 0 0 2 1 1 1 1 2 1 0 0 1 1 1 2 2 1 1 1 1 2 2 2 1 2 1 1 1 1 2 1 1 1 1 1 1 1 1 1 1 2 2 2 2 2 2 2 1 2 2 2 2 1 1 1 1 2 1 1 2 2 2 2 2 2 1 1 2 2 3 2 1 2 3 3 2 1 2 3 2 1 2 3 3 2 2 2 3 3 3 3 3 4 4 3 3 3 4 3 3 3 4 4 5 4 3 4 5 5 4 4 5 5 4 4 4 5 5 4 5 7 6 6 6 7 8 8 7 8 9 11 11 11 12 13 16 22 35 57 84 109 128 140 147 150 150 149 148 148 140 122 94 63 39 26 21 26 40 66 99 126 142 148 147 146 147 148 148 148 148 149 150 149 148 147 147 147 147 148 148 147 148 148 147 147 147 147 147 147 147 146 146 146 146 146 145 145 145 145 145 145 145 144 144 144 144 144 144 144 144 143 142 142 141 140 139 139 138 137 136 136 135 134 135 135 133 132 132 132 131 130 130 130 129 128 128 130 132 134 137 141 144 146 149 151 153 154 156 157 157 157 157 157 156 155 155 155 154 152 152 152 151 150 149 148 147 147 147 146 145 145 144 143 142 141 141 141 141 142 140 137 132 125 117 111 106 103 100 96 94 92 91 91 94 99 107 116 124 130 133 134 131 125 115 102 85 67 49 34 22 14 10 9 9 10 10 9 7 7 8 8 7 5 4 4 5 5 4 4 3 4 5 4 4 3 3 3 3 4 4 3 2 3 3 3 2 2 3 3 3 3 3 2 2 3 3 2 2 3 3 2 2 2 2 2 2 2 1 1 1 2 3 3 2 1 2 2 2 3 2 2 2 2 2 1 1 1 2 1 1 2 3 2 1 2 2 1 1 1 1 1 1 2 2 2 1 0 0 2 2 1 1 1 1 2 1 0 1 1 0 0 1 1 1 1 2 2 2 1 0 1 1 1 1 1 1 1 1 1 1 1 1 1 1 1 1 0 1 2 1 0 -1 0 1 1 1 1 0 0 0 2 1 -1 0 3 2 1 1 1 2 0 1 1 0 0 1 2 0 0 1 2 1 1 1 0 0 1 0 -1 1 2 1 0 2 1 0 0 1 0 0 2 2 0 0 2 2 1 0 0 2 1 0 0 2 1 0 0 2 0 1 0 1 1 1 0 2 -1 -1 0 3 0 1 -4 6 -3 
0 5 0 0 2 1 -1 -1 1 2 0 0 2 1 1 1 2 2 0 0 1 2 0 -1 1 1 1 1 1 0 0 0 1 1 1 1 1 0 0 1 0 0 1 3 1 1 2 1 1 0 0 1 1 2 1 -1 0 1 1 0 1 0 1 1 0 2 1 1 1 0 1 1 2 1 0 1 1 1 1 1 1 0 0 2 2 0 1 1 1 1 0 1 1 0 1 1 0 0 1 1 0 0 1 1 1 0 1 2 1 1 2 2 2 0 1 1 1 1 1 1 1 2 2 1 1 2 2 2 0 1 1 2 2 1 1 1 1 1 2 1 1 2 2 1 1 2 2 2 1 2 2 2 2 2 2 1 1 2 2 1 1 1 2 2 2 1 1 2 2 1 1 2 3 2 2 2 2 2 2 1 2 2 2 2 3 3 3 2 2 2 2 2 2 3 4 3 2 2 3 4 4 3 3 3 3 4 4 4 4 4 5 5 4 4 4 4 5 4 3 4 4 5 5 5 5 6 6 7 7 7 7 8 9 10 10 10 11 12 13 15 20 34 55 82 108 128 140 146 149 150 151 150 150 147 136 116 87 56 35 23 22 31 52 82 113 135 146 149 148 147 149 149 148 149 149 150 149 148 147 148 150 150 149 149 148 148 149 149 149 148 148 148 148 147 147 148 147 147 147 147 147 147 146 146 145 146 146 146 145 144 144 144 144 143 143 144 143 142 141 141 141 140 140 139 138 137 136 136 135 135 135 134 133 133 132 132 132 132 132 131 129 130 131 133 135 137 140 142 145 147 149 151 153 154 155 155 155 155 155 156 155 154 154 153 153 152 152 152 152 150 148 148 148 147 146 145 144 144 144 142 142 143 142 142 140 137 131 124 117 114 110 108 105 101 98 94 89 86 84 86 92 100 109 117 124 130 133 133 129 121 108 93 74 55 39 26 17 12 8 8 9 9 9 9 8 7 7 6 5 5 5 5 5 5 4 4 4 4 4 4 4 4 4 3 3 4 4 4 3 2 2 2 3 3 3 3 3 2 3 2 2 2 3 3 2 2 2 2 2 2 2 2 2 2 2 1 1 2 2 2 1 1 2 2 2 2 1 1 2 2 2 1 1 2 2 1 1 1 2 1 1 2 2 2 1 2 2 2 1 1 1 1 2 1 1 1 2 2 1 1 1 2 1 1 1 1 1 1 2 2 2 1 1 1 1 0 0 1 1 1 1 3 2 1 1 2 1 2 0 -1 1 2 2 1 0 0 0 0 2 2 1 0 1 3 1 -1 1 2 1 1 1 1 1 0 2 1 1 1 2 2 0 0 1 2 0 0 1 0 1 1 1 -1 0 2 1 0 2 1 1 1 2 0 0 2 2 0 0 2 1 0 0 1 1 0 1 1 0 0 0 0 1 1 1 0 0 1 1 1 1 0 0 1 1 0 -1 0 2 1 -3 3 
1 0 3 -1 1 0 2 0 0 1 2 1 1 0 2 2 0 0 2 1 0 0 2 2 1 0 1 2 1 0 0 0 1 0 0 1 1 1 0 0 1 2 1 0 1 2 1 0 2 2 1 1 1 1 1 1 1 1 1 1 1 0 0 0 2 2 0 0 0 0 1 1 1 0 1 0 0 1 3 1 0 1 1 0 0 1 1 0 1 1 0 0 1 0 1 1 1 1 2 0 0 1 1 1 1 1 1 1 1 1 1 2 2 1 0 1 1 1 2 1 1 1 1 1 2 1 0 1 2 2 2 2 1 1 1 1 2 2 1 1 2 2 2 1 1 1 2 2 2 1 1 1 1 2 3 2 1 1 1 2 2 2 1 1 1 1 2 2 2 2 2 1 1 2 3 2 1 2 3 2 2 2 3 3 3 2 2 2 3 3 2 2 2 3 3 2 2 3 4 4 3 2 3 4 4 3 3 4 5 5 4 4 4 4 4 4 4 3 5 6 6 6 5 5 6 7 6 6 7 8 9 9 9 10 11 11 12 13 14 20 33 54 80 106 127 140 147 149 151 152 152 151 150 146 134 112 82 51 31 22 24 37 63 96 124 141 148 148 148 148 149 149 150 150 150 151 150 149 149 150 150 149 149 149 148 149 149 149 149 148 148 148 148 148 148 148 147 147 147 147 147 147 147 146 146 146 146 146 146 145 145 145 145 145 145 144 144 144 143 142 141 141 141 140 139 139 138 137 137 136 135 135 135 134 133 133 133 133 133 132 131 131 132 133 135 136 137 138 139 141 143 146 148 150 152 153 154 154 154 154 156 156 156 155 154 153 153 152 152 151 150 149 148 148 147 146 145 144 144 144 144 145 145 143 139 133 128 122 118 115 113 112 110 107 103 99 94 89 84 81 82 86 92 100 110 120 127 132 133 131 124 114 98 80 62 45 30 20 13 9 9 8 8 9 9 8 7 6 6 5 5 5 5 5 4 4 5 5 4 4 3 3 3 4 4 3 3 3 3 4 3 2 3 3 3 2 2 2 3 3 2 2 2 2 3 3 2 2 3 3 3 2 2 2 1 1 2 2 2 2 2 2 2 1 1 2 2 2 2 2 2 2 2 1 1 2 2 1 1 2 2 2 1 0 1 2 1 2 2 2 2 1 1 1 3 2 1 1 3 2 1 2 2 2 1 0 2 2 1 1 2 2 1 0 1 1 0 0 1 1 0 1 1 2 3 1 0 0 1 1 1 0 0 1 1 1 1 1 0 0 2 2 1 0 1 1 0 0 1 2 1 1 1 0 1 0 2 2 1 0 1 2 0 1 1 0 0 1 2 0 0 1 1 1 1 1 2 2 1 0 1 1 0 -1 1 2 1 0 1 3 2 1 1 0 1 1 1 1 0 0 1 0 0 0 1 2 1 0 1 1 1 0 1 1 1 -1 1 -1 2 -1 
3 -3 2 0 2 0 1 0 1 0 0 0 1 1 1 1 2 1 0 -1 0 1 1 0 1 1 1 0 0 0 1 0 1 1 1 0 0 0 1 1 1 0 0 2 1 0 1 3 1 0 1 1 0 0 1 0 1 1 2 0 0 1 1 1 1 1 0 0 0 1 1 1 2 0 1 1 1 1 0 1 1 0 0 1 1 1 1 1 1 1 1 1 1 1 1 1 1 1 1 0 1 1 1 2 2 1 1 1 1 1 2 1 0 1 1 1 1 1 2 1 1 2 1 1 1 2 1 1 1 1 2 3 2 2 1 1 2 3 2 1 1 1 1 1 2 2 1 0 1 2 2 2 1 1 1 1 1 2 3 2 1 1 1 2 2 2 2 2 2 2 1 2 2 2 1 2 2 2 2 2 2 2 3 2 2 2 3 4 2 1 1 2 2 3 3 3 3 3 3 3 3 3 4 4 4 4 4 4 3 3 4 5 4 4 4 4 4 4 6 6 6 6 6 6 7 6 6 7 8 8 8 9 10 11 11 11 12 14 19 31 52 78 104 125 140 148 151 151 152 153 153 152 150 145 132 108 76 47 29 22 27 44 74 108 133 146 149 147 148 149 150 150 150 150 150 150 149 149 149 150 151 151 150 150 150 150 149 149 149 149 149 149 149 148 148 149 149 148 148 149 149 147 147 147 148 148 147 146 145 145 145 145 146 146 145 144 144 144 144 143 143 143 142 142 141 141 140 139 139 139 138 137 137 137 136 136 136 136 136 135 134 134 134 135 136 136 136 137 137 138 140 142 145 147 149 150 151 152 152 152 153 154 154 154 153 153 153 153 152 150 150 149 149 149 148 147 147 146 146 145 144 144 143 140 137 131 125 120 117 116 115 113 112 111 109 105 101 95 89 84 81 80 81 84 91 102 113 123 130 133 133 128 118 104 88 69 52 36 23 13 9 8 9 9 8 8 8 8 7 6 5 4 4 5 6 5 4 4 5 6 5 3 3 3 3 4 4 3 3 3 3 3 3 2 3 3 2 2 1 2 3 3 2 2 2 2 2 2 2 3 3 2 1 2 2 2 1 1 2 2 2 2 2 2 2 2 1 2 2 2 2 2 2 2 1 1 2 2 2 1 0 1 2 1 0 1 2 2 1 1 1 2 2 1 2 2 2 1 2 2 1 1 1 2 2 1 1 1 1 1 1 1 1 1 1 1 1 1 1 0 0 2 2 1 1 1 1 0 1 1 1 0 0 2 2 0 0 0 1 1 1 0 2 1 1 1 0 1 0 1 2 0 0 1 2 1 0 0 1 1 1 1 1 1 0 1 1 0 0 2 1 0 1 1 1 1 2 0 1 1 1 0 0 1 1 1 1 1 1 1 1 0 1 0 1 0 0 0 1 1 1 0 1 1 0 0 1 1 1 0 1 2 1 0 1 0 1 -2 3 0 
0 4 -1 3 -2 2 0 1 -1 1 -1 2 0 1 0 2 0 1 1 1 0 1 0 2 1 1 0 0 0 1 0 1 1 0 -1 0 1 1 0 1 1 2 0 0 0 2 1 1 0 2 1 1 1 1 0 0 1 0 1 2 1 0 0 2 2 1 0 1 0 2 1 0 1 1 2 1 0 1 1 1 1 0 0 1 1 2 2 0 1 1 0 1 1 2 1 2 2 1 0 1 1 0 0 1 1 1 1 1 1 1 1 1 1 1 1 1 2 1 1 1 1 1 1 2 1 1 1 2 2 1 1 1 2 2 2 2 1 1 0 1 2 2 2 1 1 1 2 2 1 0 0 1 2 2 1 1 1 2 2 2 3 3 1 1 0 1 2 2 2 2 2 2 2 2 2 2 2 1 2 3 3 3 3 3 3 3 3 3 3 3 3 3 2 3 3 3 3 3 4 4 3 3 3 4 4 4 5 5 4 5 5 4 3 4 4 4 5 5 5 6 6 6 6 6 6 7 7 8 8 8 8 9 10 10 11 12 14 20 31 50 75 101 124 139 147 151 152 152 153 154 154 153 151 145 131 105 72 44 26 22 30 52 84 117 139 149 150 149 150 151 151 151 152 151 151 151 150 151 150 150 151 151 150 150 150 150 149 149 150 150 150 149 148 149 149 149 148 148 148 149 148 147 148 148 147 147 147 147 146 146 147 147 147 146 145 145 146 146 145 145 145 145 144 144 143 142 141 141 141 141 139 138 138 138 137 138 138 137 137 138 137 137 137 138 139 139 138 135 134 134 134 137 139 141 143 145 146 148 149 150 150 151 151 151 151 151 150 151 151 149 148 148 148 149 148 147 146 145 146 145 144 143 140 136 132 127 122 119 118 117 117 116 114 113 111 110 108 104 98 91 84 79 76 75 78 86 95 106 117 126 132 133 129 121 109 94 76 58 41 27 16 10 8 9 9 10 9 7 7 7 6 5 4 5 5 5 5 5 5 4 4 5 4 4 3 3 4 4 4 4 3 3 3 4 4 3 2 2 3 3 3 2 2 2 2 2 2 3 3 3 2 2 1 2 1 1 2 2 2 1 1 2 1 1 1 2 2 2 1 1 2 2 1 1 1 2 2 2 2 1 1 1 1 2 2 1 1 1 2 2 2 2 1 1 1 1 2 2 2 2 2 2 1 2 0 0 1 1 1 1 1 1 0 1 2 1 0 0 1 2 1 0 0 1 1 1 2 1 1 1 1 2 1 1 1 1 1 1 1 1 0 0 2 2 1 1 0 2 1 1 1 0 1 2 1 0 1 2 1 0 1 1 0 2 1 0 1 3 1 1 1 0 0 1 1 0 0 2 2 0 0 1 1 1 -1 0 1 2 0 1 0 1 0 1 1 2 1 0 0 1 0 2 0 1 1 1 0 1 0 2 0 1 -1 2 0 2 -3 5 -2 1 
-1 5 -2 1 -1 2 -1 0 0 2 0 -1 0 1 1 2 0 1 0 -1 0 1 1 2 0 0 1 1 1 0 0 1 0 0 0 0 1 1 1 1 1 2 1 0 0 1 1 2 1 1 0 0 0 0 1 0 0 2 1 0 0 2 1 0 1 2 0 1 1 1 0 1 2 0 1 1 1 1 0 1 1 0 0 1 1 2 2 1 0 0 2 2 1 2 1 1 1 1 0 1 1 0 1 2 1 1 1 1 1 1 1 2 1 1 1 1 1 1 1 2 1 0 0 1 1 1 1 1 2 1 1 1 1 2 1 2 2 2 1 0 1 2 1 2 2 2 2 1 2 3 2 1 0 1 2 3 2 1 1 2 2 1 2 3 2 1 1 2 2 2 2 2 2 2 1 1 2 3 3 3 2 2 2 2 3 3 3 3 2 1 1 2 3 3 3 2 2 3 3 3 2 4 5 5 4 4 4 4 4 3 3 4 4 4 4 4 5 5 6 6 5 5 6 6 7 7 9 9 9 9 10 10 11 11 13 14 18 28 47 73 99 123 139 147 150 152 153 154 155 155 154 153 151 144 128 101 68 41 26 24 34 58 92 125 144 151 151 150 152 153 153 152 152 151 151 152 151 151 150 151 151 152 151 151 151 151 151 152 151 150 150 150 150 149 149 149 149 148 148 149 149 149 148 148 149 149 148 147 147 147 147 146 146 146 146 145 145 145 145 144 144 145 144 144 143 143 143 142 142 142 142 141 141 141 140 140 141 141 141 141 141 141 142 143 144 144 141 138 135 133 132 133 135 136 137 139 141 143 144 144 145 146 147 147 148 149 148 149 149 148 148 147 147 147 148 147 147 146 144 143 140 137 134 131 128 125 122 120 118 118 117 117 116 116 114 111 110 108 105 100 95 88 80 74 71 72 78 87 100 113 123 129 132 131 125 115 99 81 63 45 30 19 12 8 7 8 10 9 7 6 6 6 5 5 5 4 4 4 4 5 4 4 4 4 4 4 4 3 3 4 4 3 3 3 3 3 3 3 2 3 3 2 2 2 3 2 2 1 2 2 2 2 2 2 3 2 2 2 2 1 1 2 2 2 2 2 2 2 2 2 2 2 2 2 1 2 1 1 2 2 1 1 2 2 2 3 2 1 1 1 1 1 1 1 1 1 1 1 1 2 2 1 1 1 1 2 2 1 -1 -1 0 1 1 1 0 1 1 1 1 1 1 0 1 2 1 1 2 1 1 1 1 1 1 1 1 1 1 1 0 1 2 1 1 1 1 1 -1 1 1 1 1 2 2 0 0 1 0 0 1 1 1 2 0 0 0 2 1 1 1 1 0 0 2 1 1 1 1 0 0 1 1 1 0 1 1 2 0 -1 1 1 0 0 0 1 0 0 1 1 1 2 1 2 -1 1 1 1 0 1 1 1 -1 0 1 2 -1 1 0 3 -5 5 
5 -8 6 1 1 -2 2 1 0 -1 1 1 2 0 0 1 1 -1 1 0 1 1 1 1 1 1 2 0 0 1 1 1 0 0 1 0 0 0 1 1 1 1 2 1 0 2 2 1 0 1 1 2 2 0 0 0 1 1 0 2 2 0 1 1 1 1 1 2 1 1 1 0 0 1 2 1 0 1 1 2 1 1 0 0 1 2 1 1 1 0 0 0 1 2 1 2 1 0 0 2 1 0 0 1 2 2 1 1 2 1 0 0 1 1 1 1 2 2 0 1 1 1 1 0 1 1 2 2 2 1 1 2 2 2 2 2 1 1 1 2 2 1 1 1 2 1 2 2 1 1 1 1 2 2 1 1 2 2 2 2 2 2 1 1 1 2 3 2 1 1 2 3 3 2 2 2 2 1 2 3 4 3 2 2 3 3 2 1 2 3 4 3 2 2 2 3 3 4 4 4 3 3 3 4 4 4 4 4 5 4 3 4 4 4 4 6 7 6 5 4 6 7 6 6 7 8 9 9 9 10 10 11 12 13 14 18 28 46 71 98 121 137 145 150 152 153 154 155 156 156 154 154 152 145 127 99 65 39 24 24 37 64 100 130 147 152 152 151 152 152 151 151 152 152 152 152 152 152 150 150 151 151 150 150 151 151 150 150 150 150 150 150 150 149 149 149 149 149 150 150 149 149 149 149 148 148 148 148 148 148 148 148 148 148 147 146 147 148 147 146 146 146 145 145 145 144 144 144 144 144 143 142 141 141 142 142 142 143 143 144 144 145 146 147 148 147 145 140 136 132 130 129 130 131 132 133 134 136 138 139 140 141 142 143 144 144 144 145 145 145 145 145 145 145 144 142 143 143 141 139 136 133 130 127 125 123 121 121 121 120 118 117 116 116 115 114 114 113 110 107 102 96 90 82 75 70 69 73 81 94 108 119 127 131 131 127 118 105 89 70 50 34 21 13 9 8 9 9 9 7 7 6 5 5 6 5 4 4 4 5 5 4 4 4 4 4 4 3 3 3 3 3 3 3 3 3 3 2 3 3 3 3 2 2 2 2 2 2 2 2 2 2 2 2 2 2 3 3 2 1 1 2 2 2 2 2 3 3 2 2 2 1 2 2 1 1 2 2 2 1 0 1 3 3 2 2 2 2 1 1 2 2 0 0 1 2 1 1 1 2 2 0 1 1 1 1 0 0 1 1 0 1 1 1 0 0 2 2 1 1 2 1 0 0 1 2 2 1 1 2 0 1 1 1 1 1 2 2 2 1 0 0 1 2 1 2 0 0 1 1 0 -1 1 2 2 1 1 2 1 1 1 0 1 1 0 0 1 1 -1 0 1 1 0 1 2 0 0 2 1 0 0 1 1 1 0 1 1 1 2 -1 0 1 1 1 1 1 2 0 1 0 0 2 1 0 0 0 2 1 0 1 2 -1 0 -1 3 1 1 -4 8 -3 
-2 7 -2 -1 2 2 -1 0 0 3 1 0 0 1 0 1 1 1 1 -1 -1 2 1 1 1 1 1 0 0 2 1 1 0 1 1 1 1 1 0 1 2 1 1 1 0 1 0 1 2 2 1 0 0 0 2 1 -1 1 1 1 1 0 2 1 1 1 1 2 1 0 0 1 1 1 1 1 1 1 1 0 1 1 0 1 1 1 0 1 1 1 2 1 1 2 1 0 1 1 2 1 1 1 1 1 1 1 1 1 1 0 1 2 1 0 0 1 1 1 1 1 1 0 1 2 2 1 1 1 1 1 1 1 2 2 2 2 2 2 1 1 2 2 1 1 1 2 2 1 2 3 2 1 0 1 2 3 1 0 1 2 1 2 2 2 2 1 1 2 3 2 2 2 1 2 2 2 2 2 2 2 1 1 2 3 4 3 2 2 2 2 2 3 3 3 2 2 3 3 3 3 3 4 5 5 4 4 4 3 4 4 5 5 4 4 4 5 5 5 5 6 7 7 7 7 7 7 8 8 8 10 12 13 13 14 17 27 44 68 94 118 136 146 150 152 154 155 155 156 157 157 156 154 152 145 127 98 65 40 25 26 41 70 106 135 149 152 151 151 153 153 152 152 153 152 152 152 152 152 152 152 152 151 152 152 152 152 152 151 151 150 150 150 150 150 150 150 150 150 149 149 149 150 150 150 149 149 149 149 149 148 148 148 147 147 147 147 147 147 146 146 146 146 146 147 147 147 146 146 146 145 145 145 144 144 144 144 145 146 146 147 148 149 150 151 152 152 149 145 139 136 133 132 130 130 130 130 130 131 131 132 134 134 135 137 138 139 139 140 141 142 142 143 142 141 141 140 140 138 135 133 130 128 126 124 123 123 121 121 120 120 119 119 119 118 117 115 113 113 113 111 109 105 99 92 84 76 70 68 69 77 88 101 115 125 130 131 128 121 109 93 73 52 34 21 14 10 9 9 8 7 7 7 6 6 5 4 4 5 4 4 4 4 4 3 3 3 3 3 3 4 3 3 3 3 3 3 3 2 2 3 2 2 2 2 2 3 2 2 2 3 3 3 2 2 2 3 3 3 3 2 2 2 1 1 2 3 3 2 2 2 2 1 1 1 2 2 1 1 2 3 3 1 1 2 3 2 1 1 1 1 1 1 3 2 1 1 2 2 1 1 1 1 2 1 1 2 1 1 0 0 1 1 1 1 1 0 0 1 2 1 1 1 1 1 0 0 1 2 1 1 0 1 1 -1 1 2 1 0 2 2 1 1 1 2 0 0 1 1 1 1 1 1 1 0 1 1 1 2 0 0 1 1 2 0 0 1 0 1 1 -1 -1 1 1 0 1 1 1 -1 -1 2 1 1 2 1 0 1 0 0 0 0 2 2 0 0 0 1 1 0 1 1 0 1 -1 0 2 1 0 1 0 1 0 0 1 3 0 1 2 3 -5 5 
1 0 1 2 0 0 2 3 -1 0 1 2 0 -1 0 2 0 -1 1 1 0 1 1 1 1 0 0 1 0 1 1 1 1 0 1 1 0 1 1 0 1 0 1 1 -1 1 2 1 1 1 1 2 1 0 0 0 1 2 -1 1 3 1 0 0 1 2 1 1 1 1 1 0 0 2 2 1 1 0 1 2 2 1 -1 0 1 2 1 2 2 1 1 0 0 0 0 1 1 1 1 1 1 1 1 1 1 1 1 1 1 1 0 1 1 1 1 1 1 2 1 2 2 1 2 1 1 1 1 1 0 0 1 2 2 1 1 1 1 1 1 2 2 1 1 1 1 2 1 2 2 2 1 2 2 1 0 2 2 2 2 1 1 1 2 2 1 2 3 2 1 1 2 2 2 2 2 2 2 2 1 2 3 3 2 2 2 3 3 3 3 3 3 3 2 3 3 4 4 4 3 3 3 4 4 4 4 4 4 4 4 4 4 5 6 6 6 6 6 5 5 6 7 7 7 8 8 8 8 8 9 11 11 12 14 17 25 42 67 94 118 135 145 150 152 153 155 157 158 158 157 156 155 156 154 146 129 101 67 40 26 27 44 74 110 138 151 154 152 152 152 152 151 152 153 153 152 153 153 152 152 153 153 151 152 152 152 151 151 151 150 150 151 151 151 150 150 150 150 150 150 151 150 149 149 149 148 148 148 148 148 149 149 148 148 149 149 148 147 148 149 148 148 148 148 147 147 147 147 146 146 145 145 145 146 146 146 146 146 147 147 148 150 151 153 153 153 153 152 148 143 139 136 133 131 130 129 128 127 126 126 128 129 129 131 133 134 135 135 136 137 138 137 138 137 135 133 133 133 133 131 129 126 125 125 124 123 122 122 122 122 120 119 119 120 119 118 118 117 115 113 112 111 110 106 101 95 87 79 73 69 68 72 81 94 109 121 128 131 130 125 115 98 78 56 36 22 13 10 9 9 8 7 7 6 6 6 5 5 5 4 4 5 4 4 4 3 4 4 3 2 3 4 4 3 3 2 2 3 3 3 3 2 2 2 2 2 2 2 3 3 3 2 2 2 3 2 2 2 3 3 2 1 2 2 2 1 0 1 3 3 2 1 1 1 1 1 1 2 3 2 1 2 2 2 1 1 1 1 1 1 2 2 1 1 1 2 2 1 1 1 1 1 1 2 2 2 1 0 1 1 1 0 2 2 1 1 1 1 1 0 0 1 2 0 1 1 1 1 1 1 2 0 0 1 1 1 0 1 1 1 1 1 1 0 1 1 1 2 1 2 1 0 1 2 1 1 2 2 1 -1 3 2 0 1 0 -1 1 1 1 1 0 1 1 0 1 2 0 1 1 0 1 0 1 2 1 1 1 0 1 1 1 1 1 2 0 -1 1 1 1 0 1 1 1 0 0 1 1 1 1 0 1 0 0 0 1 1 2 0 0 3 0 
1 0 1 0 1 0 1 -1 1 1 1 0 1 1 1 0 1 0 1 0 1 1 2 0 1 1 0 0 -1 1 2 0 1 0 1 0 0 1 1 1 2 0 1 1 0 1 1 1 2 1 1 1 0 1 1 0 0 1 1 1 1 0 2 1 0 0 1 1 0 0 1 0 1 1 1 1 1 0 1 1 1 1 1 1 1 1 1 1 1 0 1 0 1 2 0 1 1 1 2 1 1 0 1 2 1 0 0 1 1 1 1 1 1 2 1 1 1 1 1 2 2 1 1 1 2 1 0 1 1 0 0 1 1 2 2 1 1 1 1 1 2 1 2 2 1 2 2 1 2 2 2 2 2 2 2 2 1 1 2 2 2 1 1 2 2 1 2 2 3 2 2 2 1 2 3 2 2 2 3 3 2 3 3 3 2 1 2 3 3 3 3 3 3 3 3 3 4 3 3 4 4 3 3 3 3 3 3 3 4 5 5 5 5 5 5 5 5 6 6 6 7 6 7 8 8 7 7 9 11 11 12 13 16 24 40 64 91 116 133 143 150 153 154 154 156 157 156 157 158 159 159 157 154 147 132 105 71 42 28 30 48 79 115 140 152 153 152 153 154 154 153 154 155 154 153 154 153 152 153 154 153 152 153 153 152 152 153 152 151 151 152 151 150 150 150 150 150 151 151 151 150 150 150 149 149 149 150 149 148 149 149 149 149 149 149 148 148 149 149 148 148 148 149 148 148 148 148 148 148 148 148 147 147 147 147 147 148 149 150 151 152 153 155 155 155 155 154 151 148 145 142 138 135 133 131 129 127 125 125 125 126 127 129 130 131 133 133 133 134 134 133 131 130 129 128 128 128 127 126 125 125 125 124 123 123 122 121 121 122 122 121 121 120 119 118 118 117 117 116 114 113 112 111 109 106 99 90 81 73 67 66 70 77 89 103 117 126 130 130 125 114 99 79 58 39 24 14 9 8 8 8 7 7 6 6 6 5 5 5 5 5 4 3 3 3 4 4 3 3 4 4 2 2 2 3 4 3 2 2 2 3 3 2 2 2 3 3 2 2 3 4 3 2 2 3 3 2 1 2 3 3 2 1 1 2 3 2 2 2 2 2 1 1 2 3 2 1 1 1 2 2 1 2 2 1 1 1 2 2 1 1 1 1 0 1 2 1 1 1 2 2 2 1 1 2 2 1 1 1 1 1 1 1 1 1 0 0 0 1 1 1 1 1 1 1 0 2 2 1 1 1 1 1 1 1 0 0 1 1 1 1 1 1 1 0 1 2 1 0 1 1 0 1 1 2 0 0 2 1 -1 0 1 3 1 0 0 -1 0 1 1 1 1 0 0 1 1 2 0 0 2 1 1 1 1 1 1 1 1 0 1 2 0 1 0 1 1 1 1 1 0 0 1 2 1 1 0 1 1 1 1 2 -1 1 0 1 1 2 0 3 -1 
0 3 0 0 1 1 2 1 1 1 1 1 0 1 1 1 1 0 1 1 1 0 1 1 1 1 0 1 0 1 1 0 1 0 0 0 0 0 1 0 0 0 1 1 0 1 1 1 2 0 1 1 0 0 0 1 1 0 0 2 2 1 0 0 2 1 0 -1 0 2 2 0 0 1 2 1 0 0 1 1 1 1 0 0 1 2 1 0 1 1 2 0 0 1 1 2 1 0 1 1 1 1 0 1 1 2 2 1 0 0 1 2 2 1 0 1 2 1 1 1 1 2 2 1 1 0 0 2 2 1 1 1 1 1 1 1 1 1 0 1 2 2 2 1 1 1 1 2 2 2 1 2 2 1 1 2 2 2 1 1 2 2 3 2 1 1 2 2 2 3 3 2 2 2 2 2 2 2 3 3 3 2 2 3 3 2 3 4 3 3 3 3 4 4 4 4 3 2 2 3 4 4 4 4 4 4 4 4 5 5 5 5 6 6 6 6 6 5 6 7 7 8 8 8 9 9 10 10 11 12 13 15 23 38 60 88 114 133 144 149 152 154 155 156 157 158 158 158 159 160 158 156 154 148 134 108 74 45 30 31 49 82 117 141 152 154 153 154 155 154 153 154 154 154 154 154 154 153 154 154 153 152 152 152 151 152 152 152 152 152 152 151 151 150 150 151 151 151 152 152 151 150 150 150 150 150 150 149 149 149 149 149 149 149 150 150 149 149 150 149 148 148 148 147 147 147 147 148 148 148 149 149 148 148 149 148 148 149 151 152 152 153 155 156 156 156 155 153 151 149 147 144 141 138 135 132 130 128 126 126 126 127 128 129 131 132 133 133 132 129 125 122 121 121 121 121 121 122 121 120 121 122 122 123 123 123 122 122 121 121 121 121 122 121 119 118 118 117 116 116 115 114 113 112 110 106 100 93 85 76 69 64 65 71 83 98 112 123 130 132 127 117 100 80 59 38 23 14 10 9 8 8 7 6 6 6 6 5 4 4 4 5 5 4 4 4 5 4 3 3 4 4 4 4 2 2 3 3 3 2 2 2 2 3 3 2 2 3 3 3 2 2 2 2 2 2 2 2 2 2 1 2 3 3 2 1 1 2 2 1 2 2 2 1 0 0 2 2 1 1 2 2 2 2 1 1 1 1 1 1 1 1 1 0 1 1 0 1 1 1 1 1 1 1 1 1 1 1 1 1 1 1 1 2 1 1 1 0 1 2 1 1 1 2 2 1 2 1 1 1 1 2 1 1 1 1 0 0 1 2 1 1 1 2 2 0 0 1 2 1 1 1 1 0 0 1 1 1 0 1 1 1 0 1 1 1 1 0 1 0 0 1 1 0 1 1 1 0 0 1 1 2 2 1 1 1 1 1 0 1 2 1 2 -1 0 1 0 0 1 1 1 1 0 0 1 2 1 1 1 0 0 -1 0 0 0 1 0 1 1 2 
0 0 0 1 1 1 1 0 0 0 0 1 0 0 1 1 0 0 1 1 2 1 1 1 1 1 0 0 0 1 1 0 2 1 0 0 1 0 1 1 1 1 1 1 0 1 1 0 1 1 1 0 0 1 0 0 1 0 1 1 0 1 1 0 1 0 1 1 1 1 2 1 1 0 1 2 1 1 1 1 1 2 2 0 0 1 1 0 1 0 1 1 1 2 1 1 1 1 1 1 0 0 2 2 1 0 1 1 1 1 1 1 1 2 1 1 1 1 2 1 1 1 1 1 1 1 1 1 1 1 2 2 2 1 1 1 2 2 1 0 1 2 2 2 2 1 1 1 2 2 1 1 2 2 2 2 2 2 2 2 2 1 2 2 2 2 2 3 3 2 2 2 2 3 3 1 2 2 3 3 3 3 3 3 2 2 1 2 2 3 3 3 2 2 3 4 4 4 3 4 4 3 3 3 3 5 5 5 5 5 4 5 6 5 5 7 6 6 6 6 7 7 8 8 9 9 11 13 13 13 15 21 36 58 85 111 132 144 149 151 153 155 157 158 158 159 159 159 160 160 159 157 156 150 137 113 80 49 32 32 49 82 118 141 152 154 153 154 155 155 155 155 155 154 153 153 154 153 153 153 154 153 153 153 152 152 152 152 151 151 152 151 151 152 152 152 151 151 150 150 151 150 150 150 150 152 152 151 150 150 150 150 150 150 150 150 149 150 150 150 149 150 149 149 150 150 150 150 150 150 150 150 149 149 150 150 151 152 153 153 154 154 155 156 156 156 156 155 153 152 150 147 145 142 140 137 135 132 130 129 129 130 131 131 132 133 133 133 131 127 122 117 115 114 115 115 115 117 117 118 119 120 120 120 120 120 120 120 120 120 120 119 120 120 119 119 119 118 117 117 116 116 115 114 112 110 107 102 95 88 79 71 65 63 68 79 93 107 119 127 130 128 117 100 79 57 38 24 14 8 7 7 8 7 6 5 5 6 6 6 5 4 4 5 4 3 3 3 4 5 5 3 3 3 3 3 3 2 3 3 3 3 2 2 2 3 3 2 2 2 3 3 3 2 2 1 1 1 2 3 4 3 2 1 1 1 1 1 2 2 1 1 2 2 2 1 2 2 2 1 1 1 2 2 1 1 1 1 1 2 2 1 1 1 2 2 1 1 2 3 2 2 0 1 1 1 2 1 1 1 1 1 1 1 1 1 2 2 2 2 1 0 0 1 2 1 1 0 1 1 1 1 0 1 1 1 1 1 1 0 1 2 1 0 1 1 0 1 1 2 1 1 1 2 0 0 0 1 1 0 0 1 1 2 1 0 0 0 1 2 1 1 0 1 1 -1 1 1 1 1 1 1 0 1 1 1 0 1 0 1 1 0 1 1 1 0 0 1 1 1 1 1 0 1 1 2 1 1 2 2 0 0 1 1 0 1 1 0 1 1 
2 1 0 0 0 1 2 0 0 0 1 1 1 1 1 0 1 1 1 0 2 0 0 1 1 2 0 0 1 0 0 0 1 1 1 1 1 1 1 1 1 1 0 1 1 0 0 1 1 0 1 1 0 1 1 1 1 1 1 0 0 1 2 1 1 0 1 1 1 1 1 1 1 1 1 1 0 0 0 1 1 2 2 2 2 1 1 0 1 1 1 1 0 1 1 1 1 1 0 1 1 0 0 1 1 1 2 1 0 1 2 2 0 0 0 1 2 1 1 1 1 2 2 1 1 1 2 3 2 1 1 2 2 2 2 2 0 0 1 2 2 1 1 1 1 1 2 2 1 2 2 2 2 2 2 1 1 1 2 2 2 2 2 1 1 2 2 3 3 3 3 1 1 2 2 2 3 3 3 2 2 3 2 3 3 3 3 3 3 3 3 3 3 4 5 3 2 3 3 4 4 4 4 4 4 5 5 4 5 6 6 7 6 5 5 6 5 5 6 6 8 8 8 9 10 10 12 13 13 15 21 35 56 84 110 129 141 148 152 153 154 156 158 159 160 160 160 160 160 160 159 157 156 152 140 117 84 52 34 33 49 81 117 141 152 154 153 154 155 154 154 155 156 155 155 155 155 155 154 155 154 153 153 154 153 153 154 153 152 153 153 152 152 152 152 151 151 151 151 151 150 150 152 152 151 151 151 151 150 150 150 150 150 150 150 150 149 149 150 149 149 149 149 149 149 149 149 150 150 150 150 151 151 151 151 151 152 152 153 153 154 154 155 157 157 157 157 157 156 156 154 152 150 148 145 142 140 137 135 133 133 133 134 134 136 138 138 136 132 125 119 114 111 111 113 112 111 112 112 112 113 114 115 117 117 115 116 116 116 117 117 118 118 118 117 117 117 116 115 114 113 114 114 114 113 111 110 107 103 98 90 81 72 63 60 64 74 87 104 117 126 129 125 114 97 76 55 38 24 15 10 8 7 7 8 7 6 6 5 6 6 5 4 4 4 4 4 3 3 3 3 4 4 4 3 3 3 2 2 2 2 3 3 3 2 3 3 3 3 3 3 2 2 1 2 2 2 2 1 1 2 2 2 1 2 2 1 1 2 2 2 2 2 2 1 1 1 2 2 1 1 2 3 2 2 1 2 2 1 0 1 1 2 1 1 1 2 1 2 2 2 2 1 1 1 1 1 0 2 2 1 0 1 1 1 1 1 1 1 2 1 0 2 2 1 0 1 1 2 0 1 2 0 0 0 1 0 0 1 1 0 0 2 1 1 -1 0 1 1 1 1 1 1 1 1 1 0 1 2 0 0 1 2 2 1 0 1 0 1 1 0 1 1 0 1 1 1 0 0 1 1 1 1 1 0 1 1 1 0 0 1 1 0 0 1 1 1 0 1 1 0 1 1 1 1 1 1 -1 -1 0 1 0 0 0 1 0 1 1 1 2 
2 0 3 0 2 0 1 0 0 0 2 1 1 0 1 1 0 -1 1 1 1 0 1 2 0 0 0 1 2 0 1 1 1 0 1 1 1 1 1 1 0 1 0 0 0 1 1 1 1 0 1 1 0 0 1 2 1 0 1 1 2 1 1 0 0 1 1 0 1 2 2 0 -1 1 1 1 0 1 1 1 1 1 1 1 0 1 1 0 1 1 1 2 0 0 0 0 1 2 0 1 0 1 1 1 1 1 1 1 1 1 1 2 1 1 1 1 2 1 1 1 1 1 0 1 1 1 1 1 1 2 2 2 2 2 1 2 3 2 1 0 1 2 2 2 1 1 1 1 2 2 1 1 1 1 2 2 2 2 2 2 2 2 2 2 2 1 2 3 3 2 2 2 2 2 2 3 2 2 2 3 3 3 2 3 4 3 2 2 3 3 3 3 3 2 3 3 4 4 3 3 3 4 5 4 4 5 5 4 4 5 4 5 6 6 6 7 7 7 7 7 8 8 8 9 10 12 13 14 15 20 32 53 79 106 127 141 149 152 153 154 156 158 159 159 160 161 161 160 160 160 160 159 157 154 143 122 90 56 35 32 45 77 113 139 152 156 155 154 155 155 155 155 155 155 154 154 155 155 154 154 154 154 154 154 153 153 153 153 152 153 152 152 152 153 153 153 153 151 151 151 151 151 151 150 150 151 151 150 150 151 151 151 151 151 151 150 150 151 151 151 151 151 151 151 151 150 150 150 151 151 151 151 151 151 151 152 152 153 154 155 155 156 156 157 157 157 158 158 157 156 155 154 152 150 148 147 146 143 141 139 138 138 139 139 140 141 141 139 135 128 119 115 112 111 110 110 109 110 110 110 112 111 110 112 113 113 113 113 113 114 114 114 115 115 114 115 115 114 113 113 113 113 113 112 111 110 110 109 107 103 98 91 82 73 64 60 60 69 84 102 117 125 126 120 108 91 72 54 36 23 14 9 8 8 7 5 6 7 6 5 5 5 5 4 4 4 3 3 3 3 4 4 4 3 2 2 2 2 3 3 3 2 2 2 3 3 3 3 3 2 2 2 3 2 1 2 3 3 2 3 3 2 2 1 2 1 1 1 1 1 2 3 3 2 1 2 2 1 1 2 2 2 2 1 2 2 1 1 1 2 2 1 1 2 2 2 1 1 1 1 1 1 2 2 1 1 2 2 2 0 1 1 1 1 2 2 1 1 1 1 1 0 0 1 1 2 1 0 2 1 1 1 1 1 1 1 1 0 0 0 1 1 1 0 1 1 1 0 0 2 1 0 1 2 1 0 1 2 1 1 1 1 0 0 1 0 0 0 1 1 1 2 1 1 1 1 1 1 1 0 0 0 1 0 0 1 1 1 1 1 1 1 0 0 1 0 1 1 2 2 1 1 0 0 1 1 2 1 1 0 1 0 0 0 2 0 2 -1 3 0 
0 3 0 -1 1 1 0 1 1 1 1 0 2 2 0 0 1 1 0 0 1 1 0 0 0 1 1 0 1 1 1 1 0 0 0 1 1 1 1 1 1 0 0 1 1 1 0 0 1 1 1 0 1 1 1 1 1 1 1 0 0 1 2 1 0 1 2 1 1 0 1 2 1 1 0 1 0 0 0 0 1 2 1 0 1 2 1 1 1 1 1 1 1 1 1 1 2 2 1 1 0 0 2 1 0 0 1 1 2 1 1 1 1 1 1 1 1 1 1 1 1 1 1 0 0 1 2 2 2 1 1 2 2 1 1 1 1 1 2 3 2 0 0 1 2 2 2 1 2 2 2 3 3 3 1 1 1 2 2 2 2 1 1 2 2 2 2 2 2 2 2 2 3 3 3 3 3 3 3 2 2 3 3 3 3 3 3 3 3 3 3 3 3 3 4 3 3 3 3 3 4 5 5 4 4 5 5 5 5 5 6 6 6 5 5 6 6 7 8 8 9 9 10 10 11 12 13 15 20 31 51 78 105 127 141 147 150 152 154 156 158 160 160 159 160 161 161 161 160 161 161 160 159 156 146 126 96 62 39 32 44 74 111 138 152 157 156 155 155 155 154 155 155 156 156 155 156 156 155 154 154 154 154 154 154 155 155 154 154 154 153 152 153 153 152 151 151 151 151 152 152 151 152 152 151 151 151 151 150 150 150 151 151 150 150 150 150 150 150 150 151 151 151 151 151 151 150 151 151 151 152 153 153 152 151 152 153 153 153 154 155 155 156 157 158 158 158 158 158 159 158 157 156 155 153 151 149 147 145 144 142 142 143 142 142 144 143 140 136 129 122 118 114 113 113 111 109 110 109 109 110 110 109 110 110 109 109 109 110 111 111 111 112 111 110 111 110 110 110 110 109 109 109 109 109 108 108 108 107 104 102 98 92 82 72 64 59 59 67 82 100 114 120 119 112 99 85 69 52 36 22 13 9 8 8 8 6 6 5 5 5 5 4 4 4 4 4 4 3 3 3 3 3 3 4 3 3 3 3 2 3 3 3 3 3 2 2 2 2 3 2 2 2 2 2 2 1 1 2 3 2 1 1 2 3 2 2 2 2 2 2 1 2 3 2 1 1 1 2 2 1 1 2 2 1 1 1 2 1 1 1 2 2 2 1 1 1 1 1 1 2 2 0 1 1 1 1 1 2 2 2 1 1 1 1 1 0 1 1 1 2 1 3 2 0 0 1 2 2 1 0 1 1 1 2 1 0 0 1 1 1 1 1 1 1 0 2 1 1 0 0 2 2 1 1 1 1 1 0 1 1 1 2 1 1 0 1 0 0 1 1 2 2 1 0 0 1 0 0 1 2 0 0 1 1 1 1 1 1 1 1 0 0 1 1 0 1 0 0 1 1 2 1 1 1 1 0 0 1 1 0 0 1 0 0 0 2 1 -2 2 
3 -2 3 0 0 0 1 0 1 0 2 1 1 0 1 1 0 0 1 0 0 0 0 1 1 0 1 1 1 1 1 1 0 0 1 1 0 0 0 0 0 1 1 1 0 1 1 0 0 1 2 1 0 0 1 1 0 0 0 1 2 1 1 0 1 1 0 0 1 1 2 0 0 2 1 1 0 0 1 1 1 0 1 0 1 1 1 1 1 1 1 1 1 1 1 1 1 1 0 1 2 1 1 1 1 2 2 1 1 1 1 2 2 2 1 1 1 1 1 0 0 0 1 2 2 1 1 1 2 1 1 1 2 2 2 2 2 1 1 1 2 2 2 1 1 1 2 2 2 2 2 2 1 1 2 2 2 1 2 2 2 3 3 2 2 1 1 2 2 2 2 2 3 3 3 3 3 2 2 2 3 3 3 3 3 3 3 3 3 3 3 3 4 4 3 3 3 4 3 3 4 5 5 5 5 4 5 5 5 5 4 5 6 7 7 7 7 8 8 9 9 10 11 11 11 12 14 18 30 49 75 102 124 138 146 150 152 154 157 158 159 160 160 160 161 162 162 162 162 162 161 159 159 157 149 131 103 68 42 33 42 70 107 136 151 156 156 156 157 156 156 156 157 157 156 155 155 156 155 154 154 155 155 155 154 153 153 153 153 153 153 153 153 153 153 153 153 152 152 152 152 152 152 152 152 152 151 150 151 152 151 151 152 152 152 151 151 151 151 151 151 150 150 150 151 150 150 150 151 151 152 152 151 152 152 153 154 154 154 156 157 157 157 158 158 159 159 159 159 159 159 157 156 156 155 154 152 150 149 148 146 145 145 144 145 145 145 143 140 132 126 122 119 116 115 113 111 111 110 110 110 109 109 110 109 109 109 109 109 109 108 109 109 108 108 108 107 108 109 109 109 108 107 106 107 107 106 106 104 103 103 102 99 92 84 74 64 59 59 67 80 96 108 114 111 101 89 76 64 51 35 22 13 8 6 7 7 6 5 5 5 5 5 4 4 4 5 5 4 3 3 3 4 4 3 3 3 4 3 2 3 3 3 2 2 3 3 3 2 3 3 3 2 1 1 1 2 2 2 2 2 2 2 2 2 2 2 2 1 1 1 2 2 1 1 2 2 2 2 2 2 1 1 1 2 2 1 1 1 2 2 2 1 2 2 1 1 1 2 1 1 1 1 2 1 0 1 2 2 1 1 1 1 1 2 2 2 1 0 1 2 1 1 1 1 1 0 1 2 1 1 1 1 1 1 0 0 1 1 1 1 2 1 1 1 1 2 0 0 1 1 1 0 0 1 0 1 2 1 1 1 1 2 0 1 1 0 0 1 1 1 1 0 1 2 1 0 0 0 0 0 1 1 0 0 1 2 2 1 1 1 1 0 0 1 1 1 1 1 1 0 1 2 0 0 0 2 1 0 1 2 0 0 -1 1 2 1 -1 6 -2 
1 2 0 0 1 0 0 0 1 1 1 0 0 1 0 2 0 1 1 0 0 1 1 1 0 1 1 1 0 1 1 1 1 0 0 1 1 1 1 1 1 2 1 1 1 1 0 0 1 1 0 1 2 2 1 0 0 1 1 1 1 0 1 0 1 1 1 1 0 0 2 1 1 1 1 2 2 0 0 1 2 1 1 0 1 1 1 2 1 1 1 1 1 0 1 1 1 1 1 1 1 2 2 2 0 0 1 1 2 1 1 1 2 1 2 2 1 1 1 2 1 1 1 1 1 1 1 2 2 1 2 3 2 1 1 1 2 2 2 2 1 1 1 2 2 1 1 2 2 2 2 3 2 1 1 2 2 2 2 2 2 3 3 3 2 2 2 2 2 2 2 2 3 3 2 2 3 3 3 3 3 3 3 3 3 3 3 3 3 3 3 2 3 3 3 4 4 4 3 4 5 5 5 4 4 5 6 6 6 5 5 5 6 6 6 7 8 8 8 8 9 10 11 12 12 13 17 27 46 72 99 122 138 146 151 152 153 154 157 158 159 160 160 160 161 162 162 162 162 162 162 160 159 157 151 137 112 78 48 35 41 67 104 134 151 157 157 156 156 156 156 156 156 156 156 155 156 156 156 156 155 155 155 156 156 155 154 154 154 154 154 154 154 154 153 153 152 152 151 151 151 152 153 153 152 152 152 151 151 151 151 152 152 151 151 151 151 152 152 151 152 152 152 152 152 152 152 152 153 152 153 153 153 153 153 153 154 154 154 156 156 156 157 158 159 159 159 159 160 160 159 159 159 158 156 155 154 153 152 150 148 148 147 146 146 147 146 144 140 134 130 126 122 119 118 115 115 114 112 112 112 110 110 110 109 109 109 109 109 108 107 106 108 108 109 108 107 107 107 107 108 107 106 105 105 104 104 105 105 104 104 103 101 98 94 86 75 65 58 58 65 78 92 101 102 97 88 78 70 61 49 35 21 13 8 7 7 6 6 6 5 5 5 5 4 3 3 4 4 4 3 3 3 4 4 4 4 4 4 3 3 2 2 3 3 3 3 2 2 2 2 2 3 3 2 2 2 1 2 3 2 1 1 2 3 2 2 2 2 2 1 1 1 2 2 1 1 2 3 2 0 0 1 2 2 2 1 1 1 1 1 2 2 2 1 1 1 1 1 1 2 2 1 0 1 1 1 1 1 1 1 1 1 2 2 1 1 1 1 1 1 1 2 1 0 0 0 1 1 1 1 1 2 0 1 1 0 1 0 1 1 1 0 0 1 0 2 1 0 0 1 1 2 1 1 1 1 0 0 2 2 1 1 1 1 1 1 1 1 1 1 1 1 1 1 0 0 0 1 1 1 1 0 0 1 0 1 1 0 0 1 2 1 1 1 1 0 0 0 1 1 1 0 1 2 0 1 1 1 1 0 1 1 1 0 1 2 1 0 1 
0 4 -2 1 1 0 1 0 0 0 1 0 1 1 0 2 0 1 2 0 1 1 1 1 0 0 1 1 0 1 1 0 0 0 1 1 1 0 1 1 0 1 1 2 1 1 0 0 1 1 1 1 1 1 1 0 0 1 1 1 1 1 1 0 1 1 1 1 0 1 2 1 1 1 1 2 0 0 1 1 1 1 1 -1 1 2 0 1 0 1 2 0 1 1 2 2 1 0 1 1 2 1 1 2 0 1 1 1 1 1 1 2 1 1 1 1 1 1 1 1 1 1 1 1 1 1 1 2 2 1 0 1 2 3 2 1 1 1 1 1 2 2 2 1 1 2 3 2 1 1 1 2 2 2 2 1 1 1 2 2 2 2 2 2 2 2 2 3 2 1 1 2 2 3 3 3 3 2 2 2 3 3 3 3 2 2 3 4 3 3 3 3 3 3 3 3 3 3 4 4 4 4 5 4 4 5 6 6 6 5 5 6 6 7 7 7 8 8 8 9 10 10 11 12 13 17 26 43 68 95 120 137 146 149 151 153 155 158 159 160 159 160 162 162 162 163 163 163 162 162 162 160 159 159 155 143 121 90 57 39 40 62 99 131 149 156 156 156 157 157 156 156 156 157 157 156 156 156 156 155 155 155 155 155 155 154 155 155 155 154 154 154 153 153 153 153 154 153 153 153 153 153 153 153 153 153 152 152 152 152 152 152 152 153 153 152 152 152 152 152 151 151 151 151 152 151 151 152 152 152 152 152 152 153 153 153 154 154 155 156 156 157 157 158 158 158 158 159 160 160 160 159 159 158 158 156 155 155 154 152 150 148 148 147 148 148 146 144 141 137 133 129 125 122 121 118 116 115 113 114 114 112 111 111 110 109 109 109 109 110 109 108 108 107 107 107 108 108 107 106 106 106 106 106 106 105 105 105 104 104 104 104 103 101 98 93 87 78 68 59 56 61 73 85 90 87 79 72 69 67 61 48 32 18 11 8 8 7 6 6 5 5 5 6 5 5 4 5 5 4 2 3 4 4 4 4 3 3 3 3 3 3 2 3 3 2 2 2 3 3 2 2 3 2 1 2 2 2 2 2 1 2 2 3 2 1 2 2 2 2 2 2 1 1 2 2 1 1 2 2 1 1 1 2 2 2 1 1 2 1 1 1 1 1 1 2 1 2 2 2 1 0 1 2 1 1 0 1 1 1 0 1 1 1 1 1 2 1 1 2 1 1 1 1 1 1 1 1 1 2 1 0 1 0 1 1 0 2 1 1 1 1 0 0 1 1 2 1 0 1 0 0 1 1 0 2 1 1 1 1 2 1 1 1 1 1 0 0 1 2 1 1 1 0 1 1 1 0 0 0 1 1 0 0 0 1 2 2 0 1 1 0 0 1 1 1 1 1 0 0 0 2 1 1 2 0 1 1 0 2 1 1 0 0 0 1 1 3 -2 1 
2 -1 1 1 -1 -1 0 0 1 2 1 0 1 1 -1 1 0 1 1 0 2 1 1 1 0 0 0 1 0 1 1 1 0 1 1 1 0 0 1 1 1 1 0 1 0 1 1 1 1 1 1 2 2 1 1 -1 0 2 1 1 0 1 1 1 1 0 1 1 0 1 0 0 1 2 1 2 1 0 0 0 1 1 1 0 0 1 1 1 1 1 2 1 1 1 1 1 2 2 2 0 2 2 2 2 0 0 0 1 1 1 1 1 1 2 1 1 1 1 0 1 2 2 1 1 2 2 1 1 1 0 1 1 1 2 2 2 2 2 1 1 1 2 2 2 2 2 2 2 2 2 2 2 2 1 1 2 2 2 2 2 2 2 2 2 2 2 2 2 2 2 2 2 2 2 2 2 2 2 3 3 3 3 2 2 3 3 3 3 3 3 3 2 2 3 4 4 4 4 4 5 5 5 4 5 4 5 5 5 5 6 6 6 6 7 7 8 8 8 9 9 10 11 12 13 15 23 40 64 92 117 134 144 150 152 153 156 158 158 159 160 160 161 162 162 162 163 163 163 163 164 163 161 159 158 156 148 131 103 69 46 41 58 92 126 147 155 157 157 157 157 156 157 156 156 156 156 155 155 155 156 156 156 155 156 156 156 155 154 154 155 154 154 154 154 154 154 154 154 153 153 153 153 153 153 153 152 152 152 152 153 152 152 152 152 151 151 152 152 152 151 151 153 153 153 152 152 153 154 154 154 154 154 154 154 154 154 155 155 155 156 157 157 157 158 158 158 158 159 159 160 159 159 159 159 158 157 157 156 155 153 151 150 149 148 149 149 147 144 141 138 135 133 129 126 124 121 120 119 116 115 114 113 113 112 112 112 111 110 111 110 109 109 109 108 108 108 108 108 108 108 108 108 108 107 105 104 104 104 104 105 105 103 103 103 103 100 95 87 78 67 57 54 59 68 74 74 67 61 59 62 63 58 46 30 16 10 8 7 6 6 6 5 5 6 6 5 4 4 5 5 4 4 4 4 4 4 4 3 3 3 2 2 2 2 3 3 3 2 2 2 2 2 2 2 2 2 2 3 2 2 2 2 2 2 3 3 2 2 2 2 2 2 2 3 2 1 1 2 2 1 0 0 1 2 2 2 2 2 2 1 1 1 2 1 1 2 1 1 0 1 1 1 2 2 2 2 1 1 1 1 0 1 2 2 2 1 2 1 1 1 0 2 1 1 1 1 2 1 0 1 1 1 1 0 0 1 1 2 1 1 1 1 1 1 1 1 2 1 0 0 0 0 1 1 1 2 0 1 2 2 2 1 1 1 0 1 0 1 1 2 1 2 0 0 1 1 1 1 0 0 0 1 0 1 0 1 1 2 1 1 1 1 0 0 1 2 1 0 1 2 0 1 0 0 1 1 1 1 0 1 0 2 0 1 1 2 1 1 4 -1 
-1 4 -3 3 -1 2 -1 0 0 1 0 0 0 2 0 1 -1 1 1 0 1 1 1 1 -1 0 1 1 1 1 0 1 0 0 1 0 1 1 0 1 1 1 1 2 1 1 1 0 0 1 1 1 1 0 0 -1 1 1 0 1 0 1 1 1 2 0 1 1 1 1 1 1 1 1 1 1 0 1 1 1 1 1 0 1 1 1 1 1 1 1 1 1 0 1 2 2 2 1 2 1 1 1 1 1 0 1 1 1 1 1 1 1 1 1 1 0 1 1 0 1 1 1 1 1 1 1 1 2 1 1 1 1 1 2 1 1 1 1 1 2 2 2 2 1 1 2 2 2 1 1 2 2 2 3 2 2 1 1 2 2 2 2 2 2 2 2 2 2 2 2 2 2 2 3 2 2 2 2 2 2 3 4 3 2 2 3 3 3 3 3 3 3 3 4 4 3 4 4 4 5 4 4 4 5 4 4 5 6 6 6 6 7 7 7 7 8 8 9 9 10 11 12 12 15 22 37 61 88 113 132 144 150 152 153 154 157 159 159 159 161 161 162 163 163 162 163 164 163 163 163 163 162 160 159 158 153 139 114 81 52 41 53 84 120 144 155 157 157 157 157 156 156 157 157 157 157 156 156 156 156 155 154 154 154 155 155 155 155 156 155 154 154 154 154 153 153 154 154 154 154 154 155 154 153 153 153 153 153 153 153 152 152 152 152 153 153 153 153 152 152 152 152 152 152 152 152 152 153 153 153 152 152 153 154 154 154 154 155 155 156 156 157 157 157 157 157 158 158 159 159 159 160 159 159 158 157 157 157 156 154 152 151 150 150 149 148 145 143 141 138 136 134 131 128 125 122 122 120 119 118 116 116 115 113 113 113 112 112 112 111 110 110 109 109 109 109 109 110 108 107 107 107 107 107 106 106 107 107 106 106 106 104 103 103 102 102 101 98 90 79 66 56 51 53 57 58 53 48 47 52 59 62 56 43 28 17 11 8 6 6 6 6 6 6 6 6 5 5 4 4 3 3 4 4 4 3 3 4 4 3 2 3 3 3 2 2 2 3 3 3 3 3 3 2 2 3 2 2 2 2 2 2 1 2 2 2 2 3 2 2 2 2 2 2 2 2 1 1 1 1 1 1 1 2 1 1 2 2 1 1 1 1 1 1 1 1 1 2 1 1 1 1 2 2 1 1 1 1 1 1 2 1 1 1 2 1 1 1 1 1 1 2 1 2 1 1 2 1 0 0 1 1 1 2 1 1 1 2 1 1 1 1 1 1 2 2 1 2 1 1 1 1 1 1 0 2 1 1 1 0 1 1 1 2 1 1 0 1 1 2 1 1 1 1 1 1 1 1 1 1 0 0 1 2 0 1 1 1 1 1 1 1 1 1 1 1 1 1 0 1 0 1 1 1 1 0 0 1 0 1 0 2 0 2 -1 2 0 4 -2 2 
1 2 0 1 0 0 0 1 1 0 1 1 1 1 0 1 0 1 1 1 1 0 1 1 0 1 1 0 1 1 0 1 0 1 1 1 1 0 0 1 1 0 1 2 1 1 1 0 1 1 1 1 1 0 1 0 1 1 0 1 0 2 2 1 1 1 1 0 0 1 0 0 1 1 1 1 1 1 1 1 1 1 1 1 0 1 1 1 1 1 0 1 1 2 1 1 1 1 2 1 1 1 1 1 0 0 0 1 1 1 1 2 1 0 0 0 0 0 1 1 1 2 1 1 1 2 1 0 0 1 2 1 1 1 2 1 1 1 1 1 1 1 2 2 2 1 2 2 2 2 1 1 2 2 2 2 2 2 2 2 2 2 2 2 2 2 2 1 2 3 3 3 2 2 2 2 2 3 4 3 3 2 2 2 2 3 4 4 3 3 3 3 3 4 4 4 3 3 4 5 5 4 4 4 4 4 5 5 6 7 7 6 6 7 8 8 8 9 10 11 12 13 14 20 34 56 83 109 130 143 149 151 152 154 157 159 159 159 160 161 161 161 162 162 163 164 165 164 164 164 164 163 162 160 158 155 145 126 94 62 45 49 74 110 138 152 157 157 157 158 158 158 158 157 157 157 157 157 157 157 157 157 157 156 156 156 156 155 154 154 154 154 154 154 154 154 154 154 154 153 153 153 153 153 154 153 153 153 153 153 152 152 152 153 153 153 153 153 153 153 153 153 153 153 153 153 153 153 153 153 153 153 154 154 155 155 156 156 156 155 156 157 157 157 158 158 158 158 158 158 158 159 158 158 158 158 157 157 156 154 153 152 151 150 149 148 146 144 142 140 138 135 133 131 127 126 125 123 122 120 117 117 117 115 115 115 114 114 113 112 111 111 110 111 110 109 108 109 109 109 110 110 109 108 106 106 107 107 106 106 105 106 106 105 105 105 103 100 97 90 79 65 54 46 44 43 40 35 34 39 49 58 61 55 41 26 15 10 7 6 6 6 5 5 6 6 5 4 4 4 4 4 4 4 3 3 3 3 3 3 2 2 2 3 3 3 3 3 3 3 2 2 2 2 2 2 2 2 2 2 2 2 2 2 2 2 2 2 2 1 2 2 1 2 3 2 2 1 2 2 2 1 1 2 2 2 2 3 2 2 1 1 2 1 1 1 1 1 1 1 1 1 2 2 2 2 1 1 2 1 1 1 1 1 1 1 1 2 1 1 0 1 1 1 1 0 1 1 0 0 1 1 1 1 1 0 1 2 2 1 0 1 1 1 1 1 0 1 1 1 1 1 1 1 1 1 1 1 2 1 2 1 1 2 1 1 0 1 1 1 2 1 0 1 0 0 2 2 1 0 0 0 1 2 1 1 0 1 1 0 1 1 0 1 1 1 1 1 1 2 1 1 1 1 1 0 1 1 0 0 0 1 0 1 0 1 1 2 0 1 
2 -2 2 1 1 0 1 0 1 0 1 1 1 1 1 0 0 1 1 0 1 1 2 1 1 1 1 0 1 1 0 1 0 0 1 0 0 1 1 1 1 1 1 1 0 1 1 0 1 1 2 1 1 0 1 1 1 0 0 1 1 1 0 1 1 0 0 1 2 1 1 1 1 0 1 1 0 1 1 1 1 1 1 1 1 1 2 1 2 1 1 1 0 0 1 1 1 1 1 1 2 1 1 1 1 1 1 1 2 1 1 1 1 1 1 1 1 1 2 1 1 1 1 0 1 2 1 1 1 2 2 2 1 1 1 1 1 1 1 1 2 2 2 1 1 1 2 1 2 2 2 2 3 2 2 2 2 1 2 2 1 2 2 2 3 3 3 2 2 2 2 2 2 2 1 1 2 3 4 3 3 3 2 2 2 3 3 3 3 3 3 3 4 4 4 4 4 4 4 5 4 4 4 5 5 5 6 6 7 7 6 6 7 8 8 9 10 11 12 12 12 13 19 32 53 80 106 128 141 148 151 153 155 156 158 160 160 160 161 162 162 163 163 164 164 164 165 164 164 163 163 163 163 161 160 158 150 135 108 74 50 46 65 99 130 149 157 158 157 157 157 157 158 157 157 158 158 157 157 157 156 156 156 155 154 155 156 155 155 155 155 155 154 154 155 154 154 153 153 153 153 153 153 153 154 154 153 153 153 153 153 152 152 153 153 153 153 153 153 153 153 153 153 153 153 154 153 152 152 153 154 153 153 153 154 154 154 154 155 155 156 156 156 156 157 158 157 157 158 158 157 157 157 158 158 157 157 157 156 154 153 152 151 150 148 146 145 144 142 140 138 135 133 132 128 127 126 125 124 122 119 119 118 117 116 115 114 113 113 112 112 113 113 112 112 111 111 110 110 109 109 109 108 108 108 108 108 109 108 107 107 107 106 105 105 105 104 104 103 99 91 78 63 50 40 35 30 26 24 28 37 48 58 60 53 39 25 14 9 8 8 7 6 5 5 5 5 5 4 3 4 4 4 4 4 3 3 3 4 4 3 3 4 4 3 2 3 3 3 3 3 3 3 2 2 3 3 2 2 2 2 2 2 2 2 2 2 2 2 1 2 2 2 2 2 2 3 2 1 2 2 2 2 2 1 2 2 2 1 1 1 1 1 1 1 1 1 2 2 1 1 1 2 2 1 1 0 1 2 1 1 1 2 2 2 1 1 0 1 2 2 2 1 1 0 1 1 1 1 1 1 1 1 2 1 1 2 1 1 1 0 0 1 1 1 1 1 1 1 1 0 1 0 1 1 1 1 1 1 0 1 0 1 1 1 1 1 1 1 1 1 2 0 0 0 1 1 1 1 1 1 1 1 1 1 1 0 1 2 0 1 0 0 1 1 0 1 1 0 1 1 1 1 1 1 0 2 1 1 1 1 0 0 0 1 1 1 -1 3 -1 
0 3 1 0 2 0 1 1 2 0 0 1 1 1 1 0 1 1 1 0 1 1 2 0 1 1 0 0 1 1 1 1 1 1 1 0 0 1 1 1 1 1 0 1 1 0 1 1 2 1 1 0 1 0 1 0 0 0 0 0 1 2 1 1 0 1 0 0 2 1 1 1 1 0 1 1 1 1 1 1 1 1 1 1 0 0 1 0 1 1 0 1 1 1 1 1 1 1 1 1 1 0 1 0 0 1 1 2 2 2 1 1 1 1 1 1 1 2 2 1 1 1 1 1 1 1 2 2 1 1 1 1 1 1 1 1 1 2 2 2 2 2 2 1 1 1 2 2 2 2 2 2 2 2 2 2 2 2 2 1 1 1 2 2 2 2 2 2 2 3 3 3 2 2 3 3 3 3 3 3 2 2 1 2 3 4 4 4 3 3 4 4 4 4 4 4 3 4 4 4 4 3 4 5 5 5 6 7 7 6 6 7 8 8 8 9 10 11 12 12 14 18 28 48 76 103 125 139 147 152 153 154 156 158 159 160 161 161 162 162 162 162 164 165 164 164 166 166 165 164 164 164 164 162 161 159 155 143 120 87 58 46 56 85 119 143 156 159 158 158 159 158 158 158 157 158 157 156 157 157 156 157 158 158 157 157 156 156 155 154 154 154 154 154 155 155 155 155 155 155 155 154 154 154 154 154 153 154 153 153 153 153 153 153 152 153 153 153 153 153 153 152 153 153 153 153 153 153 153 153 154 153 153 154 154 155 155 155 155 155 155 156 156 156 157 157 158 158 158 158 158 158 158 158 158 157 156 155 155 154 153 152 152 151 149 146 146 145 144 142 139 137 136 134 132 131 129 127 126 123 121 121 120 119 118 116 115 114 114 114 114 114 114 114 112 112 111 111 111 111 112 111 110 109 109 108 108 109 109 108 107 107 107 107 107 106 105 104 104 103 100 90 76 60 45 34 26 22 19 21 27 37 49 57 59 51 37 23 13 9 7 7 6 6 6 5 6 6 5 4 4 4 4 4 3 3 4 3 3 3 3 3 3 3 3 3 3 3 3 3 3 3 2 2 2 2 2 2 2 2 2 2 2 2 2 2 2 2 1 1 2 2 2 2 2 2 2 1 1 2 2 2 2 1 2 2 2 2 2 1 2 2 2 1 2 2 2 1 2 2 1 2 1 1 1 1 1 1 1 1 2 1 1 1 2 1 1 1 1 1 0 1 2 1 1 0 1 1 1 1 1 1 1 1 1 1 1 1 2 1 1 1 1 0 0 0 1 2 2 1 1 1 0 0 1 0 1 0 1 1 1 0 1 1 1 1 1 2 1 1 1 1 0 0 0 1 1 1 2 1 0 1 1 1 1 1 0 1 1 0 1 1 1 1 1 0 1 1 1 1 2 1 1 1 0 0 1 1 1 1 0 0 1 0 1 0 2 1 -1 2 
2 -3 3 0 2 0 1 0 1 0 1 0 0 1 1 0 1 0 0 0 1 1 2 1 1 0 0 1 1 1 1 0 1 1 1 1 1 1 1 1 1 1 1 1 1 0 1 1 2 1 2 1 1 0 1 1 0 0 0 1 2 1 1 1 1 1 1 1 2 1 1 1 1 1 0 1 1 1 1 1 1 1 1 1 1 0 1 1 1 1 1 1 1 1 1 1 1 0 1 1 2 1 0 1 1 2 1 1 1 1 1 0 1 1 1 1 1 2 2 1 2 1 0 0 1 1 2 1 2 1 1 1 1 1 2 2 1 2 2 2 2 2 2 1 1 2 2 1 1 2 2 1 2 2 2 2 2 1 2 2 2 2 2 2 2 2 2 3 3 2 2 1 2 3 3 3 3 3 3 2 2 2 2 2 3 3 4 3 3 4 4 4 3 3 4 4 5 5 5 4 4 4 4 5 6 6 6 6 6 6 7 9 9 8 8 9 11 12 13 13 16 25 44 70 98 122 138 146 151 153 155 156 157 159 160 160 162 163 163 163 163 163 164 165 165 165 165 165 165 164 163 163 164 163 161 160 157 149 131 101 69 49 51 74 108 136 152 158 158 157 158 158 158 158 158 158 158 157 157 157 156 156 157 156 155 155 157 157 156 155 155 155 155 155 155 155 154 154 154 154 154 154 153 153 154 154 154 153 153 153 154 153 153 152 152 153 153 153 153 154 153 153 153 154 153 153 153 153 153 153 154 154 154 153 154 154 155 155 155 155 155 155 156 156 156 156 156 157 157 156 156 156 156 156 156 156 156 156 155 155 154 153 152 151 149 147 146 145 144 143 140 138 136 135 134 133 130 129 128 125 124 123 122 122 121 118 117 116 115 115 116 116 116 115 114 113 113 112 113 113 112 110 110 110 110 111 110 109 109 110 110 109 108 107 107 108 107 106 106 106 104 99 90 75 58 41 28 20 17 16 19 26 37 48 57 59 50 35 21 12 9 8 7 6 5 5 5 5 5 4 4 4 4 4 4 4 4 4 4 3 3 3 3 3 3 3 3 3 3 3 2 3 3 2 2 2 2 2 2 2 2 2 2 2 2 2 3 2 2 2 2 2 2 2 2 2 2 1 1 2 2 2 1 1 1 2 2 1 1 1 1 1 1 1 2 1 1 1 2 2 1 2 2 1 1 0 0 1 1 1 2 1 1 1 1 1 1 1 2 2 2 1 0 0 1 1 1 1 1 1 2 1 1 1 1 1 1 1 1 1 1 1 1 0 2 1 1 1 2 1 0 1 1 1 1 0 1 1 1 1 1 0 1 0 1 1 1 1 2 2 1 0 1 1 0 1 1 0 1 2 2 2 1 0 1 1 2 1 0 0 1 1 1 1 1 1 1 1 1 0 1 1 1 0 0 1 1 0 1 0 1 0 1 0 2 2 2 -2 5 -1 
-1 3 1 1 3 0 1 0 2 0 1 1 1 1 0 0 1 1 0 0 1 1 1 0 1 1 1 0 0 1 0 0 1 1 1 1 1 0 1 1 1 1 1 1 1 0 1 1 1 0 0 0 1 2 1 1 0 1 1 1 2 1 2 1 0 0 1 1 2 0 1 1 1 0 0 1 2 1 0 0 1 1 2 1 1 -1 0 1 1 1 1 0 1 0 1 1 1 1 1 1 1 1 0 0 1 1 1 1 0 1 1 1 1 1 1 1 1 2 2 1 2 2 2 1 1 1 2 2 1 1 1 2 1 1 2 1 1 2 2 2 2 2 2 1 1 2 2 2 2 2 2 2 2 2 2 2 2 2 2 2 2 1 2 2 2 2 2 3 3 3 3 3 3 3 3 3 3 3 3 2 2 1 2 2 3 4 3 3 4 5 4 3 4 4 4 4 4 4 4 4 5 5 5 5 6 7 6 6 6 7 8 9 8 8 9 11 12 12 13 15 23 39 63 92 118 136 145 150 152 153 156 158 159 160 160 161 162 162 163 163 163 164 164 164 164 164 165 165 165 164 164 164 164 164 163 161 159 154 141 116 83 58 50 64 95 127 148 157 159 158 159 159 158 158 158 158 158 158 158 158 158 157 157 157 157 157 156 156 156 156 156 155 155 155 156 155 155 154 155 155 154 155 155 154 154 154 153 153 153 153 154 154 153 152 153 153 153 153 154 153 153 153 153 152 153 153 153 153 154 154 153 153 153 154 154 154 154 155 155 155 156 156 156 155 155 155 156 156 157 157 156 157 157 157 156 155 155 154 153 154 154 153 152 151 149 148 147 146 146 144 141 140 138 137 137 136 133 133 131 129 127 126 125 125 123 121 119 119 118 118 117 117 116 115 114 114 114 113 112 113 113 112 112 112 112 112 111 111 110 110 110 111 110 109 109 109 108 107 106 105 105 104 100 89 72 53 36 24 18 15 15 19 26 37 50 59 58 47 31 17 10 7 7 7 6 5 4 5 5 5 6 5 4 4 4 4 4 4 4 3 3 3 3 2 3 4 4 3 3 3 3 3 2 2 2 2 2 2 3 2 2 2 1 2 3 3 3 2 2 2 2 2 2 2 2 2 3 2 1 2 2 2 1 1 1 1 2 2 2 1 1 1 1 1 2 1 1 1 1 2 1 2 1 1 1 1 1 0 0 1 1 0 1 1 1 1 1 1 1 1 1 1 2 1 1 0 0 1 0 1 2 1 1 1 1 1 1 1 1 1 1 0 1 1 1 0 1 1 1 1 0 1 1 1 0 0 1 1 1 2 1 0 1 1 1 0 1 2 2 0 0 1 1 0 0 2 1 1 1 1 1 1 0 1 1 1 1 0 1 0 1 1 2 1 1 1 1 0 1 1 1 0 1 1 1 0 1 0 1 0 1 0 2 1 2 0 2 1 -1 2 
3 -3 4 0 1 0 1 0 1 0 1 0 0 1 1 1 1 0 0 0 0 0 1 0 1 0 1 1 1 1 0 1 1 1 1 1 1 0 1 1 0 0 0 0 1 0 1 1 1 0 0 1 1 1 0 1 0 1 1 1 1 1 1 1 1 1 1 1 2 0 0 1 1 0 0 1 1 1 0 1 1 1 1 1 1 0 1 1 1 2 1 0 0 0 1 1 1 1 1 1 1 1 1 1 1 1 2 2 1 0 1 1 2 1 1 1 2 2 2 1 1 1 1 2 1 1 1 1 1 1 2 2 2 1 1 1 1 1 1 1 2 2 1 1 1 2 2 1 1 1 2 2 2 2 2 2 1 1 2 2 2 2 2 2 2 2 2 3 3 2 2 2 3 4 3 2 3 3 3 3 3 2 2 3 3 3 3 3 4 4 4 3 4 4 4 5 4 4 4 5 5 6 6 6 6 6 6 6 7 8 9 9 8 8 9 11 13 14 15 20 35 58 87 114 133 145 149 151 153 154 157 159 160 160 161 162 162 163 163 163 164 165 164 165 165 165 165 165 165 164 164 165 165 164 162 161 161 158 148 129 100 71 54 58 83 117 142 156 160 159 159 160 159 158 158 159 160 159 158 158 158 157 157 157 157 157 157 156 156 156 157 156 155 155 155 155 155 156 155 154 154 154 155 155 154 154 154 154 153 153 154 154 153 153 153 154 153 153 153 154 154 154 154 155 154 153 153 154 154 154 154 154 154 154 154 154 155 155 154 155 155 156 155 156 156 155 155 156 156 156 156 156 155 155 154 155 155 154 154 154 153 153 152 150 149 148 147 147 146 144 143 142 140 139 139 137 136 135 134 132 131 130 129 128 126 123 122 122 121 119 119 118 117 116 116 116 116 115 114 114 114 113 113 113 113 113 113 112 111 110 111 111 110 109 109 109 109 109 109 107 106 105 104 98 86 69 51 34 22 15 14 15 18 26 39 53 61 58 43 27 15 9 7 7 7 6 5 5 5 5 5 4 4 4 4 4 4 4 3 3 3 4 3 3 3 3 3 2 3 3 3 3 2 2 2 2 3 2 2 2 2 2 2 2 2 2 2 2 2 2 2 2 2 2 1 1 2 2 2 2 2 2 2 1 1 1 2 2 1 1 1 1 1 1 1 1 2 1 1 2 2 2 1 1 1 0 0 1 1 1 1 1 2 1 1 2 2 2 2 2 1 0 1 1 1 1 1 1 0 1 2 1 1 1 1 2 1 1 1 1 1 1 0 0 2 1 1 0 1 1 1 1 1 1 1 0 1 1 1 1 0 1 1 0 1 0 1 1 1 2 1 0 0 1 1 1 0 0 1 1 1 0 0 0 0 1 2 0 0 0 2 1 1 1 1 1 0 0 1 1 1 1 1 1 1 0 1 0 2 1 1 0 1 1 2 1 1 -2 4 -2 
1 2 1 1 1 -1 0 1 1 1 1 1 1 1 1 1 1 0 0 1 1 1 0 0 1 1 1 1 0 1 1 2 1 1 1 1 1 1 1 1 1 1 1 1 1 1 1 1 1 0 0 1 1 1 0 1 0 1 1 1 1 1 1 0 0 1 1 1 1 0 1 2 1 0 1 2 2 2 1 0 1 1 2 1 1 0 0 2 2 1 1 1 1 0 1 1 1 1 1 1 0 1 1 0 2 1 1 2 1 1 1 1 1 1 1 1 1 1 1 1 1 1 2 2 1 1 1 2 1 1 1 1 1 2 2 2 1 2 2 2 2 1 1 1 2 1 1 1 1 2 2 2 2 2 2 2 1 2 3 2 1 1 1 1 2 3 2 2 3 3 3 3 3 4 3 3 3 3 3 2 2 2 3 5 4 3 3 3 4 4 4 4 4 4 4 5 4 4 4 5 6 7 5 5 6 7 6 6 7 8 8 8 8 9 11 12 13 14 18 31 53 80 108 130 143 149 152 153 155 156 158 159 160 161 161 162 162 163 163 164 164 165 165 165 165 164 164 165 166 166 165 165 165 164 164 162 161 160 154 141 117 87 63 57 73 104 134 153 159 160 159 159 159 159 158 158 159 159 159 158 158 158 158 158 158 157 157 157 156 157 157 157 156 155 155 155 156 156 155 155 155 155 156 156 155 155 154 154 153 154 154 153 154 154 153 153 153 153 153 153 153 153 153 154 154 153 153 153 153 154 154 154 155 155 154 154 154 154 154 154 155 155 155 155 155 155 155 155 156 156 155 155 156 155 154 154 154 154 154 154 154 153 151 150 150 149 148 148 147 145 144 144 143 141 140 138 138 137 136 135 134 132 132 130 129 128 126 125 124 122 121 120 120 119 118 118 117 115 114 115 115 115 114 114 113 113 113 113 112 112 112 111 112 112 111 111 110 110 109 108 107 107 107 104 96 84 67 47 30 19 14 13 15 19 29 44 58 62 54 37 21 11 8 7 8 7 6 5 5 6 6 5 4 4 4 4 4 4 3 3 3 3 3 4 3 3 4 3 3 3 3 2 2 3 3 2 2 2 3 2 2 2 1 2 3 3 2 2 2 2 2 2 2 2 1 1 2 2 2 2 2 1 1 1 1 1 2 2 1 1 1 1 1 2 2 1 1 1 1 1 2 2 2 1 2 1 1 1 1 1 1 1 1 1 0 1 1 2 2 1 1 1 1 1 1 1 1 1 1 1 1 1 1 0 0 1 0 1 1 1 1 1 1 1 1 1 0 0 1 1 1 2 1 1 0 0 1 1 1 2 1 0 1 0 2 0 1 1 1 0 1 1 1 0 0 1 1 0 0 0 1 0 0 0 0 1 1 1 2 1 1 1 1 1 0 1 1 1 1 1 1 1 1 1 1 0 1 1 1 0 0 0 1 1 1 0 1 1 0 1 
0 5 0 1 1 2 0 1 0 1 1 1 0 1 1 1 1 0 0 1 1 1 0 0 1 0 1 1 1 1 0 2 1 1 1 0 1 0 1 2 1 0 1 1 1 1 1 1 1 1 1 1 1 1 0 1 0 1 1 1 1 1 1 1 1 1 1 0 2 1 1 2 1 0 1 1 1 2 1 1 1 1 2 1 1 0 1 1 0 1 1 1 0 0 0 0 1 1 1 2 0 2 2 1 1 0 0 1 1 1 0 0 1 1 1 1 1 1 1 1 1 1 2 1 1 1 0 1 2 2 1 1 1 1 1 1 1 1 1 1 2 2 1 2 2 1 1 2 2 2 2 2 2 2 1 1 2 3 2 2 2 2 1 2 2 2 2 3 3 3 2 2 2 3 3 2 2 3 3 2 3 4 4 4 4 3 3 4 4 4 3 3 4 4 4 4 4 5 5 6 6 6 6 6 7 6 7 7 8 8 8 8 9 11 12 12 13 17 28 48 75 103 126 141 148 151 153 155 156 158 159 159 159 161 162 163 163 163 165 164 164 165 165 165 165 165 165 166 166 166 166 166 166 165 164 162 162 161 157 149 132 106 78 61 66 92 123 146 157 160 159 159 160 161 160 159 159 159 159 158 157 158 158 157 157 157 158 158 157 157 157 157 156 155 155 155 156 156 155 155 155 155 155 155 155 155 154 154 154 155 154 154 154 154 154 154 154 153 153 154 154 154 154 154 154 153 154 154 153 154 154 154 154 154 154 154 154 155 155 154 154 155 155 155 155 155 155 155 155 155 154 154 155 154 154 154 153 153 154 154 153 152 151 151 150 149 148 147 146 145 145 144 143 142 141 140 139 139 138 137 136 135 135 133 132 131 130 129 128 126 125 124 124 122 121 120 119 118 117 116 116 116 115 115 114 114 114 114 114 114 113 113 112 112 111 111 111 111 111 111 109 108 107 106 103 95 82 62 40 25 17 14 14 15 21 34 49 60 61 50 32 17 10 7 7 8 7 5 5 5 5 5 4 4 4 4 4 4 3 3 3 4 4 3 2 2 2 2 3 3 3 3 3 3 2 2 3 3 2 2 2 2 2 2 2 2 2 2 2 1 1 2 3 2 1 1 2 2 2 2 1 2 2 2 2 1 1 2 2 2 1 2 2 2 2 2 1 1 1 2 2 2 1 1 1 1 1 1 1 1 1 1 1 1 1 2 1 1 1 1 1 0 1 1 1 1 1 1 1 1 1 1 1 1 1 1 1 1 0 1 1 0 0 0 1 1 0 1 2 1 1 2 1 1 1 0 0 1 1 1 1 1 1 1 2 1 1 1 1 1 1 1 0 1 1 1 0 0 0 1 1 1 1 1 0 1 1 0 2 1 1 1 0 1 1 1 0 1 1 1 1 1 2 1 0 0 0 1 0 1 0 1 0 2 -1 1 1 3 -3 1 
2 -2 2 1 -1 0 1 1 0 1 1 1 0 0 1 1 1 1 0 2 2 1 1 0 1 1 1 1 1 1 0 2 1 1 1 0 1 1 1 1 0 0 1 1 1 1 1 1 0 1 2 2 1 0 0 1 1 1 0 0 1 1 0 1 1 2 1 1 2 1 1 2 1 0 1 1 1 1 0 1 0 1 2 1 1 0 0 1 0 1 1 1 1 1 0 0 1 1 1 1 0 1 2 1 1 0 1 2 1 1 1 1 1 1 1 1 0 0 0 1 2 2 2 1 1 1 1 1 1 1 2 2 1 1 2 1 0 1 1 2 1 1 1 1 2 1 1 2 2 2 1 1 1 1 2 2 2 2 2 2 2 2 2 2 2 2 2 2 2 3 2 2 2 2 2 2 3 2 2 3 3 4 4 4 4 4 5 5 4 4 4 4 3 4 5 5 5 5 5 5 5 5 5 6 7 6 6 7 8 8 8 9 11 12 12 13 16 24 42 68 97 122 138 147 151 152 153 156 158 159 159 160 161 161 162 163 163 164 165 165 164 165 166 165 165 165 165 166 166 166 166 166 166 165 164 164 163 162 160 156 145 124 96 72 65 82 110 136 153 160 161 159 160 160 160 159 159 159 160 160 158 158 158 158 158 158 158 158 158 157 157 158 157 157 157 156 156 155 154 155 155 155 155 155 155 155 155 155 155 155 154 154 154 154 154 154 154 153 154 154 153 153 154 154 153 153 153 153 154 154 153 154 154 154 154 154 155 154 154 155 155 154 155 155 155 156 155 155 155 154 154 154 155 154 154 153 153 154 154 154 152 151 151 151 151 149 148 148 147 146 146 145 144 143 142 141 141 140 139 138 138 137 136 135 134 134 133 132 131 130 129 128 127 126 125 123 121 120 120 119 119 118 116 115 115 114 115 115 114 114 114 114 113 113 113 112 112 112 112 111 111 110 109 108 106 102 93 77 54 33 21 16 14 13 16 25 38 53 61 58 44 27 14 8 7 7 7 7 5 4 6 6 4 4 4 5 4 4 4 3 3 3 3 3 3 3 4 3 2 3 2 2 2 3 3 2 2 2 2 2 2 2 2 2 2 2 2 1 2 2 2 2 2 2 2 2 1 2 2 2 2 1 1 1 2 2 1 1 2 2 2 1 1 2 2 1 1 1 1 2 2 1 1 1 1 1 1 1 2 1 1 1 1 0 0 1 1 2 1 0 2 1 1 1 1 1 1 1 1 1 1 1 1 1 1 1 1 2 1 2 2 0 1 1 1 1 0 0 1 0 1 1 1 1 1 0 1 0 0 1 1 1 1 0 1 1 1 1 1 1 1 1 1 1 1 1 1 1 0 0 0 0 1 1 0 1 1 1 2 1 2 1 0 1 1 2 0 1 1 1 1 1 1 1 1 1 1 0 0 1 1 1 1 0 1 1 -1 0 4 -1 
-1 2 0 0 1 1 0 1 0 2 2 2 1 0 0 1 0 0 0 2 2 1 0 0 1 1 1 1 1 1 0 1 0 0 1 1 0 0 0 1 1 0 0 1 2 1 1 1 0 1 2 2 1 1 1 2 1 0 1 1 1 0 1 2 1 2 2 1 1 2 1 1 0 1 1 0 1 2 1 1 0 1 1 1 1 1 1 1 0 1 1 2 1 0 0 -1 0 1 1 1 1 1 1 1 1 1 1 1 1 1 1 1 2 2 1 0 1 1 1 1 1 2 2 1 1 1 1 1 2 2 2 1 1 2 1 1 1 1 1 1 2 2 2 1 2 2 2 2 2 2 2 2 2 2 2 2 2 2 2 2 2 2 2 2 2 2 2 2 3 3 2 1 2 3 3 2 2 2 3 3 4 4 3 3 4 4 4 4 4 4 3 3 3 4 5 5 5 5 5 5 5 6 6 6 6 6 7 8 8 8 9 10 12 13 13 14 21 37 61 91 117 136 145 150 152 153 155 157 158 159 160 161 162 162 163 163 164 164 165 164 164 165 166 166 165 165 166 166 166 166 166 166 166 165 165 164 163 161 160 159 153 139 114 88 70 73 94 122 144 156 160 159 159 160 161 161 160 159 159 160 159 158 158 158 158 158 157 157 157 157 157 157 157 157 157 156 156 156 155 155 155 155 155 155 154 155 154 154 154 154 154 155 154 154 154 154 154 154 155 155 154 154 154 154 154 154 154 154 154 154 154 153 153 154 154 153 154 155 155 155 154 154 155 155 154 154 154 154 154 154 154 155 154 154 154 153 153 153 153 152 151 151 151 152 151 149 148 147 147 147 146 144 143 143 143 143 142 141 141 140 138 137 137 137 137 136 135 134 134 133 132 132 131 130 128 126 125 125 124 123 121 119 118 118 117 117 116 116 116 115 115 115 114 114 113 114 114 114 113 113 112 110 110 109 108 107 102 89 68 46 28 19 15 13 13 17 28 43 57 63 54 38 22 12 7 6 7 7 5 4 5 6 6 5 4 4 4 3 3 3 3 4 4 3 3 2 3 3 3 3 3 3 4 3 2 2 3 3 2 2 2 2 2 2 2 2 2 2 2 2 1 2 3 3 2 2 2 2 2 2 1 1 1 1 2 2 2 2 2 2 2 1 1 2 2 2 2 2 2 2 1 1 2 1 1 1 1 2 2 1 1 1 1 1 1 2 1 1 1 1 1 1 2 2 1 1 0 1 1 1 1 1 1 2 1 1 1 1 1 1 1 0 1 2 1 1 0 0 1 1 1 1 1 1 1 0 1 0 0 0 0 1 1 1 1 0 0 1 0 1 1 2 1 1 1 1 1 1 0 1 0 1 1 1 1 2 0 0 2 2 2 1 1 1 1 2 1 1 0 1 1 1 1 1 1 1 0 1 0 1 0 1 1 1 0 0 1 1 0 1 
-1 3 -1 1 0 1 0 1 0 1 1 1 1 0 1 1 0 0 0 1 1 1 1 0 1 1 1 1 0 1 0 1 1 1 0 1 0 1 1 1 1 1 1 1 1 0 1 1 0 1 2 2 1 0 0 1 1 1 2 0 1 1 1 2 1 2 2 1 1 1 1 2 1 1 1 1 2 1 0 1 0 1 2 1 0 0 1 1 1 1 1 2 2 1 1 0 1 1 1 1 1 1 1 1 1 1 1 2 1 1 0 1 2 2 1 2 1 1 0 1 2 1 1 1 1 0 1 0 1 2 1 1 1 1 1 2 2 1 1 2 1 1 1 1 2 2 2 2 2 2 2 2 2 2 2 3 2 2 2 2 2 1 2 2 2 3 3 3 2 2 2 2 3 2 2 2 2 3 3 3 3 3 4 4 4 3 4 4 3 3 3 3 3 4 5 5 5 4 5 6 5 6 7 6 6 6 6 8 9 9 10 11 12 13 14 19 32 55 83 111 132 144 149 152 153 154 156 158 159 159 161 162 163 163 163 164 164 164 164 165 165 166 167 167 166 166 166 166 166 166 167 167 166 165 165 165 164 162 161 160 157 149 131 105 81 71 81 104 130 149 159 160 159 159 159 160 160 159 159 159 160 159 158 158 159 159 158 157 157 157 157 158 157 157 157 156 155 156 156 155 155 155 155 155 155 155 155 155 155 155 154 155 154 154 154 154 154 155 154 154 154 154 154 154 154 154 154 154 154 154 154 154 153 154 154 154 154 155 154 154 154 154 155 154 154 154 153 154 155 154 154 155 154 154 153 153 153 154 153 152 151 151 151 151 150 149 149 148 148 147 147 146 145 145 145 144 143 142 142 140 139 138 138 139 139 138 136 135 135 135 135 134 133 132 131 130 130 129 128 127 125 123 122 121 120 119 118 117 117 116 116 116 116 116 115 114 113 113 113 113 113 112 112 110 109 109 107 99 84 61 38 24 17 14 12 14 20 33 48 59 60 48 31 17 9 7 7 8 7 6 5 5 5 4 4 5 5 4 4 4 4 4 3 3 3 3 3 3 3 3 3 3 3 3 2 2 3 3 2 2 2 2 2 2 2 2 2 2 2 2 2 2 2 3 3 2 2 2 2 2 2 1 1 2 2 2 2 2 1 1 1 1 1 2 1 2 2 1 2 2 1 0 1 2 2 1 1 2 2 1 1 1 1 1 1 2 1 1 1 1 1 1 1 1 1 1 0 1 2 1 1 1 1 1 1 1 1 1 1 1 2 1 1 2 1 1 1 0 1 1 2 2 1 1 1 0 1 0 1 1 0 2 1 1 1 0 1 1 0 1 1 1 2 1 0 1 1 1 0 1 0 0 0 0 1 1 0 0 1 1 2 1 0 0 0 2 1 1 1 1 1 1 1 1 1 1 1 1 0 1 1 1 1 1 1 1 0 3 -2 2 
3 -3 2 0 0 1 1 0 1 1 1 0 2 0 0 0 0 1 1 1 1 1 0 0 1 1 1 0 0 1 1 1 1 1 0 1 1 1 1 0 1 1 1 1 1 0 1 1 0 1 1 1 1 1 1 1 0 0 2 0 1 1 0 2 1 1 1 1 1 1 1 2 0 1 1 1 2 1 1 1 0 1 1 1 1 1 2 2 1 0 0 1 1 0 2 1 0 1 1 1 2 1 1 1 1 1 1 1 1 1 1 1 2 1 0 1 1 1 1 1 2 2 1 0 0 1 1 0 1 2 2 1 1 1 1 2 2 1 1 1 2 2 2 1 2 2 2 1 2 2 2 2 2 2 2 2 2 2 2 2 2 2 2 2 2 2 3 2 3 3 3 2 3 2 2 3 3 3 3 3 3 3 3 3 4 4 4 3 3 3 3 4 4 5 4 4 5 5 5 6 6 6 6 6 7 7 7 8 8 9 10 12 13 14 17 27 48 76 105 128 141 148 151 153 155 157 159 159 159 159 161 163 163 163 164 165 165 164 164 165 165 165 166 167 166 166 166 166 166 166 166 167 167 166 165 165 165 163 161 160 159 156 144 123 97 76 72 87 113 138 154 160 160 159 159 160 161 160 159 159 160 160 159 158 158 158 158 157 158 158 157 157 157 156 156 156 157 157 156 156 156 156 156 155 155 155 156 156 156 156 155 155 155 155 154 154 154 155 155 155 155 155 155 154 154 154 154 155 154 153 154 154 154 153 154 153 154 154 154 155 155 154 154 154 154 154 154 154 154 155 155 154 153 153 153 153 154 154 153 152 152 152 152 151 150 150 149 149 149 148 147 146 145 146 146 145 144 143 143 142 140 140 140 140 139 139 138 137 137 137 136 135 135 135 134 133 133 133 131 130 129 127 126 125 124 122 122 121 120 119 118 117 118 117 116 115 115 115 115 114 114 113 112 112 112 110 109 105 95 76 53 33 21 15 13 13 16 24 37 52 61 57 44 27 14 8 7 7 7 6 5 5 6 5 5 5 5 4 4 4 4 4 4 4 4 3 2 3 3 3 3 3 3 2 2 3 3 2 2 2 2 2 2 1 2 3 2 2 2 2 2 2 2 2 3 2 1 1 2 2 2 2 2 2 2 1 2 2 1 1 2 2 1 1 2 2 2 1 1 1 1 1 2 2 1 1 2 2 1 1 1 1 1 1 1 1 1 1 1 1 1 1 1 1 1 1 0 1 1 1 1 1 1 2 1 0 0 1 1 1 2 0 0 2 1 1 1 0 1 1 1 2 0 1 1 1 2 0 1 1 1 2 1 1 1 0 0 1 1 1 2 0 1 0 0 1 1 0 1 1 0 1 1 0 1 0 1 1 1 1 2 1 0 0 1 1 1 1 0 0 1 1 1 1 1 0 0 1 0 0 1 0 2 0 1 0 0 -2 4 -1 
0 2 -1 2 0 1 0 1 1 1 1 0 1 0 0 0 1 0 1 1 1 1 1 0 1 1 1 1 1 0 2 1 1 1 0 2 0 0 1 0 1 2 1 0 1 0 1 1 0 1 0 2 2 1 0 1 1 0 1 0 1 1 1 2 1 1 1 1 1 0 1 2 0 1 1 1 2 1 0 1 0 1 1 0 0 1 1 1 1 1 0 0 1 1 2 1 1 2 1 1 1 1 1 1 0 1 1 1 2 1 1 1 1 1 1 2 1 1 1 1 1 1 1 2 1 1 1 1 1 1 1 1 1 1 1 1 1 2 2 1 1 1 2 2 2 2 2 1 1 2 2 2 2 2 2 2 2 2 3 3 2 2 3 3 2 2 2 2 3 3 3 3 3 2 3 3 4 3 3 3 3 3 3 4 4 3 3 3 4 4 4 4 4 5 5 5 5 5 5 6 6 6 6 7 7 8 8 8 8 9 11 12 13 16 23 40 67 97 123 139 147 150 152 154 156 158 159 160 161 161 162 163 164 164 164 165 165 165 165 165 166 166 166 166 166 166 166 166 166 166 166 167 167 166 165 165 165 165 163 161 161 160 154 139 115 89 73 77 97 125 148 159 161 161 160 160 160 160 159 159 159 160 160 159 158 158 158 158 158 158 158 157 157 157 156 156 157 157 157 156 156 157 156 156 155 156 156 156 156 156 155 155 155 154 154 155 155 155 154 154 154 154 155 155 154 153 154 155 154 154 154 154 154 154 154 154 154 154 154 154 154 154 154 154 154 154 154 154 154 154 154 153 152 153 153 154 154 153 152 152 152 152 151 150 150 150 150 149 149 148 147 147 147 147 146 145 144 144 144 143 142 141 141 141 140 139 138 138 138 137 137 136 135 135 136 135 135 134 134 133 132 131 130 128 127 126 125 124 123 121 120 119 119 119 118 117 115 115 116 116 116 115 115 114 113 112 111 110 103 89 68 45 28 18 14 12 13 18 28 42 57 62 55 38 21 11 8 8 8 6 5 5 6 5 4 4 4 5 5 4 4 3 4 4 3 3 3 3 3 3 3 3 3 3 2 2 3 3 3 3 2 2 2 2 2 2 2 2 2 2 2 1 2 3 3 1 1 2 2 2 2 2 2 2 2 2 2 2 2 1 2 2 2 2 1 2 2 1 1 1 1 1 1 1 1 1 1 1 1 1 1 1 1 0 0 0 1 1 2 2 1 1 2 1 1 1 0 1 1 1 1 1 1 2 1 0 0 0 1 1 2 1 0 1 0 1 1 0 1 1 1 2 1 1 0 0 1 0 1 2 1 2 1 1 2 1 0 0 1 1 1 1 1 1 0 1 1 0 1 1 0 1 0 -1 1 1 1 1 1 1 0 1 0 0 0 1 1 1 1 1 1 0 1 1 1 0 1 1 0 0 1 1 2 1 1 1 0 2 -1 2 
0 3 -1 1 0 2 0 1 1 2 1 0 1 0 0 0 0 1 1 1 0 1 1 1 1 1 1 1 1 0 1 1 1 2 0 1 0 0 1 0 1 1 1 1 1 0 1 1 1 1 0 1 1 1 1 1 0 0 2 1 1 2 1 2 1 1 1 0 0 0 1 1 0 1 1 1 2 1 0 1 0 1 1 2 0 0 1 1 1 0 0 1 1 1 1 1 1 1 0 1 2 1 1 1 1 1 1 1 2 2 2 2 2 1 1 1 1 1 1 1 1 1 1 2 2 2 2 1 1 1 1 2 1 1 2 1 1 1 1 1 2 2 1 2 2 2 1 1 2 2 1 1 2 3 2 2 2 2 2 2 3 3 3 3 2 2 2 2 3 3 3 2 2 2 3 3 3 4 3 3 3 3 3 3 3 3 3 4 5 4 5 5 5 4 4 5 5 5 6 6 6 6 6 7 8 9 8 8 9 11 11 12 15 21 36 59 89 117 136 145 149 152 153 156 158 159 160 160 161 162 163 164 164 164 164 165 165 165 166 166 166 166 166 166 166 166 167 167 167 166 166 167 167 166 165 165 165 166 165 163 161 161 159 150 131 106 83 74 85 109 135 152 160 161 161 161 161 161 160 159 159 160 160 160 158 157 157 158 159 159 158 158 158 157 157 157 157 157 157 157 157 157 156 156 155 156 156 155 155 155 155 156 156 155 155 155 155 154 154 154 154 155 155 154 154 154 154 155 155 154 154 154 154 154 153 153 154 154 153 153 154 154 153 153 153 153 153 154 154 154 153 153 153 153 153 153 153 152 152 152 152 152 151 150 150 150 150 149 148 148 148 147 147 146 146 145 144 144 144 143 143 143 142 142 141 140 139 139 140 139 137 136 136 137 137 137 136 135 134 134 133 133 132 131 131 130 129 128 127 125 123 122 122 121 120 118 117 118 119 117 116 116 116 115 114 113 112 111 108 100 84 60 38 22 15 13 12 15 21 34 50 64 64 50 31 16 9 7 7 7 6 5 5 5 5 4 4 4 4 5 5 4 4 3 3 3 3 3 3 3 3 3 3 3 3 3 3 2 2 2 2 2 2 2 2 2 2 2 2 2 2 1 2 2 2 1 2 2 1 1 1 2 2 2 2 2 2 2 2 2 1 2 2 1 1 2 2 1 2 2 1 2 2 1 1 1 1 2 1 1 1 1 1 1 1 1 2 1 1 2 1 2 2 1 1 1 1 1 2 1 1 1 1 2 1 1 1 0 1 1 1 0 0 1 0 1 2 0 1 1 1 2 0 1 1 1 2 1 1 1 1 2 0 0 1 1 1 0 0 0 2 1 1 2 1 1 1 0 0 1 0 1 0 0 1 1 1 0 1 1 0 1 0 1 1 1 0 1 1 1 0 1 1 1 1 0 0 1 0 1 1 1 2 1 0 1 1 2 -2 2 
2 -2 3 1 1 -1 1 2 1 2 1 0 1 0 0 1 0 1 1 1 1 1 0 1 1 1 0 0 0 0 1 1 1 2 0 1 1 1 1 0 1 1 1 1 1 1 2 0 1 1 0 1 1 1 1 1 0 0 1 1 1 1 1 2 1 1 1 1 1 0 1 1 0 1 0 1 2 1 0 1 0 1 1 1 0 0 0 1 1 1 1 1 1 0 1 2 1 1 1 1 1 1 1 2 1 1 1 1 2 2 1 1 1 1 2 2 2 2 2 1 2 1 1 2 2 2 2 1 1 0 0 2 2 2 2 1 1 2 2 2 2 2 1 2 2 2 1 2 2 2 2 2 2 2 2 2 2 1 2 3 3 3 3 3 2 2 2 2 2 2 3 3 3 3 4 3 3 3 2 3 3 2 2 3 3 2 3 4 5 5 4 4 4 4 5 5 5 5 6 6 6 6 7 8 8 7 8 9 11 11 12 13 18 29 52 81 110 131 144 149 151 153 155 157 158 159 160 161 162 163 163 163 164 164 164 164 165 166 166 166 166 166 166 166 166 166 167 167 167 167 167 167 167 166 166 165 165 166 166 165 163 162 161 157 144 124 100 81 79 94 119 142 155 161 162 161 160 160 161 161 160 159 160 161 160 159 158 158 158 159 158 158 158 158 157 157 157 157 157 157 156 156 157 157 156 156 156 156 155 155 155 155 156 155 155 155 155 155 155 154 154 154 154 154 153 153 154 155 155 154 154 154 153 153 154 154 154 154 154 154 154 154 153 153 153 153 153 153 153 153 153 152 153 153 153 153 152 151 151 152 152 151 150 150 150 150 150 149 149 148 148 148 147 146 146 145 145 144 143 144 144 144 143 142 141 141 141 140 140 139 138 137 137 138 138 137 136 136 135 135 135 135 134 133 132 132 132 131 130 129 128 126 125 124 123 122 121 120 120 119 118 117 116 115 115 114 114 113 111 106 95 75 50 29 18 14 13 13 16 26 42 60 68 61 42 24 13 8 7 7 7 6 6 5 4 4 5 4 4 4 4 4 4 3 3 4 3 3 3 3 2 3 3 3 3 3 3 2 2 2 3 3 2 3 2 2 2 2 3 2 2 1 2 2 2 2 2 2 2 2 2 2 1 1 2 2 2 2 2 2 2 2 1 1 1 1 1 1 1 2 2 2 1 1 1 2 1 1 1 1 2 2 1 1 1 1 2 1 1 1 1 1 1 1 1 2 2 2 1 2 1 1 1 1 1 1 1 0 0 0 1 1 0 2 1 1 1 0 1 1 1 2 0 1 1 1 1 0 1 1 1 1 0 1 1 0 0 0 1 0 1 1 1 2 1 1 1 0 0 1 0 1 1 0 1 0 1 0 1 1 0 1 1 1 0 0 0 0 1 1 1 0 0 0 1 1 1 1 0 1 1 1 1 0 2 1 1 0 3 -1 
0 3 0 1 2 0 0 1 1 2 1 0 1 1 1 1 0 1 1 1 0 1 1 1 1 0 0 0 1 0 1 0 0 1 0 1 1 0 0 1 1 1 1 1 0 0 1 0 1 1 0 2 1 1 1 1 1 1 1 2 1 1 1 1 1 1 1 1 1 0 1 1 0 1 0 0 2 1 1 1 0 0 1 1 1 0 0 0 1 1 1 0 1 0 1 2 1 1 1 1 2 2 1 2 1 1 1 1 1 1 1 1 1 1 1 1 2 2 2 2 2 2 1 2 1 2 2 1 1 1 1 1 1 1 1 1 1 1 1 2 2 2 1 1 2 2 2 2 2 2 2 2 1 2 2 1 1 2 2 2 2 3 3 2 2 3 3 3 3 2 2 2 3 3 3 3 3 3 3 3 3 3 3 3 2 2 3 4 4 4 4 3 4 5 5 5 5 5 6 7 6 6 7 8 8 7 8 11 11 11 13 16 25 44 71 102 126 141 149 151 152 154 157 159 159 160 161 162 162 163 163 163 164 165 164 165 166 166 166 165 166 166 166 166 166 167 167 167 167 167 167 167 167 166 167 166 166 166 166 166 164 162 161 160 154 140 119 96 83 85 103 127 147 159 163 162 160 160 161 161 161 159 158 159 160 160 158 158 159 160 160 159 159 158 157 157 157 157 157 157 157 157 157 157 156 156 156 155 155 155 155 156 156 156 155 156 155 154 155 155 154 154 154 155 154 153 153 154 154 154 154 154 153 153 153 154 154 154 154 153 153 153 154 154 153 153 153 153 153 153 152 152 153 153 153 152 152 152 152 152 152 151 150 150 150 151 150 150 149 148 148 148 148 147 146 146 146 144 144 144 145 144 143 143 142 142 142 141 140 140 139 139 139 139 139 138 137 137 137 136 136 135 135 135 134 133 133 133 132 132 131 129 128 127 125 124 124 123 122 121 120 119 118 118 117 116 115 115 113 110 103 87 64 38 22 15 14 13 14 20 34 54 69 69 53 33 18 10 7 7 7 6 5 5 5 4 4 5 4 4 4 4 4 3 3 4 4 3 3 3 3 3 3 3 3 2 2 2 2 2 2 3 3 3 2 2 2 2 3 3 2 2 3 2 1 2 2 2 2 2 2 2 1 1 2 2 1 1 2 1 2 2 1 2 1 1 2 2 2 2 2 2 2 2 1 1 1 1 1 1 1 2 1 1 1 1 2 1 1 1 1 2 1 0 1 2 2 2 1 1 1 1 1 1 1 1 1 1 0 0 1 1 1 1 0 1 1 0 1 1 1 2 0 0 1 1 1 1 1 1 1 0 0 0 1 1 1 0 1 1 1 1 0 1 0 1 1 1 1 1 0 1 1 1 1 1 1 0 1 1 0 1 1 2 1 1 0 0 1 1 2 1 0 0 0 1 1 1 0 1 1 1 1 1 1 1 1 2 -1 2 
1 0 2 0 1 0 2 1 1 1 0 0 1 1 1 1 0 1 1 1 1 1 1 1 1 1 1 0 0 1 1 0 1 1 1 1 0 1 1 1 1 1 1 1 1 0 0 0 1 1 0 1 0 1 2 1 0 1 0 2 1 1 1 1 0 1 1 1 2 0 1 0 0 1 1 0 2 2 1 0 0 1 1 1 0 0 0 1 2 1 0 1 1 0 0 1 1 1 1 1 1 2 1 1 1 1 1 1 1 1 1 1 1 1 2 1 1 1 2 1 1 1 2 1 1 1 2 2 2 2 1 1 1 2 2 2 1 1 1 2 2 1 1 2 1 1 2 3 2 1 1 2 2 2 2 2 2 2 2 2 2 2 2 3 3 3 2 2 3 3 3 3 2 2 3 2 3 3 4 4 3 2 3 4 4 3 4 4 4 4 3 4 5 5 5 6 5 6 6 6 6 7 8 8 8 8 9 11 11 12 14 21 36 62 92 119 137 147 150 152 154 157 158 159 159 160 161 162 163 163 163 163 164 165 165 166 166 165 165 166 166 167 166 166 166 167 167 167 167 166 167 167 167 167 167 167 166 165 166 166 165 163 162 161 158 151 137 117 97 87 93 112 136 152 160 162 162 161 161 162 161 161 160 160 160 161 160 159 158 158 159 159 159 158 158 158 157 157 157 157 156 156 157 157 156 156 156 156 156 155 155 155 155 155 155 155 155 155 155 155 154 155 155 155 155 154 154 154 155 154 154 154 153 153 154 154 154 154 154 153 153 153 153 153 154 153 153 152 152 152 153 153 154 153 153 152 152 152 152 152 152 151 150 150 151 151 151 150 149 149 149 149 148 147 147 147 146 145 145 145 145 144 143 143 143 143 142 140 140 139 140 140 140 140 139 138 137 137 137 137 136 136 136 136 135 134 133 134 134 133 133 132 131 129 129 128 127 125 124 124 123 121 120 119 118 117 117 116 115 113 108 97 76 49 28 17 14 14 13 16 27 46 66 73 63 43 24 12 7 7 7 7 6 5 5 5 5 4 4 5 5 5 4 3 3 4 4 3 3 3 3 3 3 3 3 3 3 3 3 2 2 3 3 2 2 2 2 2 2 2 2 2 3 2 2 2 2 2 2 2 2 1 1 1 2 3 2 1 1 2 2 1 1 2 1 1 1 2 2 2 2 2 1 2 1 2 1 1 1 1 0 1 1 2 1 2 2 1 1 1 1 1 1 1 1 1 2 2 2 1 1 1 0 1 1 1 1 1 0 1 2 1 1 1 0 1 1 1 2 1 1 1 -1 0 1 0 0 1 1 1 1 0 1 0 1 1 1 2 2 1 1 1 0 1 0 1 1 0 1 1 1 1 0 0 1 0 1 1 1 2 1 0 0 2 1 1 0 0 1 1 1 1 1 0 0 1 0 1 0 1 1 0 1 1 1 1 1 -1 2 1 
1 0 2 0 0 -1 2 0 1 0 0 0 2 0 1 0 1 1 1 0 0 1 1 2 1 0 1 1 0 1 1 0 0 0 0 1 0 1 1 1 1 1 1 1 1 1 1 1 1 1 1 0 1 1 1 1 1 1 0 2 1 0 1 1 1 1 0 1 1 0 1 1 1 1 1 1 2 1 1 1 1 1 1 1 1 1 1 1 2 2 1 1 1 0 1 1 1 1 1 2 2 1 1 1 2 1 1 0 1 1 1 1 1 1 2 1 2 2 1 1 1 2 2 2 1 1 2 2 2 1 2 1 1 1 1 1 1 1 1 2 2 2 2 2 1 2 2 2 2 2 3 2 2 2 2 2 2 2 3 2 1 2 3 2 2 2 2 2 3 3 3 2 3 3 3 2 3 3 3 3 3 3 4 4 4 5 5 4 4 4 4 5 5 6 6 5 5 6 7 6 6 8 9 9 9 9 10 11 12 13 18 30 53 83 111 132 145 150 152 153 155 157 159 159 159 160 162 162 163 164 163 164 164 165 165 165 166 166 166 166 166 167 167 167 167 167 167 167 167 166 166 167 167 167 167 167 166 165 164 165 166 164 162 161 160 158 150 134 115 97 92 101 122 142 156 161 162 162 161 161 161 161 160 160 160 161 161 160 159 158 158 159 159 158 158 158 157 157 158 158 158 157 157 157 156 156 156 156 156 156 156 155 155 155 156 156 155 154 155 155 155 154 154 155 155 155 155 155 154 154 154 154 153 153 154 155 154 153 154 153 153 153 153 153 154 154 153 153 152 152 153 153 153 152 152 152 153 152 152 152 152 151 151 151 151 150 151 150 149 149 149 149 148 147 146 146 147 146 146 146 145 144 144 143 143 143 143 142 141 141 142 142 141 140 140 139 139 139 138 137 137 137 137 136 136 136 135 135 135 134 134 134 133 132 131 130 130 129 128 127 126 125 123 122 121 120 119 117 116 115 112 104 87 61 36 21 14 13 13 14 22 39 60 74 71 53 32 16 8 6 8 8 6 6 6 5 5 5 5 5 4 4 4 3 3 3 4 3 3 3 3 3 3 3 3 3 3 3 3 3 3 3 2 2 2 1 2 2 2 2 2 3 2 2 2 2 2 2 2 2 2 2 2 2 2 2 1 1 1 1 1 1 1 1 1 1 1 2 2 1 1 1 2 1 1 1 2 1 1 1 1 2 1 2 1 1 1 1 1 2 2 1 1 1 1 1 1 1 1 1 2 1 1 2 1 0 0 1 1 1 1 1 1 1 1 2 2 1 2 2 1 1 0 0 1 1 0 1 1 1 2 1 1 0 1 1 1 1 1 1 2 1 1 0 0 1 1 1 1 1 0 2 1 0 1 0 1 1 1 1 1 0 1 2 0 0 0 0 1 1 1 0 1 0 1 1 1 1 2 1 1 0 2 1 1 0 1 0 3 0 
1 1 0 -1 2 0 1 1 2 0 1 0 1 0 1 0 1 1 1 0 1 1 0 1 1 0 1 0 0 1 1 0 1 0 0 1 1 1 1 0 1 0 1 1 2 1 1 1 0 1 1 0 1 0 1 1 1 1 0 1 1 1 2 1 1 2 1 1 1 1 1 0 0 1 1 0 1 1 1 1 0 0 1 1 1 0 0 1 2 1 0 1 1 1 1 0 1 1 1 1 1 1 1 1 2 2 1 0 1 1 1 1 1 1 1 1 2 2 2 2 1 1 1 1 1 1 2 2 2 1 1 1 1 1 1 1 1 2 1 1 1 1 2 2 2 2 1 2 1 1 2 2 2 2 2 2 2 2 3 2 1 1 2 2 3 2 2 2 3 4 4 3 3 3 3 3 3 3 3 3 2 2 3 4 5 5 5 4 4 4 5 5 5 5 5 5 5 7 7 6 7 9 9 8 8 9 11 12 12 15 24 43 71 101 126 142 149 151 153 155 156 158 160 160 160 161 162 162 163 164 164 164 164 165 166 166 166 166 166 166 166 166 166 167 167 167 167 168 167 166 166 167 168 167 167 167 167 166 165 165 166 166 164 162 162 161 158 149 133 114 99 97 109 128 146 157 162 163 162 161 162 162 162 161 161 161 161 161 161 160 159 158 159 159 160 159 157 157 158 158 158 157 157 157 156 155 156 156 156 156 157 156 156 155 155 155 155 155 155 155 155 155 155 155 155 154 154 155 154 154 154 154 154 154 154 154 154 154 154 154 154 154 154 154 154 154 153 152 153 153 153 153 152 152 152 153 153 153 152 152 152 152 151 151 151 151 150 149 149 149 150 149 148 147 147 147 147 147 148 147 146 145 144 144 144 144 143 141 141 142 143 142 141 140 140 140 140 139 139 138 138 138 137 137 137 137 136 136 136 135 134 135 135 134 133 132 132 131 130 129 129 128 126 124 124 122 121 119 118 118 116 110 97 73 46 26 16 14 14 13 18 33 55 72 76 63 40 21 11 7 7 8 6 6 5 5 6 6 5 4 4 4 4 4 4 3 3 4 3 3 3 3 4 3 3 3 3 3 2 2 3 3 1 2 3 2 2 2 2 3 2 2 2 3 2 2 2 2 2 2 2 3 2 2 2 2 2 1 1 2 2 2 2 2 1 1 1 1 2 1 2 1 1 1 2 2 1 1 2 2 1 1 1 2 2 1 1 1 1 1 1 1 1 1 0 1 1 1 1 0 1 1 1 1 0 1 0 0 1 1 1 0 1 1 1 2 2 1 2 1 1 1 0 0 2 1 1 1 1 1 1 0 1 1 1 1 1 1 0 1 2 0 1 0 0 1 1 0 1 1 1 1 1 0 1 0 1 1 2 1 1 0 1 0 0 1 1 -1 1 1 1 0 1 0 1 1 1 0 1 1 1 0 1 1 1 -1 1 -1 2 1 
1 1 1 1 0 0 2 2 0 1 2 1 1 1 0 0 1 1 1 0 0 1 1 1 0 0 2 2 1 1 1 1 1 0 0 1 0 1 1 0 1 1 1 1 2 1 1 1 -1 1 1 0 1 0 1 1 1 1 0 1 1 1 1 1 2 2 0 1 1 1 1 1 1 2 1 0 1 1 0 1 1 2 1 1 2 1 1 1 1 1 1 1 0 0 0 0 0 0 1 2 1 1 1 2 2 1 1 0 1 2 2 1 1 1 1 1 1 2 2 2 0 1 1 1 1 1 1 1 2 2 2 1 2 2 1 2 1 1 2 2 2 2 2 2 1 1 2 2 2 2 2 2 2 2 2 1 2 2 2 2 2 2 2 2 3 3 3 4 3 3 3 3 3 3 3 3 3 4 3 3 2 3 4 4 4 4 4 4 5 5 4 5 5 4 5 5 6 7 6 6 8 8 8 9 9 10 12 12 14 21 35 60 91 119 138 147 151 153 155 156 158 159 160 161 161 162 162 162 163 164 165 165 164 165 165 165 166 167 167 166 166 166 166 167 167 168 168 167 167 167 167 167 167 167 166 166 166 166 165 165 166 166 165 163 162 162 162 157 147 132 115 103 103 116 134 149 158 162 162 162 161 161 161 161 161 161 161 161 161 161 160 159 159 160 160 160 159 158 158 159 159 158 158 157 156 156 157 157 156 156 157 156 156 155 155 155 155 155 155 155 155 154 155 155 155 154 154 154 154 154 154 154 155 155 154 154 154 154 154 154 153 153 154 154 153 153 153 152 153 153 152 152 152 151 152 152 152 152 152 151 151 152 152 151 151 151 151 150 149 149 149 149 148 148 147 146 147 148 148 146 145 145 145 145 145 144 143 143 143 143 143 142 141 141 141 141 141 140 139 139 139 138 138 137 137 137 137 136 136 136 136 135 135 135 134 133 133 133 132 131 130 129 128 127 126 125 123 121 120 119 119 115 105 84 56 33 20 15 14 14 17 29 50 70 79 72 51 29 15 8 7 8 7 6 6 5 5 5 4 4 4 4 4 3 3 3 4 4 3 3 3 3 3 3 3 2 2 3 3 2 2 3 3 3 2 2 3 3 2 2 2 2 2 2 2 2 2 1 1 2 2 2 2 2 1 1 1 1 1 1 1 2 2 2 1 1 1 2 1 0 1 2 2 1 1 1 2 2 1 1 1 2 2 1 1 1 1 1 1 2 2 0 1 2 1 1 0 0 1 1 1 1 1 1 1 1 0 1 1 1 1 1 1 2 2 2 2 1 1 1 1 0 1 0 1 1 2 2 1 1 2 1 1 1 1 1 0 1 0 0 2 0 1 0 0 1 1 1 1 1 0 2 2 0 1 1 1 2 0 1 1 0 1 1 0 0 1 1 2 1 0 1 1 1 0 1 1 1 1 1 1 1 -1 2 1 0 0 0 1 1 
0 2 -1 0 1 1 0 1 2 1 0 1 1 1 0 1 1 0 1 0 0 1 0 1 1 1 1 0 1 2 0 1 1 0 0 1 0 1 1 0 1 0 1 1 1 1 1 2 -1 1 0 0 1 0 0 1 0 0 0 0 0 0 1 1 1 0 1 2 1 1 0 0 0 1 1 1 1 1 1 1 0 1 2 1 1 0 0 1 0 1 0 1 1 1 1 0 1 1 1 1 1 1 1 1 1 1 1 1 1 1 2 1 1 1 1 1 1 2 1 1 1 2 2 2 2 2 2 2 2 2 1 1 2 2 1 1 1 2 2 2 1 1 2 2 2 2 2 2 2 2 2 2 2 1 1 2 2 2 2 2 1 2 3 3 2 2 3 4 4 4 3 3 3 2 3 3 3 4 4 4 3 3 3 4 4 4 4 4 5 5 4 5 5 5 5 4 5 6 5 6 8 8 8 9 9 11 12 13 18 29 49 79 109 132 144 150 151 153 156 157 158 159 159 161 162 163 162 163 163 164 164 165 164 165 166 166 166 166 166 166 167 167 166 167 168 168 168 167 167 167 168 168 168 167 167 167 167 167 166 166 166 166 166 165 164 163 163 162 156 146 132 116 107 108 120 137 152 159 162 162 162 162 162 161 161 161 161 161 161 161 161 161 159 159 159 159 159 158 158 158 158 158 158 157 156 156 157 157 156 156 157 156 156 155 155 155 155 155 155 155 155 155 156 156 155 155 154 154 154 155 155 155 155 155 155 154 154 154 154 154 154 154 154 154 154 153 153 153 154 153 152 152 152 152 153 153 152 152 152 151 151 151 151 152 151 150 150 150 149 150 150 149 148 148 148 147 147 148 148 147 146 146 146 146 145 144 143 142 143 144 144 142 141 141 141 141 141 140 140 141 140 140 139 138 138 139 139 137 137 136 135 135 135 135 135 134 134 133 132 132 131 131 130 128 128 127 126 125 122 121 120 117 110 94 68 42 24 16 14 16 19 30 49 69 82 79 61 38 20 10 7 8 8 6 5 5 6 6 5 4 4 4 4 4 4 4 3 4 4 4 3 3 3 4 3 3 3 3 2 3 3 3 2 3 3 3 2 2 2 2 3 3 2 2 2 2 2 2 2 2 2 2 2 1 2 1 1 1 1 2 2 2 1 2 2 2 1 1 2 2 3 2 1 0 1 2 1 1 0 2 1 2 1 1 1 1 1 1 2 2 1 1 1 1 0 1 1 1 1 1 1 1 1 1 1 1 0 1 1 1 1 0 1 1 0 1 2 1 0 1 1 0 1 0 1 1 1 1 1 2 1 1 1 1 1 0 0 1 0 0 1 1 2 0 0 1 1 1 0 1 0 1 0 0 1 0 0 2 1 1 1 1 0 0 0 1 1 1 1 1 1 1 -1 0 1 1 0 0 1 1 0 1 1 1 0 0 1 0 -1 2 
2 -2 2 1 0 1 1 1 1 1 1 1 0 0 1 0 0 0 1 0 0 0 0 1 1 1 1 2 2 1 1 1 0 -1 1 1 0 1 1 0 1 1 1 1 1 1 0 1 0 1 0 1 2 1 0 1 0 1 1 0 1 1 1 0 1 1 2 2 1 1 1 0 1 1 1 1 1 1 1 2 1 1 1 0 2 1 0 1 1 1 1 0 0 1 1 0 0 1 1 2 1 1 1 0 1 1 2 1 1 1 2 1 0 1 1 2 1 1 1 1 1 1 2 2 2 1 1 1 1 2 2 1 1 1 1 2 2 2 2 2 2 2 1 2 2 2 2 2 3 2 2 2 2 2 2 2 2 2 2 2 2 2 3 3 2 3 4 4 3 3 1 1 2 2 3 3 3 3 3 4 5 4 4 4 3 4 4 5 5 5 5 5 5 5 6 6 6 6 7 8 7 7 9 10 11 12 13 15 23 40 67 98 124 141 149 151 152 155 158 159 159 159 160 162 162 162 162 163 164 164 165 166 166 166 166 166 167 167 166 167 167 167 167 167 167 167 167 167 167 167 167 168 167 167 167 167 166 166 166 166 166 166 165 165 164 164 163 162 161 156 145 131 117 109 111 124 140 153 159 162 163 163 162 162 162 161 160 160 161 160 160 160 160 159 159 159 159 159 159 158 157 158 158 158 157 157 157 157 156 156 156 156 155 156 156 156 155 155 155 154 154 155 155 155 155 155 154 154 154 154 154 154 154 154 154 153 153 154 154 153 153 154 153 153 153 153 152 152 153 152 151 151 152 152 153 153 152 152 151 151 151 152 152 152 151 151 151 151 150 150 149 149 148 148 148 147 148 148 148 146 145 146 147 146 145 144 144 144 144 144 144 143 142 142 142 141 141 141 141 140 140 140 140 139 139 139 139 138 138 136 136 137 137 136 135 134 134 134 134 133 132 132 131 130 129 129 128 126 123 122 121 120 115 102 80 51 30 19 15 17 22 34 53 72 86 87 72 49 27 13 8 7 8 8 6 6 6 6 5 4 4 5 5 4 4 4 4 4 3 3 3 3 4 3 2 2 3 4 3 2 2 3 3 2 2 3 2 2 2 2 2 2 2 2 1 2 2 2 2 2 2 2 2 1 1 1 1 2 1 2 2 2 2 2 1 1 1 2 2 2 2 2 2 1 1 1 1 1 1 2 1 1 1 2 2 2 1 1 1 2 2 1 2 2 1 1 1 1 1 1 0 0 1 1 1 2 1 2 1 1 2 1 0 1 1 1 0 0 0 1 1 1 1 0 0 1 1 1 2 1 1 2 1 0 1 0 0 1 1 1 2 1 2 1 1 1 1 1 0 1 -1 1 2 0 0 1 1 1 1 1 1 1 1 1 1 1 1 0 2 1 0 1 1 1 0 0 1 0 0 1 1 1 0 1 1 0 0 -1 5 -1 
0 2 -1 1 0 1 1 1 1 1 1 1 0 0 0 1 1 0 0 1 1 0 0 1 1 2 1 0 0 1 0 0 1 1 1 1 1 2 0 0 1 0 1 1 0 1 1 1 0 1 0 1 1 0 0 1 1 0 1 1 1 1 1 1 1 0 1 2 2 1 0 1 1 1 1 1 1 2 1 1 1 1 2 0 1 1 0 1 1 1 1 1 1 1 1 1 1 0 0 2 1 1 1 1 1 0 1 1 2 1 1 1 2 1 1 1 1 2 1 1 1 2 2 2 1 1 1 2 2 1 0 0 1 2 1 1 2 2 2 1 1 1 1 1 2 3 3 2 2 2 2 2 1 1 2 2 2 2 2 2 2 3 3 3 2 2 2 3 4 3 3 3 3 3 3 3 3 3 4 4 4 3 4 4 4 4 4 5 4 4 5 5 6 6 5 6 6 6 7 8 8 8 9 10 12 13 13 19 33 56 86 115 135 147 151 152 154 156 158 159 159 159 161 162 163 163 163 164 164 165 165 166 165 166 166 167 167 166 166 167 167 167 166 167 167 168 168 167 166 167 168 168 167 167 168 167 166 166 167 167 166 166 165 166 166 165 163 163 163 161 155 146 131 117 110 114 127 142 155 161 163 164 163 163 162 162 161 161 161 161 160 160 160 160 159 158 159 159 159 158 158 158 158 158 158 158 157 157 157 156 156 156 155 156 156 156 156 155 155 155 155 154 155 155 156 155 155 155 155 155 155 154 154 154 155 154 154 155 154 154 154 154 154 153 153 153 153 154 154 153 153 152 152 152 153 153 152 151 152 152 152 152 152 152 151 150 150 150 150 150 150 149 149 149 148 148 147 147 147 146 146 147 147 146 145 144 144 144 145 144 144 143 143 143 142 141 141 142 141 141 141 141 140 139 140 140 139 138 138 137 137 137 136 136 137 136 135 134 134 134 133 133 132 131 130 129 129 128 126 123 121 121 118 109 91 63 36 21 16 18 26 39 59 79 93 95 83 60 36 18 9 8 9 9 6 5 6 6 5 4 3 4 5 4 4 3 3 5 5 4 3 3 3 3 3 2 2 3 3 3 3 3 3 2 2 2 2 2 2 2 3 2 2 2 2 2 2 2 2 2 2 2 2 1 1 1 2 1 1 2 2 1 2 2 2 2 1 1 2 2 2 1 1 0 2 2 2 1 0 1 1 1 0 1 1 2 1 1 1 2 2 1 1 1 1 1 1 1 2 2 1 1 1 0 1 2 1 2 1 1 1 0 1 1 0 0 0 1 1 0 1 1 1 1 1 2 1 1 2 1 1 1 1 1 1 0 0 1 1 0 1 2 2 1 1 1 1 1 1 2 0 0 1 1 1 2 1 0 0 1 2 1 0 1 0 1 1 1 0 1 0 1 0 1 1 1 0 0 1 2 1 1 1 1 0 1 1 1 -1 2 
0 2 -2 3 -1 2 1 1 1 1 0 1 0 0 0 1 0 0 0 1 1 0 1 1 0 1 1 0 1 1 0 1 1 0 1 1 1 1 0 1 2 0 1 1 0 1 2 2 1 0 0 1 1 1 1 1 1 0 1 1 1 1 0 1 1 1 2 1 1 1 1 2 0 0 2 0 0 1 1 1 0 0 1 1 1 1 0 1 2 1 1 0 1 2 2 1 0 0 0 1 2 2 2 1 1 1 2 2 1 1 1 1 2 1 1 1 1 1 1 1 1 1 1 1 0 1 1 2 1 1 2 1 2 1 1 1 2 1 1 1 2 2 2 2 2 2 2 2 2 2 2 2 2 1 2 2 2 2 2 2 2 2 2 3 3 3 3 3 3 2 2 3 3 3 3 3 4 3 3 4 4 4 3 4 4 4 5 5 4 4 5 5 6 5 6 6 6 6 8 8 8 9 10 11 13 13 15 25 45 73 103 128 142 150 152 153 155 157 158 160 160 161 162 162 162 163 164 164 164 165 166 166 166 166 166 166 166 166 166 167 167 167 167 167 167 168 167 167 167 167 167 167 167 167 168 167 166 166 166 167 166 165 165 166 167 166 164 164 164 163 161 156 145 131 119 114 119 131 146 156 161 163 164 163 162 162 162 161 161 161 161 161 161 161 160 160 160 159 158 158 158 158 158 158 158 159 158 158 158 157 156 156 156 156 156 156 156 156 156 155 155 155 155 155 155 156 156 155 155 155 155 155 154 154 154 154 154 154 155 155 154 154 154 153 153 153 153 153 153 153 152 152 152 153 153 153 152 151 151 151 151 151 151 152 152 151 150 151 151 150 150 149 149 149 149 149 148 147 147 147 147 148 147 146 145 145 145 145 145 144 144 144 144 144 143 143 142 142 141 141 141 141 140 140 140 140 140 139 139 138 138 137 137 137 136 136 136 136 135 135 135 133 133 133 131 130 130 129 127 125 124 123 121 114 99 74 46 26 17 18 28 46 68 88 102 104 94 73 46 24 11 7 8 9 7 6 6 5 4 4 4 4 4 4 4 4 3 4 3 3 3 3 4 3 3 3 3 3 2 2 3 3 3 2 3 3 2 2 2 2 2 2 2 2 2 2 2 2 2 2 2 2 2 2 1 2 2 2 2 3 2 1 2 2 1 1 1 2 2 3 2 2 2 1 2 2 2 2 1 1 1 1 1 1 1 1 1 2 1 1 1 1 2 1 1 1 1 1 1 1 1 1 1 1 2 1 1 2 1 1 1 1 1 1 1 1 0 0 1 0 1 1 1 1 0 1 2 1 1 1 1 1 1 1 1 0 0 1 1 0 0 1 2 2 1 0 1 1 -1 1 1 1 1 0 1 1 0 1 1 0 1 1 0 1 1 0 1 1 1 0 0 0 0 1 1 0 0 0 0 1 0 1 1 1 0 1 -1 3 -1 2 
1 0 1 2 -1 1 1 1 1 0 1 1 0 1 0 1 1 1 0 0 1 1 1 1 0 0 1 1 1 1 0 1 1 1 2 1 0 1 0 1 1 0 1 1 0 1 1 1 1 1 1 1 1 1 1 1 1 1 1 2 2 2 0 1 1 1 2 1 0 1 0 2 1 0 1 1 1 1 1 2 1 1 2 1 1 1 1 1 1 1 1 1 1 1 2 1 1 1 1 2 1 1 1 0 1 1 1 1 1 1 1 2 2 1 1 1 0 1 1 1 1 1 2 1 1 1 1 2 2 1 1 2 2 2 1 1 2 2 1 2 2 2 2 1 1 1 2 2 3 3 2 2 1 2 2 3 3 2 2 2 2 2 3 3 3 2 3 3 3 3 3 3 3 3 3 3 4 4 3 3 4 4 4 4 4 4 5 5 5 5 5 5 5 5 6 7 6 7 8 8 8 9 11 12 13 14 19 34 60 92 121 139 148 152 153 155 157 158 159 160 160 161 163 163 163 164 164 164 164 165 165 166 166 166 166 166 166 166 167 167 167 167 167 167 167 167 167 167 167 167 167 167 167 167 167 167 166 166 165 166 166 166 166 166 166 166 165 165 164 164 163 161 155 145 132 121 118 124 135 148 157 162 163 163 163 163 162 162 162 161 161 160 160 160 160 159 159 158 158 158 159 159 158 158 158 159 159 158 157 157 157 157 156 156 156 156 157 157 156 155 155 155 155 155 155 155 155 155 155 155 154 154 154 155 155 155 154 154 154 154 154 154 153 153 154 154 153 153 153 153 153 153 152 152 152 152 152 152 152 152 152 151 151 152 151 150 150 150 151 150 149 149 149 150 150 149 148 148 147 147 148 148 147 146 145 146 146 146 145 145 145 145 144 144 144 143 143 143 142 142 142 142 141 140 140 140 140 140 140 140 139 138 138 137 136 136 137 137 136 136 135 134 133 133 132 130 130 129 128 126 124 123 123 118 106 83 54 30 18 18 29 49 75 97 111 113 103 84 57 32 15 8 8 8 7 6 6 6 5 4 3 4 5 4 3 3 4 4 4 4 3 3 3 3 3 3 3 2 2 2 2 3 3 2 2 2 2 2 2 2 2 1 2 2 2 2 2 2 2 1 1 1 2 2 2 2 2 2 2 2 1 1 2 2 1 2 1 2 2 2 1 1 2 1 2 2 2 0 0 1 1 1 1 1 1 1 1 2 1 1 1 1 1 1 2 2 1 0 1 2 1 1 1 1 1 1 0 1 1 1 1 0 1 2 1 1 0 0 1 1 1 1 0 1 1 1 1 0 1 1 2 2 1 1 0 0 1 1 0 0 1 1 1 1 1 1 1 1 1 1 0 1 2 0 0 2 0 0 1 1 2 1 0 1 1 0 0 1 1 1 0 1 1 1 0 1 1 0 0 2 1 1 0 1 1 1 1 2 2 -1 
0 2 -1 3 0 2 -1 1 1 1 1 2 0 2 0 1 1 1 0 1 1 1 0 1 1 1 0 1 1 2 0 1 0 1 2 0 -1 0 0 2 1 1 1 1 0 1 1 2 1 1 1 1 1 1 0 1 0 0 0 1 1 1 0 1 0 1 2 1 1 1 1 1 0 1 2 1 1 1 1 1 0 0 1 2 1 1 0 1 1 1 0 1 2 2 2 1 1 1 0 1 1 1 2 1 1 1 1 2 1 1 1 2 2 1 1 1 1 1 2 1 1 2 2 1 1 1 1 1 2 2 1 2 2 2 1 1 1 1 2 2 2 2 2 2 2 2 2 2 2 2 2 2 2 2 2 3 3 2 2 2 2 2 2 2 2 3 3 2 2 3 4 4 3 3 3 3 4 4 4 4 3 3 4 4 4 4 4 4 5 5 4 5 6 5 5 6 7 8 8 8 9 10 11 12 13 16 26 47 77 109 132 145 150 153 155 157 158 158 159 160 161 163 163 162 163 164 165 165 165 165 165 166 166 166 166 166 166 167 167 167 168 167 167 167 167 167 167 167 167 167 168 167 167 168 168 167 167 167 167 167 167 167 166 166 165 165 166 166 165 164 164 163 161 155 146 135 126 124 130 140 150 158 162 163 164 164 163 163 162 162 161 161 160 160 160 160 159 159 158 158 158 159 158 157 158 158 158 158 158 157 157 156 156 157 157 156 156 157 156 155 155 156 156 156 155 155 155 155 155 155 154 154 155 155 155 154 154 155 155 155 154 154 154 154 154 154 153 153 153 153 153 153 152 152 152 152 152 151 152 152 152 152 151 151 150 150 150 151 150 150 149 149 149 149 149 149 149 149 149 148 148 148 147 147 146 145 145 146 146 145 145 144 144 144 144 144 144 143 143 144 143 141 140 140 140 141 141 140 140 140 139 139 138 138 138 137 137 137 136 135 136 136 134 133 132 132 130 129 129 128 126 125 124 121 111 91 62 35 19 18 28 50 79 102 115 118 109 93 68 40 20 9 7 8 7 6 7 6 6 5 5 5 5 5 4 3 3 3 3 4 3 3 3 3 3 3 2 2 1 2 2 2 2 2 3 3 2 2 2 2 2 2 1 2 2 2 2 2 2 2 2 2 2 2 2 2 2 1 1 1 2 2 1 1 2 2 2 2 1 1 1 2 2 2 1 1 1 2 1 1 0 1 1 1 1 1 0 2 1 1 1 1 1 1 1 1 1 1 1 1 1 1 1 1 1 0 0 1 1 1 1 0 1 1 1 1 0 1 1 0 1 2 1 2 0 1 1 1 1 1 1 1 1 2 1 1 1 1 1 0 0 1 1 1 0 1 1 1 0 1 1 1 1 0 0 2 0 1 1 0 1 1 0 2 1 1 0 1 0 1 0 1 0 1 1 1 0 0 0 2 0 2 1 1 -1 1 0 3 -2 2 
0 1 1 0 1 2 0 0 1 0 1 2 1 1 0 1 1 0 0 0 0 1 1 1 1 1 1 1 1 2 1 2 1 1 1 0 0 1 0 1 0 1 1 1 1 1 1 1 1 1 1 0 1 1 1 1 1 1 0 1 1 1 0 0 0 1 1 1 1 1 1 1 0 1 2 1 1 1 1 2 1 2 1 1 1 1 1 0 0 0 1 1 1 1 2 1 0 0 0 1 0 1 2 2 2 2 1 2 1 1 1 1 1 1 2 1 0 0 1 1 1 1 2 1 1 1 0 1 2 1 2 2 1 1 1 1 1 2 2 1 2 2 2 2 2 2 1 1 1 2 2 2 2 3 2 2 3 2 2 2 2 2 2 2 2 3 3 3 3 2 3 3 3 4 3 3 4 4 4 4 4 4 4 4 3 4 4 4 5 5 4 5 5 6 7 7 8 9 7 7 9 10 12 13 14 20 35 61 94 123 141 149 152 154 155 157 159 159 160 160 162 163 163 163 164 164 164 165 165 165 165 166 166 166 166 166 166 167 167 167 168 168 168 167 167 167 167 167 167 168 168 167 168 168 167 167 167 167 166 166 166 167 167 167 166 165 166 166 165 165 164 164 164 161 155 146 138 131 129 133 142 151 158 162 163 164 164 163 162 162 162 162 161 160 160 160 160 160 159 159 159 160 159 158 158 158 158 158 157 157 157 157 157 157 157 157 157 157 156 156 156 156 156 156 155 155 155 155 154 154 154 154 154 154 154 155 155 154 154 154 154 154 154 153 154 153 153 153 153 153 152 153 153 152 151 151 152 152 152 152 151 151 151 152 151 151 151 150 150 150 150 149 149 150 150 150 149 148 148 148 147 147 147 147 146 146 146 146 146 145 145 145 145 145 145 145 145 144 143 143 142 142 142 142 142 141 140 140 140 140 140 140 139 138 138 138 137 138 137 136 136 136 135 134 134 133 132 130 130 129 127 126 126 125 115 96 68 39 21 17 27 49 79 103 117 122 115 101 77 48 24 11 7 8 7 6 6 6 5 5 4 4 5 4 4 4 4 3 3 4 3 3 3 2 2 2 2 3 3 3 2 2 2 3 3 2 2 3 3 3 2 2 2 2 2 2 2 3 3 2 2 2 2 2 2 2 1 1 1 1 1 1 1 1 1 1 1 2 1 1 1 2 2 2 1 1 1 2 1 1 1 1 1 1 1 1 1 2 1 1 1 1 1 1 1 2 1 1 1 1 1 1 1 2 1 0 0 0 1 1 2 1 1 2 1 2 1 0 1 0 1 1 0 1 1 1 1 1 1 1 2 1 1 1 1 1 1 1 1 1 0 0 1 1 1 1 0 0 0 1 1 0 1 1 0 1 0 0 1 1 2 1 0 2 1 1 0 1 1 1 1 1 1 1 1 1 1 1 1 2 0 2 1 1 0 0 1 2 0 1 
3 -2 3 0 2 1 1 -1 2 0 2 1 1 0 1 1 1 1 1 1 0 1 1 0 1 1 1 1 2 1 1 2 2 1 1 0 0 1 1 1 0 0 2 0 1 0 1 1 1 1 1 1 1 1 1 1 2 1 0 1 1 0 1 1 1 0 0 0 1 1 1 1 0 1 2 1 2 1 1 1 1 1 1 2 2 1 1 0 0 1 1 0 1 1 2 1 1 1 1 1 1 1 1 2 2 2 1 1 1 1 2 1 2 1 1 1 1 1 1 1 0 0 1 1 1 1 1 1 2 2 1 1 2 3 2 1 1 1 1 2 2 1 2 3 3 2 2 2 1 1 2 2 3 3 2 2 3 2 2 2 2 2 2 2 2 2 3 3 3 3 3 3 3 3 4 4 4 4 4 4 4 4 4 4 4 4 5 5 6 4 4 5 6 5 6 6 8 9 8 8 10 12 13 14 17 27 49 80 111 135 146 150 153 154 157 159 160 159 160 162 163 163 163 164 164 164 164 165 165 165 165 166 166 165 165 166 166 167 167 167 167 168 168 167 168 168 168 168 167 167 167 167 167 167 167 167 167 167 167 166 166 166 167 167 166 165 165 165 165 165 165 165 164 164 161 156 150 142 137 134 137 144 152 158 162 164 164 164 164 163 162 162 161 161 161 161 160 160 160 159 159 159 159 159 159 159 159 158 158 158 157 157 158 157 157 157 157 157 157 156 156 156 156 156 156 156 156 155 155 155 155 154 154 155 155 155 154 154 154 154 153 154 154 154 154 153 153 153 153 154 154 153 152 153 153 152 152 152 153 152 151 151 152 151 151 150 151 150 150 150 150 149 149 149 149 149 148 148 149 149 149 148 148 148 148 147 147 147 147 147 146 146 146 146 146 145 144 144 144 143 142 142 141 141 142 142 142 140 140 140 140 140 139 139 139 138 137 138 138 137 137 136 135 135 134 133 133 132 130 129 128 127 127 126 119 101 74 44 23 17 24 45 75 102 118 123 118 106 85 56 30 14 8 8 8 7 7 6 6 5 4 4 4 4 4 3 4 4 4 4 4 3 3 3 3 2 2 3 3 4 4 3 3 3 3 2 3 3 3 3 3 2 2 2 2 2 2 2 2 2 3 3 2 2 2 2 1 0 1 2 2 2 2 1 2 1 1 1 1 1 1 1 2 2 2 1 2 2 2 1 1 0 1 2 2 1 1 2 2 2 1 1 1 0 1 2 1 1 1 1 1 0 1 1 1 1 0 0 1 1 1 1 0 1 1 2 1 1 1 0 1 2 1 1 1 1 1 1 1 1 2 0 1 1 1 1 2 1 1 0 0 0 0 0 1 1 0 1 1 0 1 0 1 1 1 1 1 1 1 0 1 0 1 1 1 1 1 0 1 0 1 1 1 0 1 0 2 0 1 0 0 1 2 0 1 -1 2 -1 3 0 
1 -1 2 -1 1 0 1 0 1 -1 1 0 1 0 0 0 2 1 1 0 0 0 0 -1 1 1 1 0 1 1 2 2 2 1 1 0 0 1 1 1 0 0 2 0 1 0 0 1 2 1 1 0 0 1 2 1 1 1 1 1 0 1 2 0 0 0 1 1 1 1 1 1 1 1 1 1 2 1 2 1 0 1 1 2 2 1 1 1 0 1 1 1 1 1 1 1 1 1 1 1 1 0 1 2 2 1 0 1 1 1 1 1 2 1 2 1 1 1 2 2 1 1 1 1 1 2 1 1 2 2 2 1 1 1 2 2 2 2 2 1 2 2 2 2 2 2 2 3 3 2 1 1 2 2 3 3 2 2 2 2 2 2 2 1 1 2 3 2 3 3 3 3 3 3 4 4 3 3 4 4 4 3 3 3 4 5 5 6 6 5 5 7 6 5 6 7 8 8 7 8 10 12 13 15 20 37 65 97 124 141 149 152 154 156 157 159 159 159 161 163 162 162 164 164 164 164 164 165 165 165 166 166 166 166 166 166 166 166 166 166 167 168 167 167 167 167 167 167 167 167 167 167 167 167 167 166 166 166 167 166 166 166 166 166 166 165 165 165 166 166 166 165 165 165 164 162 158 152 146 140 137 139 145 152 158 162 164 163 163 163 163 163 162 161 161 162 161 161 160 160 160 160 160 159 159 159 159 159 158 157 157 157 158 158 158 157 157 157 157 157 157 156 156 156 155 155 155 155 155 155 155 155 155 154 155 156 155 154 153 154 155 155 155 154 154 153 153 153 154 153 153 153 153 154 153 152 152 153 153 152 152 152 151 151 152 152 152 151 151 150 151 150 150 150 150 149 149 149 149 149 148 148 148 148 148 148 148 148 147 146 145 145 145 145 145 146 145 144 144 143 143 144 143 143 143 142 142 141 141 140 141 141 140 140 140 139 139 139 138 137 137 136 136 135 135 135 134 133 132 131 129 127 127 128 122 105 78 48 26 18 22 41 70 99 117 124 121 111 92 63 35 16 8 8 9 7 6 6 6 5 4 4 4 5 5 4 3 4 4 4 4 4 3 3 3 3 3 3 3 3 3 3 3 3 3 2 2 2 3 2 2 2 2 2 1 2 2 2 2 2 2 2 3 2 2 2 2 1 2 2 2 2 2 2 1 1 1 2 1 1 1 2 1 2 2 2 2 1 1 1 1 1 2 2 2 1 2 1 1 2 1 0 1 1 1 2 2 2 1 1 1 1 1 1 1 1 1 0 0 0 2 1 0 2 1 1 1 1 2 1 1 1 1 0 1 2 1 1 0 1 1 0 1 1 2 2 2 1 1 1 1 1 1 0 1 2 0 1 0 0 1 0 1 1 1 1 1 1 2 0 1 0 1 1 1 1 1 0 0 1 2 1 1 1 2 1 1 0 1 1 0 0 2 1 2 0 2 0 1 1 
1 0 1 1 1 1 1 0 0 1 1 1 0 1 0 1 1 1 1 1 0 1 1 0 1 1 0 0 0 1 1 2 2 2 1 0 1 1 1 1 0 1 2 1 1 1 1 2 2 1 1 0 0 1 1 1 1 1 0 1 1 1 1 0 1 1 1 1 1 1 1 1 1 2 1 1 2 1 2 1 0 1 1 1 2 1 0 1 1 1 1 1 1 0 1 0 0 1 1 1 0 -1 0 2 2 2 1 1 1 2 1 2 2 2 2 2 1 1 2 1 1 1 2 2 1 1 1 1 2 1 1 1 2 2 2 1 1 1 2 1 1 2 3 3 2 2 2 3 3 2 2 1 1 2 3 3 2 2 2 2 2 2 2 2 1 2 2 2 2 3 2 2 3 3 4 4 4 4 4 4 3 3 4 4 5 5 5 6 6 5 5 6 5 5 6 7 8 8 9 10 11 12 13 17 28 50 82 113 135 147 151 152 155 157 158 159 159 160 162 164 163 163 163 164 165 165 165 166 166 165 165 166 166 166 166 166 167 167 167 167 167 167 167 167 167 166 167 167 167 167 167 167 167 167 166 166 167 167 166 166 166 166 166 166 166 166 166 165 165 166 166 165 165 164 165 164 162 159 154 149 143 140 142 147 153 158 162 163 163 163 163 164 163 162 161 161 162 161 161 160 160 160 159 160 159 158 158 159 158 158 157 157 157 158 158 157 157 157 157 157 156 155 156 156 156 156 156 156 157 156 156 155 155 155 154 155 155 154 154 154 154 154 154 154 153 153 153 153 153 153 153 153 153 154 154 153 152 153 153 152 152 151 151 151 151 151 151 151 151 151 151 150 150 150 150 149 149 148 149 150 149 148 148 148 148 148 148 147 147 147 147 146 146 146 146 145 145 144 144 144 144 144 144 143 143 143 143 142 141 141 141 141 141 140 140 140 140 139 139 139 137 136 136 137 136 135 135 134 132 131 130 128 128 128 123 108 82 51 29 18 20 37 64 94 116 124 123 114 97 70 40 19 10 8 8 7 7 7 7 5 4 5 5 5 4 4 4 4 3 4 4 3 3 3 3 2 3 3 3 3 2 3 3 3 3 3 2 3 2 2 2 2 2 2 2 2 2 2 2 2 2 2 2 2 2 2 1 1 2 2 1 1 2 1 1 1 1 1 1 2 2 2 1 1 2 2 2 1 1 1 1 1 1 2 2 1 2 2 1 1 1 1 1 1 1 2 1 2 1 1 1 1 1 1 1 1 1 0 1 0 1 1 0 1 1 2 1 0 1 1 2 1 1 0 1 1 0 1 0 0 1 1 1 1 1 1 1 1 1 1 1 0 1 0 0 1 1 1 0 0 1 0 1 1 1 1 1 1 2 2 1 0 0 1 1 1 0 2 1 0 1 1 1 1 1 1 1 1 0 1 0 1 1 1 1 1 1 1 0 1 
1 3 0 2 0 1 1 1 1 1 0 1 1 1 0 1 2 1 1 1 0 1 1 1 1 0 0 1 1 0 1 2 2 1 1 0 1 1 0 0 0 1 2 1 1 0 0 1 1 1 0 0 0 1 1 0 1 1 1 1 1 1 1 0 1 1 1 1 1 1 1 1 1 1 1 1 2 1 1 0 0 1 1 1 1 1 1 1 1 1 2 1 1 0 1 1 1 1 1 1 1 0 1 1 1 2 2 1 1 1 1 1 2 2 1 1 1 1 2 1 1 1 1 1 1 2 1 1 1 1 2 1 1 1 1 2 2 1 1 1 1 1 2 2 2 1 2 2 2 2 1 1 1 2 2 2 2 2 2 2 2 2 2 2 2 2 2 2 2 3 3 3 2 3 3 4 4 3 4 4 3 3 4 4 5 5 5 6 6 5 7 6 5 6 7 8 9 9 10 11 11 12 14 22 39 66 99 126 142 149 151 153 156 157 158 158 159 161 162 163 163 163 163 164 165 165 165 166 166 165 165 166 167 167 167 166 166 167 167 167 167 167 167 168 167 167 167 167 167 167 167 168 167 166 166 166 166 166 166 166 166 166 166 165 165 166 166 166 165 166 166 166 165 165 165 165 164 162 159 155 151 146 142 143 148 153 158 162 163 163 163 164 164 163 162 162 162 162 161 161 160 160 160 159 159 159 159 159 159 158 158 157 158 158 158 157 158 158 157 156 156 156 157 157 156 156 156 156 156 156 156 155 156 156 155 155 155 154 154 154 155 155 154 154 154 153 153 153 153 152 152 152 153 153 153 153 152 152 152 152 152 152 152 152 152 152 151 151 151 151 151 151 150 151 150 149 149 149 149 149 148 148 148 148 147 147 147 147 147 147 146 146 145 145 146 146 146 145 144 144 144 145 144 143 143 143 143 142 142 141 141 141 141 141 141 141 140 139 139 139 137 137 136 136 135 136 136 136 134 132 131 129 128 129 125 112 86 54 31 20 20 34 60 91 113 124 124 117 103 77 46 23 12 9 9 8 7 6 6 6 5 4 5 6 5 4 4 3 3 4 4 3 3 3 2 3 3 3 3 3 3 3 3 2 2 2 2 3 2 2 2 2 2 2 2 1 2 2 2 3 2 2 2 2 2 1 1 2 1 1 1 2 2 1 1 0 1 2 1 2 2 1 1 2 2 1 2 1 1 1 1 1 1 1 1 1 1 1 0 1 1 1 1 1 1 1 1 1 1 2 2 1 2 1 1 2 1 1 2 1 1 1 0 2 2 1 1 1 1 1 1 1 2 0 1 2 1 1 1 1 1 1 1 1 1 1 1 1 1 2 1 1 1 1 0 0 0 1 1 1 1 0 1 1 1 0 0 1 2 1 0 0 0 0 1 2 1 1 1 1 1 0 0 1 1 1 1 1 1 1 0 1 1 1 0 2 0 2 -1 1 
3 -1 2 0 2 0 1 1 0 -1 1 0 0 0 1 1 1 1 1 1 0 0 1 1 1 1 0 1 0 0 1 2 0 0 1 1 1 1 1 1 0 1 1 1 1 1 1 1 1 1 1 1 2 2 1 1 1 0 1 1 1 1 1 1 1 1 1 1 1 1 0 0 1 1 0 1 1 0 1 1 0 1 1 0 1 1 1 2 1 1 2 2 1 0 1 1 1 2 1 1 2 1 1 2 2 1 1 2 2 2 1 1 1 2 1 1 1 1 2 2 2 1 1 1 1 1 1 1 1 2 2 2 1 1 2 2 2 1 1 1 2 2 2 2 2 1 2 3 3 2 2 2 2 2 2 2 2 2 2 3 3 2 3 3 3 3 3 3 2 2 3 3 3 2 3 4 4 3 4 4 3 4 4 5 5 4 4 5 6 5 6 5 5 7 8 8 8 9 11 12 12 12 17 29 52 83 114 136 147 152 153 154 156 158 159 159 160 162 163 163 163 164 163 163 164 165 165 165 166 166 166 166 166 167 167 166 167 167 167 167 168 167 168 168 167 167 168 167 167 167 167 168 167 167 166 167 167 166 167 167 167 166 166 165 165 165 166 166 166 165 165 165 165 165 165 165 164 164 163 160 156 152 148 145 145 148 153 158 161 162 163 164 164 163 163 162 161 162 162 161 161 160 160 160 160 160 159 159 159 159 158 158 158 158 158 157 158 158 158 158 157 156 157 157 157 156 156 156 156 155 155 155 155 155 155 154 154 153 154 154 154 155 154 153 153 154 154 153 153 153 153 153 153 153 153 153 153 152 151 151 152 152 152 151 151 151 151 151 151 150 150 151 151 150 150 150 150 150 150 149 149 149 148 148 147 147 147 148 148 147 147 147 146 146 146 145 145 145 144 145 145 144 144 144 143 143 143 143 142 141 141 141 141 141 141 141 140 139 140 139 138 139 138 137 136 136 136 135 134 133 132 129 128 129 127 114 90 58 33 20 19 31 56 87 111 123 126 120 107 83 51 26 13 9 9 9 7 6 6 5 5 5 6 5 4 3 3 3 4 4 4 4 4 4 3 3 3 3 3 4 3 3 2 2 3 3 2 2 2 2 2 2 2 2 3 2 2 2 2 2 2 2 2 2 2 2 2 1 0 1 1 1 2 2 2 1 1 2 2 2 2 3 2 1 1 1 2 2 1 1 1 1 1 1 1 1 1 1 1 1 1 1 2 1 1 1 2 2 1 1 1 1 1 1 1 1 1 1 2 1 1 1 0 2 2 1 1 0 0 1 2 1 1 0 1 1 1 2 1 1 1 1 1 1 1 0 1 1 1 2 1 1 1 1 0 0 0 1 0 1 2 1 1 0 0 1 0 0 1 1 0 0 0 0 1 1 1 1 1 0 1 1 1 1 1 1 1 0 1 1 1 1 1 0 2 0 2 0 2 0 
1 3 0 1 0 1 -1 2 0 0 0 1 1 1 0 0 0 0 1 2 1 0 1 1 0 0 0 1 1 1 1 1 1 1 1 1 1 1 1 1 1 1 1 2 1 1 0 1 1 1 1 1 2 1 0 1 1 1 1 0 0 1 1 1 1 1 1 1 1 1 1 0 0 0 0 2 2 1 1 1 1 1 1 1 1 1 1 1 1 0 1 1 0 0 0 1 1 2 1 1 2 2 2 1 1 1 1 1 1 1 1 2 1 2 1 1 1 1 2 1 1 0 1 1 2 2 2 2 2 2 2 2 1 2 2 2 2 2 1 2 2 2 2 2 1 1 1 3 2 1 2 2 2 2 2 3 2 2 2 2 2 2 3 3 3 3 3 3 3 3 3 3 3 3 3 4 4 3 4 4 4 4 5 5 5 4 5 6 5 5 6 5 5 8 8 8 9 10 11 11 11 14 22 40 68 101 127 143 151 152 153 155 157 158 159 160 161 162 162 162 163 163 163 164 165 165 166 166 166 165 165 166 167 167 167 166 167 167 167 167 167 167 167 167 167 168 168 168 168 167 167 167 167 167 166 167 167 167 167 167 166 167 167 166 166 165 165 166 166 166 166 166 165 165 166 165 165 164 164 163 161 158 154 150 147 145 148 153 158 161 162 163 164 164 164 163 163 162 161 161 161 160 160 160 160 160 160 160 160 159 158 158 158 158 158 158 158 158 158 158 157 156 156 157 157 157 156 156 156 155 156 156 156 156 155 155 155 155 155 155 155 155 154 154 154 154 154 154 154 154 153 153 153 152 152 152 152 152 152 151 152 152 152 152 152 152 151 151 151 150 150 150 151 151 151 151 150 150 150 149 148 148 149 149 148 148 149 149 148 147 147 147 147 147 147 146 146 146 145 145 145 145 145 145 144 143 142 142 143 142 142 142 143 142 141 141 141 139 140 141 140 139 138 137 136 137 137 136 134 134 133 131 129 130 128 116 90 59 34 21 19 29 52 83 109 122 126 121 110 89 56 29 15 10 10 9 7 6 6 6 5 5 5 5 4 4 4 4 4 4 4 3 3 3 3 3 3 3 3 3 3 3 2 2 2 2 2 3 2 2 2 2 2 2 2 2 1 1 2 2 2 3 2 1 1 1 1 2 1 1 1 2 2 1 1 1 1 1 2 2 1 2 1 2 2 1 2 1 1 1 1 1 1 1 1 2 2 1 1 1 1 1 2 1 1 1 1 1 1 2 1 1 1 0 1 1 1 2 2 1 1 1 1 1 1 1 1 1 0 1 1 1 1 0 0 1 2 2 2 1 1 1 0 1 1 1 1 1 1 1 0 1 1 1 0 0 1 1 0 1 1 1 1 1 1 1 0 0 1 1 0 0 0 0 1 1 1 2 1 1 1 0 0 1 0 1 1 1 1 1 0 1 0 1 0 2 1 3 -1 1 
1 2 -1 2 0 2 0 2 0 0 0 1 0 2 1 1 0 0 0 2 0 0 0 1 0 1 0 1 1 1 1 1 0 0 0 1 1 1 1 1 1 1 1 1 0 1 1 1 1 1 1 1 1 2 1 1 1 1 1 0 0 1 1 1 1 0 0 1 1 1 1 1 1 1 0 2 1 1 0 1 1 1 1 1 1 1 1 1 0 0 1 1 1 0 0 1 0 2 1 2 1 1 1 1 1 1 1 1 1 1 1 1 1 2 1 1 1 1 1 1 1 1 1 2 2 2 2 2 1 1 1 2 1 2 2 2 2 2 1 2 2 2 1 1 1 2 2 3 3 3 2 2 2 2 2 2 2 2 2 2 2 2 3 3 3 3 3 3 3 3 3 3 2 2 3 4 3 3 4 4 5 5 4 4 5 5 4 6 6 6 6 5 6 8 7 8 9 10 12 12 12 17 30 54 85 116 136 147 152 153 153 155 158 159 159 160 161 162 162 163 163 163 164 165 165 165 166 166 166 166 166 167 167 168 167 167 167 168 168 168 167 167 167 167 167 168 168 168 167 167 167 167 167 167 167 167 166 166 167 167 167 166 166 166 166 166 166 166 166 166 166 166 165 165 165 166 165 165 165 165 164 162 159 156 152 148 147 149 153 158 160 162 163 164 164 164 164 163 162 162 162 161 161 160 160 160 160 160 160 160 159 159 158 158 158 158 158 159 159 158 157 157 157 157 157 157 156 156 156 156 157 156 156 156 156 155 155 155 155 155 155 154 154 154 155 155 155 154 153 154 154 154 153 153 153 153 153 153 152 152 153 153 152 152 152 152 151 151 151 151 151 151 151 150 150 150 151 151 150 149 149 150 149 149 149 149 149 149 149 149 148 147 147 147 147 146 147 146 146 146 146 145 145 145 144 143 143 143 143 143 143 143 143 142 141 142 141 140 140 141 140 139 139 138 137 137 137 136 135 134 133 131 130 131 130 117 91 59 33 20 18 28 50 80 106 120 125 123 113 94 62 33 17 10 8 9 8 7 6 6 5 5 5 5 4 4 3 3 4 4 4 3 3 4 4 3 2 2 3 3 3 2 2 3 3 3 2 2 2 2 3 3 2 2 3 2 2 2 2 2 2 2 2 1 1 2 2 0 0 1 2 2 1 1 1 1 2 2 2 2 2 2 2 1 1 1 2 2 2 1 1 2 1 1 1 1 1 1 1 1 1 1 2 1 1 1 1 1 1 2 1 0 1 1 1 1 0 1 2 1 1 0 1 1 2 0 0 0 1 2 2 2 1 1 0 1 1 1 1 0 0 1 0 2 1 0 0 0 1 1 0 1 0 1 1 1 1 1 1 1 1 1 1 1 0 0 0 0 0 0 0 1 0 1 1 1 1 1 0 1 1 1 0 2 1 1 1 1 1 1 0 1 0 1 1 2 0 3 -1 2 
2 -1 3 1 0 0 1 1 1 0 1 1 0 1 1 0 1 1 0 0 1 1 0 0 0 1 1 0 1 1 1 1 0 1 1 0 0 0 0 1 1 0 0 1 1 1 0 1 1 0 0 1 1 0 1 1 2 1 1 1 0 1 1 1 0 0 1 1 1 1 1 1 1 1 1 1 0 1 1 1 2 2 1 0 1 1 1 1 1 1 1 1 1 1 1 1 1 1 0 1 1 1 1 1 1 1 1 1 1 1 2 2 2 2 1 1 1 1 1 1 0 1 1 1 1 2 2 1 1 1 2 2 2 1 1 2 2 2 2 2 2 2 1 2 2 1 2 2 3 3 3 2 2 1 2 2 2 2 2 3 2 2 3 3 2 3 3 3 3 3 3 2 2 3 3 3 2 3 4 4 4 4 5 5 5 5 5 7 7 7 6 6 8 8 7 8 9 11 13 12 14 23 41 71 103 129 144 150 152 153 155 157 158 159 159 161 162 162 162 163 164 164 164 165 165 165 166 166 166 166 165 166 166 167 167 167 167 167 167 168 167 166 167 167 168 167 167 168 168 167 167 167 167 167 166 167 166 166 167 167 167 166 166 166 166 165 165 165 166 166 166 166 166 165 165 166 165 165 165 165 165 165 163 160 157 153 150 149 152 155 158 160 162 163 164 165 164 163 162 162 162 161 161 161 161 161 160 160 159 159 159 159 159 159 159 159 158 158 158 158 157 157 157 157 157 157 157 157 157 157 157 156 155 155 155 156 155 155 156 156 156 155 154 155 155 154 155 154 154 154 154 154 154 154 153 153 153 153 153 153 154 153 152 152 152 152 151 151 151 151 151 151 151 151 151 151 150 149 150 150 149 149 149 150 150 149 150 149 149 148 148 148 148 148 147 147 147 147 147 147 146 146 145 145 145 144 145 145 144 143 143 144 143 143 143 142 141 141 141 141 139 139 140 139 137 137 137 136 135 135 134 133 131 132 129 115 88 56 33 20 18 26 47 79 106 121 126 125 116 99 69 38 19 11 9 10 9 7 7 7 6 5 6 6 4 3 4 4 4 4 4 3 3 3 3 2 3 3 3 3 3 3 2 2 3 3 3 3 2 2 2 2 3 3 2 2 2 2 3 3 2 2 2 2 1 2 2 2 2 1 1 1 1 1 1 1 1 2 2 1 2 2 1 1 1 2 2 1 2 2 2 2 1 1 2 2 1 0 1 1 2 1 1 1 1 1 1 1 1 1 1 1 1 1 0 0 1 1 2 1 1 1 1 1 1 1 0 0 1 1 2 2 0 0 1 1 1 1 1 1 1 1 0 1 1 1 0 0 1 1 0 1 1 1 0 0 1 1 1 1 2 1 1 1 1 1 1 1 0 0 0 1 1 1 2 1 1 1 0 0 1 1 1 1 1 1 1 1 1 1 0 1 1 0 2 1 2 0 3 -1 
1 2 1 0 1 0 1 0 2 0 1 0 1 1 1 0 1 0 1 1 2 0 0 1 1 1 1 0 1 1 1 1 1 1 1 0 1 0 0 0 1 1 1 0 0 0 1 0 1 0 1 1 0 1 2 1 2 1 1 1 1 2 1 0 1 1 1 0 1 1 0 1 1 1 0 0 0 1 1 1 1 1 0 1 1 1 1 1 0 0 1 1 1 1 1 1 1 1 1 0 0 1 1 2 2 1 1 1 2 1 1 2 2 1 1 1 2 2 2 1 1 2 2 1 2 2 2 1 2 2 2 2 2 1 2 2 2 2 2 2 2 2 1 2 2 2 2 2 2 2 3 2 2 1 1 1 2 2 2 2 2 3 4 3 2 2 3 3 4 4 3 2 2 2 3 3 2 3 4 4 4 5 5 5 5 5 5 6 6 6 5 6 8 9 8 9 11 12 13 13 17 31 55 87 118 138 148 152 153 154 156 157 158 159 160 161 162 162 163 164 164 164 165 164 164 165 166 166 166 166 166 167 166 167 167 167 167 167 167 167 167 166 166 167 168 168 167 167 167 167 167 167 167 167 167 167 167 166 166 166 166 166 166 166 166 166 166 165 165 165 166 166 166 165 165 165 165 165 165 165 165 165 165 164 162 158 155 153 153 154 155 158 160 162 163 164 164 163 163 163 163 162 162 162 161 161 161 161 160 159 160 160 159 159 159 160 159 158 158 157 157 157 157 158 158 157 157 157 157 157 157 156 155 155 155 156 156 156 155 155 155 155 154 154 155 155 154 154 154 154 154 154 154 154 154 153 153 153 153 153 154 153 153 153 153 152 152 151 151 152 152 151 151 151 151 150 150 150 150 150 149 150 150 149 149 148 148 148 148 148 148 147 148 148 148 148 148 148 147 147 146 146 145 145 145 145 145 144 144 144 145 144 144 143 143 141 142 142 142 141 140 140 141 140 138 138 138 137 136 136 135 133 132 133 129 114 86 53 31 19 18 27 48 79 106 121 126 126 120 104 74 42 21 12 9 9 9 8 7 6 6 6 5 5 5 4 4 4 4 4 4 4 3 3 3 3 4 3 3 3 3 2 2 3 3 3 3 2 2 2 3 3 3 2 2 2 3 3 3 2 2 2 2 1 2 2 2 2 2 1 2 1 1 1 2 2 1 2 1 1 2 1 1 1 1 2 3 2 1 1 2 2 1 1 2 1 2 1 1 1 1 1 2 1 1 0 1 1 2 2 2 1 1 1 1 1 1 1 2 1 1 0 1 1 2 1 1 0 1 2 2 1 0 1 1 0 0 0 2 1 2 1 1 1 1 1 1 1 1 1 0 1 1 1 0 0 1 0 1 1 2 1 1 0 0 0 1 0 1 1 1 1 1 1 1 1 1 0 0 1 1 1 1 0 0 0 1 0 1 1 1 0 0 0 1 0 2 1 0 1 
2 -2 3 0 1 1 1 -1 1 1 1 0 1 0 1 1 1 1 1 0 1 0 0 0 0 1 1 0 1 1 1 1 1 1 2 1 1 0 1 1 0 0 0 1 1 1 1 0 1 0 0 0 1 1 1 0 1 1 1 1 1 2 1 1 1 1 2 1 1 1 1 1 1 0 1 0 1 1 1 1 2 1 0 1 1 1 2 1 0 0 1 1 1 1 1 2 2 1 1 1 1 1 0 1 1 2 1 0 2 1 2 2 2 2 2 2 2 1 1 2 2 2 2 1 1 1 1 1 1 0 1 2 2 2 2 2 2 2 2 2 2 2 1 2 2 2 2 2 1 2 2 2 2 2 1 2 2 3 3 3 2 2 3 3 3 2 2 3 4 4 3 3 3 3 4 4 3 3 3 4 5 5 5 6 6 5 6 7 6 6 5 6 8 7 7 9 11 12 13 15 23 42 71 104 130 144 150 152 154 155 157 158 158 159 160 162 163 163 163 164 165 165 165 165 165 165 165 166 166 166 166 166 166 167 167 167 167 167 167 167 167 166 166 167 168 168 167 166 166 167 167 167 167 167 167 167 166 166 166 166 167 167 166 165 166 166 166 165 165 165 165 166 166 165 165 165 165 165 166 166 164 164 165 165 164 162 160 158 155 154 155 156 158 161 163 164 164 164 164 164 163 163 163 163 162 161 161 161 160 160 160 160 160 159 159 159 159 158 158 158 157 157 157 158 158 157 157 157 157 157 157 156 156 156 156 156 155 155 156 156 155 155 155 154 154 154 154 154 155 154 154 154 154 154 154 153 153 154 153 153 153 153 153 152 153 152 152 152 152 152 151 151 151 152 152 151 150 149 150 150 149 148 149 149 149 149 149 149 149 148 148 148 148 148 148 148 148 147 147 147 147 147 146 146 146 146 146 145 144 143 144 144 143 143 143 142 142 143 142 141 141 140 141 140 139 138 138 137 137 137 135 134 134 133 127 110 81 50 29 19 18 28 50 81 108 122 127 128 122 108 80 47 24 12 9 10 9 8 7 6 6 5 5 5 5 4 4 4 4 4 4 4 3 3 4 4 4 4 3 3 3 3 3 3 2 2 2 2 3 2 2 2 3 3 2 2 2 2 2 2 2 2 2 2 2 2 1 2 2 1 1 1 2 2 2 2 1 2 1 1 1 1 1 1 1 1 1 1 1 1 2 2 1 2 2 2 2 1 1 2 1 1 0 0 1 1 1 1 1 1 2 2 1 1 1 0 0 0 1 1 1 0 0 1 1 1 1 1 1 1 2 1 0 1 1 1 1 0 2 1 2 1 1 1 1 1 1 0 1 2 1 1 0 0 1 1 1 0 1 1 1 1 1 0 0 0 1 2 1 0 0 1 0 0 1 1 1 0 0 1 1 1 1 1 1 1 1 0 1 1 2 1 1 0 1 0 2 -1 3 0 
1 0 2 2 0 0 1 1 1 2 1 1 1 1 0 1 0 2 2 1 1 0 0 0 1 2 1 0 0 0 1 1 1 2 1 1 0 1 1 1 0 1 0 1 1 1 1 1 1 0 1 1 1 0 1 0 1 0 1 1 0 1 1 1 1 0 1 1 1 2 1 1 0 0 1 0 0 1 1 1 1 1 1 1 1 1 1 0 0 1 1 1 1 0 0 1 1 2 1 1 1 1 1 2 1 1 1 1 1 2 2 2 2 1 1 1 1 2 2 2 1 1 1 1 1 1 1 1 1 1 2 2 1 1 2 2 1 2 2 1 2 2 2 1 1 2 2 1 1 2 2 2 2 2 3 2 2 2 3 3 2 3 3 2 2 4 4 3 3 4 4 4 3 3 4 4 3 3 3 4 4 5 5 6 6 5 6 7 6 6 6 6 8 8 8 11 12 12 14 18 31 56 88 118 139 148 151 153 154 156 158 158 159 160 161 162 163 163 163 164 164 165 165 165 165 166 166 167 167 166 166 166 166 166 166 167 166 166 167 167 167 166 166 168 168 168 167 166 166 167 167 168 167 167 167 167 166 166 166 166 166 166 166 166 166 166 166 166 166 165 165 166 166 166 166 165 166 166 166 166 164 165 165 166 165 165 163 161 159 158 156 157 158 159 161 162 163 164 164 164 164 164 163 163 162 162 162 162 161 160 160 160 160 160 160 160 160 159 159 158 157 157 158 159 159 158 157 157 157 157 157 157 156 156 156 156 156 155 155 156 155 155 154 154 155 155 155 154 154 155 155 154 154 154 154 153 154 154 153 153 153 153 153 153 153 152 152 152 152 152 152 152 151 152 152 152 151 150 150 150 150 150 149 149 149 149 149 149 149 149 148 148 148 148 148 148 148 148 147 148 147 147 147 146 146 146 146 145 144 144 145 145 144 143 143 142 142 143 143 143 142 141 141 140 139 139 138 137 137 137 136 135 135 134 125 106 76 47 27 18 20 30 53 85 111 123 128 128 125 112 86 52 27 14 9 9 9 8 7 6 5 5 5 5 5 4 5 5 5 4 4 4 3 3 4 4 4 4 3 2 2 2 2 3 3 3 3 3 3 3 2 2 2 2 2 2 2 3 3 2 1 2 2 1 1 2 1 1 1 1 1 1 2 2 2 2 2 1 1 2 2 1 2 1 1 1 1 1 2 1 2 2 1 2 2 1 1 1 2 1 0 1 1 0 1 1 1 1 1 1 1 1 1 2 1 1 1 1 1 1 1 1 1 1 1 2 1 1 1 1 2 1 1 1 1 2 1 1 2 1 1 1 1 1 0 1 1 2 1 1 0 0 1 1 1 1 1 0 1 0 1 0 1 1 0 0 1 1 0 0 1 1 0 1 1 1 1 1 0 1 0 0 1 1 1 1 1 1 0 0 1 2 0 0 1 1 0 0 1 0 
-1 4 -1 2 1 2 0 1 0 1 1 1 1 1 0 1 1 2 0 1 1 1 0 0 1 1 1 1 0 0 0 0 1 1 1 1 1 1 1 1 0 1 1 1 1 1 1 1 1 1 1 1 2 2 1 0 1 1 1 1 1 2 0 1 1 0 1 1 1 2 0 1 1 1 0 0 1 1 0 1 1 1 1 2 1 1 1 0 1 1 1 1 1 0 1 1 1 1 1 1 1 2 0 1 1 2 2 0 1 1 1 1 1 1 1 1 1 1 1 2 2 1 1 1 1 1 1 1 1 1 0 1 2 2 2 2 2 2 1 1 1 2 1 1 1 2 2 2 2 2 1 2 2 2 2 2 3 3 2 2 2 2 3 3 3 3 4 4 4 3 4 4 3 3 3 3 3 4 4 4 4 4 5 6 6 5 7 7 6 6 7 7 7 7 8 12 13 11 15 24 43 73 105 130 145 150 151 154 156 157 158 159 160 162 161 162 162 164 164 164 164 164 165 165 166 166 165 166 167 166 166 166 166 167 167 167 166 166 166 167 168 167 167 167 168 168 168 167 167 167 167 168 168 167 167 166 166 166 166 165 166 165 165 166 166 166 165 165 166 166 166 166 166 166 166 165 165 166 166 166 165 165 165 165 165 165 166 165 163 161 159 158 158 158 159 160 161 162 163 164 164 164 164 163 163 162 162 161 161 160 160 161 161 160 160 160 160 160 160 160 159 158 158 159 159 158 158 157 157 157 157 157 157 157 156 156 156 157 157 156 155 155 155 154 154 154 154 155 154 154 154 154 154 154 153 154 154 153 153 153 153 154 154 153 152 153 152 152 151 152 152 152 151 151 151 151 151 150 150 150 148 149 150 150 150 149 149 149 149 149 149 148 148 148 148 148 148 148 147 148 147 147 147 146 146 146 146 146 145 145 145 145 144 144 144 143 142 143 143 143 142 141 140 140 141 140 139 138 138 137 135 135 136 134 123 101 69 41 25 18 22 33 56 89 113 125 128 129 126 116 91 57 30 15 9 9 9 8 7 7 6 5 5 5 5 5 4 4 5 4 4 4 3 4 3 3 4 4 3 3 3 3 2 2 2 3 3 3 2 3 3 2 2 3 2 2 2 2 2 2 2 1 2 2 2 2 2 2 2 1 1 1 2 2 2 2 1 2 2 2 2 1 2 2 1 2 1 1 2 2 1 1 1 2 1 1 2 1 1 2 1 2 1 1 1 1 1 1 0 0 1 1 0 2 1 1 1 1 1 2 2 2 1 1 0 1 1 1 1 1 2 1 1 1 1 1 1 1 1 1 1 2 1 1 0 1 0 1 1 1 1 1 0 1 1 1 1 1 2 1 1 1 0 1 1 1 0 1 0 1 1 0 1 1 0 1 0 1 1 1 1 1 1 1 1 1 0 1 0 1 1 2 1 2 0 1 0 3 -3 3 
2 -1 2 2 0 0 1 1 1 1 1 1 1 1 1 1 1 2 1 2 0 0 1 1 1 0 1 1 -1 1 1 1 1 1 1 1 1 1 1 1 0 1 0 1 1 1 1 0 0 1 0 1 2 1 1 0 1 0 1 1 0 1 0 1 0 0 1 1 0 1 0 1 0 0 1 1 1 1 1 1 1 1 1 2 1 0 0 0 2 2 1 1 1 0 0 1 1 1 1 1 2 2 0 1 1 1 1 1 1 1 1 1 1 1 1 1 1 2 2 2 1 1 1 1 1 2 2 2 1 1 1 2 2 2 1 2 2 2 2 2 2 2 2 2 2 2 2 2 2 2 2 2 2 3 3 3 2 2 2 3 3 3 2 2 2 3 3 3 3 3 4 4 4 4 4 4 4 3 3 4 4 4 4 5 6 5 6 7 5 6 7 8 8 8 9 11 12 12 18 33 57 90 120 138 148 151 152 155 157 158 159 160 161 162 162 162 163 164 164 164 164 165 165 165 165 166 166 166 167 167 166 166 166 167 167 167 167 166 166 167 167 166 167 168 167 167 167 167 167 167 166 167 167 167 167 166 166 166 165 165 165 165 165 166 166 166 166 166 165 165 166 166 165 165 165 166 165 165 166 166 166 166 165 165 165 165 166 165 164 164 162 161 160 159 158 159 160 160 161 163 164 164 164 164 163 162 162 162 162 161 161 161 161 161 161 161 161 161 160 159 159 159 159 159 159 158 158 158 157 157 157 157 157 156 156 156 156 156 156 156 155 155 154 154 155 155 155 155 154 155 155 154 153 154 154 153 153 154 154 153 152 153 153 153 153 153 152 152 152 152 153 153 152 151 151 151 151 150 151 151 150 150 150 150 150 150 149 150 150 149 149 150 149 148 148 148 149 148 148 148 147 146 146 146 146 146 147 146 145 145 145 145 144 145 145 144 143 144 144 144 142 141 141 142 141 140 139 139 138 136 134 135 137 132 118 93 62 37 23 18 23 37 61 93 116 126 129 130 128 119 95 62 34 17 9 10 10 9 7 6 6 5 5 5 5 4 4 4 4 4 4 4 3 3 3 3 3 4 4 3 3 3 3 3 3 3 3 3 3 3 2 2 2 3 2 2 3 3 3 3 2 1 2 3 2 2 2 2 2 2 2 2 1 1 1 2 1 2 2 2 1 1 2 2 2 2 1 2 2 1 1 1 1 1 0 1 1 1 2 2 1 2 2 2 2 2 1 1 1 1 1 1 1 2 1 1 1 1 1 1 1 1 2 2 1 1 1 1 1 1 2 1 1 1 1 1 1 1 1 1 1 2 1 1 0 1 0 1 1 1 1 1 0 1 0 1 1 1 2 1 1 1 1 1 1 1 1 1 0 1 1 0 1 1 1 1 0 1 1 1 1 1 2 1 1 0 0 1 1 1 0 1 0 1 1 2 -1 0 2 -1 
0 3 -1 1 0 1 0 1 1 0 0 1 1 1 1 1 1 2 1 1 0 1 1 1 1 0 1 2 1 1 1 0 1 1 1 1 1 1 1 1 0 1 0 1 1 1 1 0 0 1 1 1 1 1 1 1 0 1 1 1 1 1 0 0 0 0 1 1 1 1 0 1 1 1 0 1 2 1 1 1 1 1 1 2 1 1 1 1 1 1 0 0 0 0 1 1 1 2 1 0 1 1 0 1 1 1 2 1 1 2 1 2 1 1 1 1 1 1 1 2 2 1 1 2 1 1 2 1 1 1 2 2 2 1 2 2 3 3 3 2 2 3 3 2 2 2 2 2 2 3 3 3 2 2 2 2 2 2 2 2 2 3 3 3 2 2 2 3 3 3 3 4 4 4 4 4 4 4 4 4 4 3 4 5 6 5 6 6 6 7 8 8 8 8 10 11 12 14 24 44 73 106 130 143 150 151 152 155 157 158 158 160 161 162 162 162 163 163 162 163 164 164 165 166 166 165 165 166 167 167 167 167 167 167 167 167 167 166 166 167 167 166 167 167 167 167 167 168 168 167 167 167 167 166 166 166 166 166 166 166 166 166 166 166 166 165 165 166 165 165 165 166 166 165 165 165 165 166 165 165 165 166 165 165 164 165 166 166 165 165 164 162 161 160 160 159 159 159 160 161 162 164 164 165 165 164 164 163 162 161 161 162 161 161 160 161 161 160 160 159 159 158 158 159 159 159 158 158 158 158 157 157 157 157 156 156 157 157 157 156 156 156 155 155 156 156 155 155 155 155 155 154 154 154 153 154 154 154 153 153 153 153 153 153 153 153 152 152 152 152 153 153 152 152 151 152 152 152 151 151 151 151 151 150 150 150 150 150 150 150 150 150 149 149 149 149 149 149 148 148 148 147 147 147 147 147 147 146 146 146 146 146 145 145 144 144 144 144 143 143 143 142 142 142 141 141 140 140 139 137 135 136 136 129 111 82 52 31 21 19 27 43 69 100 120 129 130 131 130 121 99 67 37 18 11 10 10 8 7 7 6 6 5 5 5 4 5 4 4 3 4 4 3 3 3 3 3 3 4 3 3 3 2 2 3 3 3 3 3 3 2 2 3 3 2 2 2 2 3 2 2 2 2 2 1 2 2 2 1 1 2 2 2 1 1 2 2 2 2 2 1 1 1 2 2 2 1 1 1 1 1 1 1 1 1 1 1 1 2 1 1 2 2 1 1 2 1 2 1 1 1 1 0 1 1 1 1 0 1 1 1 1 1 2 1 1 1 1 1 2 1 0 0 1 0 1 1 1 0 1 1 2 1 0 1 1 0 1 1 1 1 0 0 1 0 0 1 0 1 1 1 1 1 0 1 1 1 1 0 2 1 0 1 0 0 2 0 1 1 1 1 1 2 1 1 1 1 0 0 1 1 1 1 1 0 1 0 2 -2 1 
1 2 0 2 0 1 1 2 1 1 0 1 1 2 0 1 1 2 1 1 0 1 1 1 1 1 1 2 0 1 1 1 1 0 0 1 1 2 1 1 0 1 0 1 1 1 1 0 0 1 0 1 1 1 1 1 1 1 1 1 1 0 0 1 1 1 0 1 1 1 1 1 0 0 1 1 1 1 1 1 0 1 1 1 1 1 2 2 1 1 1 0 1 1 2 1 1 2 2 0 1 2 1 2 1 1 3 2 1 2 1 1 1 1 1 2 2 1 0 1 1 1 1 1 1 1 2 2 2 2 2 3 2 2 2 2 2 2 3 2 1 2 2 2 2 2 2 2 2 2 2 3 3 2 2 2 2 2 2 2 2 3 3 2 2 2 2 2 3 3 3 3 3 4 4 4 4 4 4 4 4 4 4 5 5 5 6 5 6 7 8 9 9 10 11 11 12 17 31 56 88 119 139 148 151 152 154 156 158 159 159 160 161 162 162 162 163 164 163 163 164 165 165 165 166 166 166 166 166 167 167 167 166 166 167 167 167 166 166 167 167 166 166 166 167 167 167 167 166 166 166 167 167 166 166 166 166 166 166 166 166 166 166 166 166 165 165 166 165 164 164 165 166 165 165 165 165 165 165 165 165 164 165 165 164 164 165 166 166 166 165 164 163 163 162 161 159 159 159 160 161 162 163 164 164 164 164 164 163 163 162 161 161 161 161 160 161 160 159 159 159 159 159 159 159 159 159 158 158 158 158 158 157 157 157 157 158 157 157 156 156 157 157 156 156 157 156 156 155 155 155 154 154 154 154 154 154 155 155 154 153 153 154 154 154 153 153 153 153 153 153 153 153 152 152 152 152 151 151 152 151 151 151 151 150 150 150 151 150 150 149 149 150 150 149 149 149 149 149 148 148 148 147 148 148 147 147 147 147 147 147 146 145 145 146 146 145 144 143 143 143 144 143 142 140 141 142 141 139 137 137 138 135 123 100 71 44 27 20 22 33 53 80 107 124 131 131 133 132 124 103 72 40 20 11 10 10 9 7 6 6 6 5 6 5 5 5 5 5 4 4 4 4 3 3 3 3 3 3 4 4 4 3 3 2 2 3 3 2 2 2 3 3 3 2 2 2 2 3 2 2 2 2 2 2 1 1 1 1 1 2 2 1 1 2 2 2 2 2 2 1 1 1 2 2 2 1 1 1 1 2 1 1 2 1 2 2 1 1 1 1 1 1 1 1 1 0 1 1 2 1 1 1 2 2 1 1 1 2 1 1 1 1 1 1 1 1 1 1 1 1 1 1 1 1 1 2 2 1 1 1 2 1 1 1 2 1 1 1 1 1 1 0 0 0 1 1 0 0 1 1 1 1 1 1 1 0 1 0 1 1 0 1 1 0 2 0 1 1 1 1 1 0 1 0 0 0 1 0 1 0 1 1 1 -1 2 -1 2 0 0 
2 0 3 -1 2 -1 2 1 1 1 1 0 0 1 0 1 1 1 1 1 0 0 1 1 1 0 0 1 1 1 1 0 1 0 1 1 1 1 1 0 0 0 0 1 0 1 0 0 1 1 1 1 1 1 1 0 0 1 2 1 1 1 1 1 0 1 1 2 1 1 1 0 1 1 0 0 1 0 0 0 0 1 0 1 2 1 1 2 2 1 1 0 1 1 1 1 1 2 2 1 1 1 1 2 1 1 2 1 0 1 1 1 1 1 2 1 1 1 1 1 2 1 1 1 1 2 2 2 2 2 3 3 2 1 2 2 2 1 1 1 1 2 2 2 2 1 2 2 2 2 3 3 2 2 2 2 2 2 3 2 2 2 3 3 3 3 3 3 3 3 3 4 4 4 5 5 4 4 4 5 5 4 5 6 6 6 5 5 6 7 7 9 10 11 11 10 12 22 40 70 103 129 144 150 151 153 155 157 158 159 159 161 162 162 162 163 164 164 163 164 165 165 165 165 166 166 166 166 166 166 167 167 167 166 166 166 166 166 167 167 167 167 167 167 167 166 166 167 167 166 166 167 167 166 166 166 167 166 166 166 166 166 166 166 166 166 166 166 165 165 165 165 166 165 165 165 165 165 165 165 165 165 165 165 165 165 165 165 166 166 166 166 165 164 163 162 161 160 161 161 160 161 162 164 164 164 163 164 164 163 162 162 161 161 161 161 162 161 159 159 159 160 160 159 159 158 158 158 159 159 158 158 158 157 157 158 158 157 157 156 156 156 156 157 157 156 156 156 156 155 155 155 154 154 154 153 154 154 154 153 153 153 154 154 154 153 153 153 152 153 153 153 153 153 153 153 153 152 152 152 152 152 151 151 151 150 150 150 150 150 149 149 150 150 149 149 149 149 149 149 148 148 148 148 147 147 148 147 146 146 146 146 146 146 145 145 145 143 143 144 145 144 142 141 141 142 142 140 137 137 139 139 131 115 88 59 36 23 19 25 39 63 92 115 129 133 132 133 134 126 107 77 44 22 12 9 10 9 7 7 7 6 6 6 5 5 5 5 4 3 4 4 4 3 3 3 3 3 4 3 3 3 3 3 3 2 3 3 3 3 3 3 3 3 2 2 2 2 3 2 2 2 2 2 2 2 2 2 1 1 2 2 1 1 2 2 2 2 2 1 1 1 1 1 2 2 1 1 1 1 2 1 1 1 1 1 2 1 2 1 1 1 1 1 1 2 1 1 0 1 1 1 1 1 2 1 1 1 1 1 1 1 1 1 1 1 1 2 1 1 1 1 1 0 1 1 1 1 1 2 1 0 1 1 1 1 1 2 1 0 0 0 0 0 1 1 1 0 1 1 1 1 1 1 1 1 0 1 0 1 1 0 1 1 1 1 0 1 0 1 1 1 0 0 1 1 1 0 0 0 0 1 1 1 1 0 1 -1 3 0 
2 0 2 -1 3 -1 1 0 1 0 1 0 1 1 1 0 1 1 2 0 1 0 2 1 1 0 0 1 1 1 1 0 0 -1 1 1 1 1 1 0 1 0 0 1 1 0 0 0 0 0 1 2 2 1 1 0 0 1 1 1 1 0 1 1 1 1 0 1 2 1 1 0 1 1 1 1 1 0 -1 0 0 1 1 2 2 2 1 1 1 1 1 1 1 0 1 1 1 1 1 1 1 1 1 1 1 1 2 1 0 1 1 1 2 1 1 1 2 2 1 1 1 1 1 1 1 1 1 1 2 2 2 1 1 1 1 1 1 2 2 1 1 2 2 2 2 1 1 1 1 1 2 2 2 2 2 2 3 3 2 3 2 2 3 3 3 3 3 3 3 2 3 3 4 4 4 4 4 5 5 5 5 5 5 5 5 6 5 5 7 7 7 9 9 10 12 12 16 28 51 83 115 136 147 152 152 153 156 157 158 159 159 160 161 161 162 163 163 164 164 164 164 165 165 165 165 166 166 166 166 166 166 166 166 166 166 167 167 167 167 167 167 167 166 167 167 167 167 167 166 167 167 167 167 166 166 166 166 166 166 166 166 166 166 165 166 166 166 165 165 165 165 165 165 165 166 165 165 165 166 166 166 166 166 165 164 165 165 165 165 166 166 166 165 164 164 163 162 162 162 161 160 161 161 162 162 162 162 164 164 164 163 163 162 161 162 162 161 161 160 160 160 160 160 160 159 159 159 159 160 160 159 158 158 157 158 158 158 157 157 156 156 156 156 157 156 156 156 156 156 155 155 156 155 155 155 155 155 155 154 154 154 154 154 154 154 154 153 153 153 153 153 152 152 152 153 152 152 152 152 152 152 152 152 152 152 151 150 151 151 151 150 150 150 150 149 150 150 149 149 149 148 148 149 149 149 148 147 147 147 147 147 147 147 146 146 145 144 145 146 146 145 144 142 142 142 141 140 140 139 139 140 136 125 104 75 47 29 20 20 31 49 76 104 122 131 134 134 135 136 128 111 82 49 24 13 10 10 9 8 7 6 5 6 6 5 5 5 5 4 4 4 5 4 4 3 3 3 3 3 3 3 3 4 3 3 3 3 3 3 3 2 2 3 2 2 2 2 2 3 2 2 2 2 2 2 2 2 2 3 2 2 1 1 2 1 2 2 2 2 1 1 1 2 1 2 1 2 2 2 1 1 1 1 1 1 1 2 1 1 1 2 1 1 1 1 2 1 1 1 1 1 1 1 1 2 1 1 1 1 1 1 1 1 1 1 1 1 1 1 2 1 1 1 0 1 0 2 2 1 1 0 1 1 0 1 1 1 0 1 1 0 1 1 0 1 1 2 1 2 1 1 1 2 1 1 1 1 1 1 0 1 0 1 0 1 0 1 1 1 1 2 1 1 0 2 1 2 0 1 0 0 0 1 0 1 0 2 0 2 0 
1 0 1 -1 1 0 0 1 1 1 1 1 1 1 -1 0 1 1 1 0 0 0 2 1 1 1 0 1 1 1 1 0 1 1 2 1 1 1 0 0 0 0 1 1 1 1 0 0 1 1 1 0 1 1 0 0 1 1 1 1 1 1 1 1 0 1 1 2 1 1 2 1 1 1 1 1 1 1 0 1 0 1 1 1 1 2 1 1 1 1 1 1 1 1 2 1 2 1 1 2 0 0 0 1 1 1 1 0 0 0 1 2 2 1 1 2 1 1 2 1 2 2 1 2 2 1 1 1 1 1 1 2 1 1 1 2 1 2 2 2 2 3 3 2 2 2 2 2 1 2 2 2 2 2 2 3 3 3 3 2 2 3 3 3 2 3 4 3 2 3 3 3 3 4 5 5 4 4 4 5 5 5 6 6 6 6 6 6 8 7 7 9 9 10 11 12 19 37 64 97 125 142 150 153 153 154 156 158 158 159 159 161 162 162 162 164 164 164 165 164 165 165 165 165 165 166 167 167 166 166 166 166 166 167 167 167 167 167 166 166 167 167 167 167 167 166 167 166 166 167 167 167 166 166 166 166 166 166 166 166 165 165 165 165 166 165 165 165 165 165 166 166 165 165 165 165 165 165 166 166 166 166 166 165 165 165 164 164 165 166 166 166 165 164 165 165 164 163 163 163 162 160 161 161 161 161 162 163 164 165 164 163 163 163 163 162 162 162 161 161 161 161 161 161 160 159 159 159 160 160 160 158 158 158 157 157 157 157 157 156 156 157 157 157 156 156 156 156 156 156 156 156 155 155 155 155 155 155 154 154 153 154 154 153 154 154 153 153 153 153 153 153 152 152 152 153 153 152 152 152 153 152 152 152 152 151 150 151 151 151 150 150 150 150 149 149 150 150 149 149 149 149 149 149 148 148 148 147 147 147 147 147 146 146 145 145 145 146 146 145 144 143 142 142 143 141 140 139 139 140 139 131 114 89 61 37 24 20 24 38 60 88 113 128 134 135 134 136 136 130 113 86 52 26 14 11 11 10 8 7 6 6 7 7 6 4 4 5 5 4 4 4 4 4 4 3 3 3 3 3 3 3 3 3 3 3 3 3 3 3 3 2 2 2 2 2 2 3 2 2 2 2 2 2 2 2 2 2 2 2 2 1 1 2 2 2 2 1 2 1 1 1 1 1 2 2 2 2 2 1 2 2 1 1 1 1 1 1 2 1 1 1 1 1 1 2 2 1 1 0 1 1 1 1 1 1 1 1 1 1 1 1 1 1 1 1 1 1 1 2 1 1 1 1 1 1 1 0 0 2 1 0 1 2 1 1 1 1 0 0 0 1 1 0 1 1 1 1 2 1 1 0 1 1 0 1 1 1 1 1 1 1 1 1 1 0 1 1 0 1 1 1 1 0 1 1 1 1 1 0 0 1 0 1 0 1 1 0 1 1 
0 1 1 0 0 1 1 0 1 0 1 1 1 1 0 0 1 1 1 1 1 1 1 1 1 1 -1 1 1 1 1 0 0 0 1 1 1 0 0 1 0 1 1 1 1 2 1 0 1 0 1 1 2 1 0 0 0 1 1 1 1 1 1 1 0 1 1 1 1 1 2 1 1 1 1 1 1 1 0 1 0 0 1 2 2 2 2 1 2 1 1 2 1 0 1 1 2 1 1 1 1 1 0 1 1 1 1 0 1 1 1 1 2 1 1 1 1 2 1 1 2 2 2 2 2 1 2 1 1 1 1 2 2 2 1 1 1 2 2 2 2 2 2 3 2 2 2 2 2 2 2 2 2 2 2 3 3 2 2 2 2 3 3 3 3 3 3 4 3 3 3 3 3 4 4 4 4 4 4 4 4 5 6 6 6 7 6 7 8 8 7 9 10 11 11 14 24 46 78 110 133 146 151 153 154 155 157 158 158 159 160 161 162 163 163 164 164 165 165 165 164 165 165 165 166 166 166 166 166 166 166 167 167 167 166 166 166 167 167 167 167 166 167 167 167 167 167 166 166 167 167 166 166 165 166 166 165 165 166 165 165 166 166 165 165 165 165 165 165 166 166 166 165 166 166 166 165 165 165 165 165 165 165 165 165 165 165 164 164 165 165 165 165 165 165 165 164 164 164 163 162 162 161 161 161 161 161 163 164 164 164 163 163 163 163 162 161 161 162 162 161 160 160 161 160 160 161 161 160 159 159 159 159 158 158 158 158 157 158 158 158 157 156 156 156 156 156 156 156 156 156 155 155 155 156 156 155 155 155 155 154 154 154 153 153 154 154 153 153 153 153 153 153 153 153 152 152 152 152 152 152 152 151 151 152 151 151 151 151 150 150 150 150 150 150 150 149 149 149 150 150 149 149 149 149 149 148 148 148 148 148 147 147 147 147 146 146 145 145 145 144 143 142 143 143 141 141 142 142 140 135 122 100 72 46 29 22 22 31 49 74 101 121 131 134 135 136 138 137 131 117 90 56 29 15 11 11 10 9 7 6 6 6 7 6 5 4 5 5 5 5 5 4 4 4 4 3 3 3 3 3 3 3 3 3 3 2 2 2 2 2 2 2 2 1 2 2 2 2 2 2 2 2 2 1 1 2 2 2 2 2 2 1 2 2 2 2 2 2 1 1 2 1 1 2 1 2 2 1 1 1 1 1 1 1 1 1 1 1 1 1 1 1 1 1 2 2 1 2 1 1 2 1 1 1 1 1 1 1 1 1 2 2 1 1 1 1 1 1 2 1 1 1 1 1 1 2 1 1 1 0 0 1 1 1 1 1 1 0 1 0 2 0 0 1 1 1 1 1 0 1 1 1 1 0 1 0 1 1 1 0 0 1 1 2 1 1 1 0 1 0 1 1 1 1 1 1 0 1 0 0 0 1 2 0 1 0 1 0 1 
2 -1 1 1 0 0 1 0 1 0 1 2 1 1 1 0 1 2 1 1 1 0 2 1 0 1 0 1 1 1 1 0 1 1 1 0 1 0 0 1 1 1 1 1 1 0 0 0 1 0 1 1 1 1 1 1 1 2 2 1 2 1 1 1 1 1 1 1 2 1 2 1 2 1 0 1 2 2 1 1 1 1 1 1 1 1 1 1 2 1 0 1 1 1 1 1 1 0 1 1 1 1 0 1 1 1 1 1 1 1 1 1 1 1 0 1 1 1 1 1 2 2 2 2 1 1 2 1 1 1 1 2 1 1 1 1 2 2 1 1 1 1 1 2 1 2 2 2 2 2 2 2 2 2 2 2 2 2 2 2 3 3 3 3 3 3 3 4 3 3 4 3 3 4 4 4 4 3 4 5 6 5 5 6 6 6 6 7 8 8 8 10 11 10 11 17 31 57 90 120 139 148 151 153 155 156 157 158 158 160 161 161 162 163 163 164 164 165 165 164 164 165 166 165 165 165 166 166 166 166 166 167 167 166 166 166 166 166 167 167 167 166 166 166 166 166 166 166 166 167 166 166 165 165 165 165 165 166 166 166 165 166 165 165 165 165 165 166 165 165 166 166 166 166 166 165 165 165 165 165 164 164 165 165 165 165 165 165 165 165 165 165 164 164 165 165 165 165 164 164 164 163 162 161 161 161 161 161 162 162 163 164 164 164 163 162 161 162 162 163 162 161 161 161 161 161 160 159 159 160 159 160 160 160 159 158 158 158 158 158 157 157 157 157 156 156 157 157 157 156 156 156 155 156 156 156 156 155 155 155 155 155 155 154 154 154 155 155 154 154 154 153 154 153 153 153 153 152 152 152 152 152 152 152 153 152 151 151 151 151 150 150 150 150 150 150 150 149 149 150 150 150 149 149 150 149 149 148 148 148 147 147 148 148 148 147 145 145 145 145 145 144 143 143 143 142 142 142 141 137 126 106 81 56 36 25 23 28 42 63 89 113 127 134 136 136 138 138 137 132 119 93 59 31 16 11 11 10 8 8 7 7 7 7 6 5 4 4 5 5 4 4 4 3 3 3 3 3 3 3 2 2 2 2 3 3 3 3 3 3 2 2 2 2 2 2 2 2 2 2 2 2 2 2 2 2 2 2 2 2 2 2 2 3 2 2 2 2 2 2 1 1 1 1 2 2 2 2 1 1 1 2 1 1 1 1 1 0 1 1 1 1 1 2 1 2 2 2 1 0 1 2 1 1 1 1 2 2 1 1 2 1 1 1 1 0 1 2 1 1 1 1 0 1 2 2 2 1 1 1 0 0 1 1 1 1 1 1 1 1 0 2 1 1 1 0 1 1 1 1 1 0 1 1 0 1 1 1 1 1 1 1 2 1 2 1 1 2 1 1 0 0 1 1 1 1 1 0 0 0 1 0 0 2 1 1 0 0 1 0 
1 2 0 1 -1 1 1 0 1 2 0 1 0 1 1 1 1 2 0 1 1 0 1 1 0 1 0 1 1 1 1 1 1 1 0 1 1 1 0 1 1 1 1 2 1 0 0 0 2 0 1 1 1 1 0 1 1 1 1 2 2 1 0 1 0 1 1 1 1 1 2 0 1 0 1 2 1 2 1 1 1 0 0 1 1 1 1 0 1 1 0 1 0 1 1 0 1 0 1 1 1 2 0 2 1 1 1 1 2 1 2 2 2 1 1 1 1 1 1 1 1 2 1 2 2 1 2 2 2 2 1 2 2 2 2 1 1 1 1 1 1 2 2 1 1 2 2 2 2 2 2 3 3 2 2 2 2 2 2 3 3 4 3 2 3 3 3 4 3 3 4 3 3 4 3 3 4 4 4 5 6 5 5 6 6 6 6 7 8 8 9 11 12 11 13 21 40 70 104 129 143 150 152 154 156 156 158 159 160 161 160 161 162 163 162 163 164 165 165 165 165 165 165 166 166 166 166 167 167 166 166 166 167 167 166 166 167 167 167 167 167 166 167 167 166 166 166 166 167 167 166 166 166 166 166 165 165 166 166 166 166 165 165 165 166 165 165 165 165 165 166 165 166 166 165 164 164 164 165 165 164 164 165 165 165 165 164 164 164 164 164 164 164 164 164 164 164 165 164 164 164 163 163 163 162 162 161 161 161 161 162 163 163 163 163 163 162 162 163 163 162 162 162 162 162 162 161 161 160 160 160 160 160 159 159 159 158 158 158 158 157 157 157 157 156 157 158 158 157 156 156 156 156 156 156 155 155 155 155 155 155 155 155 154 154 154 155 155 154 154 154 153 153 153 153 153 152 152 153 153 152 152 152 152 152 152 152 153 152 152 151 151 151 151 151 151 150 149 150 150 150 150 149 150 150 150 149 149 148 148 148 148 149 148 148 147 146 146 146 145 145 143 142 143 144 143 143 142 138 128 111 86 62 42 29 24 27 38 59 82 106 124 133 136 137 138 140 140 138 133 122 98 65 35 17 11 10 10 9 8 7 7 6 6 6 5 5 4 5 5 5 4 4 3 3 4 3 3 4 3 3 3 3 3 3 3 3 2 2 3 3 3 2 2 2 2 2 2 2 2 2 2 2 2 2 2 2 2 2 1 1 2 1 2 1 1 2 2 2 1 1 2 1 1 2 2 2 2 1 1 1 1 1 1 1 1 2 1 2 1 1 1 1 2 1 1 1 0 1 1 1 2 1 2 1 1 1 2 2 2 1 2 2 1 1 1 0 1 0 2 1 1 0 1 1 1 1 1 1 1 0 1 1 1 1 0 1 1 0 1 0 2 1 1 1 0 0 1 1 1 1 1 0 0 0 1 2 1 1 2 1 0 1 1 2 1 1 2 0 0 0 1 1 1 1 1 1 0 0 0 0 1 1 2 0 2 -1 2 -1 1 
0 3 -1 2 1 1 0 1 1 2 0 2 -1 0 0 2 1 1 -1 1 1 1 1 1 0 1 0 0 1 1 1 1 1 2 0 1 0 1 1 1 1 2 1 1 1 1 0 0 2 0 0 1 1 1 0 1 1 1 1 1 1 1 0 0 0 1 0 1 0 1 2 1 1 1 1 2 2 2 1 0 1 1 0 1 1 1 1 0 0 0 1 2 0 1 1 1 1 1 2 2 2 2 0 1 1 1 1 1 1 1 1 1 2 2 1 1 1 1 1 1 1 1 1 1 1 1 2 1 1 1 1 2 1 0 1 2 2 1 1 1 2 2 1 1 1 2 1 2 2 2 2 2 2 2 2 2 2 3 3 2 2 3 3 3 3 2 3 3 3 3 4 4 4 4 3 4 4 4 4 5 6 5 5 5 6 6 6 8 9 9 10 12 12 12 15 26 50 83 114 135 147 151 152 154 156 157 158 159 160 161 161 161 162 162 162 163 164 164 164 164 165 165 165 165 165 165 165 166 166 166 166 167 167 167 166 166 167 167 167 166 166 167 166 166 166 166 166 167 167 166 166 166 166 166 166 165 165 166 166 166 165 165 165 166 165 165 165 165 165 165 166 165 165 166 165 165 165 165 165 165 165 165 165 165 165 165 164 164 165 165 164 164 164 165 165 164 165 165 165 164 164 164 164 164 163 163 162 161 161 161 162 162 162 162 161 162 162 162 162 163 163 163 162 163 162 162 162 161 160 160 160 159 159 159 159 159 159 159 159 159 158 158 158 158 157 158 159 159 158 157 156 156 156 156 156 155 155 156 156 155 155 155 155 155 154 154 155 156 155 155 154 154 154 153 153 154 153 153 152 152 152 152 152 153 153 152 152 152 152 151 151 152 152 151 151 152 151 150 150 151 151 150 150 150 150 150 150 150 149 149 148 148 148 148 147 147 146 146 146 146 145 145 144 144 144 143 142 140 131 114 91 66 46 32 25 27 37 54 77 101 120 133 138 138 139 141 142 141 138 134 124 102 68 37 19 12 10 10 9 8 7 7 6 6 6 6 5 4 4 4 4 4 5 4 4 4 3 3 3 3 3 4 3 3 3 3 2 2 3 3 2 2 2 2 2 2 2 2 2 2 2 2 2 2 2 2 2 2 2 1 2 2 2 2 1 1 1 2 2 1 2 2 1 1 1 1 2 2 1 2 1 1 1 2 1 2 2 0 2 2 1 2 1 2 1 1 1 0 1 1 1 2 1 1 1 1 2 2 2 2 1 2 2 1 2 1 1 1 0 1 0 1 1 1 1 1 1 1 1 1 1 1 1 1 2 0 1 1 1 1 1 2 1 1 1 1 1 0 1 1 1 1 0 0 0 1 1 1 0 1 1 1 1 1 1 1 1 2 0 1 1 1 0 1 0 2 0 1 0 0 0 1 0 2 1 1 -1 2 -2 3 
1 0 1 1 1 0 1 0 1 1 1 2 0 0 1 0 1 1 0 0 1 1 1 0 0 1 1 0 0 1 1 0 1 1 1 1 0 1 1 1 1 1 1 1 1 1 1 1 2 1 1 0 0 1 0 1 1 1 1 1 1 1 1 1 0 0 0 1 1 1 2 1 2 1 1 2 1 1 1 0 1 0 0 1 1 1 1 0 1 1 1 1 0 2 1 1 2 1 1 1 2 2 1 1 1 1 1 1 1 1 1 1 2 2 1 1 2 1 1 1 0 1 1 2 2 1 1 1 1 1 1 1 1 2 2 2 1 2 2 2 2 2 2 2 1 2 2 2 2 2 2 3 3 2 2 2 2 2 2 3 3 3 3 3 3 3 3 3 3 3 4 3 4 4 4 4 4 3 4 5 5 5 5 5 6 7 7 7 8 8 10 12 12 12 17 32 60 95 124 141 149 150 152 155 157 157 158 159 161 162 161 161 162 163 163 164 164 164 164 165 165 165 165 166 165 165 165 166 166 166 166 167 167 166 166 167 167 166 166 166 167 167 166 166 166 166 166 167 167 166 165 166 166 166 166 166 166 166 166 165 165 165 165 165 165 165 165 165 165 165 165 165 165 166 165 165 165 165 165 165 164 165 165 164 165 165 165 165 165 165 164 164 164 164 165 165 165 165 164 164 164 164 164 164 165 164 163 162 162 162 162 161 161 161 161 162 162 162 162 162 163 164 163 163 163 162 162 162 162 161 160 160 160 160 160 160 159 159 159 159 158 158 158 158 158 158 158 158 158 157 157 157 157 156 156 156 156 156 156 155 155 155 155 154 154 155 155 155 155 156 156 155 154 153 153 154 154 154 153 153 153 152 152 152 152 152 152 152 152 152 152 152 152 152 152 152 151 150 151 150 150 150 150 150 149 150 150 149 149 149 148 148 148 147 147 147 146 146 146 145 145 145 145 145 144 143 139 131 115 94 70 48 33 27 27 35 52 74 97 117 130 138 140 140 141 143 142 140 139 135 126 105 73 41 21 12 11 11 10 8 8 7 6 6 6 5 5 5 5 5 4 4 4 4 4 4 4 3 4 4 4 3 3 3 3 3 2 3 3 3 3 3 3 2 2 2 3 2 2 2 2 2 2 1 2 3 2 1 2 2 2 2 2 3 2 2 2 2 2 2 2 2 1 2 2 1 1 2 2 2 2 2 1 1 1 1 1 0 2 1 1 1 0 1 1 1 2 0 1 1 1 1 0 1 0 1 2 1 1 1 1 3 2 1 2 1 0 1 0 2 1 1 1 0 1 1 1 1 1 0 0 1 1 1 2 1 1 1 1 1 0 1 0 2 1 0 0 1 2 2 1 1 0 0 1 1 1 0 1 2 1 0 0 1 1 1 1 1 0 0 0 0 0 0 0 1 1 0 1 0 1 1 1 1 1 1 0 0 1 0 
2 0 2 -1 2 0 1 0 1 1 1 2 1 0 1 1 1 1 0 1 2 1 1 0 0 1 1 1 0 1 1 1 1 1 1 1 0 1 1 0 2 1 1 2 1 1 1 0 2 1 1 1 1 1 0 1 1 1 1 1 1 1 0 0 0 0 0 1 0 1 2 1 2 0 1 2 1 1 2 0 0 1 0 1 1 2 2 1 1 0 1 2 0 2 2 1 2 1 2 1 1 2 1 2 1 1 2 1 1 1 1 1 1 2 1 1 2 2 2 1 1 1 1 1 1 1 2 1 1 1 1 2 1 1 1 2 2 2 3 3 2 2 1 1 2 2 2 2 2 2 2 2 2 2 2 2 3 3 2 2 2 3 3 3 2 2 3 3 3 4 3 3 3 4 4 4 5 4 4 5 4 5 5 6 6 7 7 8 8 8 10 11 10 13 21 38 70 105 131 145 151 151 153 155 156 157 158 159 161 161 161 162 163 163 163 164 164 164 164 164 165 165 165 165 165 165 165 166 166 166 166 167 167 166 167 167 167 166 166 166 167 167 166 166 166 166 167 167 166 166 166 166 165 165 165 166 166 165 165 165 166 165 165 165 166 166 165 165 165 165 165 165 165 165 165 165 164 164 165 165 165 165 165 165 165 165 164 164 164 164 164 164 164 164 164 164 165 165 164 164 165 165 165 164 165 165 164 163 163 163 163 162 162 161 160 161 161 161 162 162 162 163 163 163 162 162 163 163 162 161 160 160 160 160 160 159 159 159 159 160 160 159 159 158 158 158 158 158 158 157 157 158 158 157 157 156 156 156 156 156 156 155 155 155 155 155 155 156 156 156 156 155 154 155 155 154 154 154 154 154 153 153 153 153 153 153 153 153 152 152 152 153 153 151 151 151 151 150 150 151 152 151 151 150 150 150 149 149 149 149 148 148 148 148 148 147 147 147 147 146 146 147 146 144 143 139 130 116 95 72 51 35 27 27 34 49 71 94 113 128 136 140 142 142 142 144 143 141 140 137 128 109 78 45 23 14 11 11 9 8 7 7 6 6 6 6 5 5 5 5 4 4 4 4 3 4 4 4 3 2 3 4 4 3 2 2 3 3 3 3 3 2 2 2 2 3 3 2 2 2 2 2 2 1 1 1 2 2 2 2 2 2 3 3 2 2 2 2 2 1 2 1 1 1 1 1 2 2 1 1 1 1 1 1 1 1 2 1 1 1 1 2 1 1 1 1 2 0 2 1 1 1 1 1 1 1 1 0 1 1 1 2 1 1 2 1 0 1 1 1 0 0 1 0 0 1 1 1 1 1 1 1 1 1 2 1 2 1 1 1 0 1 1 1 1 1 2 0 0 1 1 1 1 0 2 0 1 1 1 1 1 1 1 1 1 1 1 1 1 1 1 1 1 1 0 2 1 0 1 0 1 0 1 1 2 0 1 -1 1 1 
1 0 1 0 0 0 -1 1 0 1 0 2 1 1 1 1 1 1 1 1 1 1 0 0 0 1 0 1 0 1 1 1 1 1 1 1 0 1 1 1 1 1 0 1 1 1 1 1 2 1 1 1 1 2 0 0 0 0 0 0 1 2 0 0 1 0 0 2 1 1 1 1 1 0 0 2 1 0 1 0 1 1 0 1 1 1 1 1 2 1 1 2 0 2 1 1 1 0 1 1 1 1 1 1 1 1 1 1 2 1 1 1 1 1 1 2 2 2 2 1 1 1 1 1 1 1 2 2 2 2 1 2 2 1 1 2 1 1 2 2 2 2 2 2 1 2 2 2 1 2 2 2 2 2 2 2 3 3 3 2 3 3 2 2 3 3 3 3 3 3 3 4 4 4 4 4 4 3 4 5 5 5 5 5 6 7 6 7 8 8 10 11 11 13 23 45 79 113 136 148 151 151 153 156 157 158 158 159 160 161 161 162 163 162 163 164 163 163 164 164 165 166 166 166 166 166 165 166 166 166 167 167 167 167 167 167 167 167 166 167 167 166 166 166 166 166 166 166 166 166 165 165 165 166 166 166 166 165 165 165 166 165 165 165 165 165 166 166 165 165 165 165 165 165 165 165 165 165 165 165 165 165 165 165 164 165 165 164 164 164 164 164 164 165 165 164 164 164 163 164 165 165 164 163 164 164 164 164 164 164 163 163 162 163 162 161 160 160 160 161 162 163 163 162 161 162 162 163 163 162 162 162 161 161 161 160 159 159 159 160 159 159 159 158 159 159 159 158 158 158 158 158 158 158 158 157 156 156 157 157 157 156 155 155 156 156 155 155 155 155 155 154 154 154 155 155 154 154 154 154 154 153 153 154 154 154 153 153 152 152 152 152 152 151 151 151 152 152 151 152 152 152 151 151 151 151 150 149 148 149 149 149 148 148 147 147 147 147 147 147 147 146 144 142 137 128 112 93 71 51 37 29 28 34 49 69 92 112 126 135 140 141 143 143 143 145 143 141 140 137 129 112 82 48 25 14 11 11 10 8 7 8 7 6 6 5 5 5 5 4 4 4 5 4 3 3 4 3 3 3 3 3 4 4 3 3 3 3 3 2 3 3 3 3 2 3 2 2 2 3 2 2 1 1 2 1 2 2 2 1 2 2 2 2 2 2 3 3 2 1 2 2 1 1 1 1 1 2 1 1 1 2 2 1 1 1 1 1 2 2 1 2 1 2 0 1 2 1 2 1 1 1 1 2 1 1 1 0 1 1 1 2 0 1 1 0 1 1 1 1 1 1 2 1 0 1 0 1 1 0 1 1 0 1 1 1 2 1 1 1 0 0 0 1 1 1 1 1 1 2 1 2 1 1 1 0 0 1 1 1 1 1 1 1 1 1 1 1 0 1 0 0 1 2 1 2 1 0 0 1 1 1 1 2 0 1 0 0 0 0 
0 2 -1 1 0 1 0 1 0 1 1 1 1 0 1 1 1 1 0 1 2 2 1 1 0 1 1 1 0 1 1 1 1 1 1 1 0 1 1 1 1 1 1 1 1 1 1 1 1 1 1 1 1 1 0 1 1 0 0 1 1 1 1 1 1 0 1 2 1 1 1 0 0 1 0 1 1 0 1 0 0 1 1 1 2 2 2 1 1 1 1 2 1 2 1 0 1 0 2 2 1 2 1 1 1 1 1 1 1 1 1 1 2 1 1 1 1 1 1 1 1 2 1 1 1 2 2 2 1 2 2 2 2 2 2 1 1 2 2 1 1 2 2 2 1 2 2 2 2 2 2 2 2 2 3 3 3 3 2 2 3 3 2 2 3 3 4 3 3 4 4 3 3 4 4 4 4 4 6 6 5 6 6 5 5 6 7 8 8 9 11 11 10 15 29 54 90 121 140 149 151 152 154 156 157 158 159 159 160 161 161 163 163 163 163 164 163 164 164 164 165 165 165 165 166 166 166 166 166 166 166 166 166 166 166 167 167 167 166 167 167 166 166 166 165 165 166 166 166 166 166 165 165 165 165 166 165 165 164 165 165 165 165 164 165 165 165 165 165 165 164 165 165 165 165 165 165 166 166 165 165 164 164 164 164 165 165 164 164 164 164 164 164 164 164 163 163 164 164 164 164 164 164 163 164 164 164 164 164 164 164 163 163 163 163 162 160 160 160 160 161 161 161 161 162 162 162 163 162 161 161 162 163 162 161 161 161 161 160 161 160 160 159 159 159 159 159 158 158 159 158 158 158 157 157 157 156 156 156 157 156 156 156 156 157 156 156 156 156 156 156 155 155 155 155 155 155 155 154 154 153 153 154 154 154 153 153 153 153 153 152 152 152 152 152 152 153 153 152 152 152 151 151 151 150 150 149 149 149 149 149 149 149 148 147 147 147 148 147 146 145 145 141 134 123 107 88 69 51 38 31 32 39 52 70 90 111 127 136 141 143 144 145 145 144 144 143 141 141 139 132 115 86 52 27 15 12 11 10 8 8 8 7 7 7 6 5 5 5 5 4 4 4 4 2 2 4 4 3 3 2 3 4 3 2 3 3 3 3 2 2 2 2 3 3 3 2 2 2 2 3 2 2 1 1 1 1 1 1 2 2 2 2 2 1 2 2 2 1 1 1 1 1 1 2 1 1 2 1 1 1 1 1 1 1 1 1 1 1 1 1 2 1 2 1 1 2 1 2 2 1 1 1 2 1 1 1 1 1 1 1 2 0 1 1 1 1 1 0 1 1 1 1 1 0 1 1 1 1 0 1 1 0 1 1 0 1 1 1 1 1 1 1 1 0 1 1 1 1 1 1 2 1 1 1 1 0 1 1 1 1 1 1 1 1 1 1 0 1 1 0 1 1 1 1 3 1 1 0 0 1 1 0 1 0 2 -1 2 -1 1 
1 -1 1 1 1 0 0 1 1 1 0 1 1 0 1 1 1 1 1 1 1 1 0 1 0 0 1 1 1 2 1 1 1 1 1 0 1 1 1 0 1 1 0 1 2 1 1 1 2 2 1 2 1 0 0 0 1 0 1 1 1 1 0 1 2 1 1 1 0 1 1 0 0 1 1 2 1 1 2 1 0 1 2 2 2 1 1 1 1 2 1 2 1 2 0 0 1 1 2 1 1 1 1 1 1 2 1 1 1 1 1 0 1 1 1 1 1 2 2 1 1 1 1 1 2 2 2 2 2 1 2 2 2 1 2 1 1 1 1 1 2 3 3 2 2 2 2 2 2 2 3 2 2 3 3 2 3 3 2 2 2 2 2 3 2 3 4 3 3 3 4 4 4 3 4 5 4 4 6 7 6 6 6 5 6 6 6 7 8 9 11 11 11 17 34 64 100 128 143 150 152 153 155 157 158 159 160 160 160 160 161 162 163 164 164 164 163 164 164 164 165 165 165 165 165 166 166 166 166 166 166 166 166 166 166 167 167 167 167 168 167 166 166 166 166 166 165 166 166 166 165 164 164 165 166 166 166 166 165 165 165 165 165 165 165 164 164 164 165 165 164 164 165 165 166 165 165 166 166 165 165 164 164 165 164 164 165 165 164 164 164 164 163 163 164 164 164 165 164 164 164 164 164 163 164 164 164 164 164 164 163 163 163 162 163 162 162 162 162 162 160 160 160 161 161 161 161 161 161 162 162 163 162 162 162 161 161 162 161 161 160 160 160 160 159 159 159 159 159 158 158 158 158 158 158 158 158 157 157 157 156 156 156 157 157 157 156 156 156 156 156 156 156 156 156 155 155 155 155 155 155 154 154 154 154 154 154 154 154 154 153 154 154 154 154 153 152 152 151 151 151 151 151 151 151 151 151 150 150 150 149 149 149 149 148 148 148 148 147 146 144 140 131 117 100 82 64 49 38 34 36 44 58 76 95 112 126 136 141 143 144 144 146 147 145 144 144 142 140 139 133 118 90 55 29 16 11 11 10 8 7 7 7 6 6 5 5 5 4 3 3 4 5 4 3 3 4 4 3 3 3 3 3 4 3 3 3 2 2 2 3 3 3 2 2 2 2 2 3 2 2 2 2 1 1 2 2 2 2 2 1 2 2 1 1 2 2 2 2 2 2 2 2 1 1 1 1 2 1 1 1 1 1 1 1 1 1 1 1 1 1 2 1 2 1 0 2 1 2 1 1 2 2 2 1 1 1 1 1 1 1 2 0 0 1 0 1 1 1 1 0 0 1 1 0 1 0 0 0 0 1 1 1 1 1 0 1 1 1 0 0 0 0 0 0 1 1 0 1 1 1 1 1 2 1 0 0 0 0 0 1 1 1 1 1 1 1 1 1 1 0 1 1 1 1 2 1 1 0 0 1 1 0 1 1 0 1 1 2 1 
-1 3 0 2 1 1 0 1 1 2 0 1 2 0 1 1 1 1 2 2 1 1 0 2 1 1 1 1 1 1 1 1 1 1 0 0 1 0 1 0 0 1 1 0 1 0 1 1 1 1 0 1 1 1 0 0 1 1 1 1 1 1 0 1 1 1 1 1 1 1 1 1 1 1 0 1 2 0 1 1 1 1 1 1 1 1 1 1 1 1 0 0 1 2 1 1 1 1 2 1 1 1 2 1 1 1 1 2 1 1 2 1 2 2 1 1 1 1 2 1 2 2 1 1 2 2 2 1 1 1 2 2 2 2 2 2 2 2 2 2 2 2 3 3 2 2 2 2 3 3 3 2 1 2 2 2 3 3 2 2 2 2 2 2 3 4 4 3 4 4 3 3 3 2 4 5 4 4 6 6 6 6 6 5 7 8 7 8 8 9 11 11 13 22 41 73 109 133 145 150 151 153 156 157 158 159 160 160 160 160 161 162 163 163 164 164 164 165 165 165 166 166 165 165 166 166 166 166 165 166 165 165 165 166 165 166 166 166 166 167 166 166 167 167 166 166 166 166 166 166 166 165 165 165 165 165 166 165 165 166 166 166 166 165 165 165 164 164 165 165 165 165 165 165 165 165 164 165 164 164 164 164 164 164 164 164 164 164 164 165 164 163 164 164 164 163 164 164 164 164 164 164 164 164 164 164 163 163 164 164 164 164 164 163 164 163 163 162 163 163 162 160 160 161 161 161 160 160 160 161 162 162 162 162 162 162 162 162 161 161 161 160 160 160 160 160 160 159 159 159 159 158 158 158 158 158 158 157 158 158 157 157 158 157 157 157 157 156 156 155 156 156 156 156 156 155 156 156 156 155 155 155 156 155 155 155 155 155 155 154 153 153 154 153 153 152 152 152 151 151 152 152 151 151 151 151 151 151 150 150 149 149 150 150 149 149 149 147 145 140 134 125 111 93 75 58 45 37 35 39 50 66 84 101 115 127 136 142 144 144 145 146 148 148 145 145 145 143 141 139 134 120 94 59 32 17 11 10 10 8 8 7 7 6 7 6 5 5 5 4 4 4 4 4 3 3 4 4 4 3 4 3 3 4 3 3 3 3 3 2 2 2 2 2 3 3 2 2 2 2 2 2 2 2 2 2 2 2 2 1 1 2 2 2 1 1 1 1 1 1 2 2 2 1 2 1 2 1 1 1 1 1 2 1 1 1 1 2 1 1 1 2 1 1 1 0 0 1 2 2 2 1 2 2 1 1 1 1 1 1 1 1 1 1 1 0 1 1 1 1 0 0 0 1 1 1 1 0 0 0 1 1 0 1 2 1 1 1 1 0 1 1 1 1 0 1 1 1 1 0 1 2 1 1 1 1 0 1 1 1 1 0 1 1 1 1 1 1 1 0 0 1 1 2 1 2 0 0 0 0 1 1 1 1 0 1 0 1 -2 2 
1 -1 2 0 1 1 1 0 0 1 0 0 1 0 0 0 1 1 2 0 0 0 0 2 1 0 0 1 1 1 1 1 1 1 1 1 1 0 1 1 0 0 1 1 2 0 1 1 0 1 1 2 1 1 1 1 1 1 1 1 1 0 0 1 1 0 0 1 0 0 2 1 1 1 0 1 2 1 1 1 0 1 1 0 1 2 1 0 0 1 1 1 1 2 1 0 1 1 1 0 1 1 1 1 2 2 1 2 1 1 2 1 2 2 1 2 1 0 1 1 1 1 2 2 1 1 1 1 1 1 2 2 2 1 1 2 2 2 1 1 2 3 3 2 2 2 2 2 2 2 2 2 2 2 2 2 3 3 2 2 2 2 3 3 3 3 3 3 4 3 3 3 3 3 4 5 3 4 5 5 5 6 6 5 7 8 8 8 8 10 11 11 15 26 48 83 117 138 148 151 152 154 157 157 158 159 160 160 160 161 162 163 163 163 164 164 164 165 165 165 166 166 166 166 166 166 166 166 166 165 165 166 166 165 165 165 166 166 165 165 165 165 166 166 166 167 167 166 166 166 166 165 165 166 166 165 165 165 166 166 165 165 165 165 165 166 165 165 165 165 165 165 165 165 165 165 164 164 164 163 164 164 164 164 163 163 164 164 164 164 164 163 163 164 164 164 164 164 164 164 164 163 163 164 164 164 163 164 164 165 164 164 163 163 164 164 164 163 163 163 162 161 161 161 161 161 160 159 160 161 161 161 161 162 161 161 161 162 162 161 160 160 160 161 161 161 161 161 160 159 159 159 159 159 158 159 159 158 158 157 157 158 159 158 158 158 157 156 156 156 156 156 156 156 156 155 156 156 155 155 156 156 155 154 154 155 155 154 154 153 153 153 153 152 152 152 153 152 152 152 153 153 152 151 152 151 151 151 151 151 150 150 151 150 148 147 145 140 134 125 113 100 85 68 54 43 38 38 45 57 73 91 107 120 131 138 142 145 145 146 147 148 148 148 146 146 146 143 141 140 136 123 98 63 34 18 11 10 10 8 7 8 7 6 6 6 5 5 5 5 4 4 4 4 4 3 3 3 3 3 3 3 3 4 3 2 2 2 3 3 3 3 2 2 2 2 2 2 2 2 2 2 2 2 2 2 2 2 2 1 1 2 2 1 1 1 1 2 2 1 2 3 2 2 2 1 1 1 1 2 1 0 1 1 1 2 1 2 1 2 1 1 1 2 1 1 1 1 1 1 1 1 2 2 2 1 1 1 1 0 1 2 1 0 1 0 2 0 0 2 1 1 1 1 1 0 1 0 1 1 0 1 1 1 1 1 1 1 1 0 1 0 1 1 0 2 1 1 1 1 1 1 0 2 2 1 0 1 1 1 1 1 1 0 0 0 1 0 1 0 0 1 1 2 1 2 1 1 0 0 2 1 0 1 1 0 2 0 2 0 
1 -1 2 1 1 1 1 0 1 2 1 1 1 0 1 0 1 1 2 0 0 1 1 2 1 0 0 1 1 1 1 1 1 0 1 1 1 0 1 1 0 1 1 1 2 0 0 1 0 2 1 1 1 0 0 0 1 1 1 0 1 0 0 0 0 1 1 1 1 0 2 1 1 1 0 1 1 1 1 1 0 0 1 0 1 1 1 1 1 1 1 0 1 1 1 0 1 2 1 0 1 1 2 1 1 1 1 2 1 1 1 1 2 2 1 1 1 1 2 1 1 1 1 2 2 2 1 1 2 2 3 2 1 1 1 2 2 2 1 2 2 2 2 2 2 2 2 1 2 3 2 1 2 3 3 3 3 3 2 2 3 3 3 3 3 3 4 4 4 4 3 4 4 4 4 4 3 4 5 5 6 6 6 6 7 8 9 9 9 11 11 11 17 30 55 91 122 141 149 151 152 154 157 158 158 159 160 161 161 161 162 163 163 163 164 164 164 164 164 164 164 165 165 165 166 166 166 167 167 166 166 166 166 166 166 166 165 165 165 165 164 164 165 165 166 166 166 166 166 166 166 165 165 166 165 165 164 165 165 165 165 165 165 165 165 165 165 165 165 165 165 165 165 164 164 164 163 163 164 164 164 164 164 164 164 164 163 164 165 165 164 164 164 164 164 164 164 163 163 164 164 163 163 163 163 163 163 164 164 164 164 164 164 163 164 164 164 163 163 163 163 163 162 162 162 161 161 161 160 160 160 160 160 161 160 160 160 161 161 161 161 160 160 161 161 160 160 160 160 159 159 159 159 159 159 159 159 159 158 158 158 158 158 158 158 158 158 157 156 156 156 157 156 156 156 156 157 157 156 155 155 155 154 154 154 154 154 154 154 153 153 153 153 153 153 153 154 153 153 153 153 153 151 151 151 151 151 151 151 151 151 151 150 148 145 140 133 124 112 99 86 73 61 49 42 40 42 51 65 81 98 114 126 133 140 144 145 146 147 147 148 149 149 148 147 146 146 144 141 140 136 124 101 68 37 20 12 10 10 9 8 8 7 6 6 6 5 5 5 5 5 4 4 4 4 4 3 3 3 3 4 3 3 4 3 2 2 2 3 3 3 2 2 2 2 2 2 2 2 2 2 2 2 2 2 2 2 2 2 2 1 1 2 2 2 2 2 2 1 1 2 2 1 1 2 2 2 2 1 2 2 1 1 0 1 1 2 2 1 1 1 1 2 2 1 1 1 1 2 2 1 1 1 1 1 1 1 2 1 1 1 2 1 1 1 0 1 0 0 1 1 1 1 1 1 1 1 0 1 1 1 1 1 1 1 1 1 1 1 0 1 0 2 2 1 1 1 1 1 0 1 1 0 0 0 1 1 1 1 1 1 1 1 1 0 0 1 1 1 0 0 0 1 1 1 1 1 1 0 0 1 0 0 0 1 0 1 -1 1 1 
-1 2 0 0 0 1 1 0 0 1 1 2 1 0 0 0 0 0 1 0 0 1 2 2 0 0 0 1 2 1 1 0 1 0 0 1 1 1 1 1 1 1 0 1 2 1 0 0 0 2 1 1 2 1 1 1 1 1 1 0 1 1 1 0 0 1 0 1 1 1 2 1 1 1 0 1 1 1 1 1 1 1 1 0 1 1 1 1 1 0 1 1 1 2 1 0 1 2 2 1 1 2 2 2 3 2 1 2 1 1 1 0 1 1 1 2 2 1 2 1 1 2 1 2 2 1 1 1 1 1 2 2 2 2 2 2 2 1 1 1 2 2 2 2 2 2 2 2 2 2 2 1 2 3 3 3 3 3 2 2 2 3 3 3 3 3 3 3 4 3 3 4 4 4 4 4 4 4 5 5 6 7 6 6 8 8 8 8 9 11 11 12 19 34 63 99 127 143 150 151 152 154 156 157 158 159 160 160 160 161 163 163 164 164 164 164 164 164 164 164 164 164 164 165 166 166 166 166 166 166 166 167 167 166 166 166 167 166 165 166 166 165 165 165 165 165 165 165 165 166 166 165 165 166 166 165 164 164 165 165 165 165 165 165 165 165 164 165 165 164 164 164 165 165 165 165 164 164 164 164 164 164 165 164 164 164 164 164 164 164 164 163 163 163 163 163 164 164 163 163 164 164 163 163 163 163 163 164 164 164 163 163 162 163 164 164 163 163 163 163 164 164 163 163 162 162 162 161 161 161 160 160 160 160 160 160 159 159 160 160 160 160 161 161 161 161 161 160 160 160 159 159 160 160 160 159 159 159 158 158 158 158 158 158 158 158 157 157 157 157 157 157 157 157 157 157 156 156 156 155 155 155 155 155 155 155 156 155 155 154 155 155 154 154 155 155 154 153 152 153 153 152 152 152 151 152 152 151 150 149 149 148 145 139 132 123 112 100 87 74 63 53 48 45 46 52 62 76 92 107 120 131 139 142 144 146 146 147 149 150 150 150 149 148 147 146 146 145 141 140 137 126 105 73 41 22 13 11 10 10 8 8 7 5 5 6 6 5 5 5 5 4 4 4 4 4 4 4 4 3 4 4 3 3 2 2 3 3 3 2 2 2 2 2 2 2 3 3 3 3 2 2 2 1 2 2 2 1 1 2 2 3 3 2 1 1 2 2 2 1 1 2 1 2 2 1 2 2 1 2 1 1 2 1 0 1 1 1 1 1 1 0 1 1 1 1 1 1 1 2 1 1 1 1 1 1 1 1 0 1 1 2 1 1 1 1 1 1 1 1 0 1 1 1 1 0 1 1 1 1 0 1 1 1 1 0 0 2 2 1 1 0 1 1 0 2 1 1 1 0 0 1 0 1 1 0 0 1 1 1 0 1 1 1 1 0 1 0 1 0 1 2 1 1 1 2 1 1 1 0 0 0 0 1 0 1 1 1 -1 2 
0 1 1 0 0 0 1 1 1 1 2 2 2 1 1 1 1 1 0 0 1 1 1 1 0 0 0 1 2 0 1 0 1 1 1 1 0 0 1 1 1 1 0 1 2 0 1 1 -1 1 1 1 2 0 0 1 1 1 1 0 1 1 1 1 0 2 1 1 1 0 2 1 0 1 1 1 0 1 1 1 2 1 1 0 1 2 1 0 1 0 1 1 1 2 1 1 1 2 1 1 1 1 1 1 2 1 1 1 1 1 2 1 2 2 1 2 1 2 3 2 1 1 1 2 1 1 1 1 2 1 2 2 1 1 1 2 2 1 1 2 2 2 2 1 2 3 2 2 2 2 2 1 2 2 3 3 2 2 2 2 3 3 3 3 3 3 3 4 4 4 4 4 4 4 4 4 4 6 6 5 6 7 6 7 8 8 8 8 9 11 12 14 22 39 71 107 132 145 150 150 152 155 156 157 158 159 160 160 161 162 163 163 163 164 165 164 165 164 164 164 165 165 165 164 164 164 165 166 166 165 165 165 166 166 167 166 166 166 166 167 167 166 166 165 165 165 165 165 165 165 165 165 165 165 165 165 165 165 165 164 164 165 165 165 165 165 164 164 164 164 164 164 165 165 164 164 164 164 165 165 164 164 164 164 164 164 164 163 164 164 164 164 164 164 163 163 164 164 164 164 163 162 162 163 164 163 163 164 163 162 162 163 163 163 163 163 163 163 163 164 164 163 163 162 162 162 163 162 161 161 160 160 161 160 160 159 159 159 159 158 158 158 158 160 160 159 159 160 160 160 160 160 161 160 160 160 159 158 158 159 159 159 159 159 159 159 158 158 157 158 157 157 157 157 157 157 157 157 156 156 156 157 157 157 157 156 156 156 156 155 155 155 155 154 154 155 154 153 153 154 154 153 152 152 152 152 151 148 147 145 142 138 131 122 111 99 86 75 64 55 50 48 51 57 65 76 89 102 114 125 135 141 145 146 147 148 149 149 151 151 150 150 149 149 148 146 146 145 141 140 138 128 108 76 43 23 15 12 11 10 9 8 7 5 5 6 6 5 5 5 5 4 4 4 4 4 3 3 4 4 4 4 4 3 3 3 3 3 2 2 2 2 2 2 2 2 2 3 3 2 2 2 2 2 2 2 2 2 2 2 2 2 2 2 2 2 3 2 1 1 1 2 1 1 2 1 2 1 1 2 1 1 2 1 1 1 1 2 2 1 0 1 1 1 1 1 1 0 1 1 1 1 1 0 1 1 1 1 1 1 1 2 2 2 1 1 1 1 0 1 0 1 1 1 2 1 1 1 1 1 0 2 1 1 1 1 1 1 0 0 2 0 1 1 1 2 1 1 1 0 1 1 1 1 1 1 1 1 0 2 1 1 1 1 1 0 1 0 1 1 0 1 1 1 1 1 1 1 1 0 1 1 0 0 1 1 2 0 1 1 
0 0 0 1 0 1 0 0 0 1 1 2 1 1 1 1 0 0 0 0 0 0 1 1 0 1 1 1 2 0 1 0 0 1 1 1 0 0 1 1 2 1 0 1 2 0 1 2 0 2 1 1 2 0 0 1 1 0 1 1 1 1 1 1 1 2 1 1 1 1 1 0 1 1 0 1 0 0 2 2 2 1 1 1 1 1 0 1 1 1 1 1 1 1 0 1 1 2 1 0 1 1 1 1 2 1 1 2 1 2 2 1 1 2 1 2 2 3 2 1 2 2 1 1 0 0 1 1 2 1 1 1 1 2 2 2 2 1 2 3 2 2 2 2 2 3 3 2 2 2 2 1 2 2 2 3 3 3 3 2 3 3 4 4 3 3 3 4 3 3 3 4 4 4 5 4 5 6 5 5 6 6 6 7 8 8 9 9 9 12 11 14 25 46 80 114 136 146 150 151 153 155 156 157 158 159 160 160 160 161 162 162 163 164 164 164 165 165 165 166 166 165 165 165 165 165 165 165 166 165 165 165 165 164 165 165 166 165 166 167 167 167 167 166 165 165 165 164 165 165 165 164 164 165 165 164 165 165 165 164 164 165 165 165 165 164 164 165 165 164 164 164 164 164 164 164 164 164 164 164 164 164 164 164 164 163 163 162 162 163 163 163 164 164 163 163 164 164 163 163 163 163 163 163 163 162 163 163 163 162 163 164 163 163 163 163 163 163 163 163 163 164 163 163 163 163 164 163 162 162 162 162 161 161 161 161 160 159 158 157 157 157 157 157 157 157 158 158 158 158 158 158 159 160 160 160 159 159 159 160 160 159 158 159 159 159 158 158 158 159 158 157 157 157 157 157 156 156 157 157 157 157 157 157 157 156 156 156 156 155 155 155 154 155 155 154 154 154 153 153 153 152 151 150 148 146 143 139 134 130 125 118 108 95 84 73 64 57 53 52 54 60 69 80 92 104 114 124 132 138 143 146 147 147 148 150 150 150 152 152 150 150 150 149 148 147 146 145 142 140 138 130 111 81 46 24 15 12 11 10 8 7 7 6 5 6 6 5 5 6 6 5 5 4 3 3 4 4 4 4 4 3 3 3 3 3 3 3 2 2 1 2 2 2 2 2 2 2 2 2 2 2 2 2 2 2 2 2 2 2 2 2 2 1 1 1 2 1 1 1 1 2 2 1 2 2 2 1 1 2 1 1 2 2 1 2 2 2 1 1 1 1 1 0 1 0 1 1 1 1 0 1 1 0 1 1 1 1 0 1 1 2 2 1 1 1 1 1 1 1 0 1 2 1 1 1 2 1 1 0 0 1 1 1 1 1 1 1 0 1 2 0 1 1 1 2 1 1 1 1 0 1 1 1 1 1 2 1 0 1 0 2 1 1 1 1 0 1 1 1 1 2 1 1 1 1 1 2 1 0 0 1 0 1 1 2 0 1 1 1 
-1 2 0 2 1 1 1 1 1 1 0 1 1 0 1 1 1 1 1 1 1 0 1 0 0 2 1 0 1 0 1 1 1 2 0 1 1 0 1 0 1 1 1 1 1 1 2 1 0 1 1 1 2 1 -1 0 1 1 0 1 1 1 1 1 1 2 0 0 0 1 2 1 1 0 0 1 1 1 2 2 1 1 2 1 1 1 1 1 0 0 2 1 1 1 0 2 1 1 1 1 1 1 1 1 2 2 2 2 2 1 1 2 2 2 2 2 2 2 2 2 2 1 1 1 1 1 1 2 2 1 1 1 1 2 2 2 2 2 2 2 2 2 2 1 2 2 2 2 2 2 2 2 2 2 2 3 3 2 2 3 3 3 3 3 4 3 3 4 4 3 3 4 4 4 4 4 5 5 5 6 7 6 5 6 7 8 9 9 10 12 12 16 28 52 88 121 140 148 151 152 154 155 157 158 159 159 160 160 161 161 161 162 162 163 163 163 164 164 165 166 166 165 166 165 166 166 165 166 166 166 166 165 165 165 165 165 165 165 165 165 165 165 166 166 165 166 166 165 165 164 165 166 165 165 165 165 165 165 165 164 164 164 164 164 164 164 165 165 165 164 164 164 164 164 164 163 163 163 164 163 163 163 163 164 164 163 163 163 163 163 164 164 164 164 163 163 164 164 164 163 163 163 163 163 163 163 162 163 163 163 163 163 162 163 163 163 163 163 163 163 163 163 163 162 162 162 163 162 162 163 163 163 162 161 161 161 161 160 159 158 157 157 156 156 156 156 156 156 156 156 156 157 157 157 157 157 157 157 158 159 159 159 159 159 159 159 159 159 159 159 159 158 158 158 157 157 158 158 158 157 158 158 158 158 157 157 156 156 157 156 155 155 154 155 154 153 153 153 152 151 150 147 143 139 135 130 124 117 111 106 100 92 81 72 64 59 56 56 59 65 73 84 96 107 117 126 133 138 142 145 147 149 149 150 151 152 152 152 152 152 151 151 151 149 148 147 146 146 142 140 139 131 113 84 49 25 15 11 10 10 8 8 8 6 5 6 6 5 5 4 4 4 4 4 3 3 3 4 4 3 3 3 3 3 3 3 3 3 2 2 2 2 2 2 3 2 2 2 2 2 2 2 1 1 1 2 2 2 2 2 2 2 2 2 2 2 2 1 1 1 2 2 2 1 2 1 2 2 1 1 1 1 2 1 1 1 1 2 2 1 1 1 1 0 2 1 1 1 1 2 1 1 1 1 1 1 0 1 0 0 1 1 1 1 2 1 1 1 0 1 1 1 2 1 1 0 1 1 1 1 0 1 1 1 1 0 1 1 0 0 1 0 1 1 1 1 1 1 1 1 1 1 1 1 1 1 2 1 1 1 1 2 1 1 1 1 0 1 1 1 1 1 1 1 1 1 1 2 1 1 0 0 0 1 0 1 1 2 -1 1 
0 -1 2 0 2 0 2 0 2 1 1 1 1 1 2 1 1 1 0 1 2 0 1 0 0 1 0 1 2 0 1 0 1 2 1 2 1 0 1 1 2 1 1 1 1 0 1 2 1 1 1 1 1 1 0 1 1 1 1 0 1 1 1 1 1 1 0 1 0 2 2 1 0 0 0 1 1 1 1 0 1 1 1 1 1 1 1 1 1 1 1 0 1 1 0 1 1 1 1 1 1 2 2 1 0 1 1 1 2 1 1 1 2 2 1 2 1 2 2 2 1 2 2 2 1 1 2 2 2 1 2 1 1 1 2 2 1 1 1 2 2 2 2 2 2 2 3 3 2 2 2 2 2 2 2 2 3 2 2 2 3 3 3 2 2 3 3 3 3 3 3 3 3 4 5 4 4 5 6 6 6 6 5 6 7 8 9 9 10 11 11 18 33 59 96 126 142 150 152 152 154 156 156 157 158 159 160 161 161 162 162 162 162 162 162 163 163 163 164 164 165 164 165 165 166 166 165 166 167 167 167 166 166 166 166 166 165 165 166 166 166 165 165 166 165 165 165 166 166 166 165 165 165 166 166 165 165 165 166 166 165 165 165 165 164 164 164 165 164 164 164 164 164 164 164 164 164 164 164 164 164 164 164 163 163 163 164 164 163 163 164 164 163 163 163 163 163 163 163 163 162 162 162 162 162 162 163 162 162 162 162 163 163 162 163 163 163 162 162 162 162 163 163 163 162 162 162 163 163 163 163 162 162 162 162 162 162 161 161 160 160 159 158 157 157 156 156 155 154 154 154 154 154 154 154 154 154 154 154 155 155 156 156 157 157 158 157 157 158 158 158 158 157 157 157 157 158 158 157 157 157 156 156 155 155 156 156 155 155 154 154 153 152 151 150 149 147 145 144 142 138 132 125 118 112 106 99 91 85 81 76 72 67 65 64 65 69 74 80 90 101 111 121 128 134 140 144 146 147 149 150 150 150 150 152 154 153 152 153 154 152 151 151 150 149 149 147 146 143 140 139 132 115 87 52 26 15 11 11 10 8 8 8 7 6 6 6 5 4 4 4 4 3 3 3 4 4 4 4 4 3 3 3 3 3 2 2 2 2 2 2 2 2 2 2 2 1 2 2 2 2 2 1 1 1 2 2 2 2 2 2 2 2 2 2 1 1 1 1 1 2 2 2 1 2 2 2 1 1 2 2 1 1 1 1 1 1 1 1 1 1 1 1 1 2 1 2 1 1 1 1 1 1 1 1 1 1 1 1 1 1 2 1 1 1 1 1 1 0 1 1 1 1 0 0 1 1 1 1 1 0 1 1 1 1 1 1 1 0 1 1 0 1 1 1 1 1 1 1 1 1 1 0 0 1 0 2 2 1 1 0 1 1 1 1 0 0 1 1 2 1 0 2 0 0 1 2 1 1 0 1 -1 1 0 1 0 3 1 2 0 
1 -1 1 0 1 0 1 1 1 1 0 1 0 0 1 1 1 1 0 1 1 0 1 0 0 1 1 1 1 1 1 0 0 1 1 2 1 0 1 0 1 0 1 1 0 1 1 0 0 1 1 1 1 1 1 1 1 1 1 1 1 1 1 1 1 1 0 1 0 2 2 1 1 0 0 1 1 1 0 1 1 0 0 0 1 1 0 1 0 0 2 1 1 2 1 2 1 1 1 1 1 1 1 0 1 1 1 1 1 1 1 1 1 2 1 1 1 2 1 1 1 2 2 2 2 2 1 2 2 2 1 1 2 2 1 2 2 2 2 2 1 2 2 2 2 2 3 3 2 2 2 2 2 2 2 3 3 2 2 3 3 3 2 2 2 2 3 3 3 3 3 3 4 4 5 5 5 6 6 6 6 5 5 7 7 7 9 9 11 12 13 20 37 67 104 131 145 150 151 152 154 155 155 156 158 160 160 161 161 161 162 162 163 164 164 163 163 163 164 164 164 164 164 164 165 165 164 164 165 166 166 166 166 166 166 167 166 166 166 165 166 165 165 165 165 165 165 165 165 165 165 165 165 165 165 166 166 165 165 165 166 166 166 165 164 165 165 165 165 164 164 165 164 164 164 164 164 164 164 164 164 165 165 164 164 164 163 163 163 164 164 164 163 163 163 163 163 163 163 163 163 162 162 163 163 163 162 162 163 163 163 162 162 162 162 162 161 161 162 162 162 163 163 162 161 161 161 161 162 162 162 162 162 162 162 162 162 162 161 161 160 160 160 159 159 158 157 157 156 155 155 155 154 153 152 151 151 150 150 150 151 151 151 151 151 152 153 154 154 153 153 153 152 152 152 152 153 153 152 152 152 152 152 151 151 152 151 150 148 146 144 142 140 137 135 133 130 128 125 121 115 109 101 93 87 81 77 73 71 71 73 74 75 78 82 87 93 101 108 116 125 132 138 141 144 147 149 150 150 150 151 151 152 152 153 153 153 153 153 154 153 152 152 150 149 149 147 146 144 141 140 133 117 90 55 28 15 11 11 10 9 8 8 7 6 7 7 6 5 4 5 5 4 4 4 3 4 4 4 3 3 2 2 4 3 3 3 2 2 3 3 3 3 3 3 2 2 2 2 2 2 2 2 2 2 2 2 2 1 2 2 2 2 2 3 2 1 1 2 2 1 1 2 2 2 2 2 1 1 1 1 2 1 1 1 1 1 1 1 2 2 1 1 1 2 1 2 1 1 3 2 1 2 1 1 1 1 2 1 1 1 1 1 2 2 1 2 2 1 1 1 1 2 1 0 1 1 1 1 1 1 1 1 1 1 1 0 1 1 1 1 1 1 1 2 1 1 0 1 2 1 2 1 1 0 0 2 1 1 1 0 1 0 1 1 1 0 1 0 1 1 0 1 1 0 1 0 1 1 0 0 0 1 1 1 0 1 1 3 -1 
-1 3 -2 2 -1 2 -1 1 1 2 0 1 1 1 1 1 1 1 0 1 1 1 1 0 0 1 0 1 0 0 0 0 0 1 0 1 1 0 0 0 1 1 0 1 0 1 0 0 0 0 0 1 1 1 1 1 1 1 0 1 1 1 0 0 1 1 0 1 0 2 2 1 1 1 0 1 1 0 0 0 0 1 1 1 1 1 1 1 0 1 2 1 1 2 1 2 1 1 1 1 1 1 1 1 1 1 1 1 2 1 1 1 1 0 0 0 1 1 2 2 1 1 1 1 1 2 2 2 1 1 2 1 1 1 1 2 1 2 1 2 2 2 2 3 3 2 2 3 2 2 2 2 3 2 2 2 2 2 2 3 3 3 2 2 2 3 3 3 3 3 3 3 3 4 5 4 4 5 5 5 6 6 6 7 8 8 9 9 10 12 13 22 43 75 111 134 146 150 151 153 155 156 157 157 158 159 160 161 162 162 162 163 164 164 163 163 164 164 164 164 164 164 165 165 164 164 163 163 164 164 164 165 165 165 165 166 166 166 166 166 165 165 165 166 165 165 164 164 164 163 163 163 163 164 164 164 164 163 164 164 164 164 164 164 164 164 164 163 164 164 164 164 163 164 164 164 164 164 163 164 164 164 163 163 163 163 162 162 163 163 163 163 163 163 163 164 163 163 162 163 163 163 163 163 162 162 162 162 162 162 162 162 163 163 163 162 161 162 162 162 162 162 163 163 162 161 160 162 163 162 162 162 162 162 162 163 163 162 162 162 161 160 160 160 160 160 159 159 158 157 157 157 156 155 154 153 151 150 149 148 147 147 146 147 147 147 147 147 147 146 146 146 145 144 144 143 144 144 143 143 143 142 141 141 140 140 139 136 134 130 127 124 120 117 113 111 109 106 104 101 97 92 85 80 77 75 74 76 79 83 88 93 97 102 108 114 120 125 130 135 140 144 147 148 149 151 152 152 151 152 153 153 153 153 153 154 154 154 154 154 152 151 151 151 150 150 148 146 145 142 141 135 120 94 59 31 17 12 12 10 8 8 8 7 6 7 7 7 6 5 5 5 4 4 3 3 4 4 3 4 4 3 2 3 3 3 2 2 2 3 3 3 3 2 1 2 2 2 2 3 3 3 2 2 2 2 3 3 2 3 2 3 2 2 2 2 2 2 2 2 2 2 2 2 2 1 1 1 1 2 2 2 1 2 2 2 1 1 1 2 1 2 2 2 1 1 2 2 1 2 1 1 1 1 1 2 1 1 1 1 1 1 1 2 1 1 1 1 0 1 1 0 1 1 1 1 1 2 1 1 1 2 1 1 1 1 1 1 1 1 1 2 1 1 1 1 1 1 0 0 0 1 1 1 0 0 1 2 2 2 0 1 1 1 1 1 0 1 0 1 0 1 1 1 0 1 0 1 0 1 0 0 0 1 0 3 0 4 -2 1 
0 1 0 1 0 1 2 2 0 0 1 1 1 0 1 1 0 0 0 1 1 1 1 0 1 1 0 1 1 1 1 0 1 1 1 1 0 0 1 0 1 1 0 1 0 1 0 1 1 0 0 1 1 1 1 0 0 1 1 0 0 1 1 1 1 1 0 1 0 1 1 1 1 1 1 1 1 0 1 1 1 1 0 0 1 0 0 1 1 1 1 1 1 1 1 1 0 0 1 2 1 1 1 1 1 2 1 1 2 1 1 0 1 1 0 1 1 1 1 1 2 1 1 1 1 1 1 2 2 1 1 1 2 2 2 2 2 2 2 2 2 2 1 2 2 2 2 2 2 2 2 2 2 2 2 2 2 2 3 3 3 2 2 2 2 3 2 3 3 4 3 3 4 4 4 4 4 5 5 5 6 7 7 7 7 7 10 10 11 11 14 26 49 83 117 138 147 150 151 153 155 157 157 158 159 160 160 160 161 161 161 162 163 163 163 163 163 164 164 164 165 165 165 165 165 164 164 165 165 165 164 164 164 164 164 165 165 165 165 165 165 165 165 165 165 165 165 165 164 164 163 164 164 164 163 163 163 163 162 162 163 163 163 163 163 164 164 164 164 163 163 163 163 164 164 163 163 163 163 163 163 163 163 162 162 163 163 163 163 163 163 163 162 162 163 163 163 163 162 163 162 162 162 162 162 163 163 162 162 162 163 163 163 163 162 161 161 162 162 162 161 161 162 162 162 161 161 162 162 161 161 162 162 162 162 161 162 162 162 162 161 161 161 161 161 161 161 160 160 160 159 158 158 157 157 156 155 153 152 151 150 149 148 147 146 146 146 146 145 144 142 141 140 138 136 135 135 136 135 135 133 132 132 131 131 130 127 124 120 117 113 109 105 102 100 99 98 97 96 96 95 93 90 88 88 89 91 95 100 106 112 117 121 125 129 133 136 140 142 145 147 149 151 151 151 152 153 153 153 153 154 155 155 154 154 155 156 155 153 153 152 152 152 151 149 149 148 146 144 141 140 136 123 97 63 34 18 12 11 11 8 8 8 7 6 6 6 6 5 5 5 5 5 4 4 4 4 4 3 4 4 3 3 4 4 3 3 3 3 3 3 3 3 2 3 3 2 2 2 2 2 2 2 1 2 2 2 2 2 3 2 2 3 3 3 2 2 2 3 2 2 2 2 2 2 2 2 1 1 1 1 2 2 2 2 1 1 2 2 2 1 1 1 1 1 1 1 1 1 1 1 1 2 1 1 1 1 1 1 0 1 2 1 1 1 1 1 1 1 1 1 1 2 1 1 1 0 0 1 1 1 1 2 1 1 1 1 1 1 1 2 2 1 1 1 1 1 1 0 1 1 2 1 1 1 1 1 1 2 2 1 0 1 1 1 1 0 1 1 1 1 1 1 1 1 1 1 2 0 0 1 1 1 1 1 1 0 2 0 0 
1 -2 2 0 1 0 0 1 0 1 1 0 1 1 1 0 1 0 0 0 1 1 0 0 1 1 1 0 0 1 1 0 1 1 1 1 1 0 1 0 1 0 0 1 0 1 1 0 0 0 1 1 1 0 1 0 1 1 1 1 1 1 0 0 1 1 0 0 1 1 1 0 0 1 1 1 1 0 1 1 0 1 0 0 2 1 1 1 1 1 1 1 1 2 1 1 1 1 1 1 1 1 1 1 2 1 1 1 1 1 1 0 1 2 1 1 2 2 2 1 1 1 1 1 1 2 2 2 2 1 2 1 2 2 2 1 2 2 1 1 2 2 2 2 2 2 2 2 2 2 2 2 2 3 2 2 2 3 3 3 3 3 3 2 2 3 3 3 3 4 4 4 4 4 4 4 4 4 5 5 6 7 6 8 8 8 9 10 11 12 16 30 56 91 122 140 148 150 151 153 156 157 158 159 160 160 161 161 162 161 161 162 162 162 163 163 163 164 164 164 164 164 165 165 165 165 165 166 166 166 166 165 165 164 163 164 165 165 164 164 164 164 164 165 166 165 165 165 165 165 164 164 164 165 165 164 163 163 163 163 163 162 163 163 164 164 164 164 164 163 164 164 164 164 164 163 163 163 163 163 163 163 162 162 163 163 163 163 163 163 163 162 162 163 163 163 163 162 162 163 163 162 162 162 162 162 162 162 163 162 162 163 163 162 162 162 162 161 162 162 162 161 161 162 162 161 161 161 162 162 162 162 162 162 162 162 162 161 161 162 162 162 162 162 162 161 161 161 161 161 161 160 159 159 159 158 157 157 156 155 154 154 153 151 151 150 149 148 148 146 144 143 142 140 138 136 135 134 133 133 131 130 129 128 128 127 125 122 119 115 111 108 106 105 105 105 106 106 107 109 110 109 109 109 110 112 116 119 123 127 131 135 139 140 142 144 146 148 149 150 151 152 153 153 153 154 154 155 155 155 156 156 155 155 156 156 155 154 153 154 154 152 151 151 150 149 149 147 145 142 140 136 124 100 67 36 19 13 11 10 8 8 8 7 6 6 7 6 5 5 5 6 5 4 4 4 4 4 4 4 4 3 3 3 3 3 3 3 3 3 3 3 2 2 2 2 2 2 3 3 3 2 2 2 2 2 1 2 2 2 2 2 2 2 2 2 2 2 3 3 2 1 1 2 2 1 2 1 1 2 2 2 2 1 2 2 2 1 1 2 2 2 1 1 0 0 1 1 1 2 2 1 1 1 1 1 1 1 2 1 2 2 1 2 2 2 1 1 1 1 1 1 2 1 0 1 0 1 1 0 1 2 2 1 1 1 1 1 1 1 1 2 1 0 1 0 1 0 0 0 1 1 1 1 1 1 1 1 0 1 1 1 1 1 1 1 1 1 1 1 1 2 1 0 1 1 1 1 0 0 1 0 1 0 1 1 1 -1 2 0 
0 1 1 1 0 1 1 2 1 1 1 1 1 0 1 1 1 1 1 1 1 1 0 1 1 1 1 0 0 1 0 0 1 2 1 0 1 1 2 1 1 0 0 0 0 1 1 1 1 1 1 1 1 0 0 1 1 2 2 1 1 1 1 1 1 1 0 1 1 1 1 1 1 1 1 1 1 0 1 1 1 2 1 1 1 0 1 1 1 1 1 1 1 1 1 1 2 1 1 1 1 0 0 0 1 1 1 1 1 1 2 2 2 2 1 2 2 2 2 2 2 1 1 1 1 2 2 3 2 1 2 2 2 1 2 2 2 2 2 1 2 2 2 2 2 2 2 2 2 3 2 2 2 2 3 2 2 3 3 3 3 4 4 3 3 3 3 4 4 4 4 3 3 4 4 4 4 5 5 5 6 6 6 7 7 8 10 11 11 12 18 34 63 99 127 142 148 150 151 154 156 156 157 159 160 160 161 162 162 162 162 163 163 163 163 163 163 163 164 164 164 164 164 164 165 165 166 167 167 166 166 166 166 166 165 165 165 164 164 164 164 164 164 164 165 165 165 165 165 165 165 165 166 165 165 165 165 165 165 164 164 164 164 164 164 164 164 164 164 164 164 163 164 164 164 164 164 163 163 163 164 164 163 163 163 163 163 163 163 163 163 163 163 162 162 162 163 162 163 163 162 162 162 162 162 162 163 163 162 162 162 162 161 161 161 161 161 162 161 161 161 160 161 162 162 161 161 161 162 161 161 162 162 162 162 162 162 162 162 161 162 162 162 161 161 161 162 161 161 161 161 161 161 160 160 160 159 159 159 158 158 157 157 156 155 154 153 154 153 151 150 149 148 146 144 142 141 141 140 139 137 136 136 135 135 134 133 131 129 126 123 121 120 120 121 122 123 124 125 126 128 128 128 129 130 132 135 137 140 142 144 146 147 148 149 150 151 151 152 153 153 154 155 155 155 156 156 156 156 155 156 156 156 155 155 155 155 154 154 155 154 153 152 151 149 148 148 146 144 141 140 137 126 103 70 39 20 12 11 10 9 8 8 7 6 6 6 5 5 5 5 4 4 4 4 3 4 4 3 3 4 4 4 3 3 3 3 3 3 3 3 2 2 3 3 3 3 3 3 3 3 2 2 1 1 2 1 1 1 2 2 2 2 2 2 1 2 2 2 1 1 2 1 1 2 2 2 1 1 1 1 1 1 0 1 1 1 1 2 2 1 1 1 1 0 0 1 1 1 1 1 1 2 1 1 2 2 2 2 1 1 1 1 1 1 1 1 1 1 1 2 1 2 1 0 1 0 0 1 1 2 1 1 1 1 1 1 1 0 1 2 1 1 0 1 0 2 1 0 0 1 2 1 1 1 1 0 1 1 1 1 0 1 1 1 1 1 0 1 1 1 1 0 1 0 1 1 1 1 1 0 0 0 0 0 1 0 2 0 1 
1 1 2 0 1 1 0 1 1 1 1 0 1 1 2 1 1 0 1 2 1 1 0 1 1 1 2 1 0 1 1 1 1 1 1 1 1 0 1 0 1 0 1 2 0 1 1 1 1 1 1 1 1 0 1 1 1 2 1 1 1 1 1 0 1 1 1 1 1 2 1 0 0 0 1 1 2 1 1 2 2 2 1 1 2 1 1 2 1 1 1 1 2 2 2 1 1 1 1 1 2 2 2 1 1 1 1 1 1 1 2 2 2 2 2 2 2 1 2 2 1 1 1 1 2 2 1 1 2 2 2 1 2 1 2 2 2 2 2 2 2 2 2 2 2 2 2 2 2 3 3 2 2 2 2 2 2 3 3 3 3 3 3 3 3 4 4 3 4 4 4 4 3 4 4 4 4 5 6 6 6 6 6 7 8 8 9 10 11 12 20 38 69 105 130 144 149 150 151 154 156 157 157 158 160 160 160 161 161 161 162 163 163 163 164 163 163 163 163 164 164 164 164 164 165 165 165 165 165 165 166 166 166 165 165 166 167 165 164 164 165 164 164 164 165 164 164 164 165 165 165 165 165 165 165 165 165 165 166 165 165 165 164 165 164 164 164 164 164 164 164 164 164 164 163 164 164 164 163 162 163 164 164 163 163 163 163 163 163 163 162 163 163 163 163 164 164 163 163 163 163 162 162 162 162 162 161 162 162 162 161 161 161 160 161 162 162 161 161 161 162 161 161 161 162 162 162 161 161 161 161 162 162 162 162 162 162 162 162 161 162 162 162 162 161 161 162 162 162 161 161 162 161 161 160 160 159 160 159 159 159 159 158 157 157 157 156 156 156 155 154 154 153 153 151 150 148 147 148 147 146 146 146 145 144 144 143 142 140 139 137 136 135 136 137 137 138 138 139 139 140 140 141 142 143 144 146 147 147 148 150 151 152 152 152 153 153 154 155 154 154 155 156 156 155 155 155 156 156 156 156 157 156 155 155 155 154 154 154 154 154 152 151 151 151 149 148 146 144 142 140 137 127 106 73 41 22 13 12 11 9 8 8 6 6 6 6 5 5 5 5 6 5 4 3 4 4 4 3 4 4 3 3 3 3 2 3 3 2 2 2 3 3 3 2 2 3 3 2 3 3 2 1 1 2 2 2 2 2 1 1 2 2 2 2 1 2 2 2 1 1 1 1 2 2 1 2 2 1 1 1 1 1 1 1 1 1 1 1 2 2 1 1 1 1 1 1 1 1 1 1 1 1 0 0 1 1 1 1 1 2 1 1 1 1 1 0 0 0 0 1 0 1 0 0 1 0 1 1 0 1 1 1 1 1 1 1 1 1 1 1 1 1 1 1 0 1 0 0 0 1 2 1 1 1 1 0 0 1 1 1 1 1 1 1 1 1 0 1 1 1 0 -1 0 1 1 1 1 1 1 0 -1 0 0 1 2 1 0 1 1 
2 0 2 1 2 2 2 2 1 1 1 1 2 1 2 1 2 1 2 2 1 2 1 1 1 2 2 1 0 1 1 1 1 1 1 0 0 0 1 1 1 1 0 0 0 1 1 1 1 2 2 1 2 1 1 1 1 1 1 0 0 0 0 1 1 1 1 1 0 1 1 1 1 1 1 1 2 1 1 1 1 1 1 1 1 1 1 1 0 1 1 1 1 1 1 2 2 1 1 1 2 2 1 1 2 2 1 2 1 1 1 2 1 1 0 1 2 1 1 1 2 2 2 1 1 2 2 2 2 1 1 2 2 2 2 2 2 2 2 2 1 1 2 2 2 1 1 2 2 2 2 2 2 2 2 3 3 2 3 3 3 3 3 3 4 4 4 4 5 4 4 4 4 4 4 4 5 5 5 6 6 5 6 8 8 8 9 10 11 13 21 41 74 109 133 145 149 150 152 154 155 156 157 158 159 159 160 161 162 162 162 163 162 163 163 163 163 163 164 165 165 164 163 163 164 165 165 164 164 164 164 164 164 164 165 166 166 166 165 165 165 165 165 164 164 164 163 164 164 164 164 164 164 164 164 164 164 164 165 165 164 164 164 164 164 164 164 164 164 164 164 163 163 163 164 164 164 164 163 162 163 163 163 163 163 163 162 162 163 162 163 163 163 163 164 163 163 163 163 163 162 162 162 162 162 161 162 162 162 162 161 161 161 162 162 162 162 161 161 161 161 161 162 162 162 162 161 161 161 161 161 161 161 161 160 160 161 161 161 161 161 162 161 161 160 161 161 161 161 161 161 161 161 161 160 159 160 160 160 160 159 159 159 159 158 158 158 158 158 158 157 157 157 156 155 154 154 153 153 153 153 152 152 151 151 151 150 149 149 149 148 147 146 146 147 146 146 147 147 148 149 149 149 149 149 150 150 151 151 152 153 153 154 154 155 156 156 156 156 155 155 155 155 155 155 156 157 157 157 157 157 157 156 155 155 155 155 154 154 154 154 152 151 152 151 148 148 147 145 143 141 138 129 108 76 44 22 13 11 10 9 8 8 7 6 6 6 6 6 5 5 5 5 5 4 3 4 4 3 3 3 3 3 3 2 2 3 3 3 2 2 2 2 2 2 2 2 2 2 2 2 2 1 1 1 2 1 2 2 2 2 2 2 2 2 1 1 2 2 1 1 1 1 1 2 1 2 1 2 2 2 2 2 1 1 1 1 1 1 1 1 1 1 1 1 1 1 1 1 1 2 1 1 1 0 1 2 1 1 1 1 1 1 1 0 1 1 1 1 0 1 1 1 1 0 1 1 1 1 1 1 0 1 1 2 1 0 1 0 1 1 1 1 1 1 0 1 1 1 1 0 1 1 1 0 1 1 0 1 1 1 1 1 1 1 1 2 0 1 1 1 0 0 1 1 1 1 0 1 0 0 -1 0 -1 1 0 1 0 1 0 
1 1 0 1 1 1 1 1 0 0 0 1 2 1 1 1 2 1 1 1 1 1 0 1 1 1 1 1 0 1 1 1 1 1 1 1 1 0 0 0 1 1 0 1 1 1 1 1 1 2 1 2 2 1 1 1 0 0 0 0 0 0 0 0 1 1 1 1 1 1 1 2 1 1 1 1 1 1 1 1 0 1 1 0 1 1 1 1 0 1 1 1 1 1 1 1 1 1 1 1 1 1 2 2 1 1 1 2 1 1 1 1 0 0 1 1 1 0 0 1 2 2 1 1 1 2 1 2 2 1 1 2 2 2 2 1 1 2 2 1 2 2 2 1 1 2 2 3 2 2 2 2 2 2 2 2 3 4 3 2 2 3 2 2 3 4 4 3 3 4 4 4 4 4 5 4 4 4 6 7 6 5 6 8 8 8 9 10 11 14 23 45 79 113 135 146 149 150 152 154 155 156 158 159 159 160 160 161 161 162 162 162 162 163 163 164 164 165 164 164 164 164 164 164 164 165 165 165 164 164 164 163 163 163 164 165 165 164 165 165 165 165 165 164 163 163 163 164 165 165 164 165 164 163 163 164 164 164 165 164 164 163 163 164 164 164 164 164 164 164 164 163 163 163 164 164 164 164 163 162 163 163 163 163 162 162 162 163 163 163 163 163 163 163 162 162 162 162 161 161 161 162 162 162 162 161 162 162 162 161 161 162 162 162 162 162 162 162 162 161 161 161 161 162 161 161 161 161 160 160 160 160 160 160 160 161 161 161 161 161 161 161 161 160 160 161 161 160 160 160 160 161 161 161 161 160 160 160 161 161 160 160 160 160 159 160 160 159 159 159 159 159 158 158 158 157 156 156 156 156 156 156 156 155 155 155 154 153 154 154 153 152 151 151 152 152 152 153 153 153 153 153 153 153 153 153 154 154 154 154 155 155 156 156 156 156 156 156 155 154 155 155 156 156 156 156 157 158 157 157 157 157 157 156 156 156 155 155 154 154 154 153 151 152 152 149 147 146 144 143 141 138 129 110 78 45 23 14 11 11 9 8 8 7 6 6 6 5 5 5 5 5 5 4 4 4 4 4 4 3 3 3 3 3 3 3 3 3 2 3 3 4 3 2 2 2 2 2 2 3 2 3 2 1 1 2 2 2 2 2 1 1 2 2 2 2 2 2 1 1 1 1 1 1 0 1 2 2 2 2 1 1 2 2 3 3 2 2 2 1 1 1 0 1 1 1 1 1 1 1 2 1 2 2 1 1 0 0 1 1 1 1 1 1 1 2 1 1 1 1 1 1 1 1 1 1 1 1 1 0 0 1 1 1 1 1 0 1 1 1 1 1 1 1 1 0 1 1 1 1 0 1 1 1 0 1 0 1 1 1 1 1 1 1 1 0 1 1 2 1 1 0 0 1 1 1 1 1 2 1 1 0 1 1 2 1 1 2 -1 1 
2 -1 1 0 1 1 1 1 0 0 0 1 2 1 1 0 1 1 1 1 1 2 0 1 1 2 1 0 0 1 1 1 0 0 1 1 1 1 1 1 1 0 1 1 1 1 1 1 1 2 1 1 1 1 1 0 0 0 1 0 1 1 0 0 1 1 1 0 0 1 1 1 1 1 1 1 2 2 1 1 1 1 0 0 1 1 1 1 1 1 0 0 1 1 1 1 1 1 1 1 1 1 2 1 1 1 1 1 1 1 1 1 2 1 1 1 1 1 1 1 1 2 2 2 2 2 1 1 1 1 1 1 2 2 2 2 2 2 2 2 2 2 2 2 2 2 3 3 2 1 1 2 3 3 3 3 3 3 3 3 3 3 3 2 3 4 3 3 4 4 3 3 4 5 5 5 5 5 5 6 6 6 6 8 8 9 10 10 10 13 23 47 83 116 136 145 148 151 153 154 156 156 157 158 159 160 160 161 162 162 162 162 162 163 164 163 163 163 164 164 164 164 164 165 164 165 166 165 164 164 165 164 163 164 164 164 164 164 165 165 165 164 164 164 163 162 162 163 164 164 164 164 164 164 164 164 164 164 164 164 163 163 163 164 164 164 164 164 164 164 164 164 164 164 164 164 164 163 163 163 164 164 164 163 164 163 162 163 164 164 163 163 163 163 162 161 162 161 161 161 161 161 162 162 161 161 162 162 162 162 161 162 162 162 161 161 161 162 162 162 161 161 161 161 160 160 161 161 160 160 160 160 160 161 161 161 161 161 161 161 161 160 160 160 160 161 162 161 160 160 160 161 161 161 161 161 161 161 161 160 160 160 160 160 160 160 160 160 160 160 160 160 160 159 158 158 158 158 158 157 157 157 156 157 157 157 156 156 156 156 156 156 155 155 155 155 155 155 156 156 156 156 155 155 155 155 154 155 155 156 156 156 156 157 157 157 156 156 156 157 157 157 158 158 158 159 160 159 158 157 157 157 157 157 157 156 155 155 155 155 154 152 152 152 152 149 148 147 145 143 141 138 131 112 81 47 24 14 11 10 9 8 8 7 7 7 6 6 6 5 5 5 5 5 4 4 4 4 4 3 3 3 3 3 3 3 3 3 3 3 3 3 3 2 2 2 2 2 2 3 3 3 3 2 2 2 1 2 2 2 2 1 2 2 2 1 2 2 2 1 1 1 1 2 1 1 1 1 2 2 2 1 1 1 2 2 1 2 2 1 1 1 1 2 2 1 1 2 2 1 2 1 2 1 1 2 1 1 1 1 2 1 1 1 1 1 1 1 1 0 1 1 1 0 1 1 1 1 1 1 1 1 1 1 2 1 0 1 1 1 1 0 1 1 2 1 2 1 1 1 1 1 0 0 0 1 0 1 1 1 1 1 1 1 1 1 1 0 1 1 1 0 0 1 1 1 0 1 0 0 1 1 1 0 1 -1 0 1 2 1 
1 1 1 0 1 1 0 0 0 0 0 1 2 1 1 0 0 0 1 1 1 1 1 1 1 0 1 0 0 0 1 1 1 0 1 1 1 1 1 1 1 1 1 1 1 1 1 1 1 2 1 0 1 0 0 0 0 1 1 0 1 1 0 0 1 1 1 1 0 1 1 1 1 1 1 2 2 1 2 2 1 1 1 1 2 1 2 1 1 1 1 0 0 1 1 1 2 1 1 1 1 1 1 1 1 0 1 1 1 1 1 2 1 1 1 1 1 1 1 1 1 1 1 1 2 2 2 2 1 1 1 2 2 2 2 2 2 2 2 2 2 2 2 2 2 2 3 3 2 2 1 2 3 3 2 3 3 3 3 3 2 3 3 3 3 2 2 3 3 3 3 3 4 5 5 5 5 5 5 6 6 6 7 7 8 9 10 10 11 14 25 49 85 118 138 147 149 150 152 154 155 156 158 158 158 159 161 161 160 161 162 162 162 163 163 163 163 164 164 163 163 164 164 164 164 164 164 164 163 164 164 164 164 164 165 164 163 163 164 164 164 164 164 164 163 163 163 163 162 163 163 163 164 164 164 165 164 164 164 164 164 163 163 163 164 164 164 164 163 163 164 164 164 163 163 163 164 163 163 162 162 163 164 164 164 163 162 162 163 163 163 163 163 163 162 162 161 161 161 161 162 162 162 162 162 161 162 161 161 161 161 161 162 162 161 161 161 162 162 162 161 161 161 161 161 161 161 161 160 160 160 160 160 161 161 161 161 161 160 160 161 161 160 160 161 162 162 161 160 160 161 161 161 160 161 161 160 161 161 161 161 160 160 160 160 161 160 160 160 161 160 160 159 159 159 159 159 159 158 158 158 158 158 157 157 157 157 157 156 157 157 157 157 157 157 157 157 157 157 157 157 156 156 156 156 157 157 157 156 157 157 157 157 157 157 157 158 157 158 159 159 159 159 159 159 159 159 158 158 158 158 158 157 157 157 156 156 156 155 155 154 152 151 152 152 149 148 148 145 143 141 139 132 114 84 50 25 15 11 11 10 9 8 7 6 6 6 6 6 6 6 5 5 5 4 4 4 4 4 3 3 3 4 4 3 3 3 3 2 3 3 3 3 3 3 3 2 2 2 3 3 3 3 2 3 3 2 2 2 2 1 1 2 2 2 2 2 2 1 1 1 1 1 2 1 1 2 2 2 1 1 1 1 1 1 2 1 1 1 1 1 1 1 1 0 0 1 1 1 1 1 1 2 1 1 2 1 1 0 1 1 1 1 1 1 1 1 0 0 1 1 1 1 1 1 0 1 1 1 1 1 2 1 0 0 0 1 1 1 0 1 -1 0 1 1 0 1 1 1 1 1 1 1 0 1 1 0 0 1 1 2 1 1 1 1 0 1 1 1 0 1 1 1 0 1 1 0 1 1 1 1 0 1 0 1 0 3 1 0 2 
3 -1 2 1 0 1 1 1 0 0 0 1 2 0 0 1 0 1 1 1 1 2 1 1 1 1 1 0 1 1 1 1 1 1 1 1 1 2 1 0 0 0 1 1 1 0 0 1 0 1 0 1 1 1 0 0 0 1 2 1 2 1 0 0 1 1 1 1 0 1 1 1 1 1 1 1 1 1 0 1 1 1 1 0 1 1 1 2 1 1 1 0 0 1 1 1 1 1 1 1 1 1 1 0 0 0 1 2 1 1 1 2 2 2 1 0 1 2 2 1 1 1 1 1 1 1 1 1 1 1 2 2 3 2 2 2 3 2 2 2 2 2 2 2 2 2 2 2 2 2 2 2 3 2 2 3 3 2 3 2 2 3 3 3 3 3 3 3 3 3 4 4 4 5 5 5 5 5 5 6 6 6 7 8 8 9 10 11 11 14 25 50 86 119 139 147 148 149 152 153 155 156 157 157 158 160 160 160 160 160 161 162 162 163 163 163 163 163 163 163 163 163 164 164 164 164 164 164 163 164 164 164 164 164 164 164 164 164 165 165 165 164 163 164 164 163 163 163 162 162 162 162 163 164 163 164 164 164 164 164 163 163 163 164 164 163 163 164 163 163 163 164 164 163 163 163 164 163 162 162 162 163 163 164 163 163 163 163 163 163 162 162 163 162 162 162 162 162 162 162 162 162 162 161 161 161 162 162 161 161 161 161 161 161 161 161 161 162 162 161 161 161 161 161 161 161 161 161 160 160 160 160 160 161 161 161 160 160 160 160 161 161 160 160 161 161 161 161 160 160 160 160 160 160 160 160 160 160 160 160 161 160 160 160 159 159 160 161 160 160 160 161 160 159 159 159 159 159 159 159 159 159 159 159 158 158 158 158 157 157 157 158 158 158 157 158 158 158 158 157 157 157 157 157 157 157 157 158 158 158 157 157 158 158 159 159 159 159 159 160 160 160 159 159 158 158 158 158 158 158 158 158 157 157 157 156 155 156 156 155 154 152 151 152 152 150 148 148 146 144 142 139 132 116 87 53 27 15 12 12 10 8 8 8 7 6 6 6 6 6 5 5 5 4 5 5 4 4 3 3 3 3 4 5 5 3 3 4 3 3 3 3 3 3 3 2 2 3 3 3 2 2 3 3 3 2 2 3 2 2 2 2 2 1 1 2 2 2 1 1 1 1 2 2 1 2 1 1 1 1 1 1 1 1 1 1 1 1 1 1 1 2 2 2 1 1 1 1 1 1 1 0 1 1 1 2 1 2 1 1 1 2 2 1 0 1 1 0 0 0 0 0 1 2 1 1 1 1 1 1 0 1 1 0 1 1 0 1 1 1 1 0 0 1 1 1 1 1 1 1 1 1 0 0 0 1 1 1 1 1 2 1 1 1 1 1 0 1 1 1 1 1 1 1 1 1 1 1 0 0 0 1 0 0 1 0 1 1 2 0 
1 1 0 2 -1 2 0 0 0 1 0 0 1 1 1 0 -1 1 0 1 1 1 0 1 1 1 1 0 0 1 1 1 0 1 1 1 0 1 1 1 1 1 0 0 1 1 1 1 1 1 1 1 1 1 1 1 1 2 1 0 2 1 1 1 2 2 1 1 0 1 1 1 1 1 1 1 1 1 0 1 0 1 1 0 2 1 0 1 1 2 1 1 1 1 0 1 1 1 1 0 0 1 1 1 1 1 1 2 1 2 1 2 1 2 2 1 1 1 1 1 1 2 1 2 2 2 1 1 1 2 2 2 2 1 1 2 2 1 1 2 2 2 2 1 1 2 1 2 2 2 2 3 2 1 2 3 2 3 4 3 2 2 3 3 3 2 2 3 4 4 4 4 4 4 4 4 4 5 5 6 5 6 7 7 7 9 10 11 11 15 27 52 88 120 139 147 149 150 152 153 155 156 158 158 158 159 160 161 160 161 162 162 162 162 162 162 163 163 163 163 163 163 164 164 164 164 165 164 163 164 164 165 164 164 164 164 163 163 164 164 164 164 164 164 164 164 164 163 162 163 162 162 163 163 163 163 163 163 164 164 164 164 164 164 164 164 163 163 162 162 163 163 163 163 163 163 163 163 162 162 162 162 162 162 162 162 162 162 162 162 162 162 162 162 162 162 162 162 162 162 162 162 162 162 161 161 161 162 162 161 161 162 161 161 161 161 161 161 161 161 161 161 161 162 161 161 161 161 161 161 161 160 160 161 160 160 160 160 160 160 160 160 160 160 160 159 160 160 160 160 160 160 160 160 160 160 160 160 160 161 161 161 161 160 160 160 160 159 160 160 159 160 160 159 159 159 159 159 159 158 158 159 159 159 158 158 158 158 158 158 158 157 157 158 158 158 158 158 158 157 157 157 158 158 159 159 160 159 159 159 159 159 159 160 160 159 159 159 159 160 159 159 159 159 159 159 159 159 158 158 158 158 158 157 157 156 155 156 156 155 154 153 152 153 152 150 149 148 146 144 142 140 133 118 90 55 29 16 12 11 10 9 8 8 7 7 6 6 5 5 5 5 5 5 4 4 3 4 4 4 3 4 4 4 4 3 3 4 3 2 3 3 3 3 3 3 2 3 3 3 3 3 2 2 2 2 2 2 2 2 2 1 2 2 2 2 2 1 1 1 1 2 2 2 1 2 1 1 1 1 1 2 1 1 0 1 1 1 2 2 2 2 1 2 1 1 2 2 1 2 1 1 1 0 1 3 1 1 0 1 2 2 2 1 0 0 1 1 0 1 1 1 2 1 1 1 1 1 0 1 0 2 2 1 1 0 0 2 1 0 0 0 1 1 1 1 1 1 1 1 1 1 1 1 1 1 1 1 1 2 1 1 1 1 0 1 1 1 1 1 1 1 1 2 1 1 0 2 0 1 0 1 0 0 0 1 0 3 0 1 
0 3 -1 1 -1 1 0 1 2 0 0 1 1 0 0 0 0 1 0 1 1 1 1 1 1 0 1 1 2 1 1 1 1 1 0 0 1 1 0 1 0 0 0 0 0 1 1 1 1 1 1 1 1 1 0 1 0 2 1 1 2 1 1 0 1 1 2 2 0 1 1 2 2 1 0 1 1 1 0 1 0 0 1 1 2 2 1 1 0 1 2 1 1 1 0 0 1 1 1 1 1 1 1 0 1 1 2 2 2 1 1 2 1 1 2 1 1 1 1 1 1 2 2 2 1 1 1 2 1 1 1 1 2 2 1 1 2 2 1 2 2 2 2 2 2 1 1 2 2 2 2 2 2 2 2 2 3 3 3 3 2 3 3 3 3 3 3 4 4 4 3 3 3 4 4 3 4 4 5 5 5 6 8 8 7 8 9 11 12 15 27 53 89 121 139 147 148 150 153 154 154 156 158 158 158 159 160 161 161 161 161 161 162 163 163 163 163 163 163 164 164 163 164 164 164 164 164 164 164 163 164 164 164 164 164 163 163 163 163 163 163 164 164 164 164 164 164 164 164 164 163 163 163 163 163 163 163 163 163 163 163 164 164 164 164 163 163 163 163 163 163 163 163 164 164 163 163 162 162 161 161 162 162 163 163 162 161 161 162 162 162 162 162 162 162 162 162 162 162 162 162 162 161 161 161 161 161 162 161 161 161 161 161 161 160 160 161 162 161 161 161 161 162 162 161 161 161 161 161 161 161 160 161 161 161 160 160 160 160 160 161 161 160 160 160 160 160 160 160 159 160 160 160 160 159 159 160 160 161 160 160 160 160 159 159 160 160 160 159 159 159 160 160 159 159 159 159 159 159 158 158 159 159 159 159 159 159 159 158 158 158 158 158 158 158 159 159 159 158 158 158 158 159 159 159 159 159 159 160 159 159 158 159 160 159 159 159 159 159 160 160 160 160 160 159 159 159 159 159 159 158 158 158 158 157 156 155 155 156 155 154 154 153 152 152 150 149 148 146 144 142 140 135 120 92 58 30 15 11 11 10 9 9 8 7 6 6 6 6 6 5 5 4 4 5 5 4 4 4 4 3 4 4 4 3 3 3 4 3 3 3 2 3 3 2 2 2 3 2 2 2 3 3 2 1 1 3 2 1 2 2 2 1 1 1 2 2 2 2 2 2 1 1 1 1 2 1 1 2 1 1 1 1 1 1 1 1 1 1 1 1 2 2 2 2 1 2 2 1 2 2 2 2 0 0 1 0 1 0 0 1 1 2 1 1 1 1 1 0 0 1 0 0 1 1 1 0 1 1 2 1 1 2 0 1 1 1 1 1 1 1 1 1 1 1 0 1 1 1 1 1 1 1 0 1 1 1 1 1 1 0 0 1 2 0 1 0 1 1 0 1 1 1 1 1 1 0 1 1 1 1 1 0 0 1 0 0 3 -2 2 
2 -2 4 -1 1 1 1 -1 2 0 1 0 1 0 1 0 0 0 0 0 1 1 1 0 1 0 1 1 2 1 0 1 1 1 1 0 0 1 0 0 1 1 1 1 1 1 2 2 2 2 2 2 2 1 1 1 0 1 1 0 1 0 1 0 1 1 1 1 0 1 1 1 1 1 1 2 1 1 1 1 1 1 1 1 2 1 1 2 2 2 2 1 2 2 0 1 1 2 2 0 0 1 2 1 1 1 1 1 2 2 1 1 0 0 2 1 1 1 1 1 2 2 2 2 2 2 1 1 2 1 1 1 2 2 1 1 2 2 2 2 2 2 2 2 2 2 2 2 1 2 2 2 2 2 2 2 2 2 3 3 3 2 3 3 3 3 4 4 4 4 4 3 3 4 4 4 5 5 5 6 6 6 7 8 7 8 10 11 11 15 27 53 90 122 140 147 149 151 153 154 154 156 157 158 158 159 160 160 159 160 162 162 162 162 162 162 163 163 163 163 164 163 163 163 163 164 164 164 164 163 164 164 164 164 164 163 163 163 163 163 163 163 162 163 164 163 163 163 164 164 163 163 162 162 162 162 162 163 163 163 162 162 163 164 164 163 163 163 163 163 163 163 163 163 164 164 163 162 162 162 162 162 162 162 162 161 161 162 162 162 162 162 162 162 163 162 162 162 161 161 161 162 162 161 161 161 162 162 161 161 161 161 161 161 160 161 161 161 160 160 161 161 161 161 160 161 161 161 161 161 161 161 161 161 161 160 160 160 160 160 161 161 161 160 160 160 160 161 161 160 159 160 160 160 160 159 160 160 160 160 160 159 159 159 160 160 160 160 160 160 160 160 159 159 159 159 159 159 159 159 159 159 158 158 159 159 158 158 158 158 158 158 158 159 159 159 159 159 159 159 159 159 160 160 159 159 159 159 159 158 158 159 159 160 160 159 160 160 159 160 160 159 159 160 160 159 159 158 158 158 158 158 158 158 157 156 156 156 156 154 154 154 153 153 152 150 149 148 146 144 143 140 135 121 94 60 32 16 12 11 10 8 8 7 7 6 6 6 6 6 5 5 5 4 4 4 4 4 4 4 4 3 4 4 3 3 3 3 2 2 3 3 3 3 3 3 3 2 2 2 3 3 2 2 2 2 2 2 2 2 2 2 2 1 2 2 2 1 2 2 2 1 2 2 1 1 1 2 3 1 2 1 1 1 1 1 1 2 1 1 1 1 1 1 2 0 1 2 2 2 1 1 1 0 1 2 1 1 0 0 1 1 2 1 1 0 1 1 1 0 1 0 1 1 0 1 1 1 0 1 1 2 2 1 2 1 1 1 2 1 1 0 1 1 1 1 1 1 1 1 1 0 1 1 0 -1 1 1 1 1 0 0 0 1 1 1 0 0 1 1 1 0 1 0 1 0 1 1 2 1 1 1 1 -1 2 -1 3 -1 4 -1 
1 1 0 1 0 0 0 1 2 -1 0 0 1 1 1 1 0 0 0 1 1 1 1 0 1 0 1 1 2 1 1 1 1 1 0 0 0 0 0 0 1 1 1 1 1 1 2 2 1 1 1 1 2 1 1 1 0 1 1 0 1 0 1 1 2 2 2 2 1 1 1 1 1 0 1 2 1 2 1 1 1 0 0 0 1 1 1 1 1 1 2 1 1 1 0 1 1 1 2 2 1 1 1 1 1 1 1 2 2 1 0 1 1 1 2 1 1 1 1 1 1 2 2 1 1 2 1 2 2 1 2 2 2 2 1 1 2 2 2 2 2 3 3 2 2 2 2 2 2 2 2 2 3 2 3 3 3 3 3 3 2 3 3 2 2 3 3 4 4 3 3 4 4 4 5 4 5 5 5 6 6 6 7 7 7 8 10 11 12 15 27 52 89 121 140 147 148 150 152 153 153 155 157 158 158 158 160 161 160 161 161 162 162 162 162 162 163 163 162 163 163 163 163 163 163 163 164 163 164 164 163 164 164 164 163 163 163 163 163 163 163 163 163 163 163 163 163 163 164 164 164 163 162 162 162 163 163 163 162 162 162 163 163 164 164 163 163 164 164 163 163 163 163 163 163 163 163 162 163 163 163 162 162 162 162 162 162 162 162 162 162 163 162 162 161 161 161 162 163 162 161 162 162 161 161 161 161 162 161 160 160 161 162 161 160 160 160 160 160 160 160 160 161 161 160 160 161 161 161 161 161 161 161 161 161 160 159 159 160 160 161 161 160 160 160 160 160 160 160 159 159 159 160 160 160 159 160 160 160 160 159 159 159 159 160 160 160 160 160 160 159 159 159 159 159 159 159 159 159 159 159 158 158 158 159 159 158 158 158 158 159 159 159 159 159 159 158 158 158 159 160 160 159 160 160 160 160 159 159 160 160 160 160 160 160 160 160 160 160 160 160 160 159 159 159 159 158 158 158 159 158 157 157 158 157 157 156 155 154 154 154 154 153 153 152 150 149 149 146 145 143 140 135 122 96 62 33 17 11 10 10 9 9 8 7 7 7 7 6 6 6 5 4 4 5 4 4 4 4 3 3 3 3 3 3 3 3 3 2 3 3 3 3 3 2 2 2 3 3 2 2 3 2 2 2 2 3 2 2 2 1 2 1 1 1 1 1 1 1 1 1 1 1 1 1 2 1 1 2 1 2 2 1 1 2 2 2 1 1 0 0 1 2 2 1 1 2 1 1 1 1 2 2 1 1 2 1 1 1 1 1 1 2 1 1 1 2 2 1 1 2 0 1 1 1 1 1 1 1 2 1 1 2 0 1 0 1 1 1 1 1 0 0 0 1 0 0 0 0 1 1 1 1 0 0 0 1 1 1 0 0 0 0 1 1 1 0 0 1 1 1 1 1 1 1 0 0 0 2 2 0 1 0 0 1 0 1 2 0 1 
0 1 1 0 1 1 0 0 2 -1 1 1 1 2 1 1 1 0 -1 0 1 1 1 0 1 0 1 1 2 0 0 0 1 1 0 0 0 0 1 1 1 1 2 1 0 1 1 1 1 0 1 1 1 1 0 1 1 1 1 1 1 0 1 0 1 2 2 1 0 1 1 0 1 1 0 2 1 1 1 1 1 0 1 0 1 0 0 1 0 1 2 1 1 2 1 1 0 0 1 1 1 1 2 1 1 1 1 2 2 1 1 1 1 1 2 1 2 1 1 1 1 1 1 1 1 2 1 2 2 2 2 1 1 2 2 2 3 2 2 2 2 2 2 2 2 2 2 2 2 2 2 2 3 3 3 3 3 2 3 3 3 3 3 2 3 4 3 3 3 4 4 4 4 5 5 4 5 5 5 6 6 6 7 8 8 9 10 12 12 15 26 51 88 121 140 147 148 150 152 153 154 155 157 157 158 159 160 160 160 161 161 162 162 162 162 162 163 163 162 162 163 163 163 163 163 163 163 164 164 164 163 164 164 164 164 163 163 163 163 163 162 162 163 162 163 163 163 163 163 163 163 163 163 163 162 162 163 163 163 162 162 162 163 163 163 163 163 163 163 163 163 162 162 162 163 163 163 162 163 163 163 163 163 162 162 162 162 162 162 162 162 162 162 162 161 161 162 162 162 161 162 162 162 162 161 161 161 161 161 161 161 161 161 161 161 161 161 160 160 160 160 160 160 160 160 160 161 161 160 160 161 161 161 161 160 160 160 160 160 160 161 161 160 160 159 159 159 159 159 159 159 159 159 160 160 159 159 160 160 160 160 159 159 159 159 160 160 159 159 159 159 159 159 159 159 159 159 159 159 159 159 158 158 158 159 159 158 158 158 158 158 159 159 159 159 159 159 159 159 159 160 160 160 160 160 160 160 160 160 160 160 160 160 160 160 160 160 159 159 159 160 160 160 160 160 159 159 159 158 159 159 159 158 158 158 157 156 156 155 154 154 154 153 153 152 150 149 149 147 145 142 139 135 123 98 64 34 17 12 11 10 9 8 8 7 6 6 6 6 5 5 5 4 4 4 5 5 5 3 2 3 4 3 3 3 3 3 2 2 2 3 3 3 3 3 3 3 3 2 2 2 2 2 2 2 3 3 2 2 3 2 2 3 1 1 1 1 1 1 1 1 1 1 2 1 2 1 1 2 1 2 2 2 2 2 1 1 1 1 1 1 1 1 2 1 0 1 1 1 1 0 1 2 1 2 2 2 2 1 2 1 1 1 1 2 0 1 1 1 1 2 1 1 1 1 1 1 1 0 1 1 1 1 0 2 1 1 0 0 1 1 1 0 0 1 0 1 1 0 1 0 1 1 0 1 0 1 0 1 1 0 0 0 1 1 1 0 1 1 1 1 1 0 0 1 0 1 0 1 2 0 1 0 1 1 0 3 1 0 1 
2 -2 3 0 0 1 1 0 1 1 2 0 0 1 1 1 1 0 0 1 0 0 1 1 1 0 1 2 1 0 0 0 0 1 0 1 0 1 1 1 1 1 2 1 0 1 1 1 0 0 1 0 1 0 0 1 1 2 1 1 1 0 1 1 1 1 2 2 0 1 1 1 1 1 0 2 1 1 2 1 1 1 1 0 1 1 1 1 1 1 1 0 1 2 0 0 0 0 1 1 1 1 2 2 2 1 1 1 1 1 1 1 1 1 2 2 2 2 1 1 2 2 2 1 1 2 1 2 2 2 2 1 2 2 1 1 2 2 2 2 2 2 2 2 2 2 2 2 2 3 3 2 2 2 3 3 3 2 2 2 3 3 3 3 3 3 3 3 3 3 4 4 4 4 4 4 4 4 5 6 6 7 8 9 9 9 11 12 12 15 26 51 87 120 139 146 148 150 153 154 154 155 157 158 158 158 160 160 160 161 161 162 162 162 162 162 163 163 162 162 163 163 163 163 163 163 163 163 163 163 163 163 163 163 164 163 163 162 162 163 163 162 163 163 163 162 163 164 164 163 163 163 162 162 163 163 163 163 163 162 162 162 162 163 163 163 164 163 163 163 163 162 162 162 162 162 162 161 162 162 162 162 162 161 162 162 162 162 162 163 163 162 162 161 161 162 162 161 162 162 162 162 161 161 161 161 161 161 161 161 161 161 161 161 160 161 161 161 161 161 161 161 161 161 161 161 161 161 160 160 161 161 160 160 160 160 160 159 159 160 160 160 160 160 160 160 160 160 160 159 159 159 160 160 160 160 160 160 160 159 159 159 159 160 159 159 159 159 159 159 159 159 159 160 160 160 159 159 159 159 159 159 158 158 159 159 158 159 159 159 158 159 160 160 159 159 159 159 159 159 160 160 160 160 161 161 160 159 159 160 161 160 160 160 159 160 160 160 160 160 161 161 160 160 160 160 159 159 159 159 158 158 157 157 157 157 157 156 155 154 154 154 153 153 152 150 149 148 147 146 143 140 136 124 99 65 35 18 12 11 11 9 8 7 7 7 6 6 6 6 5 5 4 4 5 5 5 5 4 3 3 3 3 3 2 3 4 3 2 2 2 2 3 2 2 2 2 3 2 1 2 2 2 2 1 2 2 2 2 2 1 2 2 1 2 2 2 1 1 1 2 2 2 2 1 2 1 1 1 1 2 2 1 1 2 2 1 1 1 1 1 1 1 2 1 1 2 1 1 1 0 1 1 0 1 1 1 1 1 1 1 2 1 0 1 0 1 2 1 1 2 1 1 1 1 1 1 1 0 1 2 1 1 1 2 1 1 1 0 1 1 1 0 0 1 1 1 1 0 1 1 1 1 0 1 1 2 1 1 2 0 0 1 2 1 2 1 1 0 1 1 0 1 1 1 0 1 0 1 1 0 1 0 0 1 0 2 -1 4 -1 
-1 4 -2 4 -1 2 -1 1 1 1 0 1 1 2 0 2 1 1 0 1 0 1 2 1 1 0 0 1 1 1 0 0 1 1 0 1 1 2 1 1 2 0 0 1 0 1 0 1 1 1 1 1 1 1 0 1 1 2 1 1 1 1 1 0 1 1 1 1 0 0 0 1 2 1 0 1 0 1 1 2 2 1 1 1 1 1 0 1 0 0 1 1 1 1 1 0 1 1 1 1 1 1 1 1 1 2 1 1 1 1 1 2 1 1 2 2 2 1 1 2 2 2 1 1 2 2 1 1 1 1 2 1 1 1 2 2 2 2 2 2 1 2 3 3 2 2 2 2 2 2 2 2 2 3 3 3 2 2 3 2 3 3 3 3 3 3 3 4 3 3 3 4 4 5 5 5 5 5 5 6 6 6 7 8 9 9 9 11 12 15 25 50 86 119 138 146 148 149 152 153 154 155 157 157 157 158 160 160 159 160 160 161 161 161 161 162 162 162 162 163 162 162 163 163 162 162 162 163 162 162 163 163 163 163 163 164 163 163 163 163 162 162 163 163 162 163 163 164 163 163 163 163 163 163 162 162 162 163 162 162 162 162 163 162 162 162 163 163 163 163 163 162 162 163 163 162 162 162 163 162 162 162 162 161 161 162 162 162 161 161 162 162 161 161 161 162 162 162 161 161 161 161 161 161 161 161 161 161 161 162 162 161 160 160 160 161 161 161 161 161 160 160 160 160 160 161 161 161 159 159 159 160 160 160 160 160 160 160 160 160 160 160 160 160 160 160 160 160 160 160 159 159 159 160 160 160 160 160 160 160 160 160 159 159 158 158 159 159 158 159 158 158 159 160 159 159 160 160 159 160 159 159 159 159 159 158 158 159 159 159 159 159 160 160 159 159 159 160 159 159 160 159 159 160 160 159 159 160 160 160 160 160 161 161 160 160 160 160 160 160 161 161 160 160 160 160 159 160 159 159 158 158 157 158 158 157 157 156 156 155 154 153 153 153 153 151 149 149 147 146 143 141 136 125 101 67 36 18 12 11 11 9 8 8 7 6 6 6 6 6 5 5 4 4 5 5 5 4 4 3 3 4 3 3 3 4 4 3 3 3 3 3 2 2 2 2 2 2 2 1 2 2 2 2 1 2 2 2 2 3 2 2 2 1 2 2 1 2 2 2 2 2 2 2 2 2 0 1 1 1 1 1 2 2 2 1 1 1 1 1 1 1 1 2 1 1 1 1 1 1 1 1 1 0 1 1 1 1 1 1 1 1 1 1 2 1 0 1 1 2 2 1 1 1 1 2 0 0 1 1 1 1 1 1 1 1 1 0 0 1 1 1 1 0 1 1 0 1 1 1 0 1 1 1 0 0 1 1 1 1 0 1 1 2 1 1 0 1 0 0 1 1 0 1 1 0 0 1 0 2 0 2 0 2 0 2 -1 3 -1 2 
1 1 0 2 0 0 0 1 1 1 2 0 0 2 0 1 1 1 1 1 0 1 1 0 1 1 1 1 1 0 0 1 1 1 0 1 1 2 2 1 1 0 1 1 1 1 0 1 1 2 2 1 1 1 1 1 0 1 1 1 0 1 1 0 1 1 1 2 1 1 2 2 2 1 0 1 1 2 1 1 1 1 1 1 1 1 1 2 0 0 1 1 1 2 1 1 1 1 1 2 1 1 1 1 2 2 1 1 0 1 1 1 1 1 1 1 1 2 2 1 1 1 2 2 1 2 1 1 1 1 2 1 1 2 2 2 1 1 1 1 1 1 2 2 2 2 1 2 2 2 2 2 3 3 3 3 2 2 2 2 3 3 3 4 4 3 3 3 4 4 4 4 4 5 4 4 5 5 5 7 7 6 7 8 8 9 9 12 12 14 25 49 85 118 139 146 148 150 152 153 154 155 157 158 158 158 159 160 160 160 160 160 160 161 161 162 162 162 161 162 162 163 162 162 163 163 163 163 163 163 163 163 163 162 162 163 163 163 162 162 162 162 162 162 162 162 162 162 162 162 163 163 162 162 162 163 163 162 162 162 162 162 162 162 162 163 163 163 162 162 162 162 162 162 161 162 162 162 162 162 162 162 162 161 162 162 162 162 162 162 162 162 161 161 161 161 161 161 161 161 161 161 160 161 161 161 161 161 161 161 161 161 161 160 160 161 161 160 160 160 160 160 160 160 160 160 161 161 159 159 159 160 160 160 160 160 160 159 159 159 159 160 160 160 160 160 160 160 160 160 159 159 160 160 160 160 160 160 160 159 159 159 159 159 158 159 159 160 160 159 159 158 158 159 159 159 159 159 159 159 159 159 159 159 158 158 158 159 159 159 159 160 160 160 159 159 159 159 159 160 160 160 160 160 159 159 159 160 161 161 160 160 161 160 160 160 160 160 160 161 161 161 160 160 160 160 160 159 158 159 159 158 157 158 158 157 157 157 155 154 154 154 154 154 153 151 149 148 147 146 143 141 137 125 102 68 37 19 13 12 12 10 8 8 7 7 6 6 5 5 5 5 5 4 4 4 5 4 3 3 3 3 3 3 3 3 3 3 3 3 2 3 3 2 3 3 2 2 2 2 2 2 2 2 2 2 2 3 3 3 2 2 2 2 2 2 2 2 1 2 2 2 2 2 1 2 2 2 1 1 2 1 1 1 2 1 1 1 1 1 2 1 1 2 1 2 1 1 1 2 1 1 1 0 1 1 1 1 1 1 1 2 2 1 1 0 1 1 0 1 1 1 1 1 1 2 0 1 1 1 2 1 1 1 1 1 0 1 0 1 0 1 1 0 1 1 1 1 0 1 0 1 0 0 1 1 1 1 1 0 0 1 1 1 2 1 0 1 0 0 0 1 2 1 1 0 1 0 0 2 1 1 0 0 0 1 1 1 2 1 
1 1 2 -1 2 0 1 0 1 0 1 0 1 1 0 1 1 0 1 1 1 0 1 1 1 0 0 0 1 0 1 1 0 0 0 1 1 1 1 0 2 1 1 1 1 1 1 2 1 1 1 0 1 1 0 0 1 1 1 1 0 0 1 0 1 0 1 1 2 1 1 1 1 0 0 1 1 1 1 1 1 1 1 1 1 1 1 2 1 1 1 0 0 1 2 0 1 1 1 1 1 1 2 1 2 2 2 1 0 1 1 1 2 1 1 1 1 1 1 1 1 1 2 2 2 2 1 1 1 2 2 2 2 2 1 1 2 2 2 2 1 2 3 3 2 1 2 2 3 2 2 2 2 2 2 2 2 2 2 3 3 3 3 3 3 3 3 4 4 4 3 3 4 4 4 4 4 4 5 6 6 6 7 7 8 9 9 11 12 14 24 47 84 118 138 146 148 149 151 153 154 155 157 158 158 158 160 159 159 160 160 160 160 160 161 162 162 162 162 162 163 162 162 162 163 163 163 163 163 163 164 163 163 163 163 162 162 163 163 162 162 161 161 162 162 162 162 162 162 162 163 163 163 163 163 162 162 163 163 162 162 162 162 162 162 162 163 163 162 162 162 161 161 162 162 162 162 162 163 162 162 162 163 162 161 162 162 162 162 161 161 162 162 161 161 161 162 162 162 161 161 161 161 161 161 160 160 160 161 161 161 161 161 160 160 161 161 160 160 160 160 160 160 160 160 160 161 161 160 159 160 160 160 160 160 160 160 159 160 160 159 160 160 160 160 159 160 160 160 160 160 160 160 160 160 160 159 160 159 159 159 159 159 159 160 160 160 159 159 159 159 158 158 158 158 159 159 159 159 159 158 158 158 158 159 159 159 159 159 159 159 160 159 158 159 159 160 160 160 160 160 160 160 160 160 160 160 160 161 161 161 160 160 160 160 160 161 161 160 160 160 160 160 160 160 159 159 159 159 159 159 159 158 157 157 157 157 156 155 155 154 154 154 154 153 151 150 148 146 145 143 140 136 125 103 69 38 20 13 12 12 10 8 8 8 7 7 6 6 5 5 5 4 4 4 4 4 4 4 3 3 4 4 4 3 3 3 3 3 2 2 3 3 3 3 3 2 2 1 2 2 2 2 2 1 2 2 2 2 2 2 2 1 1 2 1 1 1 1 2 1 1 1 2 2 2 2 2 1 1 2 1 2 2 2 1 2 2 1 1 1 1 1 2 1 1 1 1 1 1 2 1 2 1 2 2 1 1 0 0 1 2 2 1 2 0 0 1 1 2 1 0 1 2 1 1 0 1 1 1 2 0 0 1 1 1 1 1 0 1 1 0 1 0 1 0 1 1 1 1 1 2 1 1 1 1 1 0 1 0 0 0 1 1 0 0 1 1 1 1 1 1 1 1 1 0 2 1 1 1 1 0 1 0 1 -1 2 -1 2 1 
0 1 0 0 1 0 1 1 2 1 1 1 1 1 1 1 0 0 1 0 1 1 1 0 0 0 1 0 0 0 0 1 1 1 1 0 1 1 1 1 1 0 1 1 1 1 1 1 1 2 2 0 0 0 1 0 1 1 1 1 1 1 1 0 1 1 1 1 1 1 1 1 1 1 0 1 1 1 1 1 1 1 1 0 1 1 1 1 0 0 1 1 1 1 1 0 1 0 1 1 1 1 2 1 2 2 2 1 0 1 1 1 2 1 1 1 1 1 2 2 2 1 2 1 1 2 1 2 2 2 2 2 1 1 2 1 2 2 2 2 1 2 3 2 1 1 2 3 3 2 2 2 3 2 2 2 2 2 3 2 2 3 3 3 3 3 3 3 4 5 4 4 5 5 4 4 4 5 6 6 6 6 7 8 8 9 10 12 13 14 24 47 82 116 136 145 148 149 151 153 154 155 157 157 157 158 159 159 160 160 160 161 161 161 161 162 162 162 162 162 162 162 162 163 163 163 163 162 163 163 164 163 163 162 162 162 163 162 162 163 163 162 162 162 163 163 162 162 162 162 163 163 163 163 163 163 162 162 162 162 162 162 162 162 162 162 163 163 163 163 163 162 162 162 162 162 162 162 161 162 162 163 162 161 161 162 162 162 161 161 161 161 161 161 161 161 162 162 162 161 161 161 162 162 162 161 160 160 161 161 160 161 161 160 160 161 160 160 160 160 159 160 160 160 160 160 160 161 161 160 160 161 161 160 160 160 160 160 160 159 159 159 160 160 160 159 160 160 160 160 160 159 159 160 160 160 159 159 159 159 159 159 159 159 159 159 160 159 158 159 159 159 158 158 158 158 159 158 158 158 158 158 159 158 158 158 159 160 160 160 160 160 159 159 159 160 159 159 160 160 161 161 160 160 160 160 160 160 161 160 159 159 160 159 159 160 160 160 160 161 161 160 160 160 160 159 159 158 158 158 159 159 158 157 158 157 157 157 156 155 154 154 153 153 153 151 151 149 147 145 143 141 138 127 105 71 39 21 14 12 11 10 8 8 8 7 6 6 5 4 4 5 5 4 4 4 4 4 4 3 3 4 4 3 3 3 3 2 3 3 3 2 2 3 3 2 2 2 2 2 2 2 2 2 2 2 2 2 2 2 2 2 2 1 2 1 1 1 1 1 1 2 2 2 2 2 2 2 2 1 2 1 2 1 1 1 1 1 1 1 1 1 1 2 1 2 1 1 1 1 1 1 1 1 1 1 1 1 1 1 2 2 2 1 1 0 1 1 1 2 1 1 1 1 1 1 1 1 1 1 1 1 2 2 2 1 1 1 1 1 0 0 1 0 0 0 1 1 1 1 1 1 2 0 0 0 1 1 1 -1 0 1 1 1 0 -1 0 1 2 1 1 1 0 0 1 0 1 0 0 0 1 0 0 -1 1 0 0 0 1 2 
1 0 1 0 1 0 1 1 0 0 1 1 1 1 0 1 1 0 1 0 1 1 1 1 1 0 0 1 1 1 0 1 0 0 1 0 1 1 1 1 2 2 0 0 1 1 1 2 1 1 2 2 1 1 0 0 2 2 2 2 0 0 1 1 2 1 1 1 1 1 1 0 0 1 1 2 1 1 1 1 1 1 1 1 1 1 1 2 1 1 1 0 1 1 2 1 1 1 1 1 2 2 2 2 2 1 1 2 1 2 1 1 2 1 1 1 1 1 2 1 1 1 1 1 1 2 1 1 1 2 2 2 1 1 2 2 2 2 2 2 2 2 2 2 1 2 2 3 3 2 2 2 2 2 3 3 2 2 2 3 3 2 3 3 3 2 2 3 4 4 4 4 4 4 4 4 5 5 5 6 6 7 7 7 9 9 10 12 12 14 23 46 82 116 136 145 147 149 151 153 153 154 156 157 157 157 158 159 159 160 161 161 161 161 161 162 162 162 162 162 162 161 161 162 163 163 162 162 162 163 163 162 163 163 162 162 163 162 162 163 163 163 162 161 161 162 163 163 163 162 162 162 162 163 163 162 162 163 163 162 162 162 162 162 161 161 162 162 162 162 162 162 162 162 162 162 162 162 162 161 161 162 162 161 162 162 161 161 161 160 161 161 161 161 160 160 161 162 162 161 161 161 161 161 160 160 161 161 160 160 160 161 160 160 160 160 160 160 161 160 160 160 160 160 160 160 160 160 160 160 160 160 160 159 159 159 160 161 160 159 159 159 160 160 160 160 160 160 160 159 159 159 159 159 159 159 159 160 160 160 159 159 159 159 159 159 159 159 159 159 159 159 159 159 159 158 159 158 158 158 158 158 158 157 158 159 160 160 160 160 160 160 159 159 159 160 160 160 159 159 160 160 161 161 161 160 160 160 160 160 160 160 160 160 160 160 160 160 160 160 160 160 160 160 160 159 159 159 159 159 158 159 158 158 157 157 156 157 156 155 154 154 154 153 152 151 151 149 146 145 143 142 139 128 105 72 40 21 14 12 11 10 8 8 8 7 6 6 6 5 5 5 4 4 4 4 4 4 4 4 4 4 3 3 3 3 3 3 3 3 2 2 2 3 3 2 2 2 2 2 2 2 3 3 2 2 2 2 2 2 1 1 2 1 1 1 1 1 1 1 1 2 1 1 2 2 1 2 2 1 1 1 1 1 1 2 2 1 1 1 1 1 2 2 1 2 1 1 1 1 1 2 2 1 1 1 1 1 1 1 1 2 2 1 1 0 1 1 1 1 0 1 1 1 1 1 1 1 1 1 2 1 1 1 1 2 1 1 1 1 0 0 1 1 1 0 0 1 1 1 1 1 1 1 1 2 0 1 1 -1 0 1 1 1 0 0 1 1 1 1 1 1 0 0 2 1 2 1 1 1 1 0 1 -1 1 0 1 1 2 1 
1 0 2 0 0 1 1 2 0 1 1 1 0 1 0 1 1 1 1 1 1 1 0 1 0 0 1 1 1 2 0 0 0 1 2 2 1 1 1 1 0 1 0 0 1 2 1 0 0 1 2 1 1 1 0 0 2 1 0 1 1 2 1 1 1 2 2 1 1 0 1 1 1 1 1 1 1 0 1 1 1 1 1 1 1 1 1 2 1 1 0 1 1 1 2 1 0 1 1 2 1 1 1 1 1 1 1 1 1 2 1 0 1 1 2 2 1 1 2 1 2 2 2 2 2 1 1 2 1 1 2 2 2 1 1 1 2 2 1 2 2 1 2 2 1 2 3 3 3 2 2 2 3 3 2 2 3 3 2 2 2 2 2 3 3 3 3 3 3 4 4 4 4 5 4 4 5 5 5 6 6 6 7 8 9 9 10 12 12 13 22 44 80 114 135 144 147 148 150 153 154 155 156 156 157 157 158 159 159 160 160 161 161 161 161 161 162 162 161 161 161 161 161 161 162 163 162 161 162 162 162 162 162 162 162 162 162 162 162 162 162 162 163 163 162 162 162 162 163 162 161 161 162 162 162 162 161 162 163 162 162 162 161 162 162 162 162 162 162 162 162 162 162 161 161 161 161 162 162 161 162 162 162 161 161 161 161 161 161 161 162 161 161 161 161 160 160 161 161 161 160 160 160 161 161 160 160 161 161 160 160 160 160 161 161 160 160 160 160 160 160 160 160 160 160 160 160 160 160 160 160 160 160 160 159 159 159 160 161 160 159 160 160 160 160 160 160 159 159 159 159 159 159 159 160 160 159 159 159 159 159 160 159 158 159 160 159 159 159 159 159 159 158 159 159 158 159 159 159 159 159 159 158 158 158 158 158 159 160 160 160 160 159 159 159 160 160 160 159 159 160 160 161 161 161 161 161 161 161 160 160 160 160 160 160 160 160 161 160 160 160 160 161 160 160 160 160 159 159 158 158 158 157 157 157 157 157 157 156 155 154 154 153 153 152 151 150 148 146 145 143 141 139 128 106 74 41 21 14 12 11 10 8 8 8 7 6 6 6 5 4 5 4 4 4 4 4 4 4 4 4 3 3 3 3 3 3 4 3 3 2 2 2 3 3 2 2 2 2 3 2 2 3 3 2 2 2 1 1 2 2 2 2 1 2 2 1 2 2 2 1 2 2 1 1 1 1 2 1 1 2 1 1 1 1 2 2 1 0 1 2 1 1 2 1 2 1 1 1 0 1 1 1 1 1 2 2 1 1 1 1 2 1 1 1 0 1 1 1 1 0 1 0 1 1 1 1 0 1 0 1 1 1 1 1 1 1 1 1 1 0 1 1 1 1 1 0 1 1 1 1 1 1 1 0 1 1 1 1 0 1 1 1 2 0 0 1 0 1 1 0 1 0 1 1 1 1 1 0 0 1 1 0 0 1 1 0 0 2 1 
-1 3 0 1 1 2 0 0 1 2 1 2 1 1 0 1 1 1 1 0 1 1 0 2 1 1 1 1 2 2 0 0 0 0 0 0 1 1 1 2 1 1 0 1 1 1 1 0 0 0 1 2 1 1 0 0 1 1 1 1 0 0 0 1 1 1 1 1 1 0 1 1 1 1 1 1 1 1 1 1 0 1 1 2 0 1 2 2 0 0 1 1 1 1 1 1 1 1 1 1 1 1 1 1 1 1 2 2 1 1 0 0 1 1 1 1 1 1 2 2 2 2 1 2 2 2 1 1 1 2 2 1 2 2 2 1 2 2 2 2 2 2 2 2 1 2 3 2 3 3 3 2 2 2 2 2 2 2 3 3 3 3 3 3 4 4 4 3 4 4 3 3 4 5 4 4 4 4 6 7 6 6 6 7 8 9 10 12 11 13 22 44 79 113 134 143 146 147 150 152 153 154 155 156 156 157 157 158 158 159 160 160 160 160 161 161 161 161 161 161 161 161 161 161 162 162 162 162 162 162 162 162 163 163 161 161 162 162 161 162 162 162 162 162 162 162 161 162 162 162 161 162 162 162 161 162 162 162 162 162 162 162 162 162 162 162 162 161 162 162 161 162 162 161 161 161 161 161 161 161 162 161 161 161 162 162 162 162 161 162 162 162 162 161 161 160 160 160 160 160 161 160 160 160 161 160 160 160 160 160 160 161 161 160 160 160 161 160 160 161 161 160 160 160 160 160 160 160 160 160 160 160 160 159 159 159 159 160 160 160 159 159 159 159 160 160 160 160 159 159 160 160 160 159 159 159 159 159 159 159 159 159 159 158 159 160 160 159 159 159 159 158 159 160 159 159 159 159 158 159 159 159 158 158 159 159 159 159 159 158 159 159 159 160 160 160 159 159 160 160 160 160 160 160 160 160 161 161 161 161 160 160 161 161 160 160 160 160 160 160 161 161 160 160 160 160 160 160 159 159 159 158 157 157 157 156 157 157 156 155 154 154 154 153 152 151 150 149 147 145 142 140 138 127 106 74 42 22 14 11 12 11 8 8 8 7 6 6 6 6 6 5 4 4 5 4 4 4 5 4 4 3 3 2 3 3 3 3 3 3 2 2 2 3 2 2 2 2 2 2 2 2 2 3 2 2 2 2 2 2 2 1 2 1 1 2 2 2 1 1 1 2 1 1 2 2 1 2 1 2 2 0 1 2 2 2 2 1 1 1 1 2 2 2 1 1 0 1 1 1 1 0 1 1 1 1 1 1 1 0 1 2 2 1 1 1 1 1 1 2 1 1 1 2 1 1 1 1 1 1 2 1 1 1 1 2 1 0 1 1 1 1 0 1 1 1 1 1 2 1 1 1 1 1 1 1 0 1 1 0 1 1 1 1 0 0 1 0 0 1 0 1 0 1 1 1 1 1 1 2 1 0 1 1 1 1 0 3 -1 2 
1 -2 1 2 0 0 1 1 1 0 0 2 1 1 0 0 0 0 1 0 1 0 0 1 0 1 1 0 1 1 0 -1 0 1 1 1 2 1 1 1 1 2 1 1 1 1 1 0 1 0 1 1 0 1 1 0 0 0 1 2 1 1 0 1 1 1 1 1 1 1 1 1 1 1 0 1 2 1 1 1 1 1 0 2 1 1 1 2 1 1 1 1 1 1 2 1 1 1 1 0 1 1 0 1 1 1 1 1 1 2 1 1 1 0 1 2 2 1 2 1 2 1 2 2 2 2 1 2 2 1 1 1 1 2 2 2 2 1 1 2 2 2 1 2 2 2 2 2 2 2 2 3 2 2 1 2 2 2 3 2 2 2 3 3 3 4 3 3 3 4 4 4 4 4 4 5 5 4 6 7 6 6 6 7 8 8 9 11 11 13 21 42 76 111 133 142 146 147 149 151 153 153 154 156 156 156 157 158 158 159 159 159 160 160 161 161 161 161 160 160 161 161 161 161 161 162 163 162 161 161 161 162 162 162 161 161 162 162 161 161 161 161 161 162 162 162 162 162 162 162 161 161 162 162 161 161 162 162 162 162 162 161 161 162 163 163 162 162 162 162 161 161 160 160 161 161 161 161 161 161 161 161 161 161 161 161 162 161 161 161 161 161 162 162 161 161 160 160 161 161 161 160 161 161 160 160 160 161 160 160 160 160 160 159 159 160 160 160 160 160 160 160 160 160 159 160 160 160 160 160 159 159 159 160 159 159 159 159 159 159 159 159 159 159 159 159 159 160 159 160 160 159 159 160 160 159 160 159 159 159 158 158 159 159 159 159 158 158 159 159 159 158 158 159 159 159 159 159 158 158 159 159 159 159 160 160 160 159 159 159 160 160 159 160 160 160 160 160 160 159 159 160 160 160 160 160 160 161 161 161 161 161 161 161 160 160 160 161 160 160 160 160 160 160 160 160 159 159 160 159 159 158 158 158 157 157 157 157 156 155 154 154 154 153 152 151 150 149 147 145 143 141 138 128 107 75 42 22 13 11 12 10 7 7 9 8 7 7 7 6 5 5 5 5 5 4 4 4 4 4 3 3 3 3 3 3 3 4 4 3 2 3 3 2 2 2 2 2 2 3 2 2 2 3 2 2 2 2 2 2 1 1 1 1 1 2 1 2 1 2 2 2 1 1 2 2 2 2 1 1 1 1 2 2 2 2 2 1 1 1 1 1 1 1 0 1 1 1 1 1 1 1 1 1 1 1 2 0 0 0 1 2 1 1 1 0 1 2 1 1 0 1 0 1 1 1 1 0 1 1 2 1 1 2 1 1 1 1 1 1 0 1 0 1 1 1 1 1 1 1 1 1 1 1 0 1 0 1 0 1 2 1 1 1 1 1 1 0 0 1 0 1 1 1 1 1 2 1 2 1 0 1 1 0 0 1 0 1 3 0 
-1 3 1 1 1 1 0 0 1 1 1 2 1 1 1 1 1 1 0 0 1 -1 0 2 1 1 1 0 1 1 1 0 1 0 1 2 1 0 1 1 2 1 1 1 1 1 1 0 1 0 0 1 1 1 0 0 1 1 1 1 1 1 1 1 1 0 0 1 1 1 1 1 1 1 1 1 1 1 1 1 1 1 0 1 1 1 2 1 1 1 1 2 2 0 1 2 1 1 1 1 1 2 1 1 2 1 1 1 1 1 1 1 1 0 1 1 1 1 2 2 2 1 2 1 2 2 1 2 2 2 2 2 1 2 2 2 1 1 2 3 2 3 3 2 2 2 2 1 1 2 3 3 2 2 2 2 2 2 2 2 3 3 3 3 3 4 4 3 3 3 3 4 5 5 5 4 4 5 6 7 6 6 6 7 8 8 9 11 11 11 19 40 74 108 131 142 146 147 149 152 153 153 154 156 156 156 157 157 157 159 159 159 159 160 161 161 160 160 160 160 161 162 161 161 162 161 162 162 162 161 161 161 162 162 161 161 161 162 162 162 162 161 162 162 162 162 162 162 162 162 162 162 162 162 162 162 162 162 162 162 163 162 162 162 162 163 163 162 162 162 161 160 160 160 161 161 161 162 161 162 162 161 161 162 161 160 161 161 160 161 161 160 161 161 161 161 160 161 161 161 160 160 160 160 161 161 161 161 160 161 161 160 160 159 160 160 160 160 159 160 160 160 160 160 160 160 160 159 159 159 160 159 159 159 159 159 159 160 160 160 159 159 159 159 159 159 159 159 159 159 160 159 159 159 159 159 160 159 159 160 159 159 159 158 158 159 159 159 159 160 160 159 159 159 158 158 158 159 159 159 159 158 158 158 159 159 159 159 160 160 160 160 160 160 160 160 160 160 160 160 160 160 160 160 160 161 161 161 161 161 161 160 161 161 160 160 160 160 160 160 160 160 159 158 159 160 160 160 159 159 159 158 158 158 158 157 157 157 157 156 155 155 154 154 153 151 150 149 148 145 142 141 139 129 107 75 42 21 13 11 12 10 8 8 8 7 7 7 7 6 5 4 4 4 5 4 4 4 4 4 3 3 3 3 3 3 3 3 3 3 3 3 3 3 2 2 2 3 2 2 2 2 2 2 2 3 3 2 2 2 1 1 2 1 1 2 2 2 2 2 2 2 1 1 2 2 2 2 1 1 2 1 2 2 1 1 2 1 1 1 1 1 1 1 1 1 0 2 1 1 2 1 1 1 1 2 2 0 1 1 1 2 1 1 1 1 1 2 2 2 2 1 0 1 1 1 1 1 2 1 1 1 1 2 1 1 1 1 1 1 1 1 0 1 2 1 1 0 1 1 1 0 0 1 1 1 0 0 0 2 2 1 1 1 1 0 2 1 0 1 0 1 1 0 1 1 1 1 1 -1 -1 1 1 1 1 0 1 1 -1 3 
1 0 2 1 0 0 1 -1 1 0 0 1 0 1 1 0 0 1 0 0 1 0 0 1 0 1 0 1 1 1 1 0 1 1 1 1 1 1 1 0 1 0 0 1 1 2 1 0 1 0 0 1 0 1 1 0 0 0 1 1 1 2 1 1 1 1 1 0 1 2 1 1 1 1 1 2 2 1 1 0 1 1 0 1 1 1 1 0 0 0 1 1 1 0 2 2 0 1 1 1 2 2 1 1 1 1 1 1 1 1 1 1 1 0 0 1 2 1 1 1 1 1 2 2 2 2 1 2 1 1 1 2 2 2 2 2 2 2 2 2 2 2 2 2 2 2 2 1 1 2 2 2 2 2 2 2 3 3 2 2 3 2 2 3 3 3 3 3 3 3 3 4 4 4 4 4 4 5 6 6 6 6 6 7 7 8 10 12 11 11 19 39 71 106 130 141 146 147 149 151 152 153 155 156 156 157 158 158 158 158 159 159 159 160 161 161 161 161 161 160 161 162 161 161 161 161 161 161 161 161 161 161 162 162 161 161 161 161 161 161 162 161 161 162 162 162 161 161 161 161 161 161 161 162 162 162 162 162 162 162 162 161 161 162 162 162 162 162 162 162 161 160 160 160 161 161 161 161 161 161 161 161 161 161 161 161 161 161 161 161 161 160 161 161 161 161 161 161 162 161 160 160 160 160 160 159 160 160 161 160 160 160 160 160 160 160 160 160 160 161 160 160 160 160 160 160 159 160 160 160 159 159 159 159 158 158 159 159 159 159 159 160 160 159 159 159 159 159 159 160 160 159 159 160 159 159 159 159 159 159 159 159 159 159 159 159 159 159 159 159 159 158 158 159 159 159 159 159 159 159 159 159 159 158 159 159 159 159 159 159 160 161 160 159 160 160 160 159 160 161 161 160 160 160 161 161 161 160 160 162 161 161 161 161 161 161 161 160 161 161 160 160 159 159 160 160 159 158 158 158 158 158 158 158 157 156 157 157 156 155 155 154 154 154 153 151 150 148 147 146 142 141 139 129 107 75 42 21 13 12 12 10 8 8 8 7 6 6 6 6 5 4 4 4 5 4 4 3 4 4 4 3 4 4 4 4 3 3 3 3 3 3 2 2 2 3 3 3 2 2 2 2 2 2 1 2 2 2 2 2 2 2 1 1 2 1 1 2 2 1 2 2 2 2 2 2 1 2 2 1 1 2 2 2 1 1 1 1 1 0 0 1 1 1 2 2 0 1 1 1 2 1 1 1 1 1 2 0 2 1 1 2 1 1 0 1 1 1 1 1 1 1 0 0 1 1 1 0 0 0 1 1 1 2 1 0 1 0 1 1 1 1 0 1 1 0 1 1 0 1 0 1 1 0 1 1 1 1 0 1 2 2 1 0 1 1 1 0 0 1 1 1 1 0 1 1 1 1 1 0 0 1 0 1 2 0 2 0 2 1 
2 0 1 1 1 2 1 0 0 0 -1 1 0 1 1 1 0 1 1 1 1 0 0 1 0 1 1 2 1 1 0 0 1 1 1 1 0 0 1 0 1 0 1 1 0 2 1 0 1 0 1 1 0 1 0 0 1 0 1 0 1 1 1 2 1 0 0 1 1 1 0 1 1 1 1 1 1 1 2 1 1 1 0 1 0 1 1 0 0 1 1 1 1 0 1 1 0 1 1 1 1 1 1 1 1 2 1 0 1 1 1 2 1 1 1 2 2 1 1 1 1 1 1 1 1 2 1 1 1 2 2 2 1 2 2 2 2 1 1 2 2 2 2 2 2 2 2 2 2 2 2 3 3 3 2 2 2 2 2 2 3 3 3 3 3 3 3 3 3 3 4 4 4 5 4 3 4 4 5 6 6 6 7 7 8 8 10 12 12 11 18 36 66 102 127 140 146 147 148 151 153 153 155 156 156 157 157 157 158 158 159 160 159 159 160 161 161 160 160 160 160 161 160 161 161 160 161 161 161 161 161 161 162 162 161 160 161 160 160 160 161 161 162 161 161 161 161 161 161 161 162 162 161 161 162 161 161 161 162 162 162 161 161 161 162 161 161 161 161 161 161 161 161 160 160 160 161 161 161 161 160 160 160 161 161 161 161 160 160 161 161 161 160 160 161 161 160 160 161 161 161 160 160 160 160 160 160 161 160 160 160 160 160 160 161 160 159 159 160 160 160 160 160 160 160 160 159 159 159 160 160 160 159 159 159 159 159 159 159 159 159 159 159 158 159 159 159 159 159 160 160 160 160 160 160 160 159 159 159 160 159 160 160 159 159 159 159 159 159 159 159 159 158 158 158 158 159 159 159 159 159 159 158 159 159 159 159 159 159 159 159 160 159 159 159 160 160 160 160 160 161 161 161 161 160 160 161 161 161 161 161 161 161 160 160 161 161 161 161 160 160 160 160 159 159 159 159 159 159 158 157 158 158 158 158 156 157 157 156 155 154 154 154 154 152 150 150 149 148 146 142 140 138 128 108 75 42 22 14 12 12 10 8 8 8 7 6 6 7 6 5 4 4 4 5 4 3 3 4 4 4 3 4 4 4 4 3 3 3 3 2 3 2 2 2 3 2 2 2 3 3 2 2 2 1 2 3 3 2 2 2 2 2 2 2 1 1 2 2 2 2 2 2 2 2 2 1 2 2 2 1 1 1 2 2 1 1 2 2 2 1 1 1 1 2 1 0 2 1 1 2 2 1 1 1 1 2 0 2 2 1 2 1 1 0 1 1 1 1 1 2 1 1 1 1 1 1 1 1 1 0 0 0 1 1 1 1 0 1 1 1 2 1 1 2 0 1 1 0 1 0 1 1 0 1 1 1 0 0 2 2 2 1 0 1 1 1 1 0 1 0 1 1 0 0 0 1 1 1 0 -1 1 0 0 0 0 2 0 1 1 
0 1 1 0 0 2 1 0 1 1 1 1 0 0 0 1 1 1 1 1 1 0 0 1 1 1 1 1 1 1 1 1 1 1 0 1 0 0 1 0 1 1 1 1 1 2 0 0 1 1 1 1 0 1 1 0 1 0 1 0 1 2 1 1 1 1 1 0 1 2 0 1 1 1 1 1 2 1 1 1 2 2 0 2 0 1 1 0 1 1 1 1 1 1 1 1 0 1 1 1 2 1 1 1 1 1 1 1 2 1 1 2 2 1 1 2 2 1 1 1 1 2 1 1 2 2 1 1 1 2 2 2 1 1 2 2 2 2 2 2 1 1 1 2 2 2 2 2 3 2 2 2 2 2 2 2 2 2 3 3 3 3 2 3 4 3 3 3 4 4 3 3 5 5 4 3 4 5 6 6 6 6 7 6 6 8 9 11 11 11 17 32 60 96 123 138 145 146 148 150 152 153 154 155 156 156 156 157 158 158 159 159 158 159 160 160 160 160 160 160 160 161 161 161 161 161 162 161 161 162 162 161 161 161 161 161 161 161 160 161 161 161 161 162 162 161 161 161 161 161 161 161 161 161 161 161 161 161 161 162 161 161 161 160 160 160 161 161 161 161 161 161 161 161 161 161 161 161 161 160 160 159 160 161 161 161 160 160 161 162 161 160 160 160 161 161 160 160 161 161 160 159 159 160 161 161 160 160 160 160 160 160 160 160 160 160 159 160 160 160 160 160 160 160 159 159 159 160 160 160 160 159 159 159 160 160 160 159 159 160 159 159 159 159 159 160 159 159 159 159 159 159 160 160 159 159 159 159 159 159 158 159 159 159 159 159 159 159 159 159 158 158 159 159 160 160 159 159 159 158 158 158 158 159 159 159 159 159 158 159 160 160 159 159 159 159 159 159 159 160 160 160 161 161 161 161 161 160 160 160 160 160 159 160 160 161 160 160 161 160 160 160 159 160 160 160 160 160 160 159 158 159 158 158 158 157 156 157 156 155 155 154 153 154 152 151 151 149 148 146 143 141 138 128 107 74 41 21 13 12 12 10 7 8 8 6 5 6 6 6 5 4 4 4 5 5 4 3 4 4 3 4 4 4 4 3 3 3 3 3 2 2 2 2 2 2 2 2 2 2 2 2 2 2 2 2 2 2 2 2 2 1 1 2 2 1 1 1 2 2 1 1 2 2 2 1 1 1 2 2 2 2 1 2 2 1 2 2 1 1 1 1 2 1 1 1 1 1 1 1 1 1 0 2 1 1 2 0 1 1 1 2 1 1 0 1 0 1 1 0 2 1 1 1 1 1 1 0 1 1 0 1 0 1 1 1 1 0 0 1 1 1 1 1 1 0 0 0 1 1 0 2 1 0 1 0 0 0 1 2 2 2 1 0 1 1 1 1 0 1 1 1 1 0 0 1 1 1 1 0 0 1 0 1 1 1 2 1 1 2 
1 -1 1 0 1 1 1 0 1 0 0 0 1 1 1 1 1 1 1 1 1 0 1 0 1 1 1 1 1 0 1 1 1 2 0 1 0 0 1 0 2 1 1 1 1 0 0 0 1 0 1 0 0 1 1 0 2 1 1 0 1 1 1 2 1 1 1 0 1 1 1 1 0 0 1 0 1 1 2 1 1 1 1 2 1 1 1 0 1 1 2 1 1 1 1 1 1 2 1 1 1 1 1 1 1 1 1 1 1 1 1 2 2 1 1 1 2 1 1 1 1 1 1 1 1 1 1 1 1 2 2 1 1 1 2 2 2 2 2 2 2 2 3 2 2 2 2 3 3 2 2 2 2 2 2 2 3 3 3 2 2 3 3 3 3 3 3 3 4 4 4 4 5 5 4 4 4 4 6 6 6 5 6 6 7 8 8 10 11 10 15 28 54 89 119 136 143 145 147 150 152 153 154 154 156 157 156 156 158 158 158 159 159 159 160 160 160 160 160 160 160 160 159 160 161 161 161 161 161 160 160 160 161 161 161 160 160 160 161 160 160 160 161 160 160 161 161 161 161 161 161 161 162 161 161 161 160 160 161 162 161 161 160 160 160 160 160 161 161 161 161 161 161 160 160 160 160 160 160 161 161 160 160 161 161 160 161 161 160 161 161 160 159 159 160 160 160 160 160 160 160 160 160 160 160 160 161 160 160 159 159 159 160 160 159 159 159 159 160 160 159 159 159 160 159 159 159 159 159 160 160 160 159 159 160 160 159 159 159 159 159 158 158 159 160 160 160 159 158 159 159 158 158 158 159 159 159 159 159 159 158 158 158 159 159 159 159 159 159 159 159 160 160 159 159 160 159 159 159 159 159 159 159 159 160 159 159 159 159 159 160 160 160 160 160 161 160 160 161 161 161 161 161 161 161 161 161 160 160 160 161 160 160 159 159 160 160 160 161 160 159 159 160 160 160 160 161 161 160 159 159 159 158 158 158 156 156 157 156 155 155 154 153 154 152 151 150 149 149 146 142 141 138 128 107 73 40 21 14 12 12 10 7 8 8 6 6 6 6 5 5 4 4 4 4 4 3 3 4 4 3 3 3 3 3 3 2 3 4 3 3 3 2 2 3 3 2 3 3 3 3 2 2 2 2 2 2 2 2 2 2 1 2 3 2 2 1 1 2 1 1 1 2 2 1 2 2 2 2 1 1 1 2 2 2 1 2 1 2 2 2 1 2 1 2 0 0 1 1 1 0 1 1 2 1 1 2 0 1 1 1 1 1 1 1 2 1 1 2 0 1 1 1 1 0 1 2 1 1 1 0 1 1 1 1 1 1 0 1 1 1 1 0 0 1 0 1 1 1 1 0 1 1 1 1 0 1 0 1 1 1 0 0 0 2 1 1 1 1 1 1 0 1 0 1 0 1 1 2 0 1 1 0 0 1 1 2 0 2 1 
1 0 1 0 0 1 2 1 0 1 1 0 1 0 1 1 0 1 1 0 1 1 1 1 1 0 1 0 1 1 1 1 1 1 0 1 1 1 1 0 1 1 1 1 1 0 0 0 1 1 1 1 1 2 0 0 2 1 1 1 1 0 0 1 1 1 1 1 1 2 0 1 1 1 1 0 2 1 0 1 2 1 1 2 1 2 2 1 1 0 1 1 2 1 1 1 1 1 1 1 2 2 1 1 1 1 1 1 1 1 1 1 2 1 1 1 2 1 1 2 1 1 1 1 1 1 2 2 1 2 2 1 1 1 1 2 2 2 3 3 2 2 3 2 2 2 2 2 2 2 2 2 3 3 3 3 2 2 2 2 3 3 2 3 3 3 3 3 3 4 3 3 4 5 3 3 4 4 5 5 5 6 7 7 7 7 7 9 11 10 14 24 47 81 113 133 143 145 146 149 152 152 153 154 155 156 156 156 157 158 158 159 159 159 159 159 159 159 159 159 159 159 159 160 160 160 161 160 160 160 160 160 160 160 161 161 160 160 160 160 161 161 161 161 161 160 161 161 161 161 161 161 161 160 160 160 160 160 161 161 161 161 161 161 161 161 161 161 161 161 161 161 161 161 161 161 161 161 161 161 161 161 160 161 161 160 160 161 161 160 161 160 160 159 160 160 160 160 161 160 160 159 159 160 160 160 159 159 160 159 160 160 160 159 159 159 160 160 160 159 160 160 160 159 159 159 159 159 160 160 160 159 159 159 159 159 159 159 159 159 159 158 159 159 160 160 159 159 159 159 159 158 159 159 158 159 159 159 158 158 158 158 158 158 158 159 159 158 159 159 159 159 159 159 159 159 158 158 159 159 159 159 158 159 160 160 159 159 159 159 160 160 160 160 160 160 160 160 160 160 160 161 160 160 161 161 161 161 160 160 161 161 161 160 159 160 161 160 161 161 161 160 159 159 160 160 160 159 159 159 159 158 158 158 158 157 157 157 156 156 155 154 154 154 153 152 151 149 148 146 143 142 138 128 108 73 40 21 13 12 12 10 8 8 8 6 6 6 6 6 5 5 4 4 4 5 5 4 4 3 3 3 3 3 3 3 3 3 3 3 3 3 3 2 2 2 2 3 3 2 3 2 1 2 2 2 2 2 2 3 2 1 2 2 1 1 1 1 2 1 1 1 1 1 1 2 2 2 2 2 2 2 1 1 1 1 2 1 1 2 1 1 2 2 2 1 1 1 1 1 0 1 1 1 2 1 2 1 1 1 1 1 1 2 0 1 1 1 2 0 1 1 1 1 1 1 1 1 2 2 1 1 0 1 1 1 2 0 1 1 1 1 0 1 1 1 0 0 1 1 0 1 1 1 1 0 2 1 2 1 1 1 0 1 1 1 1 1 1 0 1 1 1 0 1 1 1 1 1 0 0 1 1 1 1 0 1 1 2 2 
0 2 0 2 0 0 0 1 -1 1 0 1 1 1 0 2 1 1 0 0 1 1 1 1 1 1 1 1 0 1 1 1 0 2 1 1 0 1 2 1 0 0 0 0 0 0 0 0 1 1 1 1 0 1 1 1 1 0 1 0 1 1 1 1 1 1 1 0 1 1 0 1 0 1 1 1 2 1 0 0 1 1 1 2 0 1 1 1 1 1 1 1 2 1 1 1 1 1 1 0 1 1 1 1 1 1 1 2 2 1 2 2 2 1 1 1 1 1 1 2 1 2 2 2 1 1 2 2 1 2 2 2 1 1 1 2 2 2 2 2 2 2 2 1 1 2 2 3 2 2 3 3 2 2 2 2 3 3 3 2 3 3 3 3 3 3 3 3 3 3 4 3 4 5 3 3 4 4 5 6 5 6 6 6 7 8 7 9 11 10 13 22 41 73 107 129 141 144 146 150 152 153 153 153 154 155 156 156 157 158 157 158 159 159 159 159 159 159 159 160 160 160 159 160 160 160 161 160 160 160 160 160 160 161 161 160 160 160 161 160 160 161 161 161 160 160 160 161 161 161 160 160 161 161 160 161 161 160 160 161 161 161 160 160 161 161 161 161 161 161 161 161 161 161 161 160 160 161 161 161 161 161 160 160 160 160 161 161 161 160 160 160 160 160 160 160 160 160 160 160 160 160 159 159 159 159 160 160 160 159 159 159 160 159 159 159 159 159 159 160 159 159 159 159 159 159 159 159 159 160 160 160 159 159 159 158 158 158 159 159 159 159 159 159 159 159 160 159 159 159 159 159 159 159 159 159 159 159 159 159 159 159 159 158 158 159 160 159 158 158 158 159 158 158 158 158 159 158 158 159 159 159 159 159 159 159 159 159 159 159 160 160 160 160 160 160 160 160 161 160 160 160 160 160 161 161 161 161 161 162 162 161 161 160 160 160 161 161 161 160 159 159 160 160 160 160 160 160 159 158 159 158 158 159 159 158 157 157 156 156 155 154 154 153 151 151 150 148 148 145 142 142 138 128 106 73 40 21 14 11 11 10 8 8 8 6 6 6 6 6 5 5 5 4 4 4 4 4 4 3 3 4 3 3 3 3 3 3 3 3 3 3 3 2 2 3 2 2 2 2 2 2 2 3 3 2 2 2 2 2 2 1 2 2 1 2 1 1 2 1 2 2 2 2 1 2 1 2 2 2 2 1 1 1 1 1 1 1 1 1 1 1 2 2 2 1 0 1 1 1 1 2 1 2 2 1 2 1 1 1 1 1 1 1 0 1 1 1 2 0 1 1 1 2 1 0 1 1 1 1 0 2 1 1 0 1 1 0 0 2 1 0 0 2 1 1 1 2 1 1 0 1 0 1 0 0 1 0 2 1 1 0 0 1 1 1 1 1 1 1 0 1 0 0 1 1 0 1 1 1 1 2 0 0 0 1 0 3 -1 2 
0 1 0 0 1 1 1 0 0 0 0 1 1 1 1 1 1 1 1 0 1 1 1 1 1 0 1 1 1 1 1 1 1 2 0 1 2 1 1 0 0 1 0 0 0 0 1 1 1 1 1 1 1 1 0 2 2 1 2 1 1 1 1 2 1 1 1 1 1 1 1 2 1 1 1 1 2 1 1 0 1 1 1 1 0 1 1 0 1 1 1 1 2 1 1 2 0 1 1 0 1 2 1 1 1 2 1 1 1 1 1 1 2 2 2 1 2 1 1 2 1 2 1 1 1 1 2 2 2 2 2 1 1 1 1 2 2 2 2 2 1 2 2 1 1 2 2 3 2 2 2 2 2 2 2 2 2 2 2 2 3 3 3 2 2 3 4 3 3 3 3 3 4 4 3 4 5 5 5 5 5 6 7 7 7 7 8 10 12 11 12 19 35 65 100 124 138 144 146 148 151 151 152 152 154 155 155 155 156 157 157 157 158 158 158 159 159 159 159 159 160 160 160 160 160 161 160 160 160 161 160 160 160 161 161 160 159 160 160 160 160 160 160 161 161 160 161 161 161 161 161 160 160 160 160 160 160 160 160 160 160 160 161 161 161 161 161 161 161 161 161 162 161 161 160 160 160 160 161 161 161 160 159 160 160 161 161 161 160 160 160 160 160 160 160 160 160 160 160 159 160 160 159 160 160 160 160 160 160 160 160 159 159 159 159 159 159 159 159 160 160 159 159 159 159 159 159 159 159 159 159 159 159 159 158 158 158 158 159 159 159 159 158 158 158 159 159 159 159 158 158 159 159 159 159 159 160 159 159 159 159 159 159 159 159 159 159 159 159 158 158 159 158 158 158 159 159 159 158 158 159 159 159 159 159 159 159 159 159 159 160 160 160 160 160 160 161 160 160 160 160 161 160 160 161 161 161 160 161 161 161 161 160 160 160 160 160 160 160 160 160 160 159 160 160 160 159 159 159 159 159 159 158 159 159 158 157 157 156 156 155 154 154 152 152 152 149 148 148 146 143 142 138 127 105 71 39 21 13 11 11 9 8 8 8 6 6 6 6 6 6 5 5 4 4 4 5 4 3 3 4 4 4 4 3 3 3 3 3 3 3 4 3 2 2 2 2 2 3 3 3 2 1 2 2 2 2 2 2 2 2 2 2 2 1 1 1 2 2 1 2 1 2 2 1 2 2 2 2 2 2 2 1 1 1 1 1 1 1 1 1 2 2 1 2 1 0 1 2 2 1 2 1 1 2 1 2 1 1 1 1 1 1 0 0 1 1 1 2 0 0 1 0 1 1 0 1 1 1 0 0 1 1 1 1 0 1 1 1 1 1 1 0 1 2 1 1 1 1 1 0 1 1 1 0 0 1 0 1 1 0 0 0 1 0 0 1 1 1 1 0 1 1 1 1 1 1 1 1 1 1 1 0 0 1 -1 1 2 0 2 
1 -1 2 -1 1 1 1 0 1 0 0 1 1 1 1 1 1 1 1 0 1 1 1 1 1 0 0 1 1 1 1 1 1 1 1 1 2 1 1 0 0 1 0 0 0 0 1 1 2 1 1 1 1 1 1 2 1 1 1 1 1 1 1 2 1 1 1 1 1 1 1 2 1 1 1 1 1 1 1 0 1 1 1 1 0 1 1 0 1 1 1 1 2 1 2 2 1 1 1 1 2 2 2 1 1 1 1 1 1 1 1 1 1 1 2 1 2 1 1 2 2 2 1 1 1 1 2 1 2 2 2 2 1 2 2 2 2 2 2 2 2 2 2 2 2 2 2 3 2 2 2 2 1 2 3 2 2 2 2 2 3 3 3 2 2 3 3 4 3 3 3 3 4 4 3 4 5 5 5 6 5 5 6 7 8 8 8 10 11 11 11 16 30 57 92 119 136 144 146 147 150 150 151 152 154 155 155 155 156 157 157 157 158 158 158 159 159 159 159 159 159 160 160 160 160 160 160 159 160 160 159 160 160 161 161 160 159 160 160 160 160 160 160 161 161 160 160 160 160 160 161 161 161 161 161 160 160 160 160 160 160 160 161 161 161 161 160 160 161 161 161 161 161 160 160 160 161 160 160 161 160 159 159 160 160 160 161 160 160 160 160 160 160 160 160 160 159 160 160 159 160 160 159 159 160 159 159 160 160 160 160 159 159 159 159 159 160 159 159 160 160 159 159 159 159 159 160 159 159 159 159 159 159 159 159 158 159 159 159 159 159 159 159 158 159 159 159 159 159 158 159 159 159 159 159 159 159 159 159 159 159 159 159 159 159 159 159 159 159 158 158 159 159 158 158 158 159 159 158 158 158 159 159 159 159 159 159 159 159 159 159 160 160 160 160 160 161 161 161 160 160 161 161 160 161 161 160 160 161 160 161 160 160 161 161 160 160 160 161 160 160 160 160 160 160 159 159 159 159 159 159 158 158 158 158 157 157 156 156 156 156 155 154 152 152 152 149 148 148 146 144 142 138 127 103 68 37 20 13 11 11 9 8 8 7 6 7 6 6 6 6 5 5 4 4 4 4 4 3 3 4 4 4 3 3 3 2 2 3 3 3 4 3 3 3 3 3 3 3 3 3 2 1 1 2 2 2 2 2 2 2 2 2 2 2 2 1 2 2 1 2 1 1 2 1 2 2 2 3 2 2 2 2 1 1 1 1 1 1 1 1 2 2 1 2 1 0 1 1 1 1 1 1 1 2 1 2 1 1 1 1 1 1 0 0 1 1 1 1 0 1 1 0 1 1 0 1 0 1 1 0 1 1 1 1 0 1 1 1 1 1 1 0 1 1 1 1 1 1 0 1 1 1 1 1 0 1 0 1 1 0 0 0 0 0 0 1 1 0 0 0 1 1 1 1 0 1 1 1 1 1 0 1 0 1 0 1 1 2 1 
1 -1 1 0 -1 1 1 0 1 1 0 1 0 1 1 2 2 2 1 0 1 1 1 1 1 1 0 1 1 1 2 1 1 2 1 1 1 1 2 1 0 1 0 1 0 1 1 0 1 1 1 0 0 1 1 2 0 0 1 1 0 1 1 1 1 0 1 0 1 0 0 1 1 1 1 1 1 1 1 0 1 1 2 2 0 1 1 1 1 1 1 0 1 1 1 1 1 2 2 1 1 2 2 2 1 1 1 1 2 1 1 1 1 1 2 1 1 0 1 2 1 2 2 1 2 2 1 1 1 2 2 2 2 2 2 2 2 1 2 2 2 2 2 2 2 2 2 2 2 2 2 2 1 2 3 2 3 3 2 2 3 3 3 3 3 2 3 4 3 3 3 3 4 5 4 4 5 5 5 6 5 5 6 6 7 9 9 9 11 11 11 15 26 49 83 113 132 143 146 147 149 150 151 152 153 155 155 155 156 157 157 157 158 159 158 158 158 158 159 159 160 159 159 159 159 159 159 158 158 159 159 159 160 160 160 159 159 160 160 160 161 160 160 161 160 160 160 160 160 160 160 161 161 161 161 161 161 160 159 160 161 160 160 160 160 160 160 160 160 161 160 160 160 160 160 160 161 160 160 160 160 160 160 160 160 160 160 160 161 160 160 160 160 159 159 159 160 160 160 159 159 159 159 159 159 159 159 160 159 159 159 158 158 159 159 159 159 159 159 159 159 158 158 159 159 159 159 159 159 159 159 159 159 159 158 159 159 159 159 159 159 160 159 158 159 160 160 159 159 158 159 160 160 160 160 159 159 159 159 159 159 159 159 159 159 159 159 159 158 158 158 159 158 158 158 158 159 158 157 157 158 159 160 159 157 158 159 159 159 159 159 159 160 160 160 159 160 161 161 161 160 160 160 160 160 160 160 160 161 161 160 160 161 161 161 160 161 161 161 161 160 160 160 161 160 159 159 160 159 159 159 158 158 158 158 157 157 156 156 156 156 156 155 153 152 152 149 149 148 145 143 142 138 126 101 66 36 20 13 12 11 9 8 8 7 6 6 5 5 6 5 5 5 5 4 4 4 3 4 4 3 3 3 2 2 3 2 2 3 2 2 2 2 3 3 3 3 2 2 2 2 3 2 2 2 2 2 2 2 1 1 2 2 2 2 3 2 1 1 1 2 1 1 2 1 1 1 1 2 2 2 2 1 1 1 0 1 1 1 1 1 2 1 1 1 1 1 1 1 1 1 1 1 1 2 1 2 1 1 1 1 1 1 1 1 1 1 1 1 1 1 1 1 1 1 1 1 1 1 1 0 1 1 1 1 0 1 0 1 1 1 1 0 1 0 1 2 1 1 0 1 2 0 1 1 1 1 0 0 1 0 1 1 0 0 0 1 1 0 1 0 1 1 1 1 1 1 1 1 2 1 0 0 0 1 1 1 1 1 1 
1 0 1 1 -1 1 1 1 1 1 1 1 -1 1 1 1 0 1 0 1 0 0 1 1 1 1 -1 0 1 1 1 1 1 1 0 1 2 2 1 0 0 2 1 1 1 1 1 1 2 0 1 1 1 2 1 1 0 0 0 1 1 0 0 1 1 1 1 1 1 1 1 1 1 1 1 1 0 1 0 1 2 1 1 1 1 1 1 1 0 1 0 0 0 1 1 1 0 1 1 1 1 1 2 1 1 1 1 2 2 1 1 1 1 2 2 1 2 1 1 2 1 1 1 1 2 2 2 1 1 2 2 2 2 2 2 1 1 1 2 3 2 2 2 2 2 2 2 2 2 2 2 2 2 2 3 3 2 2 2 2 3 3 3 3 3 3 4 4 3 3 3 3 4 5 4 3 4 5 4 5 5 6 7 7 7 8 8 8 11 11 11 14 22 43 74 106 129 141 145 146 148 149 151 152 153 154 155 155 155 157 157 156 157 158 158 157 158 158 158 158 158 158 159 159 159 159 159 159 159 159 159 159 159 159 160 160 159 159 159 160 160 160 160 160 160 160 160 160 160 160 160 161 161 160 160 160 160 160 160 160 160 160 161 161 160 160 160 160 159 159 159 159 160 160 160 160 161 160 160 160 160 160 160 160 160 160 159 160 160 160 159 160 160 160 160 159 159 160 160 159 159 159 159 159 159 159 159 159 160 160 160 159 159 159 159 159 159 159 159 159 159 159 159 158 159 159 159 159 160 160 159 159 159 159 158 159 159 159 159 159 160 160 159 159 159 159 158 159 159 159 159 160 160 160 159 159 159 159 158 159 159 159 159 159 159 158 158 158 158 159 159 158 158 159 159 158 158 158 158 158 158 159 159 158 157 158 158 159 159 159 159 159 159 159 159 159 159 160 160 160 160 160 160 160 160 160 161 161 161 161 160 161 161 161 160 160 161 161 161 162 161 160 160 161 160 160 160 160 160 160 159 158 158 158 158 158 157 156 156 156 155 155 154 153 153 152 150 149 148 145 144 142 137 125 100 65 35 19 13 12 11 9 9 8 7 7 6 6 5 5 5 5 5 4 4 5 5 4 4 4 4 4 3 3 3 3 2 2 3 3 3 3 2 2 2 2 2 3 2 2 2 2 2 1 1 2 2 2 2 2 2 2 1 2 2 2 2 2 2 1 2 1 2 2 1 2 2 2 2 2 1 2 2 1 1 1 2 1 1 1 1 1 2 1 1 1 1 1 1 1 1 1 1 2 2 1 2 2 1 2 1 1 1 1 1 1 1 1 1 1 2 2 1 1 1 1 1 1 2 2 1 1 1 1 1 0 1 0 1 1 0 2 0 1 1 1 2 1 1 0 0 1 0 0 1 1 1 0 0 0 0 1 1 1 1 0 0 1 0 0 0 1 1 1 1 1 1 1 1 1 0 1 1 1 0 1 0 1 2 1 
1 1 1 1 1 0 1 1 1 1 0 0 1 1 1 1 1 1 0 1 1 0 1 0 1 1 0 1 1 0 1 0 1 1 0 1 1 1 1 1 1 1 0 1 1 1 1 0 1 0 1 1 0 1 1 1 0 0 0 1 1 1 1 1 1 1 2 1 1 1 1 0 0 1 2 0 0 1 1 1 1 1 1 2 1 1 1 1 0 1 1 1 1 0 0 1 1 2 1 0 0 0 1 2 1 1 1 1 1 1 1 1 1 2 2 1 2 1 1 1 1 1 1 2 2 1 1 1 2 2 1 1 1 2 1 1 1 1 2 2 1 2 2 1 2 2 2 2 2 2 2 2 2 2 2 2 2 3 3 2 2 3 3 3 4 3 3 4 4 3 3 4 5 5 5 5 5 5 5 6 5 5 6 6 7 8 7 8 10 11 11 13 19 35 65 98 123 138 144 146 148 149 151 151 152 153 154 154 155 156 156 156 157 158 157 157 158 158 158 159 159 158 158 158 159 159 160 159 160 159 159 159 159 159 159 159 158 159 159 159 159 159 158 158 159 159 159 159 160 160 160 160 161 161 161 160 160 160 159 159 160 160 160 160 160 159 160 160 160 160 160 160 159 159 159 159 160 159 159 160 160 159 160 160 159 159 159 159 159 159 159 159 159 159 159 159 159 159 159 159 159 159 159 158 159 160 160 160 159 159 159 159 159 160 160 159 158 158 159 159 159 158 158 158 159 159 159 159 159 159 159 159 159 159 158 158 159 158 158 158 159 159 159 158 159 159 159 159 158 158 159 159 159 160 159 159 159 159 159 160 160 159 159 160 159 159 159 159 159 158 159 159 158 158 159 159 159 158 159 158 158 159 159 158 158 158 159 159 159 159 159 159 159 160 160 159 160 160 161 160 161 161 160 160 161 161 161 161 161 161 161 161 161 160 161 161 161 161 161 161 160 160 160 161 161 160 160 160 159 159 158 158 158 158 158 157 156 156 155 155 154 154 153 153 153 151 149 149 147 144 143 142 137 124 98 63 34 19 13 12 11 9 9 8 7 7 6 6 5 5 5 5 5 4 4 4 4 4 4 4 4 3 3 3 4 4 3 3 3 3 3 3 2 2 3 3 3 3 2 2 3 3 3 2 1 1 2 2 1 1 2 2 2 2 2 2 2 1 2 2 2 1 2 2 1 1 2 2 2 2 1 2 2 2 2 1 2 1 1 2 1 1 1 1 1 1 1 1 1 1 1 1 2 2 1 1 1 1 2 2 1 0 1 1 1 1 1 2 1 1 1 1 1 2 1 1 2 1 0 1 1 1 1 1 1 0 1 0 1 1 0 2 0 1 1 1 2 1 1 1 0 1 0 0 1 0 1 1 0 0 0 0 1 0 1 1 0 1 1 1 1 1 0 1 1 1 1 1 0 1 2 1 1 0 1 1 0 1 1 0 
0 1 2 0 1 0 1 0 1 1 2 0 1 -1 1 1 2 1 0 1 0 0 0 1 2 1 0 0 1 1 1 0 1 0 0 1 1 0 1 0 1 1 0 1 1 1 1 0 1 0 1 1 0 1 2 2 1 1 1 1 1 0 1 1 0 1 2 1 1 1 1 1 1 1 2 1 1 1 0 1 2 2 1 1 1 2 2 1 0 1 1 1 1 1 1 0 1 1 0 0 1 1 1 1 1 2 2 1 1 1 1 1 2 2 2 1 2 2 2 2 2 2 2 2 2 2 2 1 1 2 1 1 2 2 1 1 1 2 2 2 2 2 1 1 2 2 2 2 2 2 2 2 2 2 3 3 2 2 3 3 3 3 3 3 4 4 3 3 3 3 3 3 3 4 4 4 5 5 5 6 6 6 6 6 6 7 8 8 9 10 11 12 16 29 55 88 117 135 143 144 146 148 149 150 151 152 154 155 155 156 156 156 156 157 157 157 157 158 158 157 158 159 159 159 159 160 160 159 159 160 160 159 159 159 159 159 159 159 159 158 158 158 158 159 160 159 159 159 160 160 159 159 160 159 159 159 160 160 159 159 160 160 160 160 159 159 159 160 160 160 159 159 160 160 159 159 160 159 159 159 159 159 159 159 159 158 158 159 159 159 159 159 159 160 160 160 160 160 159 159 159 158 158 159 159 159 159 159 159 159 159 159 159 159 159 159 159 159 159 159 159 158 158 159 159 159 159 159 159 158 158 158 159 159 159 158 158 158 158 159 159 158 158 158 159 159 158 158 158 158 158 159 159 159 159 158 158 158 158 159 159 159 159 160 159 159 160 159 159 159 159 158 159 159 159 159 159 159 159 159 158 159 159 159 158 159 159 159 159 159 160 160 160 160 160 159 159 160 160 160 160 160 161 161 161 161 161 161 161 161 161 161 161 161 161 161 161 161 161 161 161 160 160 161 161 160 159 159 159 159 158 157 157 158 158 157 156 156 156 156 155 154 153 153 153 151 150 149 147 145 143 142 137 122 95 60 32 17 12 12 11 9 8 8 7 7 6 6 5 5 5 5 5 4 5 5 5 4 3 3 4 4 3 3 4 3 3 3 4 3 3 3 2 3 3 3 3 3 2 2 2 2 2 2 2 2 2 1 1 2 2 2 2 2 1 2 1 2 2 1 2 1 2 2 1 2 2 2 2 1 2 2 2 1 2 1 2 1 1 1 1 1 2 1 1 1 1 1 1 1 1 1 1 1 1 1 1 1 1 0 1 1 1 1 1 1 0 1 1 0 1 1 1 1 1 1 1 0 1 1 1 1 1 1 1 1 1 0 1 1 1 2 1 1 1 0 1 0 1 1 1 2 1 0 1 0 0 0 0 1 1 1 2 0 1 1 0 0 1 0 2 1 1 0 1 1 2 1 1 1 2 1 2 1 1 0 0 0 2 0 
0 1 1 0 2 0 1 1 0 0 1 -1 1 1 1 0 1 1 1 2 1 1 1 0 1 1 1 2 1 0 1 0 1 1 1 1 1 1 1 1 1 1 1 1 0 0 1 0 1 0 1 1 1 1 1 2 2 1 1 1 1 0 1 1 0 0 1 1 1 1 1 1 1 1 2 1 1 1 1 1 0 1 1 1 1 1 1 1 1 1 1 2 2 1 0 1 1 2 1 1 1 1 0 0 1 2 1 0 1 1 1 1 1 1 2 2 1 2 2 2 1 2 1 1 2 1 2 1 2 2 1 1 2 2 1 1 2 2 2 2 1 2 3 2 2 2 2 1 1 2 1 2 2 3 4 3 2 2 2 2 3 4 4 3 4 3 3 3 3 3 4 4 3 3 4 4 4 5 5 5 5 5 6 7 6 7 7 7 9 10 11 11 14 24 47 79 110 130 140 144 146 147 149 151 151 152 153 154 155 155 155 155 156 157 157 158 157 158 157 157 158 158 158 159 159 158 159 159 159 159 158 159 159 159 158 158 158 158 158 159 159 159 159 159 159 159 159 159 159 159 159 159 159 159 159 159 159 160 160 160 160 160 160 159 159 159 159 159 159 159 159 159 159 159 159 159 160 159 159 159 159 159 159 159 160 159 159 159 159 159 159 159 159 158 159 159 159 159 159 159 159 159 159 158 159 159 159 159 159 158 159 159 159 158 158 158 158 159 159 159 158 158 158 158 159 159 159 158 158 158 158 158 159 159 158 158 159 159 159 158 158 158 158 158 159 159 158 158 158 158 158 159 159 158 159 159 159 158 159 159 159 159 159 159 159 159 159 159 159 159 159 159 159 158 158 158 158 158 159 158 158 159 159 159 159 159 159 159 159 159 159 160 160 161 160 160 160 161 160 160 161 161 161 161 160 160 161 161 161 161 161 161 161 161 160 160 161 160 160 160 160 160 160 160 160 160 159 160 159 159 158 158 158 158 158 157 157 156 157 156 155 154 153 153 152 150 150 148 147 144 143 141 136 121 93 58 31 17 13 12 11 9 8 8 7 6 7 6 5 5 5 5 4 4 5 4 4 4 4 4 4 3 3 3 4 3 3 3 3 3 3 3 2 3 3 3 3 3 3 2 2 2 2 2 2 2 2 2 2 2 2 2 2 2 2 2 1 1 2 2 2 2 2 2 2 2 2 2 2 1 1 1 1 1 1 0 1 1 1 2 1 2 2 1 2 2 1 1 1 1 1 1 1 1 0 1 2 1 1 1 1 1 1 1 1 2 1 1 1 0 1 1 1 2 1 1 2 1 1 1 1 1 1 0 1 1 1 0 1 0 1 2 1 1 1 1 2 1 1 1 1 1 1 1 1 1 1 0 0 2 1 1 1 0 1 1 1 1 1 0 0 0 1 1 1 1 0 1 0 0 1 0 1 0 0 -1 0 0 1 0 
0 2 0 2 0 1 0 0 0 1 2 0 0 0 0 1 1 2 1 1 0 1 0 0 1 1 0 1 0 1 1 1 1 1 0 1 1 1 1 1 1 2 1 1 0 0 1 0 1 0 1 1 1 1 1 2 0 1 1 1 1 1 1 0 0 1 1 0 1 1 1 1 1 1 2 1 1 1 0 0 1 1 0 1 1 1 1 0 0 0 0 1 1 1 1 1 1 1 1 1 2 1 1 1 0 1 1 1 1 2 1 1 2 1 2 2 1 2 2 2 1 2 1 1 2 1 1 1 1 1 1 2 2 2 1 0 2 2 2 2 1 1 2 2 2 2 2 1 1 2 2 2 2 2 3 3 3 3 3 3 3 3 3 4 3 2 2 3 3 3 3 4 4 3 3 4 4 4 5 5 5 5 5 6 6 7 7 7 9 10 11 12 13 21 40 69 102 125 138 143 145 146 148 150 151 152 154 154 154 154 155 155 156 156 157 157 157 158 158 157 158 158 158 159 159 158 158 158 158 159 159 158 158 158 158 158 158 159 159 159 159 158 158 159 159 159 158 159 159 159 158 159 159 159 160 160 160 159 159 160 160 160 159 159 159 159 159 159 159 159 159 158 158 159 159 160 159 159 159 159 159 159 159 159 160 160 160 160 160 160 159 159 159 159 160 160 159 159 159 159 159 159 159 159 158 158 158 159 159 159 159 159 159 159 158 158 158 159 159 159 158 158 158 158 158 159 159 159 159 159 158 159 159 159 159 158 159 159 158 158 158 158 158 158 159 158 158 158 158 158 158 158 159 159 159 158 158 159 159 158 158 158 158 158 158 158 158 159 159 158 158 158 158 159 159 159 158 159 159 158 158 158 159 159 158 159 159 158 158 159 160 160 160 161 160 160 160 159 160 162 162 161 160 160 160 160 160 160 160 161 161 161 161 161 161 161 160 160 160 160 160 160 160 160 160 160 159 159 158 158 159 159 159 158 158 157 157 157 156 156 156 154 152 152 152 151 150 148 147 145 143 142 136 119 90 56 30 17 13 12 10 9 8 7 7 7 6 5 5 5 6 5 5 5 5 5 4 3 3 4 4 4 4 4 3 3 3 3 3 3 3 2 2 3 3 3 3 3 2 2 2 1 2 2 2 2 2 2 2 2 2 1 2 2 2 2 1 1 2 1 2 3 3 2 2 2 1 2 1 1 1 1 1 1 1 1 1 1 1 1 0 1 2 1 1 1 1 1 1 1 1 2 1 1 0 1 1 1 1 1 2 2 1 1 1 1 0 1 1 1 1 1 1 1 1 1 2 1 0 1 1 1 1 1 1 1 1 0 0 0 1 2 0 1 0 1 1 1 0 0 1 1 1 1 1 0 0 1 1 1 1 1 1 1 1 1 1 1 1 1 1 1 1 1 1 1 0 2 0 1 1 0 1 1 0 2 -1 2 1 1 
-1 3 0 2 2 1 0 0 0 2 2 1 1 0 1 1 1 1 1 2 1 1 0 0 1 1 1 1 0 1 2 1 1 1 1 1 1 1 1 2 1 1 1 1 0 0 1 0 0 1 1 1 1 1 0 1 1 1 1 1 1 0 1 1 0 0 1 1 1 1 0 1 1 0 1 0 0 0 0 1 0 2 1 1 1 1 1 1 1 1 0 1 1 1 1 1 1 1 1 2 2 1 1 1 1 2 2 2 1 1 1 1 2 1 1 2 1 1 1 2 1 2 1 1 2 1 1 1 1 2 2 2 1 2 2 1 2 3 3 2 1 2 2 2 2 2 2 1 1 2 2 2 2 2 3 3 2 2 2 3 3 4 3 3 2 3 3 3 3 3 3 4 4 4 4 4 3 4 4 5 5 4 5 6 6 7 7 7 9 10 11 12 12 17 33 60 93 120 135 143 145 146 148 150 150 151 152 153 154 154 155 155 155 156 157 157 157 157 157 157 157 158 158 158 158 157 157 158 158 159 158 157 157 157 157 157 158 158 159 159 158 158 159 159 159 158 159 159 159 160 160 160 159 159 159 159 159 159 158 159 160 160 159 159 159 160 160 159 159 160 159 159 159 159 159 159 158 159 159 160 160 159 159 159 159 159 159 159 159 158 158 159 159 159 159 159 159 158 157 158 159 158 158 158 158 159 159 159 159 159 159 159 159 159 158 158 158 159 159 159 158 158 159 159 159 158 158 158 158 158 159 159 159 158 158 158 159 159 159 159 158 158 158 158 158 159 159 159 158 158 158 158 158 158 158 159 159 159 158 159 159 159 158 158 158 158 159 159 158 158 158 158 157 158 158 158 158 159 159 159 158 158 159 159 158 158 158 159 159 159 159 159 160 160 160 160 160 160 159 160 161 161 160 160 160 160 160 160 161 161 160 160 161 161 160 161 161 160 160 159 160 161 160 159 159 160 160 160 158 158 158 158 158 158 158 157 157 157 156 156 155 154 153 153 152 151 150 149 148 145 143 142 135 118 89 54 28 16 13 12 10 9 9 8 7 7 6 6 5 5 6 5 4 4 4 5 5 4 3 3 4 4 3 3 3 3 3 3 3 3 3 2 2 3 3 2 2 3 2 2 2 1 2 2 2 2 1 1 2 2 2 2 2 2 2 3 2 2 2 1 2 2 2 1 1 1 1 2 1 2 2 1 1 1 1 1 1 2 1 2 1 1 2 2 1 1 1 1 2 2 1 2 2 1 1 1 2 1 1 1 2 2 1 1 0 1 0 1 1 1 2 1 1 2 1 0 0 1 1 1 1 1 1 1 2 1 1 1 0 0 0 2 1 2 1 1 1 1 1 1 1 0 1 1 1 0 1 0 0 2 1 1 1 1 1 1 1 2 1 0 1 0 1 1 0 1 0 1 0 0 0 0 0 1 0 1 -1 2 -1 2 
2 -3 3 0 2 0 1 0 1 0 2 1 1 0 1 0 1 1 2 1 0 0 0 0 1 1 1 0 0 1 2 1 1 1 1 0 1 1 1 1 0 1 1 0 1 0 2 1 1 1 1 1 1 2 1 2 1 1 1 2 1 1 1 1 1 1 1 1 1 1 1 0 0 0 1 1 1 1 0 1 1 2 1 2 2 1 1 2 2 2 1 1 0 2 1 1 1 1 1 2 2 1 1 1 1 1 1 1 1 1 2 1 1 0 1 2 2 1 1 1 1 1 1 1 2 1 1 2 2 2 2 2 1 1 1 2 2 2 2 2 1 1 1 2 2 2 2 2 2 2 2 3 2 2 2 3 2 3 3 3 2 3 3 2 2 2 2 3 3 3 4 4 4 3 4 4 4 4 5 5 5 4 5 6 6 7 7 7 9 10 10 11 11 16 28 51 84 114 132 140 144 145 146 149 150 151 152 153 153 153 155 156 156 156 156 157 156 156 157 157 157 157 157 158 158 158 157 158 158 158 158 158 158 157 157 158 158 158 159 158 157 158 158 158 158 159 159 159 160 160 159 159 159 160 159 158 158 158 158 159 158 158 158 159 159 159 160 159 159 159 159 160 159 159 159 159 158 158 159 159 159 159 159 159 159 159 159 158 158 158 158 158 159 159 159 159 158 158 158 158 159 159 159 159 158 158 159 159 159 159 158 158 159 159 158 158 158 159 159 158 158 158 158 158 158 158 158 158 158 158 158 158 158 158 159 159 158 158 158 158 158 158 158 158 157 158 159 159 158 158 158 158 158 158 158 158 159 159 158 158 157 157 159 159 158 158 158 158 159 158 158 158 157 158 158 159 159 159 159 159 158 158 158 159 158 159 159 159 160 160 160 160 160 160 160 161 161 160 160 160 161 161 161 161 161 160 160 160 161 161 161 160 161 161 161 161 161 161 160 160 160 160 160 160 161 160 160 159 158 158 158 158 158 157 156 156 157 157 156 155 155 153 153 153 151 150 149 148 147 144 143 142 134 116 86 51 27 16 12 11 10 9 8 8 8 7 7 6 5 5 5 5 5 4 4 4 4 3 2 3 4 4 3 3 4 3 3 3 3 3 3 3 2 2 3 3 2 2 3 3 2 1 2 2 2 2 2 2 2 2 2 2 2 2 2 2 2 2 2 1 2 2 2 1 2 2 2 2 1 1 1 1 1 1 1 1 1 2 2 2 1 1 1 1 1 1 1 1 1 1 1 1 2 1 0 1 1 1 1 1 1 1 1 1 1 1 0 1 1 1 1 1 1 1 1 1 1 1 0 1 1 1 1 1 1 0 2 1 0 0 1 1 1 1 0 1 1 1 1 0 2 1 1 1 0 0 1 1 1 1 1 0 1 0 1 2 2 1 1 1 1 1 1 1 1 0 1 0 1 0 1 1 1 1 1 1 1 -1 4 -2 
-1 3 -1 0 2 1 1 0 1 1 1 1 1 1 1 1 2 1 2 1 1 1 1 1 1 1 0 0 0 1 2 2 1 1 0 0 1 1 1 2 0 1 1 0 1 0 1 1 1 1 1 1 1 2 1 1 1 1 1 1 0 0 1 1 1 1 1 1 0 1 0 0 0 0 1 1 1 1 1 1 1 2 2 1 1 1 1 1 0 1 2 2 1 1 0 1 1 1 1 2 1 2 2 1 1 1 2 2 1 1 1 1 1 1 0 0 0 1 1 2 1 1 1 1 2 1 1 2 2 2 2 1 1 1 1 1 2 2 2 2 2 2 2 2 2 2 2 2 2 2 2 2 2 2 2 3 2 2 3 3 3 3 3 2 2 2 3 4 4 3 3 3 4 4 4 4 4 5 5 6 5 4 5 6 6 7 7 7 8 9 10 11 11 14 24 43 74 106 128 139 142 144 146 148 150 150 151 152 153 153 154 154 155 155 156 156 156 155 156 157 157 157 158 158 158 158 157 157 158 158 158 158 158 157 157 157 157 158 159 159 158 158 158 158 158 158 158 159 160 159 159 159 159 159 159 159 159 159 159 159 158 158 159 159 159 159 159 159 160 159 159 159 159 160 159 158 158 158 159 159 160 159 159 159 159 159 159 158 158 158 158 158 159 159 159 159 159 158 158 158 158 158 158 159 159 159 159 158 158 158 159 159 159 158 158 158 159 158 158 159 158 158 157 158 158 157 158 158 158 158 158 158 158 158 158 159 159 158 158 158 158 158 158 158 158 158 159 159 159 158 158 158 158 158 158 158 159 158 158 158 158 158 158 158 158 158 158 159 159 158 158 159 159 158 158 158 158 159 159 158 158 158 158 159 159 159 159 159 160 159 159 160 160 160 160 161 160 160 160 161 161 160 160 160 160 160 160 160 160 160 161 160 160 161 161 161 160 160 160 160 161 161 160 160 160 160 161 160 159 159 159 158 158 157 156 156 156 156 156 155 155 153 153 152 151 151 149 148 147 144 143 141 133 114 83 48 25 15 11 10 9 9 9 8 7 7 7 6 5 5 6 5 4 4 4 4 4 4 4 3 4 3 3 3 4 3 2 2 2 3 3 2 2 2 3 3 3 2 2 2 1 1 2 3 2 2 2 2 2 1 1 1 2 2 1 2 2 2 1 1 1 2 2 1 2 2 2 1 1 2 1 1 1 1 1 1 1 2 2 1 1 1 1 2 1 1 1 0 2 2 1 1 2 1 1 1 1 2 1 1 1 2 2 1 1 2 1 1 1 2 2 1 2 2 1 1 1 1 1 1 1 1 1 1 1 1 2 1 0 1 1 1 1 1 0 1 0 1 1 0 2 1 1 1 0 1 1 1 1 1 1 1 1 0 1 1 1 1 1 0 1 1 0 1 2 1 1 0 1 1 1 0 0 2 1 0 0 2 -2 2 
1 -2 2 0 0 1 2 1 1 1 1 1 0 1 1 0 1 1 2 1 1 1 0 1 1 1 0 0 0 0 1 1 0 1 2 1 0 0 0 1 0 1 1 0 1 1 1 1 1 2 2 1 0 1 1 1 1 0 0 1 1 2 1 0 0 1 1 1 0 1 0 1 1 0 1 1 1 1 1 1 2 2 1 1 2 1 1 1 1 1 1 2 1 2 0 1 1 0 1 2 1 1 2 1 1 1 1 1 1 1 2 1 1 1 1 1 1 2 1 1 1 2 2 2 2 1 1 2 2 1 2 2 1 1 1 1 2 2 2 1 1 1 2 2 2 2 2 2 2 2 2 2 2 2 2 3 3 3 2 3 2 2 2 2 2 2 3 4 3 3 3 3 3 4 4 4 4 5 4 5 5 4 5 7 6 7 7 8 9 9 9 11 11 12 20 36 65 98 122 136 142 143 144 147 149 150 150 151 152 153 153 153 154 155 155 155 155 155 156 157 157 157 157 157 157 157 157 157 157 157 157 157 157 156 157 157 157 158 158 158 157 157 158 158 159 158 158 158 158 158 158 158 158 159 158 158 159 159 159 159 158 158 158 159 159 159 159 159 159 158 159 159 159 158 159 159 158 158 158 158 159 159 159 159 158 159 159 158 159 158 158 158 158 159 159 158 158 158 159 159 159 159 158 159 159 158 159 159 159 158 158 158 158 158 158 158 158 158 157 158 158 158 158 158 158 158 158 159 159 158 158 158 158 159 159 158 158 158 158 158 157 158 159 158 157 158 158 158 158 158 158 158 158 158 158 158 158 158 157 158 158 158 158 158 158 158 158 158 158 158 159 159 158 158 158 157 158 159 159 158 158 158 159 159 159 159 159 159 160 160 160 160 160 160 160 160 161 161 161 160 160 161 160 160 161 161 161 160 160 161 161 160 160 160 161 161 161 162 162 161 160 161 160 161 160 160 160 159 159 160 159 159 158 157 157 157 157 156 155 156 155 154 153 151 151 151 149 149 147 144 143 140 131 112 80 45 24 14 11 11 10 9 9 8 6 6 7 7 5 4 4 5 5 4 4 4 4 4 4 4 3 3 3 4 4 3 3 3 3 3 3 3 3 3 3 3 2 2 2 3 2 1 2 2 2 2 2 2 2 1 1 1 2 2 2 2 1 1 2 1 1 2 2 2 2 1 1 1 0 2 1 1 1 1 1 1 1 2 1 1 1 1 0 2 2 1 1 1 1 1 0 1 1 1 1 1 1 1 1 1 1 1 1 1 0 1 0 1 1 1 1 1 1 1 1 1 1 1 1 1 1 1 1 2 1 1 1 1 1 1 1 1 2 1 0 1 -1 0 1 0 2 1 0 0 0 0 1 1 1 1 1 1 1 0 0 1 1 1 0 0 0 1 0 2 1 0 1 1 1 0 1 1 0 1 1 1 1 -1 2 1 
2 -2 3 -1 2 0 2 -1 1 0 1 1 0 1 1 0 1 0 2 1 0 1 1 0 2 1 0 1 1 1 1 1 1 1 1 0 1 1 1 1 1 1 2 0 1 1 1 2 1 0 1 2 1 1 1 0 1 1 1 1 0 0 1 1 1 1 1 1 1 1 1 1 0 1 1 1 1 1 0 1 1 1 2 2 2 2 1 2 1 1 1 1 1 2 1 1 1 0 1 2 1 1 1 0 2 2 1 1 1 1 1 1 2 2 1 1 1 1 2 1 1 1 1 1 2 1 1 2 1 1 2 2 1 1 1 2 2 2 2 2 1 1 1 2 2 2 2 2 2 3 3 2 2 2 3 3 2 2 2 3 2 2 2 3 3 3 3 4 4 3 3 3 3 4 4 3 4 5 4 5 5 4 5 6 5 6 8 7 8 9 9 11 12 12 17 30 56 89 116 132 139 142 144 146 148 149 150 150 151 153 153 153 153 154 154 155 155 155 156 156 156 156 157 157 157 157 156 156 157 156 157 157 156 156 156 157 157 158 158 158 158 158 157 157 157 158 158 158 158 157 157 157 157 158 158 159 159 159 159 159 158 158 159 159 158 158 158 159 159 158 158 158 158 159 159 158 158 158 158 158 158 158 158 158 159 159 159 158 158 158 158 158 158 158 158 158 158 158 159 159 158 158 158 157 157 158 158 158 158 158 158 158 158 158 158 158 158 158 158 158 158 158 157 157 158 158 158 158 158 158 158 158 158 158 157 157 158 158 158 158 158 158 159 158 158 158 158 159 158 158 157 157 158 158 158 158 158 158 158 158 158 158 158 158 158 158 157 158 158 158 157 158 159 158 158 158 158 158 158 158 158 158 158 158 159 159 159 159 159 160 160 159 159 160 160 160 160 161 160 160 160 160 161 161 161 161 161 160 160 161 161 161 160 160 161 160 160 160 161 161 161 160 160 160 160 159 159 159 159 160 159 158 158 158 158 157 156 156 156 156 155 155 155 152 151 151 149 149 147 144 143 140 130 109 77 43 23 14 12 11 9 8 8 7 6 6 7 6 5 5 5 5 5 4 4 4 4 4 4 4 4 3 3 3 4 3 2 3 3 3 3 3 3 3 3 3 3 2 2 2 2 2 2 2 3 2 2 2 2 2 2 2 2 2 1 1 1 1 1 1 2 2 1 1 2 1 1 1 1 1 1 2 2 1 1 2 1 2 1 0 1 1 1 2 2 1 1 1 1 1 1 1 2 1 1 1 1 1 0 1 1 1 1 1 0 1 1 1 1 1 1 1 1 1 1 1 1 1 1 1 2 1 0 1 1 2 1 0 1 1 1 1 1 1 1 1 -1 1 1 1 2 1 0 0 0 1 1 0 1 1 1 1 1 0 1 2 1 1 1 1 1 1 0 2 2 1 1 1 3 1 2 0 1 0 1 -1 3 -1 3 0 
0 1 0 1 1 0 1 1 1 1 0 1 0 1 0 1 1 0 2 1 0 1 1 0 1 1 1 1 0 0 0 1 1 2 1 0 1 1 1 2 1 0 2 0 1 1 0 1 1 1 1 1 0 1 1 0 1 1 1 0 1 1 1 1 1 1 2 1 1 1 1 1 1 1 1 0 1 0 0 1 1 0 1 1 1 2 1 1 1 0 2 2 1 1 1 1 1 0 0 2 1 0 1 0 1 2 1 1 0 0 2 1 2 2 2 2 1 2 2 2 1 1 1 1 1 1 2 2 2 1 1 1 1 1 1 1 2 2 2 1 2 2 2 2 2 2 2 2 2 2 2 2 3 2 2 2 2 3 3 3 2 2 2 2 3 4 4 3 4 4 3 3 3 4 5 3 3 5 5 5 5 4 5 6 6 6 7 7 8 8 8 10 11 10 14 26 48 80 109 128 138 141 143 144 146 149 150 150 151 152 153 152 153 154 154 154 155 155 156 155 155 156 156 156 156 156 156 156 157 157 157 157 156 156 156 157 157 158 158 157 158 158 158 158 158 158 158 157 157 157 157 157 157 158 158 158 158 158 158 159 158 158 158 158 158 158 158 158 159 158 159 158 158 158 158 158 158 158 158 159 159 158 158 158 158 159 159 158 158 158 158 158 158 158 158 158 157 158 158 158 158 158 158 158 158 157 157 158 159 158 158 158 158 158 158 158 157 158 158 157 157 158 158 158 158 158 158 159 158 158 158 158 158 157 157 157 158 158 158 158 158 158 158 158 158 158 158 158 158 158 158 157 157 158 159 158 158 157 157 158 158 158 158 158 157 158 159 158 158 158 158 158 158 158 158 158 158 159 158 158 158 158 159 159 158 159 159 159 160 160 160 159 160 161 161 160 160 160 160 160 161 161 161 161 161 161 161 161 161 161 160 160 159 160 160 160 160 160 160 160 160 160 160 160 160 160 160 159 158 159 159 157 157 158 158 157 157 156 156 156 154 154 153 152 152 151 149 148 146 143 143 139 128 107 74 41 22 14 12 11 9 8 8 7 6 6 6 6 5 5 5 5 4 4 4 4 4 4 4 4 4 3 3 4 3 3 2 3 3 3 3 2 2 2 3 3 2 2 2 3 2 2 2 3 3 2 1 1 2 2 2 2 2 2 1 1 1 2 2 2 2 2 2 2 2 1 1 2 1 2 1 2 2 1 1 1 0 1 1 1 1 1 1 2 2 1 1 0 1 1 0 1 2 1 2 1 1 1 0 1 2 2 1 0 0 1 1 1 1 1 2 1 1 1 1 1 1 1 1 1 1 0 1 1 1 2 1 0 2 2 1 0 1 1 1 1 -1 1 1 1 1 0 1 0 -1 0 2 1 1 0 1 1 1 0 1 1 0 1 1 0 1 1 0 1 1 1 0 0 1 1 1 1 0 1 1 1 0 1 0 2 
0 3 0 1 0 1 1 1 0 1 0 1 1 1 0 1 2 0 1 1 0 1 1 1 1 0 0 2 0 1 0 1 1 1 1 1 2 2 1 1 1 0 2 0 1 1 0 1 0 0 0 1 1 1 1 1 1 2 1 1 0 1 1 1 1 1 1 1 1 1 1 0 0 1 1 2 1 0 0 1 1 0 1 1 1 2 1 1 1 1 1 0 0 1 1 1 1 1 1 1 1 1 1 0 1 2 1 1 1 1 2 1 2 2 1 1 1 1 2 1 1 1 1 1 1 1 2 1 1 2 1 1 1 1 1 2 2 2 2 2 2 2 2 2 2 2 2 2 2 2 2 2 2 2 2 2 2 3 3 3 3 2 3 3 3 3 3 3 3 3 3 3 3 4 4 3 3 4 4 5 6 5 4 6 5 6 7 6 7 8 8 9 10 11 13 21 40 69 100 122 135 140 142 143 146 148 149 150 150 152 153 152 153 154 154 154 154 155 155 155 156 156 156 156 155 156 156 156 156 156 156 156 156 157 157 157 157 157 157 157 157 157 157 157 157 157 157 157 157 157 157 157 158 158 158 158 158 159 158 158 158 158 158 158 158 158 158 158 158 158 158 158 157 158 158 157 157 158 158 158 157 157 158 158 158 158 158 157 158 158 157 157 157 158 157 157 157 157 158 158 157 158 158 157 157 157 157 158 158 158 157 157 158 158 157 157 157 158 158 158 158 157 157 158 158 158 158 158 157 157 157 158 158 157 158 158 157 158 158 158 158 158 158 158 158 158 158 159 158 158 157 157 158 158 158 158 158 158 158 158 158 158 157 158 158 158 158 157 157 158 157 158 158 158 158 158 158 158 158 158 158 158 158 159 159 160 159 158 159 160 160 160 160 160 160 160 160 160 160 160 160 160 160 161 161 161 160 160 161 161 161 161 160 160 161 160 160 160 160 159 159 160 161 160 160 160 160 160 159 159 158 158 158 158 158 157 157 156 156 156 155 154 154 152 151 150 149 148 145 143 143 138 127 104 70 39 21 14 12 11 9 8 8 7 6 6 6 6 5 5 6 4 3 4 4 4 4 4 3 4 4 3 3 3 3 2 2 3 2 2 3 3 3 3 2 3 2 1 2 3 2 1 2 3 2 2 2 2 2 2 2 2 1 2 1 1 1 2 2 2 2 2 1 2 2 1 2 1 1 1 1 1 1 1 1 1 1 2 1 0 1 1 1 1 1 1 2 1 1 1 0 1 2 1 2 2 1 1 0 1 1 2 2 2 1 1 1 0 1 1 1 1 1 2 1 1 1 1 1 1 2 1 0 1 1 2 1 1 1 1 1 1 2 1 2 1 0 2 1 1 2 1 1 0 0 1 1 0 1 1 1 1 1 0 0 1 1 1 1 0 1 1 0 2 1 1 1 1 1 2 1 1 1 1 1 1 0 3 -1 2 
1 0 1 1 0 0 1 1 0 1 2 1 1 1 1 0 1 1 1 0 0 1 1 0 1 0 1 1 1 0 0 1 1 1 1 1 2 2 1 1 0 0 2 0 1 1 0 1 1 1 1 1 1 1 1 1 1 1 1 1 0 1 1 1 1 1 1 1 1 1 2 1 1 1 1 1 1 1 1 1 0 0 1 1 1 2 1 2 1 1 1 1 0 1 1 1 1 1 1 2 1 1 1 1 2 1 1 1 1 2 2 1 1 2 1 0 1 1 2 1 1 2 2 1 0 1 1 2 2 1 1 1 1 2 2 2 1 1 2 2 2 2 1 2 2 2 2 2 2 2 2 2 2 1 1 2 2 2 3 3 3 2 2 3 3 3 3 2 3 4 3 4 3 4 4 3 3 5 4 5 6 5 4 5 5 5 6 6 7 8 8 9 11 11 13 18 32 58 89 115 130 138 141 142 144 147 148 149 149 151 152 152 153 154 154 154 154 155 154 154 155 155 156 156 156 156 156 156 156 156 156 156 156 156 155 156 156 156 156 156 157 157 157 157 157 157 157 156 156 157 157 157 157 157 157 158 158 158 157 157 158 157 157 157 157 158 158 158 158 157 158 158 158 158 157 157 157 157 157 157 157 157 157 158 158 158 158 157 158 158 158 157 157 158 158 157 157 157 158 158 158 157 157 157 157 157 157 157 158 158 158 158 158 158 158 157 157 158 158 157 157 158 158 158 158 158 158 157 157 157 157 158 158 157 158 158 158 158 157 157 158 158 158 158 158 158 158 158 158 158 157 157 157 158 158 158 158 158 158 157 158 158 157 158 158 158 158 157 157 158 158 158 158 158 158 159 159 158 158 158 158 158 159 159 159 159 159 159 159 159 159 160 160 160 160 160 160 160 160 160 161 161 161 161 161 161 160 161 161 161 161 161 161 161 160 160 160 160 160 161 160 160 160 159 159 159 160 159 158 159 158 158 158 158 157 157 156 156 156 154 154 154 153 152 151 150 149 148 146 144 143 138 127 102 67 36 20 13 11 11 9 8 9 8 7 7 7 6 5 5 5 5 4 4 4 4 4 3 3 4 3 3 3 3 3 2 2 3 3 3 3 2 2 2 2 2 2 2 3 3 2 2 2 2 2 2 1 2 2 2 1 2 2 2 1 2 2 2 1 1 2 2 1 1 1 1 2 2 1 1 1 2 2 1 1 2 1 2 1 1 1 1 1 1 1 1 1 1 1 1 0 1 2 1 1 1 1 1 0 1 2 2 2 1 1 1 1 1 1 1 1 2 1 0 0 0 1 2 1 1 1 1 0 1 1 2 1 1 1 1 1 1 1 1 1 1 0 1 0 0 1 0 1 1 1 1 1 1 1 0 1 1 0 0 1 2 1 1 1 0 1 1 1 2 0 0 1 0 0 1 2 0 1 0 1 2 1 1 1 0 
0 3 0 1 1 1 0 1 1 0 1 1 2 1 0 1 1 0 0 0 0 1 2 1 1 0 0 0 1 2 0 0 1 1 1 0 2 1 0 1 1 0 1 0 1 0 0 1 1 1 1 1 1 1 1 1 1 1 1 1 2 2 1 0 0 1 1 1 1 0 1 1 1 1 1 1 1 1 1 1 1 1 1 1 1 1 1 1 0 0 2 2 1 1 1 1 1 1 1 2 1 1 1 1 2 1 1 1 1 1 2 1 1 2 1 1 1 1 2 1 1 1 1 1 1 2 2 2 2 1 1 1 1 1 2 1 1 2 2 1 2 2 2 2 2 2 3 2 2 2 2 1 2 2 2 2 2 2 2 2 2 2 2 2 2 2 2 3 4 3 3 3 3 4 4 4 3 4 4 4 5 5 4 5 5 5 6 6 8 8 7 8 11 12 12 15 25 46 76 104 124 135 140 141 142 145 148 148 148 149 151 152 152 152 153 154 154 154 155 154 154 154 155 155 155 155 156 155 155 156 156 156 156 156 156 156 156 157 157 156 156 156 156 156 156 157 157 156 157 157 157 158 158 158 157 157 157 157 157 157 157 157 158 158 157 157 157 157 157 158 158 158 158 159 158 158 157 157 157 157 157 158 158 157 157 157 157 157 157 156 157 157 157 157 157 157 158 158 158 158 157 157 157 157 157 157 157 157 157 158 158 157 157 157 157 157 157 157 157 158 158 158 158 158 158 158 157 157 157 158 157 157 157 157 157 158 158 158 158 158 159 158 158 158 158 158 157 158 158 159 158 157 157 158 158 158 158 157 157 157 158 158 157 158 158 159 158 157 156 157 158 158 158 158 158 158 159 159 159 159 158 158 158 159 159 159 159 159 159 159 160 160 159 160 160 160 161 161 160 161 160 160 160 161 162 161 160 160 161 161 161 161 161 161 161 161 161 160 160 160 160 160 160 159 159 159 159 160 159 158 158 159 159 158 157 157 156 155 156 155 154 154 153 153 151 150 150 148 145 143 142 137 124 98 63 34 19 12 11 10 8 8 8 7 6 7 6 6 5 5 6 5 4 4 5 4 3 3 3 4 3 3 3 3 4 3 3 3 3 3 3 3 2 2 2 2 2 2 2 2 2 2 2 2 2 2 1 1 2 2 2 2 2 2 2 2 2 2 2 2 1 2 1 2 1 1 1 0 1 1 1 2 2 2 2 1 1 1 1 1 1 0 1 1 1 1 1 1 1 1 1 1 2 1 1 1 1 1 1 1 2 2 2 2 1 1 0 1 1 2 1 2 1 1 1 0 1 1 1 1 1 1 1 1 1 1 1 0 0 0 1 0 1 0 0 0 0 2 1 1 1 0 1 1 0 1 1 1 1 0 1 1 1 1 1 1 1 1 1 0 0 0 0 1 1 0 0 1 1 1 1 0 2 0 1 1 0 1 -1 0 
2 0 2 0 1 0 1 1 0 0 1 1 1 1 1 1 0 1 0 0 0 0 1 2 1 0 1 1 0 1 1 1 0 1 1 1 1 1 0 1 0 0 1 0 1 1 1 1 0 1 1 1 1 1 1 1 1 0 1 1 2 1 1 1 -1 1 1 1 1 1 2 1 1 1 1 1 0 0 1 1 1 1 1 1 1 1 1 1 1 1 1 1 1 1 0 0 1 1 1 2 1 1 1 2 2 1 1 1 1 1 2 1 0 1 1 1 1 1 2 1 1 1 2 2 1 1 1 2 2 2 1 2 2 1 1 1 1 2 2 2 2 1 1 2 2 2 2 2 3 3 3 2 2 1 1 2 3 3 2 2 2 2 2 2 2 2 2 3 3 3 3 3 3 3 4 3 3 3 4 4 5 5 4 5 5 5 6 7 7 7 7 8 10 11 11 13 19 36 63 92 115 131 138 140 142 144 146 148 148 149 150 152 152 152 152 153 153 154 154 154 154 154 155 155 155 155 156 155 155 156 155 154 155 155 155 156 156 156 155 155 156 156 156 156 157 156 156 156 157 157 156 156 156 156 157 157 157 157 156 157 157 157 157 157 157 157 157 157 157 157 157 157 157 158 157 157 157 156 156 156 156 157 157 157 157 157 157 157 157 157 157 157 157 157 157 157 157 157 157 157 157 156 156 157 157 158 158 157 156 157 156 156 157 157 157 157 157 157 157 157 158 158 158 158 158 158 157 157 157 157 158 157 157 157 157 157 157 157 157 157 158 158 158 158 158 158 158 158 158 158 158 158 157 158 158 158 158 158 157 157 158 158 158 158 159 159 158 158 157 158 158 158 158 159 159 158 158 158 158 158 158 158 158 158 159 159 159 159 159 159 159 160 160 159 159 160 160 160 160 160 160 160 160 161 162 161 161 160 160 161 161 161 161 160 160 161 161 161 161 161 160 160 160 159 159 159 159 159 159 158 158 158 158 157 157 156 156 156 155 154 155 154 153 152 150 149 149 147 145 144 142 136 122 95 59 32 18 12 11 10 8 8 8 7 6 7 7 6 5 5 5 4 4 5 5 4 3 3 4 4 3 3 3 3 3 3 3 3 3 2 3 2 2 2 1 1 2 2 2 2 2 2 2 2 2 2 2 2 1 1 1 1 1 2 2 3 2 1 1 1 1 1 1 2 2 1 2 1 1 2 1 2 1 1 1 2 1 1 1 1 2 1 1 1 1 1 2 1 1 1 1 1 1 1 0 0 0 1 1 1 1 2 2 1 0 0 1 1 1 1 1 2 1 1 1 -1 1 1 0 1 1 2 1 1 1 1 1 0 0 0 1 0 1 1 0 1 0 2 1 1 1 0 1 1 1 1 1 1 1 1 1 1 1 1 1 2 1 1 1 1 0 0 1 2 1 0 1 1 0 1 1 1 1 0 1 1 1 0 3 -1 
0 4 -1 2 0 1 0 1 0 0 0 2 1 2 1 1 0 1 0 1 1 1 1 1 1 1 0 0 1 1 0 0 0 1 0 0 1 1 0 1 0 1 1 0 2 1 2 2 1 1 1 1 1 1 0 1 0 0 1 1 2 1 1 1 -1 1 1 0 1 1 1 1 1 2 1 2 1 1 1 1 1 2 1 1 1 1 1 1 0 0 1 1 1 1 1 1 1 2 1 1 1 1 1 1 1 1 1 1 1 1 1 1 1 2 1 1 1 1 2 2 1 1 1 2 2 2 2 2 2 1 1 1 1 1 1 2 2 2 1 2 2 2 2 3 2 2 2 2 2 2 2 2 2 2 2 2 2 2 3 3 3 2 2 3 3 3 3 3 3 3 3 3 3 4 3 3 3 4 4 4 5 5 4 4 5 5 6 6 7 8 7 7 9 11 11 12 15 27 49 77 104 125 135 139 141 143 145 147 148 148 149 150 151 151 152 153 153 153 153 154 154 154 154 154 154 154 155 155 155 155 155 155 155 155 155 155 155 156 155 155 155 156 155 155 156 156 156 156 156 156 156 156 156 156 156 156 156 156 156 156 157 157 157 156 157 157 156 157 157 157 156 156 156 157 157 157 157 156 156 156 156 157 157 156 156 156 157 157 156 156 156 156 157 157 156 156 157 156 156 156 156 156 157 157 158 158 158 157 156 156 156 156 156 157 157 157 157 156 157 157 157 157 157 157 157 158 157 157 157 158 158 158 157 157 156 157 158 158 157 157 157 158 158 157 157 157 157 157 157 158 158 158 158 158 158 158 158 157 158 158 158 158 157 158 158 158 157 157 157 157 158 158 157 158 158 158 157 158 158 158 159 158 158 159 159 159 159 159 159 159 159 160 159 160 160 160 160 161 160 160 160 160 160 161 161 160 159 160 160 160 160 160 160 160 160 161 160 160 160 161 160 160 161 160 159 159 159 159 158 158 158 158 158 157 157 156 156 156 156 155 155 154 153 153 151 150 149 148 145 143 141 135 120 92 56 31 17 12 11 10 9 8 8 7 6 6 7 6 5 5 5 5 4 4 4 4 4 4 3 3 4 4 3 3 4 3 3 3 3 3 3 3 3 3 2 2 3 2 2 2 2 2 2 2 2 3 2 2 2 2 2 2 1 2 2 2 2 1 1 2 1 1 1 2 1 1 1 1 2 2 2 2 1 2 1 1 0 1 2 1 2 1 1 1 1 1 1 1 1 1 1 1 1 1 0 1 1 2 2 1 1 2 1 1 1 0 1 1 1 1 1 2 1 1 1 0 1 1 1 2 0 1 1 1 2 1 1 0 0 1 1 1 1 1 0 1 1 3 2 0 1 0 0 1 1 1 0 1 1 1 1 1 1 1 1 1 1 1 0 1 0 0 1 1 0 1 1 1 0 1 0 1 1 2 0 2 0 2 -2 1 
1 2 0 2 0 0 1 1 1 0 0 1 1 1 1 1 0 0 0 1 0 1 1 1 0 1 0 0 0 1 1 1 1 0 1 1 2 1 -1 1 0 1 1 0 1 1 2 2 0 0 1 1 1 1 0 1 0 0 1 -1 2 1 1 2 0 1 1 1 1 0 1 1 1 1 1 2 1 1 2 1 1 1 1 1 2 1 2 1 0 1 1 1 1 1 0 1 1 1 1 2 1 1 0 0 1 1 1 1 1 1 0 1 2 2 1 1 1 1 2 1 1 1 1 2 2 1 1 2 2 2 2 2 2 1 1 2 2 2 2 2 2 2 2 2 2 2 2 2 2 2 2 2 2 2 2 2 3 3 3 3 2 2 2 3 2 2 3 3 3 3 2 3 3 3 3 3 3 3 4 5 5 5 4 4 5 5 6 5 6 7 6 7 8 10 10 11 14 20 36 62 91 115 130 138 140 141 144 146 148 148 148 149 150 151 152 152 153 153 153 154 154 154 154 154 154 154 155 155 154 154 154 155 155 155 154 154 155 155 154 154 155 155 155 155 155 156 156 155 155 156 156 156 155 156 156 156 156 155 156 156 156 157 156 156 156 156 156 156 156 156 156 156 156 156 156 156 155 155 155 155 156 156 156 156 156 156 156 156 156 156 156 156 157 156 156 155 155 156 156 156 156 156 156 157 157 157 157 156 156 156 156 156 157 156 156 156 156 156 157 157 157 156 156 157 157 157 157 157 157 157 157 157 157 157 157 157 157 157 157 157 157 157 157 157 158 158 157 157 156 157 158 158 158 158 157 157 157 158 158 158 158 158 158 158 158 158 157 157 157 157 157 157 158 157 158 158 157 158 158 158 159 158 158 159 159 159 158 158 159 160 160 160 160 160 159 159 160 160 160 160 160 160 161 162 162 161 160 160 160 161 161 160 159 159 160 160 160 160 160 160 160 160 160 160 160 159 159 159 159 158 157 157 157 157 156 156 156 155 155 155 155 153 153 152 151 150 149 147 144 143 141 134 118 89 54 28 16 12 12 11 9 9 8 7 7 7 7 6 5 5 5 5 4 5 5 4 4 4 3 3 3 3 3 3 3 3 3 3 3 3 3 3 3 2 2 1 2 3 3 2 2 2 1 1 2 2 2 2 2 2 2 1 1 1 2 2 2 1 1 1 1 2 2 2 2 1 1 2 2 1 2 2 1 1 1 2 1 1 1 1 1 2 2 1 2 2 1 1 0 1 2 1 1 1 0 1 1 1 1 0 0 2 2 1 1 1 1 1 1 1 1 1 1 0 1 0 2 1 1 2 0 1 1 1 1 0 1 1 1 1 1 0 1 1 0 1 0 2 2 0 1 0 1 1 0 1 1 2 1 1 0 1 1 1 1 0 1 1 1 1 0 1 2 1 1 1 0 1 1 1 0 1 1 2 1 1 0 0 0 1 
1 0 3 0 1 0 1 -1 0 0 1 1 0 1 2 1 0 0 0 1 1 0 0 0 0 1 0 0 0 0 0 0 0 0 1 0 1 1 0 1 0 2 1 0 2 1 0 1 1 1 1 1 1 1 0 1 1 1 1 -1 1 1 1 1 0 1 1 1 1 1 1 0 1 2 1 2 1 1 2 1 2 2 1 1 2 1 1 2 1 1 1 1 2 1 1 2 1 2 1 1 0 1 1 1 1 1 1 0 1 1 1 2 1 1 2 2 1 0 1 1 1 1 1 2 2 1 1 1 2 1 2 2 2 1 1 2 2 1 2 2 2 2 2 2 2 2 2 2 2 2 2 2 3 3 2 2 2 3 2 3 3 2 2 3 3 3 3 3 3 4 3 3 3 3 3 4 4 4 5 5 4 4 3 5 5 5 5 5 6 7 7 7 8 9 10 11 12 16 27 48 76 104 124 134 139 141 143 144 146 147 148 149 150 150 150 151 152 152 152 152 153 153 153 154 154 154 154 155 154 154 154 155 155 155 155 154 154 154 154 154 155 155 154 154 155 155 154 154 154 154 154 155 155 155 154 155 155 155 155 156 155 155 155 154 155 155 155 155 155 155 155 155 155 155 155 155 155 155 154 154 155 155 155 155 154 154 154 155 155 155 155 155 155 155 155 155 155 155 155 155 155 156 156 156 156 156 156 156 156 156 156 156 156 156 156 156 156 157 157 157 157 156 156 156 156 157 157 157 157 157 157 157 157 157 157 157 157 157 157 157 158 158 157 157 157 157 157 157 157 158 158 158 158 158 157 157 158 158 158 157 158 158 158 158 158 158 157 157 158 158 158 157 157 157 158 158 157 157 157 158 158 158 158 158 159 159 158 158 159 159 159 159 160 160 159 160 160 160 160 160 160 160 161 162 161 160 160 160 160 160 160 160 160 160 160 161 160 159 160 160 160 159 159 159 160 160 159 159 159 159 158 158 158 157 156 156 155 155 155 154 153 153 152 152 151 150 149 146 144 142 140 133 115 85 50 26 15 12 12 11 9 8 7 7 7 7 6 6 5 5 5 4 4 5 4 4 4 4 3 4 3 3 3 3 3 4 4 3 2 2 3 3 4 3 2 2 2 2 2 2 3 3 2 2 2 2 1 1 2 2 2 2 2 2 2 3 2 1 2 2 2 2 1 2 2 1 2 2 2 1 2 2 1 2 1 1 1 2 2 1 2 1 1 1 1 0 0 1 1 2 1 0 1 1 1 2 1 1 1 1 1 2 1 1 1 0 1 1 1 1 1 1 1 1 1 1 2 1 0 1 0 1 0 1 2 1 1 0 1 1 1 1 1 1 0 1 1 1 1 0 1 0 1 2 0 1 0 1 1 1 0 1 1 0 1 1 1 1 1 2 2 1 1 0 0 1 0 1 1 0 1 1 1 0 1 0 2 -2 3 0 
-1 4 -1 1 0 0 0 1 1 1 0 1 1 0 1 1 1 1 0 1 1 0 1 1 1 1 0 1 1 1 1 1 1 0 1 0 2 1 0 1 0 1 1 1 1 0 0 1 0 0 0 1 2 2 1 1 1 1 1 0 2 1 1 1 0 1 0 1 1 1 1 1 1 1 0 1 1 0 1 1 2 2 1 1 1 1 1 1 0 1 1 1 2 1 0 2 1 1 1 2 1 1 1 1 1 1 1 1 1 1 1 2 1 1 1 1 1 1 1 1 1 1 1 2 2 1 1 1 1 2 2 2 2 2 1 2 2 2 2 2 2 1 1 1 1 2 2 2 2 2 2 2 2 3 2 2 3 3 3 3 3 2 2 3 3 3 3 3 2 3 3 3 3 3 4 4 3 4 4 4 4 5 4 5 5 4 5 6 6 7 6 7 7 9 10 12 12 13 21 37 61 90 115 130 138 140 141 143 145 147 147 147 148 150 150 150 151 151 151 152 153 153 153 153 153 153 153 154 154 153 153 154 155 155 153 153 154 155 154 154 154 154 154 154 154 155 155 155 154 154 154 154 154 154 154 154 154 154 154 154 154 154 154 154 154 154 153 154 154 154 154 154 154 154 154 153 153 153 153 153 153 153 153 154 154 153 153 153 153 153 153 153 153 153 153 153 153 154 154 154 154 154 155 155 156 155 155 155 156 156 155 156 156 155 155 155 156 157 157 157 156 156 156 156 156 157 157 157 157 157 156 156 156 156 157 157 157 157 157 157 157 157 157 157 157 157 157 157 156 157 157 157 157 157 156 156 157 158 158 157 157 157 158 158 157 158 158 158 158 158 158 158 157 157 158 158 158 158 158 158 158 159 159 158 158 159 159 159 159 159 159 160 160 159 159 160 160 160 160 160 159 160 161 161 161 160 160 160 161 161 161 160 160 160 160 160 160 160 160 160 160 159 159 159 159 159 159 159 159 160 159 158 158 157 157 157 155 154 154 153 153 153 152 150 150 149 148 146 143 142 140 132 112 80 46 24 14 11 11 10 8 8 8 7 6 6 6 5 5 5 5 4 4 5 4 4 4 4 3 3 3 3 4 3 3 3 3 3 3 3 2 3 3 2 2 2 2 2 2 2 2 3 2 2 2 1 2 1 1 1 2 2 1 1 1 2 2 2 2 2 1 2 1 2 2 2 2 2 2 1 1 1 1 1 1 1 1 1 1 1 1 2 2 1 2 1 1 1 1 2 2 1 2 2 1 1 0 1 1 0 0 2 1 1 1 0 1 1 1 1 1 1 1 1 2 1 1 1 1 2 0 1 0 0 0 1 1 0 0 1 1 1 1 1 1 1 0 1 1 0 2 1 1 1 0 2 1 1 1 0 0 1 1 1 1 0 0 1 1 1 2 1 1 1 0 1 0 1 1 1 1 1 0 2 1 1 0 1 -1 3 
1 -1 2 0 2 1 1 0 1 1 0 0 1 1 1 0 1 1 1 1 1 0 1 0 1 1 0 0 1 1 1 1 0 -1 1 0 1 1 1 2 1 1 1 1 1 1 0 1 1 0 1 1 1 1 1 1 1 1 1 0 1 1 1 1 1 1 0 1 1 1 1 0 0 1 0 1 1 0 1 1 1 2 1 1 1 1 1 1 1 1 1 1 2 2 1 1 1 1 1 1 1 1 1 2 2 1 1 1 1 1 1 2 1 2 1 1 1 1 1 1 1 1 1 2 2 2 2 1 2 3 1 1 2 2 1 1 2 2 2 2 1 1 2 1 2 2 2 2 2 2 2 2 2 2 2 2 2 2 3 3 2 2 2 3 3 3 2 2 3 3 3 3 3 3 3 4 4 4 4 4 4 4 4 4 5 4 6 6 6 6 7 7 8 8 9 11 11 12 17 28 48 77 104 123 134 138 139 141 144 146 147 147 148 148 148 149 150 151 151 151 152 152 152 152 152 153 154 153 153 153 153 153 154 154 153 153 154 154 153 153 154 154 153 153 153 154 154 153 153 153 153 153 154 154 153 153 154 154 153 153 154 154 153 153 152 152 152 152 152 153 153 153 152 151 151 151 151 151 151 152 152 152 151 151 151 151 151 151 151 152 151 151 151 152 152 151 151 151 152 152 152 153 153 153 154 154 154 154 155 155 155 155 155 155 155 155 155 156 156 157 156 156 156 156 156 156 156 157 157 156 156 156 156 156 156 156 157 157 157 156 156 157 157 157 157 157 157 157 157 157 157 157 157 157 157 157 157 158 157 157 157 158 158 158 157 158 157 157 157 158 158 158 158 158 158 158 157 158 158 158 158 158 158 158 158 159 159 159 159 159 159 159 159 159 159 159 160 160 160 160 160 160 160 161 161 160 160 160 160 161 161 160 160 160 160 160 159 160 160 160 159 159 159 159 160 160 159 158 159 159 158 157 158 157 157 156 155 155 154 153 153 153 152 151 150 150 149 146 144 143 140 129 107 75 43 23 14 11 11 10 8 8 8 7 6 6 5 5 4 5 5 5 5 5 4 3 3 4 4 3 3 3 3 3 3 3 3 3 3 3 3 3 3 2 3 2 2 2 2 2 3 3 2 2 3 2 2 2 2 2 2 1 1 2 2 2 2 1 2 1 1 1 1 2 1 2 2 2 2 1 1 1 1 1 0 1 1 1 2 1 1 1 1 1 1 1 1 1 1 2 2 1 1 2 2 2 1 0 1 1 1 2 1 1 0 0 1 1 1 1 0 1 1 1 2 1 1 0 0 1 1 2 1 1 0 0 1 1 1 1 0 1 1 1 2 1 0 0 1 0 1 0 1 1 0 1 0 1 1 1 1 1 1 1 1 1 0 0 1 1 1 1 1 1 0 0 0 1 1 1 0 1 1 1 0 0 2 -1 3 0 
2 -2 1 -1 1 1 2 1 1 0 1 0 2 0 1 1 1 1 1 1 1 0 1 1 1 1 1 1 1 1 0 1 1 0 0 0 1 1 0 1 1 1 1 1 1 0 0 1 1 0 1 1 1 1 1 0 1 1 1 1 1 1 1 0 0 1 1 1 1 0 1 0 0 1 0 1 1 0 1 1 1 1 1 1 1 1 1 1 1 1 2 1 1 2 1 1 1 1 1 0 1 1 1 1 1 0 1 1 1 1 1 2 2 2 1 0 1 1 2 1 1 1 1 2 1 1 1 1 2 2 1 1 2 2 1 1 2 2 2 2 1 2 2 2 2 2 2 2 2 3 3 2 2 2 3 3 2 2 2 2 2 3 3 3 3 3 3 3 2 3 3 3 3 3 3 4 3 4 4 5 5 5 4 5 5 5 5 6 6 5 6 7 8 8 8 10 11 12 14 21 36 61 91 114 129 135 138 140 143 144 146 146 147 148 149 150 150 150 151 151 152 152 151 152 153 153 153 153 153 153 153 153 153 153 153 153 154 154 154 154 154 153 153 153 153 153 153 153 153 153 153 153 153 154 153 153 153 153 153 152 152 152 153 152 152 151 151 151 151 151 152 151 151 150 150 150 150 150 150 150 150 150 150 150 150 150 150 150 150 150 149 149 149 150 149 149 149 149 149 150 150 150 150 150 151 152 152 152 153 153 153 154 155 155 155 154 154 155 155 156 156 156 156 155 155 156 156 156 156 156 156 157 156 156 157 157 156 157 157 157 156 156 157 157 157 156 157 157 156 157 157 157 157 157 156 156 157 158 157 157 157 157 157 157 156 157 158 158 157 157 157 158 158 158 158 158 158 158 158 158 158 158 158 158 159 159 160 159 159 158 159 159 160 159 160 160 161 160 160 160 161 160 160 160 160 159 160 160 161 161 160 160 160 160 160 160 160 159 160 159 159 160 160 160 159 158 158 159 159 158 157 158 158 157 157 156 155 155 154 153 153 153 152 151 150 149 148 146 144 143 138 126 103 70 39 21 13 11 11 9 8 8 7 7 6 6 5 5 5 5 5 4 5 5 4 4 4 4 3 3 3 3 3 4 3 2 2 2 3 3 3 2 2 2 3 2 2 2 3 3 2 2 2 2 2 2 2 3 2 2 2 2 2 2 1 2 2 1 2 2 2 1 1 2 1 1 2 1 2 1 1 1 1 1 1 1 1 2 2 1 1 1 1 1 2 1 1 1 1 1 1 1 2 2 1 1 0 1 2 1 1 2 1 0 0 0 2 1 1 1 0 0 1 1 2 1 1 1 1 1 1 0 0 0 0 1 1 0 0 1 1 1 1 1 2 1 0 0 1 0 1 0 0 1 0 1 0 1 1 1 2 1 1 1 1 0 -1 0 1 1 1 0 1 0 0 0 1 1 0 0 1 1 2 1 1 0 1 -1 3 0 
-1 3 -2 1 1 2 1 1 1 1 0 0 1 1 1 1 0 1 1 1 0 0 1 1 1 1 1 1 1 1 0 1 1 0 0 0 1 0 1 1 1 1 1 1 1 1 0 1 2 2 1 1 1 0 1 1 2 1 0 1 1 1 1 0 1 2 1 1 1 1 1 1 1 1 1 1 1 1 1 1 1 1 1 1 1 1 1 1 1 1 2 1 0 1 1 2 2 1 1 0 1 1 1 1 1 1 1 1 1 1 1 2 1 2 1 1 1 1 2 2 1 1 0 1 1 1 2 2 2 2 1 1 2 1 2 2 1 1 2 1 1 2 2 2 2 2 2 2 2 2 3 2 2 2 2 2 2 2 2 2 2 2 2 3 3 2 2 3 3 3 3 3 3 3 3 3 3 4 4 4 5 5 4 5 5 5 5 6 6 6 6 7 8 8 8 10 12 12 13 16 27 48 77 103 122 132 137 139 141 143 145 147 146 147 148 149 150 151 151 151 151 151 151 151 152 152 152 152 152 152 153 153 153 154 153 153 153 153 153 153 153 153 153 153 153 153 153 152 152 152 152 152 153 153 152 152 151 151 151 152 152 152 152 151 151 151 150 149 150 150 150 150 150 149 149 149 148 148 149 149 148 149 149 148 148 147 147 147 147 147 147 146 147 148 147 146 146 146 146 147 147 147 147 148 148 149 149 149 150 151 151 152 153 153 153 153 153 154 155 156 156 155 155 156 156 155 155 155 156 156 156 156 156 157 156 156 156 157 156 156 156 156 156 157 157 156 156 157 157 157 157 157 157 157 157 156 157 157 158 158 158 157 157 157 157 157 157 158 157 157 157 157 157 158 159 158 157 157 158 157 158 158 158 158 158 159 159 159 158 159 159 159 159 159 160 160 160 160 159 160 160 160 160 160 160 161 161 161 161 161 161 161 160 160 160 160 160 160 160 159 159 160 160 159 160 159 158 158 159 158 158 158 157 157 156 156 156 155 154 153 153 153 153 151 149 149 148 145 143 142 137 123 98 65 36 19 12 11 10 9 8 8 7 6 6 6 6 5 4 5 5 5 5 4 3 4 4 4 3 3 3 3 3 3 3 2 3 2 2 3 3 2 3 3 3 3 2 2 2 2 3 3 2 1 2 3 2 2 2 1 2 1 1 2 2 2 2 1 2 2 2 1 1 2 2 1 2 1 1 1 1 2 1 1 0 1 1 2 2 1 1 2 1 0 1 1 1 0 0 1 1 1 1 1 1 1 0 1 1 1 1 1 0 1 1 0 1 1 1 1 1 1 1 1 1 1 1 1 0 1 2 1 1 0 0 1 1 1 0 1 1 1 1 1 1 0 0 0 1 0 1 1 1 1 0 1 0 0 0 1 1 1 1 1 1 0 0 1 0 1 1 1 1 0 1 0 0 1 1 2 0 1 1 1 0 1 1 3 -2 3 
2 -1 1 1 0 2 1 1 0 1 1 0 1 1 1 1 1 2 1 1 0 0 1 1 2 1 1 1 1 1 1 1 1 0 1 1 1 0 0 1 1 1 1 1 0 1 1 1 1 1 1 1 1 0 1 0 1 1 0 1 0 1 1 0 0 2 1 1 1 1 1 1 1 1 1 0 1 0 0 1 1 2 1 1 1 1 1 1 2 1 1 1 1 1 1 1 1 1 1 0 1 2 2 1 0 1 1 1 2 1 1 1 2 2 1 1 2 2 2 2 0 1 2 2 1 1 1 1 1 2 1 2 2 2 1 1 1 2 2 2 2 2 2 2 2 2 2 2 1 2 3 2 2 2 3 3 2 1 2 3 3 3 2 3 3 2 3 3 2 3 3 3 3 3 3 3 4 4 4 4 4 4 4 4 6 6 5 6 6 5 6 7 8 8 7 8 10 12 12 14 21 36 61 88 112 127 134 137 140 142 143 145 145 146 147 148 148 149 150 151 150 150 151 152 152 152 151 152 152 152 152 152 153 153 152 152 153 153 152 153 153 153 152 152 152 152 152 152 151 151 151 151 151 151 151 150 150 150 150 150 150 151 151 150 150 150 149 149 149 149 149 148 148 148 148 147 147 147 148 148 148 148 147 146 146 146 146 145 145 145 145 144 144 145 145 144 143 143 144 144 144 144 144 145 145 146 146 146 147 148 148 149 150 151 151 152 152 153 153 154 154 155 155 155 155 155 155 155 155 156 156 156 156 156 156 156 156 156 156 156 156 155 156 156 156 156 157 157 157 157 157 157 157 156 156 157 157 157 157 157 157 158 157 157 157 157 157 157 157 157 156 157 158 158 158 157 157 158 157 157 157 158 158 159 159 159 159 159 158 159 160 160 160 160 160 160 160 160 159 160 160 160 160 160 160 160 160 160 160 160 160 160 160 160 160 160 160 160 160 160 160 160 160 160 160 159 159 159 159 158 158 158 157 157 156 156 155 156 155 154 153 152 152 150 149 148 147 145 144 142 135 120 93 60 32 17 12 11 10 8 7 7 7 7 7 7 6 6 5 5 5 4 5 4 4 4 3 3 3 3 3 3 3 3 3 3 3 2 2 2 2 2 2 2 2 3 2 2 2 2 2 2 2 2 2 2 1 2 2 2 2 2 1 2 2 1 1 2 2 1 2 2 2 2 2 2 2 1 1 1 2 2 1 1 0 1 1 1 2 1 1 1 1 2 1 1 1 1 1 1 1 1 1 1 1 1 1 1 1 1 2 2 1 1 0 0 1 2 1 1 1 2 1 0 1 1 1 1 0 1 1 0 1 1 1 2 1 1 1 1 1 1 1 1 1 1 1 1 1 1 2 1 0 1 0 1 1 1 0 0 1 1 0 0 0 1 0 0 0 2 1 1 1 0 1 0 0 1 0 0 0 1 0 0 0 1 0 1 2 1 
1 1 1 0 1 0 1 1 2 0 0 0 1 1 1 1 1 1 1 0 0 0 1 1 0 0 0 1 1 1 0 1 1 1 0 0 1 0 1 1 1 2 0 1 1 1 1 1 1 1 1 1 1 -1 1 1 1 1 0 1 1 1 1 0 0 1 1 2 2 1 1 1 1 1 1 0 0 1 1 2 1 2 1 1 1 1 1 0 1 1 1 1 1 1 1 1 1 0 1 0 0 1 1 1 0 0 1 2 2 1 1 1 1 2 1 1 1 1 1 1 1 1 1 1 1 2 2 2 2 2 1 2 2 1 2 2 1 1 1 1 2 2 1 1 2 2 2 2 2 2 2 2 2 2 2 1 2 3 2 2 2 2 2 3 3 2 3 2 2 3 4 3 3 3 3 3 3 3 4 4 4 4 4 4 5 5 4 5 6 6 6 6 7 8 8 9 10 11 12 13 16 27 47 74 101 121 131 135 137 140 142 144 144 145 146 147 148 149 149 150 149 149 150 151 151 150 150 151 151 151 151 152 152 152 152 152 152 152 151 151 152 152 152 151 152 152 152 152 151 152 152 152 151 151 150 150 150 150 150 150 150 150 149 149 149 149 149 149 149 149 148 147 147 147 147 146 146 147 147 146 146 146 145 145 144 144 144 144 143 143 143 142 142 143 142 141 141 141 141 141 142 142 142 142 143 143 143 143 144 144 145 145 145 147 148 150 150 151 151 152 153 154 154 155 155 155 154 154 155 155 155 156 156 156 156 156 156 155 156 156 156 156 157 157 156 156 156 156 157 157 156 156 157 157 157 157 156 156 157 158 158 157 157 157 157 156 156 157 157 157 157 157 157 158 158 158 157 158 157 157 158 159 160 159 159 159 158 158 159 159 159 159 159 159 159 160 160 160 160 159 160 160 160 160 160 160 161 161 160 160 160 160 160 159 159 160 160 161 159 159 159 159 160 160 159 158 158 158 158 158 158 158 157 157 157 156 156 155 155 154 153 153 151 150 149 148 146 144 142 141 133 116 88 54 29 15 11 11 11 9 8 7 7 6 6 6 5 5 5 5 4 4 5 4 4 4 4 3 3 4 3 3 2 3 3 3 3 2 1 2 3 3 3 3 2 3 2 2 2 2 1 2 2 2 1 2 2 2 2 2 2 2 1 2 2 2 2 2 2 1 2 2 2 2 1 1 2 2 2 1 1 1 1 1 1 2 2 1 1 1 1 1 0 1 1 0 1 1 1 1 1 1 1 1 1 1 1 1 1 1 2 1 1 1 1 1 1 1 1 2 1 1 0 0 1 1 0 1 0 0 1 1 2 1 0 2 1 1 0 1 2 2 1 1 0 0 1 1 1 0 1 2 1 1 0 1 1 0 0 0 1 1 1 0 1 0 1 1 0 1 1 1 1 0 1 1 1 1 2 1 2 0 0 1 0 1 2 1 1 1 
1 1 1 0 1 0 2 1 1 1 1 1 1 1 1 1 0 1 2 1 1 0 2 0 0 1 1 1 1 1 1 1 0 1 1 0 1 0 1 1 1 1 0 0 1 1 1 1 1 1 1 1 1 0 1 0 1 2 1 1 0 0 1 0 1 1 0 0 0 0 1 1 1 0 1 0 1 1 1 1 2 2 1 1 1 0 1 0 0 1 2 1 1 1 0 0 1 1 1 0 1 1 0 1 1 1 2 2 2 1 1 2 1 1 1 1 2 1 1 1 1 2 2 1 1 1 2 1 2 2 1 2 1 1 2 2 1 0 1 1 1 2 2 2 2 2 2 2 2 2 1 1 2 2 2 2 2 2 2 3 2 2 2 4 4 3 2 3 3 3 3 3 4 4 3 4 3 3 3 4 4 4 4 4 5 5 4 5 6 6 5 5 7 8 8 8 9 11 12 12 14 20 35 59 87 111 126 133 137 139 140 142 144 145 145 146 147 147 148 149 149 149 150 150 150 150 151 151 151 151 151 151 151 152 152 151 151 152 152 151 151 151 151 151 151 151 151 151 151 151 151 151 151 151 151 150 149 149 149 150 150 149 149 149 148 149 148 148 148 148 148 147 146 146 146 145 145 146 146 145 145 144 144 143 144 143 142 142 141 141 142 142 141 141 141 140 139 140 140 140 140 140 139 139 139 140 140 140 140 141 141 141 142 143 144 145 146 147 148 149 150 151 153 153 154 154 154 155 155 155 155 155 155 155 155 156 156 156 156 156 156 156 156 156 156 156 156 156 157 157 156 156 157 157 156 156 156 156 157 157 157 157 157 157 157 157 156 156 157 157 157 157 157 157 157 157 158 158 157 157 158 158 159 158 158 159 159 159 159 159 159 159 159 159 159 160 160 160 160 160 160 160 160 160 160 160 159 160 160 160 160 160 159 160 160 160 160 160 159 159 160 159 159 159 159 159 159 159 158 158 157 157 157 157 157 156 155 155 154 153 152 153 151 150 149 148 146 144 142 140 131 112 83 49 26 15 11 11 10 8 7 7 7 7 7 6 5 5 5 5 4 4 5 4 4 4 4 3 4 3 3 3 3 3 2 2 2 2 2 3 3 2 3 3 3 3 2 2 2 2 2 2 2 2 1 2 2 2 2 2 2 2 1 1 1 1 1 2 2 2 2 2 1 2 1 1 2 1 2 2 2 2 1 1 1 2 2 1 1 1 1 1 1 2 1 1 1 1 1 1 2 2 1 1 1 1 2 1 1 0 1 1 2 1 1 1 1 2 2 2 1 1 1 0 0 0 1 1 1 1 1 0 1 1 1 2 1 1 0 0 1 1 1 0 1 1 1 1 1 0 0 1 1 1 1 1 1 0 1 0 1 2 1 1 1 0 1 1 0 1 1 0 1 0 1 1 1 0 1 1 2 1 0 0 0 0 1 1 1 0 
0 2 0 0 0 0 1 0 1 1 0 1 1 1 1 1 0 0 1 1 2 1 1 1 0 0 0 1 1 1 1 1 0 1 1 0 1 0 1 1 1 1 1 1 1 1 1 1 1 1 1 0 1 1 1 0 1 2 1 1 1 0 1 1 0 2 1 1 1 1 1 0 0 0 1 1 1 1 0 1 2 1 1 1 1 1 1 0 1 1 1 1 1 1 1 1 1 0 1 1 1 1 1 1 1 1 1 1 1 1 1 2 1 1 1 1 1 1 1 1 1 1 1 1 1 2 1 1 2 2 2 1 1 2 2 2 1 1 1 2 2 2 2 2 2 2 2 2 2 2 2 2 2 2 1 1 2 2 2 2 2 2 2 2 3 2 3 3 3 3 3 3 3 4 4 3 3 4 4 4 4 4 4 4 5 5 4 5 6 6 6 5 6 7 8 8 8 10 11 11 12 16 26 46 73 100 119 129 134 136 138 140 142 144 144 145 147 147 147 148 148 149 150 149 149 150 150 150 151 151 151 151 151 151 151 151 151 151 151 151 151 151 151 151 151 150 150 150 151 151 151 151 151 150 150 150 150 150 150 149 149 148 148 148 148 148 147 147 147 147 146 146 146 145 145 145 145 145 145 144 143 143 142 142 143 143 142 141 141 141 141 140 139 139 139 139 139 138 138 138 137 137 137 137 136 137 137 137 137 137 137 138 138 139 140 141 142 143 144 146 147 148 149 150 152 153 154 154 155 155 155 155 155 155 155 156 156 156 156 155 155 156 156 157 156 156 156 157 157 156 156 157 157 157 156 156 156 156 156 157 157 157 156 156 157 157 157 157 157 157 157 157 157 157 157 157 158 157 158 157 157 158 160 159 158 159 159 159 159 159 159 159 159 160 160 160 160 160 160 160 160 159 160 160 160 160 160 160 160 160 160 160 160 160 160 160 160 160 159 159 159 159 159 159 158 158 158 158 158 158 157 157 157 157 157 156 155 154 154 153 152 152 151 150 149 148 145 143 141 138 128 107 76 44 23 14 11 11 10 8 7 7 7 7 7 6 5 5 5 5 4 4 4 4 3 4 4 4 3 3 2 2 3 3 3 2 2 2 2 2 2 3 3 2 1 2 2 2 2 2 2 2 2 2 2 2 2 2 2 1 2 2 2 2 2 2 2 2 2 2 2 1 1 1 1 1 1 1 2 1 1 1 1 2 2 2 1 0 1 1 2 1 1 2 1 1 1 2 2 1 1 1 1 1 0 1 1 1 0 1 2 1 2 2 2 2 1 1 2 2 1 0 0 0 1 1 1 1 1 1 1 0 1 1 1 1 1 1 1 0 1 1 1 0 0 0 1 1 1 0 0 1 0 1 0 1 1 0 1 1 1 2 1 0 1 0 0 1 1 2 1 0 0 0 1 1 1 1 2 1 1 1 0 2 1 1 1 1 0 1 
0 2 0 2 -1 1 1 2 1 1 0 2 0 1 1 1 1 1 1 1 1 1 1 0 1 1 1 1 1 0 1 1 0 1 0 0 0 0 1 1 1 2 1 0 0 1 1 1 1 1 0 1 1 0 1 0 1 2 1 1 1 0 1 1 0 1 1 1 1 0 1 1 1 1 1 1 0 1 0 1 2 1 1 1 1 0 1 0 0 1 1 1 1 1 1 1 2 1 1 1 1 1 0 1 2 1 2 1 1 0 0 1 1 1 1 1 2 1 0 1 1 1 1 1 1 2 2 2 2 2 2 2 1 2 2 2 1 1 2 2 1 2 2 2 1 1 2 2 2 2 2 2 2 2 2 2 2 2 2 2 2 2 3 2 2 2 3 4 3 3 3 3 3 3 4 4 4 3 3 3 3 3 4 4 5 5 4 5 6 6 5 5 5 7 8 8 8 9 10 11 12 13 20 35 58 85 109 124 131 134 136 138 140 143 143 143 145 146 147 147 148 148 149 148 148 148 149 150 150 150 150 150 151 151 151 150 150 151 151 150 150 150 150 150 150 150 150 151 150 150 150 150 150 149 149 149 149 149 149 148 148 148 147 147 147 147 147 146 146 146 146 145 145 145 145 145 144 144 143 143 143 142 142 142 142 141 140 140 140 140 140 139 138 137 137 137 137 137 137 136 135 135 135 135 135 135 135 134 134 134 134 135 135 136 136 137 138 139 140 141 142 144 146 148 150 151 152 154 154 155 154 155 155 155 154 155 155 156 155 155 156 156 156 156 156 156 156 156 156 156 156 156 156 156 156 156 156 157 157 156 156 156 157 157 157 157 157 157 157 157 156 156 157 157 156 157 157 158 158 158 157 158 158 158 159 159 159 159 159 159 159 159 160 160 160 159 159 159 160 160 160 160 160 160 160 160 160 160 161 161 160 160 160 160 160 160 160 160 160 159 159 159 160 160 159 159 158 158 158 158 157 157 157 157 156 156 155 154 153 153 153 152 151 149 148 146 144 142 140 136 124 101 69 39 21 14 11 11 9 7 7 7 7 7 6 6 5 5 5 5 3 3 4 4 3 3 3 4 3 2 2 3 4 3 3 3 3 3 2 2 2 2 2 2 2 2 2 3 2 2 2 2 2 2 1 2 3 3 2 2 2 2 2 2 2 2 2 2 1 1 1 1 2 1 1 2 1 1 1 1 1 1 1 2 1 1 1 1 2 1 1 1 1 2 1 2 2 2 1 1 1 1 1 1 1 1 1 1 1 1 0 1 2 1 1 1 1 2 2 2 1 1 1 0 1 1 1 1 1 1 1 0 1 0 1 2 1 1 0 1 1 1 0 0 0 0 1 1 2 1 1 0 0 2 1 1 0 0 1 1 1 1 1 1 1 0 0 1 1 1 0 1 1 0 0 1 0 0 1 1 1 1 0 1 -1 1 -1 2 0 0 
1 0 1 2 0 0 0 1 1 2 0 1 0 1 2 1 1 1 1 1 0 1 1 0 1 1 1 1 0 1 1 1 1 0 0 0 1 0 0 1 1 1 1 1 1 1 1 1 0 1 0 1 1 0 1 1 0 1 1 1 2 0 0 1 0 1 1 1 1 1 1 0 0 1 1 1 0 1 1 1 1 1 1 0 1 1 1 0 0 1 1 1 1 1 1 1 2 1 1 1 0 1 1 2 2 1 2 1 1 0 0 1 1 2 2 2 1 2 1 0 1 1 1 1 1 2 1 1 2 2 1 1 1 2 2 2 2 2 2 2 2 2 2 2 1 1 1 1 2 3 2 2 2 2 2 2 2 2 2 2 2 2 2 2 2 3 3 4 3 3 2 2 3 3 3 4 4 3 3 3 3 3 4 5 5 4 3 4 6 6 5 5 5 7 8 7 7 8 9 10 11 13 16 26 44 70 96 116 127 132 134 137 139 141 142 143 144 145 145 147 147 147 148 148 148 148 148 149 149 150 150 150 149 149 150 150 151 151 150 149 150 150 150 150 150 150 150 150 150 149 149 149 149 149 149 149 148 148 149 148 147 147 147 147 147 146 146 146 146 146 146 146 145 144 144 144 144 143 142 142 142 142 141 141 141 140 139 139 139 139 138 137 137 137 137 136 136 135 135 135 134 134 134 134 133 132 132 132 132 132 132 132 132 133 132 133 134 135 135 137 138 140 142 143 145 147 149 151 152 154 154 154 154 154 154 155 155 155 155 155 156 156 156 156 156 156 157 157 157 157 156 156 157 156 156 156 157 157 156 156 156 156 156 156 157 157 157 156 156 157 156 156 157 157 157 157 157 157 158 158 157 158 158 158 158 158 159 159 158 158 158 159 160 160 159 159 159 159 160 160 160 160 159 160 160 159 159 160 161 160 160 160 160 160 160 160 160 161 160 160 160 159 159 159 159 158 157 157 158 157 157 156 156 156 156 156 155 154 153 154 153 152 150 149 149 147 144 142 141 135 120 94 60 34 19 13 11 11 9 7 7 7 7 7 6 6 5 5 5 4 4 4 4 3 3 3 3 3 3 3 3 3 3 3 2 3 3 3 2 2 3 3 3 2 1 1 2 2 2 3 2 2 2 2 1 2 2 3 2 2 2 2 2 1 1 2 2 1 2 2 1 0 1 1 1 2 1 1 1 1 1 1 1 2 1 2 2 1 1 1 2 1 1 2 1 1 2 1 1 1 2 1 0 0 0 1 1 1 1 1 1 1 1 1 1 2 1 1 1 1 1 1 1 0 1 1 2 2 1 1 0 1 2 1 1 2 0 1 1 1 1 0 1 0 0 1 1 1 2 1 1 1 1 1 0 1 1 1 1 1 1 2 1 0 0 0 0 1 1 1 1 1 1 1 1 1 1 0 1 1 1 1 -1 1 0 1 0 1 0 1 
0 1 1 1 0 0 2 1 1 1 1 1 0 0 1 1 0 0 1 1 -1 0 1 1 1 0 0 1 0 1 1 1 1 1 1 0 1 1 0 1 0 1 1 1 1 1 1 1 1 1 0 1 1 0 1 1 0 2 1 0 1 0 1 2 0 1 1 1 1 0 0 0 0 1 2 1 0 0 1 1 1 1 0 0 1 1 0 1 1 1 1 1 1 1 1 1 2 1 1 1 0 1 0 1 1 1 2 1 1 1 1 1 1 1 2 2 1 1 0 0 1 1 2 2 1 1 1 2 2 2 1 1 1 1 1 2 2 2 1 1 2 1 1 1 1 2 2 2 2 2 2 2 1 1 2 2 2 2 2 3 2 2 2 2 2 2 2 3 3 3 2 3 3 3 3 3 3 4 3 4 4 4 4 4 4 4 4 5 6 5 5 5 5 6 8 7 7 8 9 10 11 12 13 19 33 56 82 105 120 129 132 135 137 140 141 142 143 144 144 146 146 146 148 148 148 147 148 149 150 149 148 149 149 150 150 149 150 150 150 149 149 150 149 149 148 149 149 149 148 148 148 148 149 149 148 148 148 148 148 147 147 147 147 147 146 145 146 146 145 145 145 145 144 144 144 143 143 142 142 141 141 141 141 140 140 139 139 139 138 138 138 137 136 136 135 135 135 135 134 134 133 133 133 132 132 131 131 131 130 130 130 130 130 130 130 130 130 131 131 132 133 135 137 139 140 143 145 148 150 152 153 154 154 155 155 155 155 155 155 155 155 156 156 155 155 156 156 156 156 156 157 156 156 156 156 156 157 157 156 156 156 157 157 156 156 157 158 158 157 157 156 157 157 157 156 156 156 157 159 159 158 157 158 158 159 159 159 159 158 159 159 159 159 159 159 159 159 159 160 160 159 159 159 160 160 160 159 160 160 161 161 160 159 160 160 159 159 159 160 160 159 158 158 159 159 158 158 158 157 157 157 157 157 156 155 155 155 154 153 153 153 152 151 149 147 146 143 142 140 132 114 86 53 29 16 12 11 10 9 8 8 7 7 6 6 6 5 5 5 5 4 4 4 4 4 4 4 4 3 3 3 3 3 3 3 3 3 3 2 2 2 3 3 3 3 3 3 2 2 2 2 2 2 2 2 2 2 2 2 1 1 1 2 2 1 1 1 2 1 1 1 1 1 1 2 2 1 1 1 1 1 1 1 2 0 1 1 1 2 1 2 1 1 2 1 1 1 1 1 1 1 1 1 1 1 1 0 1 1 1 1 1 1 0 0 1 1 1 1 1 2 2 1 1 1 1 1 1 0 2 0 0 1 0 1 1 0 2 1 1 1 1 1 1 1 1 1 1 1 1 1 1 1 1 1 2 0 1 1 1 1 1 1 1 0 0 0 1 1 1 1 0 0 1 1 0 0 0 1 1 1 1 0 1 2 1 1 1 0 1 
0 1 1 0 1 1 0 1 2 1 1 0 1 1 0 1 0 1 1 1 0 1 1 1 1 0 1 0 0 1 1 2 2 1 1 0 1 1 1 1 1 1 1 0 1 2 0 1 1 1 1 1 1 0 0 1 1 1 0 0 2 0 1 1 0 1 1 1 2 1 1 1 0 1 1 1 1 1 1 0 1 1 1 1 1 1 1 1 1 1 1 0 0 1 1 0 1 1 1 1 0 1 1 1 1 1 1 2 2 1 1 1 1 0 0 1 1 1 1 1 1 1 2 2 1 1 2 2 2 1 1 1 1 1 2 2 2 2 1 1 2 2 2 2 2 2 1 2 2 2 2 2 2 2 1 2 2 2 2 2 2 2 2 2 2 3 3 3 3 2 2 3 3 2 3 3 3 3 3 3 4 4 4 4 4 4 4 4 6 5 5 5 6 6 7 7 7 8 9 9 11 12 12 15 24 42 67 93 113 125 130 133 135 137 138 141 142 143 144 145 145 146 147 147 146 147 147 148 149 148 147 148 149 148 148 149 149 150 150 149 149 149 149 149 149 148 148 148 147 147 147 148 148 148 148 148 147 147 147 147 147 147 146 146 145 145 144 144 145 145 145 144 144 144 143 143 143 141 141 142 141 140 139 139 139 139 138 138 138 137 136 136 136 135 135 135 135 134 133 133 132 133 132 131 130 129 129 129 128 128 128 128 127 128 128 127 127 128 128 128 130 132 133 134 136 138 141 144 147 150 151 152 153 153 154 155 155 155 154 154 155 155 155 155 155 155 156 156 156 156 157 157 156 156 157 156 156 156 156 155 156 156 156 156 157 157 157 157 156 156 156 156 157 157 157 157 157 157 158 158 158 157 157 158 158 158 159 159 158 158 158 158 159 159 160 160 160 160 160 160 160 159 159 159 160 159 160 160 160 160 160 160 160 160 160 159 159 160 159 160 160 159 159 159 158 158 158 158 158 158 157 156 156 155 155 156 155 153 153 153 152 151 150 149 148 146 144 142 139 129 109 78 45 25 15 11 11 10 8 8 7 7 6 5 6 6 5 6 5 4 4 4 4 4 4 4 3 3 3 3 3 3 3 3 2 2 3 2 2 2 2 3 3 2 2 2 3 3 2 2 2 2 2 2 2 2 2 2 1 1 2 2 1 1 1 1 1 1 1 1 1 2 1 1 1 1 1 1 1 2 2 1 1 2 1 1 0 0 1 1 2 1 1 1 1 1 2 2 2 2 1 1 1 1 1 1 0 1 1 1 1 1 1 1 1 1 1 1 1 0 1 1 0 1 1 1 2 1 0 1 1 1 1 0 1 1 1 2 1 1 1 1 2 1 2 1 1 2 0 0 1 0 1 1 1 2 1 2 1 1 1 1 1 1 0 1 1 1 1 0 1 0 0 1 1 1 1 0 0 1 1 1 0 1 1 1 2 0 0 1 
2 -1 1 0 1 1 1 1 0 0 1 0 0 0 0 1 1 1 1 0 0 1 1 1 1 0 1 1 0 1 1 1 3 1 1 0 0 1 0 2 0 0 1 1 1 2 0 1 0 1 1 1 1 0 1 1 1 1 1 1 1 0 1 1 0 1 1 1 2 1 0 1 1 1 1 1 1 1 1 1 1 1 0 1 1 2 1 1 0 1 1 1 0 1 1 0 1 1 1 2 0 1 0 0 2 1 2 2 1 1 1 1 1 1 1 1 1 2 1 1 1 1 1 1 2 1 1 2 2 2 1 1 2 2 2 2 2 2 2 2 2 2 2 2 2 2 2 2 2 2 2 2 1 2 2 3 3 2 2 2 2 2 2 3 3 2 2 3 3 3 3 3 3 3 3 3 3 3 3 3 4 3 4 4 3 3 4 5 5 5 4 5 5 6 7 7 7 8 9 9 10 11 11 13 19 32 53 78 100 117 126 130 132 135 137 139 140 142 143 144 144 144 145 146 146 146 146 147 148 148 148 148 149 148 148 148 149 149 149 148 148 149 148 148 148 148 148 148 148 147 148 148 148 148 147 147 147 147 146 146 146 146 146 145 145 145 145 145 144 144 143 143 144 143 142 141 141 141 141 141 140 140 139 139 139 139 138 137 137 137 136 136 135 135 135 134 134 133 133 132 132 131 131 130 130 129 128 128 128 127 127 126 125 125 125 125 125 124 125 125 126 128 128 129 131 133 137 140 142 145 148 150 151 152 153 154 154 154 154 153 153 154 155 155 155 155 155 156 155 156 156 156 155 156 156 156 156 156 156 156 156 157 157 156 156 156 157 157 157 156 157 157 156 157 157 157 157 157 158 158 158 158 157 158 158 158 159 159 158 158 159 158 158 159 160 160 160 160 160 159 159 159 160 160 159 159 159 160 159 159 160 160 160 159 159 158 159 159 158 159 159 159 159 159 158 158 158 158 157 157 156 156 156 155 155 155 154 153 152 152 151 150 150 149 147 145 143 142 137 125 102 69 39 22 14 11 10 9 8 7 8 7 6 5 5 6 6 5 5 4 4 4 4 4 4 4 3 4 3 3 2 3 3 3 3 3 3 2 2 2 3 3 3 3 3 3 2 2 2 2 2 2 1 2 2 2 2 2 1 1 1 1 1 2 2 1 1 1 1 1 1 2 2 1 2 2 2 2 1 1 1 1 1 2 1 2 1 1 1 0 2 1 1 1 0 1 2 1 1 2 2 1 1 1 1 1 1 1 1 1 1 2 1 1 1 1 1 1 2 1 1 1 1 1 0 1 2 1 0 2 1 1 0 0 2 1 1 2 1 1 1 1 2 1 2 1 1 1 0 0 1 1 2 1 1 1 0 1 0 1 2 1 1 1 1 1 1 1 1 0 1 0 0 0 0 0 1 0 0 1 1 2 1 1 2 0 1 -2 2 0 
0 2 -1 1 1 0 1 1 1 1 0 0 1 1 1 1 1 1 1 1 1 1 1 1 1 0 1 0 0 1 0 1 2 1 2 0 0 1 0 2 2 1 1 0 1 1 0 1 0 1 1 1 1 1 1 1 1 1 0 1 1 1 1 1 0 0 1 1 2 1 0 1 0 0 1 1 1 1 1 1 1 1 1 1 1 1 1 1 1 1 1 1 1 1 1 0 1 0 1 2 0 1 1 0 1 1 2 2 1 1 1 1 2 1 0 1 1 2 2 1 1 1 1 1 1 1 2 2 2 1 1 2 1 1 1 2 1 1 2 2 2 2 1 2 2 3 2 2 2 3 3 2 2 2 1 2 3 2 2 1 2 3 3 2 3 3 2 3 3 3 3 3 3 3 3 3 3 3 3 3 4 3 4 4 4 3 4 4 4 4 4 4 6 6 6 6 6 7 8 8 10 12 12 12 15 23 39 61 87 108 121 127 131 133 135 137 139 141 142 143 144 144 145 145 145 145 146 147 147 147 147 148 148 148 148 148 148 148 148 149 149 148 148 148 148 148 148 148 148 148 147 147 147 147 147 147 147 146 146 146 146 145 145 145 145 144 144 144 144 143 143 143 142 142 142 141 140 140 141 141 140 140 139 138 138 138 137 136 136 136 135 135 135 135 135 133 132 132 132 131 130 129 129 129 128 128 127 127 126 125 125 125 125 124 123 123 122 122 122 122 123 124 125 126 127 129 132 136 138 141 143 145 148 150 152 153 154 154 154 154 154 154 154 154 154 154 155 155 155 155 155 155 155 156 156 156 156 156 156 155 156 157 156 156 157 157 156 156 157 157 156 157 157 157 157 157 157 157 157 158 158 158 157 157 157 158 158 159 158 158 159 159 159 159 159 160 159 159 159 159 160 160 159 159 159 160 160 160 159 159 159 159 159 159 159 160 159 159 158 159 159 159 159 158 158 158 158 157 157 157 157 156 155 154 155 155 154 153 153 152 150 149 149 149 148 145 143 142 135 120 94 60 33 19 13 11 10 9 8 8 7 6 5 5 5 6 5 5 5 4 4 4 4 3 4 4 3 3 3 3 3 3 3 3 3 2 3 2 2 2 2 3 3 2 2 2 2 2 2 3 3 2 1 1 2 2 2 2 2 2 2 2 1 1 1 1 1 2 1 1 2 2 2 1 2 2 2 2 1 1 1 1 1 1 2 2 1 2 1 0 2 2 1 2 0 1 1 1 1 1 1 1 1 1 1 1 1 1 1 1 1 2 2 1 0 0 0 1 2 1 1 1 0 1 1 1 2 1 1 2 1 1 1 0 1 1 2 1 0 1 1 1 2 1 1 0 0 2 0 0 1 0 1 1 0 1 0 1 1 1 1 1 1 1 1 1 0 1 1 0 0 0 1 1 0 1 1 0 0 0 1 1 1 1 1 1 1 1 0 1 
1 1 0 1 0 1 1 1 1 1 -1 0 0 1 1 1 1 1 1 1 0 0 1 0 1 1 0 0 0 0 1 1 2 1 1 0 0 1 0 1 1 0 1 0 1 1 1 1 0 1 1 1 1 2 1 1 2 1 0 1 1 1 1 1 1 0 1 1 1 0 0 1 1 1 1 1 1 1 1 1 1 1 1 1 1 1 1 0 1 1 1 1 1 2 2 1 1 0 1 2 1 1 1 0 2 1 1 2 2 1 1 1 2 2 2 2 1 1 1 1 1 1 1 1 1 1 2 2 2 2 2 1 1 2 2 1 1 2 2 1 2 2 2 2 2 2 2 1 1 2 3 3 2 2 2 2 2 2 2 2 2 2 2 3 3 2 2 2 3 3 3 3 3 3 3 3 3 3 3 4 4 4 4 4 4 3 4 4 4 5 5 4 6 7 7 6 6 6 7 8 9 10 11 12 13 18 27 45 69 93 110 122 128 132 135 136 137 139 141 141 142 143 143 144 145 145 145 145 146 146 147 147 147 147 147 148 148 147 147 147 148 148 148 147 147 148 148 148 147 146 147 147 147 146 146 147 146 146 145 145 145 145 145 145 145 144 144 144 143 143 143 142 142 142 141 140 140 140 140 140 140 139 138 138 138 137 137 136 136 136 135 135 134 135 134 133 132 132 131 131 130 129 129 129 128 127 127 126 126 126 125 124 123 122 122 122 121 121 121 120 120 122 122 122 123 124 126 129 132 135 139 142 144 147 149 151 152 153 153 153 153 154 154 154 154 155 155 154 155 155 155 155 155 155 155 155 155 155 155 155 156 156 157 156 156 156 156 156 157 157 156 157 157 156 157 157 157 157 157 158 158 158 158 158 158 158 159 159 159 159 158 158 159 159 159 159 159 159 159 159 159 159 160 159 159 159 160 160 159 159 159 159 159 159 159 159 159 159 159 158 157 158 159 158 158 158 157 157 157 156 157 157 156 156 156 155 154 154 153 151 150 149 149 148 146 144 143 141 132 114 85 51 28 16 12 11 10 9 8 8 8 6 6 5 5 5 5 6 5 4 4 4 4 4 4 3 3 4 4 3 3 3 3 3 3 3 2 2 2 2 3 3 3 2 2 3 2 2 3 3 2 2 2 1 1 2 2 2 2 2 2 1 1 1 1 2 2 2 1 2 2 2 2 2 1 1 2 2 1 1 1 1 1 1 1 2 1 2 1 0 2 1 1 2 1 1 1 0 1 2 2 1 0 1 2 1 1 1 0 0 1 1 1 1 1 1 0 1 2 1 1 1 0 1 1 1 1 1 1 2 1 0 1 1 1 0 1 1 1 1 1 1 2 0 1 1 0 1 1 1 1 1 2 1 0 1 0 1 1 1 2 1 1 1 1 1 0 1 0 0 1 1 1 1 1 0 0 0 1 1 0 1 1 2 1 1 1 0 1 1 
2 -2 1 -1 1 1 1 1 2 1 0 1 1 1 1 0 1 1 0 0 0 1 2 1 0 0 0 0 1 1 1 1 1 1 2 0 0 0 1 1 2 1 1 0 1 1 1 1 1 1 1 1 0 1 1 1 1 1 1 1 1 1 1 1 1 1 2 1 1 0 0 1 1 1 1 1 0 0 0 1 2 1 1 1 1 0 1 1 1 1 1 1 1 1 1 0 1 1 2 2 1 2 1 1 2 1 1 2 1 1 1 1 1 2 2 1 1 1 1 1 2 2 1 1 1 1 1 1 2 2 1 1 2 2 2 1 1 1 2 1 1 1 2 2 2 2 2 2 2 2 2 2 2 2 2 2 2 2 2 2 2 2 2 2 1 2 2 3 2 2 3 3 3 3 3 3 3 3 3 3 3 4 4 4 4 3 4 5 5 4 4 3 6 7 7 6 5 6 7 8 8 9 10 11 12 15 20 32 52 76 97 113 124 129 132 133 135 137 139 140 142 142 142 144 145 145 145 145 145 146 146 147 146 146 147 147 147 147 147 147 148 148 148 147 147 147 147 147 147 147 147 146 146 146 146 146 145 145 145 145 145 145 145 145 144 143 143 143 143 142 143 142 141 141 140 140 141 140 140 140 140 140 139 137 137 137 136 136 136 135 135 134 134 134 133 132 132 131 131 131 130 129 129 128 127 127 126 126 125 125 124 123 122 121 121 121 120 120 119 118 119 119 120 119 119 120 122 125 128 131 134 136 139 143 146 148 150 152 153 153 154 154 154 154 154 154 155 155 155 155 155 155 155 155 156 156 156 155 155 156 156 155 155 155 156 156 156 156 156 156 156 156 156 156 156 157 157 156 157 157 157 157 158 157 157 157 158 159 158 158 158 158 158 159 159 159 159 159 158 158 158 159 159 159 159 159 159 160 159 158 158 159 159 159 159 159 159 159 159 158 158 158 159 158 157 157 157 157 157 156 157 156 155 155 156 155 154 153 153 151 150 149 149 147 145 143 143 139 127 106 74 43 23 14 11 11 9 8 8 8 7 6 6 6 5 5 5 5 4 5 5 4 3 3 4 4 4 4 3 3 3 2 2 2 3 3 2 2 2 2 2 3 3 2 2 1 2 3 3 3 2 2 2 2 2 1 1 2 2 1 2 2 2 1 1 1 1 1 2 2 2 2 2 2 2 2 2 1 1 2 2 0 1 1 1 2 1 1 1 1 2 2 1 1 0 1 1 1 2 2 1 1 1 1 1 1 2 1 1 0 0 1 1 1 1 1 0 1 2 1 1 1 0 1 1 1 1 1 1 1 2 0 0 1 1 1 1 0 1 1 1 1 1 0 1 1 0 1 1 1 1 0 1 1 1 1 1 0 2 1 0 0 1 1 1 0 0 0 0 0 1 1 1 1 0 1 1 0 1 0 1 1 1 1 1 1 2 -2 4 0 
1 0 1 0 1 1 2 1 2 0 0 1 1 1 2 1 2 2 0 1 1 0 1 1 1 1 1 0 1 1 1 2 1 1 2 0 0 0 1 1 1 1 1 0 0 1 1 1 0 0 0 1 0 1 1 0 2 1 1 1 1 1 1 1 1 2 2 1 1 0 1 2 1 1 1 1 0 0 1 0 1 1 1 1 2 2 1 1 1 1 0 1 0 1 1 1 2 1 2 2 1 2 1 1 1 1 1 2 1 1 1 1 1 2 2 1 1 0 1 1 1 1 2 1 1 1 2 2 2 2 1 2 2 1 1 1 1 1 1 1 1 2 2 1 1 2 1 1 2 2 2 2 2 2 2 2 2 2 2 2 2 2 2 2 2 2 2 2 3 3 3 3 3 3 2 2 3 3 3 3 3 4 4 3 4 3 3 5 4 3 4 4 5 6 6 5 6 6 7 8 8 9 10 11 11 13 16 23 38 59 81 101 116 125 130 131 133 135 137 139 140 141 142 143 144 143 143 144 145 145 146 146 146 146 146 146 146 146 146 146 147 147 146 147 147 147 147 148 147 146 146 147 146 145 145 145 145 145 145 144 144 144 143 143 143 143 143 142 142 142 142 141 141 141 140 140 140 140 139 139 139 139 138 137 136 136 136 136 136 135 134 134 133 133 133 132 131 130 130 130 129 128 128 128 127 126 125 125 125 124 123 122 122 121 120 120 119 118 118 118 117 117 116 116 116 117 118 120 122 125 127 131 134 138 141 144 147 150 152 153 153 153 153 154 154 155 155 154 155 155 155 156 156 155 155 155 156 156 156 156 156 156 156 156 156 156 157 156 156 157 157 156 156 156 156 157 157 157 157 157 157 157 157 157 158 158 158 159 159 158 157 158 159 159 159 159 159 158 159 159 159 159 160 159 159 159 159 159 160 159 158 158 159 159 159 158 158 158 159 158 158 158 159 158 157 157 157 156 156 156 157 157 156 156 156 155 154 153 152 150 150 149 148 146 144 142 141 135 121 96 63 35 19 12 11 11 9 8 8 8 7 6 6 6 5 5 5 5 4 4 4 3 3 3 3 3 4 3 3 3 2 2 3 3 3 2 2 2 3 3 3 3 3 2 2 2 2 3 3 3 2 2 2 2 2 1 1 1 2 2 2 2 2 2 2 2 2 1 1 2 2 2 1 2 2 1 1 1 0 1 1 1 1 1 1 2 1 2 2 1 1 2 1 1 1 1 1 1 1 1 2 2 1 1 1 2 1 0 1 1 1 1 1 1 1 1 0 0 1 1 1 1 1 1 1 1 1 0 1 1 2 0 0 1 1 2 2 0 1 1 1 1 0 0 1 1 0 1 1 1 1 1 2 1 1 1 1 0 2 1 1 1 0 0 1 0 1 1 1 1 2 0 1 1 0 1 1 1 1 0 1 1 1 1 1 1 1 0 2 0 
-1 3 -1 0 1 2 1 1 0 0 0 1 1 0 1 0 1 1 0 1 0 0 1 1 0 1 1 0 1 0 1 2 1 1 1 1 0 1 1 0 0 1 1 0 1 2 1 1 1 0 0 1 0 2 1 1 2 1 1 1 1 1 1 1 1 1 1 1 1 1 1 2 1 0 0 1 1 1 1 1 1 1 1 1 1 0 1 1 0 1 1 2 1 0 1 0 1 1 2 1 1 1 1 1 2 1 1 2 1 1 1 0 1 2 2 2 2 1 1 1 1 1 1 1 1 1 2 2 1 1 1 2 2 2 2 1 1 1 1 1 1 2 2 2 2 1 1 2 2 1 1 2 2 1 2 1 2 2 2 2 2 2 3 3 3 2 2 2 2 2 2 2 3 3 3 3 3 3 3 4 3 4 4 4 4 4 3 5 4 3 4 4 5 6 6 6 6 6 7 7 8 8 8 9 11 12 13 17 26 42 63 86 106 119 126 129 131 133 136 138 139 139 140 142 143 143 142 142 144 144 145 146 146 145 145 145 146 146 146 145 146 147 146 145 146 146 146 146 146 146 146 146 146 145 145 145 144 144 144 145 144 144 143 143 143 143 142 142 142 142 141 141 140 140 140 140 140 139 138 138 138 138 137 136 135 136 136 135 134 133 134 133 133 133 132 131 131 130 129 129 129 129 128 127 126 125 124 124 124 124 123 122 121 120 119 118 118 117 117 117 116 116 115 114 114 114 115 116 118 120 122 125 128 132 136 140 144 148 150 152 153 154 154 153 153 154 154 154 155 155 154 154 155 155 156 155 155 155 155 156 156 156 156 156 156 155 156 156 157 156 156 156 156 156 157 157 157 157 157 157 157 156 157 158 158 158 158 159 158 158 158 158 159 159 159 159 159 158 158 159 158 158 159 159 159 159 158 159 159 159 159 159 158 158 157 157 158 158 158 159 159 159 158 157 157 157 157 157 157 157 157 156 155 155 155 154 153 153 152 151 150 150 148 145 143 143 140 132 114 85 52 29 16 11 11 11 8 7 7 8 7 6 6 6 5 5 5 5 3 4 4 4 4 4 4 4 4 4 3 2 2 2 2 2 2 2 2 3 3 3 2 3 3 2 2 2 2 2 2 2 2 2 2 2 2 1 1 1 2 1 2 2 2 2 1 1 1 1 1 2 2 2 2 2 2 0 1 1 0 1 1 1 2 1 1 2 1 1 2 2 1 1 0 1 1 1 1 1 2 1 1 1 2 2 1 1 1 1 1 1 1 1 0 1 1 1 0 0 1 1 1 1 0 1 2 1 1 0 0 1 1 0 0 2 1 1 1 1 2 1 1 1 0 0 1 1 0 1 2 2 1 1 1 1 0 0 0 0 1 1 1 1 0 1 2 1 1 1 1 1 2 1 1 0 0 2 0 2 2 1 1 1 1 2 1 1 0 2 -2 2 
1 0 1 1 1 0 1 0 0 1 1 0 1 1 2 1 1 1 0 1 1 1 0 0 0 2 1 0 1 0 1 2 1 1 1 1 0 0 1 0 0 1 1 0 1 1 1 1 1 0 1 1 0 1 0 0 2 1 1 1 1 1 0 1 1 1 1 1 1 1 1 1 0 1 0 1 1 1 2 1 1 1 1 1 1 1 1 1 0 1 1 1 0 0 1 1 2 1 1 1 1 1 1 1 1 1 1 2 1 1 2 1 1 1 1 1 1 1 2 2 1 1 1 1 1 1 2 2 1 2 2 2 2 1 1 1 2 2 2 1 1 1 2 2 2 1 0 1 2 2 2 2 1 1 2 2 2 2 2 2 2 2 2 2 2 2 3 2 2 3 3 2 2 3 3 3 3 3 4 4 3 4 4 4 4 4 3 4 5 3 3 5 5 6 5 5 6 6 7 7 8 8 8 9 10 11 12 14 18 29 46 68 91 109 120 126 129 130 133 135 137 138 139 140 141 142 141 142 143 144 143 144 145 145 145 146 145 145 145 145 146 145 145 145 145 145 145 145 145 145 145 145 145 144 144 144 144 144 144 144 144 144 143 142 142 142 142 141 141 141 141 140 139 140 140 140 139 139 139 138 137 137 137 136 135 135 134 134 134 133 133 133 133 132 131 131 131 129 128 128 128 127 126 126 126 125 124 124 123 122 122 122 121 119 118 118 117 117 116 115 115 114 114 113 112 112 113 113 114 115 116 119 123 126 130 135 140 144 147 150 152 153 153 153 154 154 154 154 154 154 154 154 154 154 155 155 154 155 156 155 155 156 155 155 155 155 156 156 156 156 156 156 156 156 157 157 158 158 157 157 157 157 157 158 158 158 158 158 158 158 157 158 159 159 159 158 158 158 159 159 158 158 158 158 158 158 158 159 160 159 159 159 158 158 158 158 158 158 158 158 158 159 158 157 157 157 157 157 156 157 157 156 155 154 154 153 153 152 151 150 149 149 147 145 144 142 138 126 104 73 43 24 14 11 10 10 8 7 7 7 7 6 6 6 5 5 5 4 3 4 4 4 4 4 4 4 4 4 4 3 2 2 3 3 3 3 2 2 3 2 2 2 2 2 2 2 2 2 2 2 2 2 3 2 2 1 1 2 2 2 2 1 1 2 2 2 2 1 1 1 2 2 2 2 1 1 2 1 1 1 1 1 2 1 1 2 1 1 2 1 1 1 1 1 1 1 1 1 2 1 2 2 2 1 0 1 1 2 2 2 1 1 1 1 1 0 1 0 1 1 1 1 1 1 1 1 1 0 0 1 1 1 0 1 0 1 1 0 1 1 1 1 0 1 1 1 0 1 1 1 1 1 1 0 0 0 0 0 0 1 1 2 0 1 1 0 1 1 1 1 1 0 1 0 0 1 0 1 1 0 1 0 1 1 1 0 0 0 1 0 
1 1 0 1 0 0 2 0 -1 0 1 1 1 1 1 1 0 1 0 1 1 1 1 1 0 1 1 1 1 0 1 1 2 2 1 1 0 1 1 1 0 0 1 1 1 1 1 1 0 0 0 1 1 1 1 1 1 1 1 1 2 1 1 1 1 1 1 1 1 1 1 1 1 1 0 1 1 1 1 1 1 1 1 1 1 1 1 0 0 1 1 2 1 1 1 1 1 1 1 1 1 1 1 1 1 1 1 1 1 1 1 1 1 0 1 2 1 1 1 1 2 1 2 2 1 1 1 1 1 1 1 2 2 1 1 2 2 2 1 1 1 2 2 2 1 1 1 1 2 2 1 2 2 2 2 2 2 2 2 2 2 2 2 3 2 2 2 2 2 2 2 2 3 3 2 2 3 3 3 3 3 4 4 3 3 3 3 4 4 3 3 5 5 5 5 5 6 7 6 6 8 8 7 8 9 11 12 12 15 21 34 51 74 96 112 121 126 128 130 133 135 137 137 138 139 140 141 142 142 142 143 144 144 144 144 145 145 145 144 144 145 145 145 145 144 145 145 145 144 144 144 144 145 144 144 144 144 144 144 144 143 143 142 142 141 142 142 141 141 140 139 139 139 139 140 140 139 139 138 136 136 136 136 135 135 135 134 135 134 133 132 131 131 131 130 130 130 129 128 128 127 126 126 126 125 125 124 123 123 122 121 120 119 119 118 118 117 116 115 114 114 113 112 111 111 111 111 110 111 111 112 115 118 121 124 128 134 139 142 146 149 151 152 153 153 153 154 154 154 154 154 154 155 155 155 155 155 155 155 155 155 156 155 155 155 155 155 156 156 156 156 156 156 157 157 157 157 157 157 157 157 157 157 157 158 158 158 157 157 158 158 158 159 159 159 159 159 158 158 158 158 158 158 158 159 159 158 158 159 158 158 158 158 157 157 158 158 158 158 158 158 158 158 158 157 157 158 158 157 157 156 155 154 154 153 153 152 152 151 151 150 149 146 145 144 142 135 119 93 61 35 20 13 11 11 10 8 7 7 7 7 6 6 5 5 5 5 4 4 4 4 3 3 4 3 3 4 4 4 3 2 2 3 3 3 3 3 3 2 2 2 3 2 2 2 2 2 2 2 2 2 2 2 2 2 2 2 2 2 1 2 2 1 1 1 2 2 2 1 2 1 2 2 2 2 1 2 2 1 1 1 1 2 1 1 1 1 1 1 1 0 0 0 2 1 1 1 1 1 0 1 1 1 1 1 1 1 1 1 1 0 1 0 1 1 0 2 0 0 1 2 2 1 0 0 0 1 0 1 2 1 2 1 1 1 0 1 1 1 1 1 1 0 0 1 1 1 1 1 2 1 1 1 0 1 0 0 0 -1 1 1 2 1 1 1 1 1 0 1 1 1 1 2 1 0 1 1 2 0 1 1 1 1 1 1 1 1 2 1 0 
0 4 -2 2 -1 2 1 0 0 2 0 1 2 1 1 1 0 0 1 1 1 1 1 1 0 1 1 1 1 0 1 0 2 1 0 1 0 1 1 1 1 0 1 1 1 1 1 1 1 1 0 0 1 1 0 1 1 1 1 0 1 1 1 1 0 1 1 1 1 1 1 1 1 1 0 1 1 0 1 1 1 0 0 1 1 2 1 1 1 1 1 1 1 1 1 1 1 0 1 1 1 1 1 1 0 1 1 1 1 1 1 1 1 1 1 1 1 2 1 1 2 2 2 1 1 1 1 1 1 1 1 2 2 2 2 2 2 2 2 2 2 1 1 2 2 1 1 2 2 1 1 2 2 2 2 2 2 2 2 2 2 2 2 2 2 2 2 1 2 2 3 2 3 3 2 2 2 3 3 3 2 3 3 3 3 3 3 4 4 4 3 4 5 5 5 5 5 5 6 6 7 7 7 8 9 10 11 11 13 16 24 36 56 80 100 114 122 125 128 131 133 135 136 137 138 139 140 140 141 141 142 142 143 143 143 143 143 143 143 144 144 144 145 145 145 144 144 144 144 144 144 144 145 144 143 143 143 143 143 142 143 142 141 141 141 141 141 140 140 140 139 139 139 139 139 138 138 138 137 137 136 136 135 135 135 134 133 133 133 133 132 131 131 131 129 129 129 129 127 126 127 126 125 124 124 124 123 122 122 121 120 120 119 118 118 117 116 115 114 113 113 113 112 111 110 109 110 109 109 109 109 111 113 115 119 123 128 132 136 142 146 149 150 152 153 153 153 153 153 154 154 154 154 154 154 155 155 155 156 156 155 155 155 155 155 155 155 156 156 155 156 156 157 156 156 156 157 157 157 157 157 156 157 157 158 158 158 158 157 158 158 158 158 158 158 158 158 158 158 158 158 158 158 158 158 157 158 158 158 158 158 158 158 158 157 158 158 158 158 157 158 157 157 158 157 157 157 156 155 156 155 154 154 154 153 152 152 151 151 150 149 148 146 144 144 140 130 111 82 50 27 16 12 12 12 10 8 7 7 7 6 6 6 5 5 5 5 4 4 5 5 4 3 3 4 4 4 4 3 3 3 2 2 3 3 3 3 3 2 2 2 2 2 2 3 3 3 2 2 2 2 2 2 2 2 2 2 2 2 1 1 2 2 2 2 2 2 1 1 1 1 2 2 1 1 2 2 1 1 1 1 2 2 1 1 0 1 2 1 1 1 2 1 2 1 1 1 1 1 1 1 2 1 1 1 1 1 1 1 1 0 1 0 1 2 0 1 1 0 1 1 1 1 1 1 1 1 1 1 2 1 2 1 1 1 0 0 1 1 0 1 0 1 1 1 1 1 2 1 1 0 1 1 0 1 1 1 1 0 1 0 1 1 1 1 1 1 1 0 0 1 1 1 1 1 1 0 1 0 1 0 1 1 2 -1 3 -1 2 -2 2 
2 -1 0 0 1 1 1 1 1 1 0 1 1 1 1 1 1 0 1 1 0 1 0 1 0 0 0 1 1 0 1 0 1 1 1 1 0 1 1 0 1 0 1 1 1 1 0 1 0 1 1 1 1 0 0 1 1 1 1 1 2 1 1 1 1 1 1 1 1 0 2 2 1 1 0 1 1 1 2 1 0 0 1 1 1 2 2 1 2 1 2 2 2 2 1 1 1 1 1 1 0 0 1 1 1 1 1 1 2 1 0 1 1 0 1 1 1 2 1 1 1 1 1 1 1 1 1 1 2 1 2 2 1 1 2 2 1 2 1 1 2 1 1 1 2 1 1 1 1 1 1 1 1 2 2 2 2 2 3 3 2 2 2 2 2 2 2 2 2 2 2 3 3 3 3 3 3 3 3 2 2 3 3 4 3 3 3 4 4 4 3 3 4 5 5 6 6 5 6 6 6 8 8 8 9 9 9 11 12 14 17 25 41 62 85 103 115 121 124 128 130 132 134 135 136 137 138 139 140 140 141 142 142 142 142 142 142 143 143 143 143 144 144 144 145 145 144 144 144 144 143 143 143 143 143 143 143 143 143 142 142 142 141 141 141 140 140 139 139 139 138 138 139 139 139 138 137 137 137 136 136 136 135 135 134 133 133 133 133 132 131 130 130 130 129 129 129 128 127 126 126 125 124 124 123 123 122 122 121 120 119 119 118 117 117 116 115 115 114 112 111 111 110 110 108 107 107 107 106 106 106 108 109 110 113 116 121 126 131 136 142 146 149 151 152 152 153 154 154 154 153 154 155 155 155 155 155 155 154 155 155 155 154 155 155 155 155 155 155 156 156 156 156 156 155 156 156 157 157 157 157 157 156 156 158 158 158 158 158 158 158 158 158 158 158 157 157 157 158 158 158 159 159 158 158 157 157 158 158 158 158 158 158 158 157 157 158 158 157 157 158 157 157 157 157 157 157 156 156 156 155 155 154 154 153 153 152 151 150 149 148 147 145 145 143 137 124 101 69 40 22 13 11 12 11 10 8 7 7 7 6 6 6 5 4 4 4 4 4 4 4 4 4 4 4 4 4 3 3 3 3 2 2 3 3 2 2 2 2 2 3 3 2 2 2 2 2 2 2 2 2 2 2 1 2 3 3 2 2 1 1 2 2 1 1 2 2 1 1 2 2 2 2 1 1 1 1 1 1 1 1 1 1 1 2 0 1 1 1 1 2 1 1 2 2 2 2 1 1 1 1 2 2 2 1 1 2 1 1 1 0 1 1 1 1 0 1 1 1 1 1 1 1 1 1 0 0 0 0 1 1 2 2 1 1 0 0 1 1 0 1 0 1 0 0 1 1 1 0 1 0 0 2 1 1 0 1 1 -1 1 1 1 1 1 1 1 1 1 1 1 0 1 0 1 1 1 1 1 0 1 1 1 1 2 0 1 1 0 3 0 
1 2 -1 1 0 1 1 0 0 2 1 1 0 1 0 0 1 0 0 0 1 1 1 1 1 1 0 1 1 0 0 0 0 1 1 1 1 2 1 1 1 0 1 1 1 1 1 1 -1 1 0 1 2 1 1 1 1 1 1 1 2 1 1 1 1 1 1 1 1 1 1 1 1 1 0 1 1 1 1 1 1 0 0 1 1 2 1 1 0 1 2 1 2 2 1 1 1 1 1 1 1 0 1 1 1 1 1 1 1 1 0 1 1 1 1 1 1 1 1 1 1 1 2 1 1 2 1 1 1 2 2 2 1 2 2 2 2 2 2 2 1 1 1 1 1 1 2 2 2 2 2 2 1 1 1 2 2 2 2 2 2 2 2 2 2 2 2 2 2 2 2 2 2 3 3 2 2 3 3 2 2 3 4 4 3 3 4 5 4 4 4 4 5 5 5 5 5 5 6 6 6 7 8 8 8 8 8 9 11 12 14 18 28 46 67 89 106 116 121 124 127 129 131 133 135 136 137 138 139 139 140 141 141 141 141 141 142 142 142 142 142 143 144 143 143 143 143 143 143 143 143 143 143 142 141 142 143 142 142 142 141 142 141 141 141 140 140 139 138 138 138 138 139 139 138 137 136 136 136 136 136 135 134 134 133 133 132 132 131 132 131 130 130 129 128 128 127 127 126 126 125 124 124 124 123 123 121 121 120 119 118 118 117 117 116 115 114 114 112 111 111 110 109 108 107 107 106 105 105 104 104 105 105 106 108 111 115 119 124 130 136 142 146 149 151 152 152 153 153 153 153 154 154 154 154 154 155 154 154 154 154 155 155 155 155 155 155 155 155 155 156 156 157 156 155 156 157 157 156 156 157 157 156 157 157 158 158 158 158 158 157 157 158 158 157 157 158 159 159 158 158 158 158 158 157 156 156 157 158 158 158 158 159 158 158 158 158 159 158 157 157 157 157 158 157 157 156 156 156 156 155 155 155 154 153 152 152 151 149 148 148 147 145 144 142 134 117 90 58 34 18 12 12 12 10 9 8 7 7 6 5 6 5 5 5 5 4 4 4 5 4 4 3 3 3 3 4 3 3 3 3 2 2 3 2 2 2 2 3 3 2 2 2 2 2 2 2 2 2 2 2 2 2 1 2 2 2 2 2 2 1 2 2 2 2 2 2 2 1 2 2 2 1 1 2 1 0 1 1 1 1 2 1 1 1 1 1 2 1 1 1 1 1 1 2 1 1 1 1 2 1 1 1 1 2 1 1 1 1 2 1 1 1 1 1 0 1 0 0 1 2 1 0 0 0 1 1 1 1 1 1 1 1 1 1 1 0 1 1 1 1 1 1 1 1 1 1 1 0 1 0 1 1 0 1 1 1 1 0 1 1 1 1 1 1 1 1 1 1 1 0 1 0 1 0 1 2 1 0 1 1 1 1 1 0 2 -1 1 0 0 
1 1 0 1 1 0 0 1 0 1 0 0 -1 1 1 0 1 0 0 1 1 1 0 1 1 1 0 1 1 1 0 0 1 1 1 1 1 1 1 0 1 0 1 0 1 1 1 1 0 1 0 1 1 1 1 1 0 1 1 2 2 2 1 1 1 1 1 1 1 1 1 1 1 1 0 2 1 1 2 1 1 1 1 1 0 1 1 1 1 1 2 1 1 1 1 1 1 1 1 1 1 0 0 1 1 1 1 1 2 0 0 1 1 1 1 1 1 2 2 1 1 1 1 1 1 1 1 1 1 2 2 1 1 1 1 2 2 1 1 1 1 1 2 2 2 2 2 2 1 2 2 2 2 2 2 1 2 2 3 3 2 2 2 2 2 2 2 2 3 3 3 4 4 3 3 2 2 2 3 3 3 3 3 4 4 3 3 4 4 4 4 3 5 5 4 5 5 4 5 6 6 6 6 7 8 8 8 9 10 11 12 15 20 32 50 72 93 107 115 121 124 127 129 131 133 135 136 136 137 139 140 140 140 141 141 141 141 142 142 141 142 142 143 143 143 143 143 142 143 143 142 141 142 142 141 142 142 142 142 142 142 142 141 140 140 140 139 139 138 138 137 138 138 138 138 137 136 136 136 135 135 134 134 133 133 133 132 131 131 131 131 130 129 129 129 128 127 126 125 125 125 125 124 123 123 122 121 120 119 118 118 117 116 116 116 114 113 113 112 111 110 109 109 108 106 105 104 104 104 103 103 102 102 103 104 106 109 112 117 122 129 136 141 145 149 151 153 154 153 153 153 153 154 154 154 154 154 154 154 155 155 155 155 154 155 155 155 154 154 154 155 155 156 156 156 157 157 156 156 157 158 157 156 157 157 157 157 157 157 157 157 157 158 158 157 157 157 158 158 157 156 157 158 157 157 158 158 158 158 158 158 157 157 157 158 158 158 158 157 157 158 157 157 157 157 156 156 156 156 155 155 155 154 152 153 153 152 151 149 148 147 145 144 144 140 129 109 78 47 26 15 12 12 11 9 8 7 7 7 6 5 6 5 4 5 4 4 5 4 3 3 4 4 4 4 4 3 3 3 3 3 3 3 3 2 2 2 2 2 2 3 3 3 2 2 2 2 2 2 2 2 1 1 2 2 2 2 2 1 2 1 1 2 1 2 2 2 2 2 2 2 2 1 1 2 2 1 1 1 1 1 2 1 1 1 1 1 2 1 1 0 0 0 1 1 1 1 1 1 2 1 1 1 1 1 1 1 0 1 2 1 1 1 1 1 0 1 1 1 2 1 1 0 1 1 1 0 0 1 1 1 1 1 1 0 1 1 1 1 1 1 0 0 0 1 2 1 2 0 1 1 1 1 1 1 1 1 1 1 0 0 1 2 1 0 1 1 1 1 0 0 1 0 1 0 1 1 0 1 1 1 1 1 2 1 0 0 1 0 1 
1 0 1 -1 2 0 0 1 1 1 1 1 0 0 1 1 2 0 0 1 1 1 1 1 1 1 1 1 1 0 0 0 0 0 1 1 1 0 0 0 1 1 2 1 1 0 1 1 0 1 1 1 2 0 2 1 1 1 1 1 0 0 0 0 1 0 1 1 1 0 1 1 1 1 1 1 0 1 2 1 1 1 1 1 1 1 1 1 0 0 2 1 1 1 1 1 1 1 2 1 1 1 2 1 1 1 1 1 1 1 1 1 1 1 1 0 1 1 1 1 1 1 1 1 1 1 1 2 1 1 2 1 1 1 1 2 1 1 1 1 1 1 1 2 2 2 2 2 2 2 2 2 1 2 2 2 2 2 3 2 2 2 3 2 2 2 2 2 3 3 3 3 3 3 3 3 2 3 4 3 3 3 4 4 4 3 4 5 4 4 4 3 4 5 5 5 5 4 5 6 6 6 6 6 7 8 7 8 10 11 12 13 16 22 36 55 76 95 108 116 121 124 126 128 131 133 134 135 136 137 138 139 139 139 139 139 140 140 141 140 141 142 142 142 142 142 143 143 143 143 143 142 142 141 141 141 142 142 142 141 141 141 140 140 140 140 139 139 138 138 137 137 138 137 137 136 135 136 135 135 134 133 133 133 132 132 131 130 130 130 130 129 128 127 127 127 126 126 125 124 124 123 123 122 122 122 120 119 118 118 117 117 116 115 114 113 113 112 111 110 109 108 108 107 105 104 104 103 102 101 100 100 100 100 100 101 103 106 110 115 122 129 136 142 146 149 151 153 152 152 152 153 153 153 154 154 154 154 154 154 154 154 155 155 155 155 155 155 155 155 155 156 156 156 156 156 156 156 156 156 157 157 157 157 156 156 157 157 157 157 157 157 157 157 156 156 156 155 155 155 155 155 155 155 155 156 156 157 157 157 157 157 157 157 157 157 158 157 157 156 156 157 157 157 156 156 156 156 156 155 154 154 153 152 152 153 151 150 149 148 146 145 143 142 137 123 98 66 39 22 14 12 13 11 9 8 8 7 7 6 6 6 5 4 5 5 5 5 5 4 4 4 4 4 3 2 3 3 2 2 3 3 3 3 2 2 2 2 2 2 3 2 2 2 2 2 2 3 2 2 1 2 2 2 2 2 2 1 1 2 1 1 2 1 1 2 2 1 1 1 2 2 2 2 1 1 2 2 1 1 0 1 1 1 1 1 2 2 1 1 1 1 1 1 2 1 1 1 1 2 1 1 1 0 1 1 1 1 2 2 1 1 1 1 2 1 1 1 2 2 1 1 0 1 0 1 1 1 2 2 2 1 1 1 1 1 0 1 1 1 1 0 1 0 1 2 2 1 0 1 1 0 0 1 1 1 1 1 1 0 0 1 2 1 1 0 1 1 1 0 1 1 1 1 0 1 1 0 2 0 1 0 1 0 1 0 1 -1 0 1 
0 -1 1 0 1 0 1 0 1 0 1 1 1 1 1 0 1 0 1 0 1 1 2 0 -1 1 1 1 1 0 1 0 0 0 1 1 1 0 0 0 2 2 2 0 0 1 1 1 0 1 1 0 1 1 2 2 1 1 0 1 0 1 1 0 1 0 1 1 1 1 0 1 1 1 0 1 0 0 1 1 1 1 1 1 0 0 1 1 1 1 2 1 1 1 0 1 1 1 1 1 1 1 2 1 1 1 0 1 1 1 2 1 1 1 1 1 1 0 1 1 2 1 2 1 1 1 1 2 2 2 2 1 1 1 2 2 1 1 1 1 1 2 2 2 1 1 2 2 2 1 1 2 2 2 2 1 2 2 2 3 3 2 2 2 2 2 2 2 2 3 3 3 3 3 2 3 2 3 4 3 2 3 4 4 3 3 3 4 5 4 4 4 4 5 5 4 5 5 5 6 6 5 6 6 7 8 7 8 9 10 10 11 13 16 25 39 59 79 96 109 116 120 124 126 128 130 131 133 134 135 137 138 138 138 138 138 138 139 140 140 141 141 141 141 142 142 141 142 142 142 142 141 142 142 142 141 142 141 140 140 140 140 140 140 139 139 139 138 138 137 137 137 137 136 135 135 135 136 136 135 133 132 132 132 132 132 131 130 130 129 129 129 128 127 127 127 126 125 125 124 124 123 121 121 121 120 119 118 118 117 117 116 115 115 114 112 112 111 110 110 109 108 107 106 105 103 102 102 101 100 99 98 98 98 97 97 98 100 103 108 114 122 130 137 142 147 150 151 152 152 153 153 153 153 153 154 154 154 155 154 154 155 155 155 155 155 154 154 154 154 155 156 156 156 156 156 156 156 156 156 157 157 157 157 157 156 156 157 158 158 157 156 155 155 155 154 153 153 153 152 151 151 151 151 152 153 153 154 155 156 156 157 157 157 157 157 157 157 156 156 156 155 155 156 156 155 155 155 155 154 154 154 152 152 153 153 151 149 148 147 146 144 142 140 133 115 87 55 31 18 12 11 11 9 8 7 8 8 6 6 6 6 5 4 4 4 4 5 4 4 4 4 4 4 3 3 3 3 3 3 3 2 2 3 3 2 2 2 3 2 2 3 3 2 2 2 3 3 2 2 2 2 2 2 3 2 1 1 1 2 1 1 1 1 2 2 1 2 1 1 2 2 2 1 1 1 2 1 1 1 1 1 1 1 1 1 1 1 1 1 1 1 1 1 2 1 1 1 1 1 1 1 1 0 1 1 1 1 1 1 1 2 1 1 1 1 1 0 1 1 2 1 1 1 0 1 0 1 1 0 2 1 1 1 1 1 1 1 1 0 1 0 1 1 1 0 0 1 1 1 1 1 1 0 1 1 1 1 1 1 0 1 1 0 1 0 1 1 1 0 0 0 1 1 1 1 1 0 1 0 1 0 1 0 1 0 1 0 1 -1 
0 1 1 0 1 1 1 0 1 1 0 2 1 0 0 1 1 1 0 1 1 1 1 1 0 1 1 1 1 0 1 0 0 0 1 1 1 1 1 0 1 2 2 1 0 1 1 0 0 0 0 1 1 1 2 2 1 1 0 1 0 1 1 1 2 0 1 1 0 0 1 2 1 1 1 1 0 1 1 0 1 1 1 1 1 1 1 1 0 1 2 1 1 1 1 2 1 1 1 1 1 1 2 1 1 1 1 1 1 1 2 2 1 1 1 1 1 1 1 1 2 1 1 0 1 1 1 2 1 1 2 1 1 1 1 2 1 1 1 1 1 1 1 2 1 1 1 2 2 2 2 2 1 2 2 2 2 2 2 2 2 2 2 2 2 2 2 2 2 2 2 2 3 2 2 3 3 3 3 3 2 3 3 3 4 3 3 4 5 4 3 3 3 5 5 4 4 5 5 5 6 7 7 6 6 7 8 8 8 9 10 11 12 14 18 28 43 62 81 97 108 115 119 122 125 128 129 131 132 133 134 136 137 137 136 136 137 139 140 139 140 140 140 140 141 141 141 142 142 142 142 141 141 142 141 141 140 140 140 140 140 140 140 141 140 139 138 138 138 138 138 138 136 135 135 135 135 135 135 135 134 133 133 133 132 131 130 129 129 129 128 128 127 127 126 126 125 125 124 123 122 122 121 120 119 120 119 118 117 116 116 115 114 113 112 111 111 110 109 109 108 107 106 105 104 103 102 101 100 98 96 96 96 96 95 95 95 96 99 103 108 115 122 130 137 143 147 150 151 152 153 153 152 153 153 154 154 155 155 154 154 154 154 154 155 155 154 155 155 155 155 155 156 156 157 157 156 156 155 156 157 157 157 157 157 157 156 156 156 156 155 155 154 153 152 152 150 150 149 148 147 147 147 147 148 150 151 152 153 154 155 155 156 157 157 157 157 157 156 156 156 156 156 156 155 155 155 155 155 154 154 154 153 152 152 151 150 148 147 147 145 143 142 138 127 106 75 45 25 15 12 12 10 9 8 8 7 7 6 6 7 6 5 4 4 4 4 4 4 3 3 4 4 4 3 3 3 3 3 2 3 3 3 3 2 2 2 2 3 2 2 2 2 2 2 3 3 2 2 2 2 2 2 2 2 2 1 2 1 2 2 2 2 1 1 1 1 2 1 1 2 2 2 1 1 1 2 2 1 1 1 1 1 1 1 1 1 1 1 2 2 1 1 0 1 1 1 1 1 1 1 1 1 1 1 1 1 1 1 2 1 1 1 1 1 1 1 1 1 1 1 1 1 1 0 1 0 1 2 1 1 1 1 1 1 1 0 1 1 1 1 2 2 1 1 1 1 1 1 1 0 0 1 1 1 1 1 1 1 0 0 1 1 1 1 0 1 1 1 1 1 1 0 1 1 1 1 1 1 0 1 1 2 1 1 1 1 0 0 1 
0 1 1 1 0 1 1 0 0 1 0 1 1 1 0 1 1 1 1 0 1 0 1 1 -1 0 1 1 1 0 2 1 0 0 1 2 1 1 1 0 1 1 2 2 0 0 1 0 0 1 1 0 0 0 2 2 1 1 1 1 1 1 1 1 1 1 1 1 1 1 0 1 1 1 1 1 0 0 1 1 1 0 1 1 1 1 0 0 1 1 1 0 0 1 1 1 1 1 1 1 1 1 2 2 1 0 0 1 1 1 2 2 1 1 1 1 1 1 2 2 2 1 2 1 1 2 2 2 1 2 2 1 1 1 2 1 0 1 1 1 1 1 1 1 1 1 2 2 2 2 2 2 2 2 2 2 2 2 1 2 2 2 2 2 2 2 3 3 2 2 2 2 3 3 2 2 3 3 3 3 2 2 3 4 3 3 3 3 4 4 3 4 4 4 5 4 4 5 5 5 5 6 6 6 6 6 8 9 9 8 8 10 12 13 15 19 30 46 64 83 97 108 115 118 121 125 127 129 131 131 132 134 134 135 136 136 137 137 138 139 139 139 140 140 140 140 140 141 141 141 141 140 141 141 141 141 141 140 140 140 140 140 140 140 140 139 138 138 138 138 138 137 136 135 134 134 134 134 134 134 133 132 132 132 131 130 129 129 128 128 128 127 127 126 125 124 125 124 123 122 122 121 120 120 119 119 119 117 117 116 115 114 113 113 113 111 110 109 109 108 107 106 105 104 103 101 101 100 100 98 96 96 96 95 94 93 92 92 93 97 102 108 115 123 131 138 144 148 151 152 152 153 153 152 152 153 153 153 153 154 154 153 153 154 154 154 154 153 154 155 155 155 154 155 156 156 156 155 155 156 157 157 157 157 156 156 156 156 156 155 154 153 153 152 151 150 149 148 147 145 144 144 144 146 147 148 149 149 150 151 153 154 155 155 156 156 156 156 155 156 156 155 155 156 155 155 155 155 154 154 154 153 152 152 152 150 149 148 148 147 144 143 141 135 121 96 62 35 20 14 12 12 10 9 8 8 7 6 6 6 6 6 5 5 3 3 4 4 4 4 3 3 3 3 3 3 3 3 3 3 3 3 3 3 3 3 3 3 2 2 2 2 2 2 2 2 2 3 2 1 2 2 2 1 2 2 2 1 1 2 2 2 2 1 2 1 1 2 1 2 2 2 2 1 1 1 1 1 1 1 1 1 2 1 1 1 2 2 1 2 1 1 0 0 2 2 1 1 1 1 1 1 1 1 1 1 1 1 1 2 1 2 2 1 1 1 1 0 1 1 2 1 0 1 0 1 1 1 1 1 1 1 1 1 0 1 0 1 1 1 1 1 1 1 1 0 1 1 0 1 1 1 1 1 1 1 1 1 0 1 0 0 0 1 2 0 1 0 0 1 0 1 1 0 1 1 1 1 1 1 1 1 0 1 0 0 1 1 1 0 
2 0 0 2 0 1 0 1 0 1 1 1 0 1 0 1 0 1 1 0 1 1 1 1 -1 0 1 0 1 0 1 0 1 1 1 1 0 1 1 0 0 0 1 1 0 0 1 1 0 1 1 0 0 0 1 2 1 2 1 1 1 1 1 1 1 1 1 0 1 1 0 1 1 1 1 1 1 1 0 1 1 0 1 1 1 1 1 0 1 1 1 0 1 1 1 2 1 1 1 1 1 1 1 1 1 1 1 1 1 1 1 1 1 1 0 1 1 1 1 2 2 2 2 2 1 2 2 2 1 1 1 1 1 1 2 2 2 1 1 1 1 1 2 2 1 1 2 2 2 2 2 2 2 2 2 2 2 1 1 2 2 2 2 2 2 2 2 2 2 2 2 3 3 3 3 2 2 2 2 3 3 2 2 3 3 3 4 3 3 3 3 3 4 4 5 5 4 5 5 4 5 6 6 6 6 6 7 8 8 8 9 10 11 12 12 15 21 32 46 64 81 96 107 113 117 121 124 127 128 130 131 132 133 134 135 136 135 135 136 137 138 138 138 139 139 139 140 140 140 141 141 141 141 141 141 140 141 141 141 141 140 140 140 140 140 138 138 138 138 138 137 137 136 135 135 135 135 134 133 132 132 132 131 131 130 129 129 128 128 128 127 126 126 125 125 124 124 124 123 122 121 120 120 119 118 118 117 117 116 115 114 113 113 112 111 110 109 108 108 107 106 105 104 103 102 101 99 98 98 97 95 95 94 94 92 91 90 90 91 93 96 102 109 116 124 132 139 145 148 150 151 152 153 152 152 153 153 153 153 153 154 154 153 154 154 154 154 154 155 156 156 155 154 155 155 156 156 156 156 156 156 157 157 157 157 156 156 155 154 154 153 153 152 151 150 149 149 147 145 144 144 144 145 147 148 148 148 149 149 150 151 152 152 153 154 155 156 156 155 155 156 156 156 156 155 155 155 154 153 154 153 152 152 152 151 150 149 148 147 145 143 142 139 131 113 83 50 28 16 12 12 10 9 8 8 8 7 5 5 6 6 5 5 5 4 4 4 4 4 4 3 3 3 4 4 4 3 3 3 3 3 3 3 3 3 3 3 3 3 2 2 2 2 3 2 2 2 2 2 2 2 2 2 2 2 2 1 1 1 1 1 1 2 2 2 1 1 2 2 2 2 1 2 1 1 1 1 2 1 1 1 2 2 1 1 2 1 1 1 1 1 2 1 1 1 1 1 1 1 1 1 1 1 1 1 1 1 2 0 1 1 1 1 1 1 1 1 1 1 1 1 1 0 1 1 1 1 1 1 1 1 1 1 0 1 1 0 1 1 2 2 1 1 1 0 0 1 1 0 1 1 1 1 1 1 1 1 1 1 1 0 1 1 1 2 1 1 0 0 2 0 0 0 1 0 0 1 0 1 1 1 1 -1 2 1 1 1 1 1 0 
0 3 0 1 0 2 0 1 1 1 0 0 0 1 1 1 1 1 1 1 2 1 1 2 0 1 0 0 0 0 0 1 1 1 1 0 0 1 1 0 0 0 1 1 0 1 1 1 0 1 1 1 1 0 1 1 0 1 1 1 2 1 1 2 1 1 1 1 1 0 0 1 1 1 1 1 0 1 0 1 1 0 1 1 1 1 1 1 1 1 1 1 0 1 1 2 1 1 1 1 1 1 1 1 1 2 1 1 1 2 2 2 2 1 1 1 1 1 1 1 1 1 2 2 1 2 2 2 2 2 1 1 2 2 2 2 1 1 1 2 2 2 2 2 2 1 2 1 1 2 2 2 1 2 2 2 2 2 2 2 2 3 2 2 2 2 2 2 3 2 2 3 2 3 2 2 3 3 3 3 2 2 3 4 3 3 4 3 3 4 3 3 4 4 5 5 5 5 5 5 5 6 6 6 6 6 6 8 8 8 9 10 11 11 11 12 16 22 32 47 64 82 96 106 112 117 121 123 125 127 129 130 131 132 133 134 134 135 136 136 136 137 138 138 139 140 140 141 141 141 141 141 141 141 141 141 141 140 140 140 140 140 140 140 139 138 137 138 138 137 137 136 136 136 136 135 134 132 132 132 131 130 130 130 130 129 128 127 127 126 126 125 124 124 124 123 123 122 122 121 120 119 119 118 117 117 116 116 115 115 113 112 112 112 110 109 108 107 107 106 105 104 103 102 101 100 99 98 97 96 95 94 92 91 90 89 88 87 88 90 93 96 101 107 116 124 132 140 145 148 150 152 152 152 152 153 152 152 153 153 154 154 154 154 154 154 154 154 154 154 155 155 155 155 155 155 155 156 156 156 156 156 156 156 156 156 155 155 154 154 154 154 153 151 150 150 148 146 146 146 146 147 147 148 149 148 147 148 148 150 151 152 152 152 153 154 155 155 154 155 156 156 156 155 155 155 155 154 154 153 152 152 152 151 150 149 148 147 146 144 143 142 137 125 102 70 41 23 13 11 11 10 9 9 8 7 6 5 6 6 4 4 5 5 4 4 4 4 5 4 3 3 3 3 4 4 3 3 3 3 3 3 2 2 3 2 2 2 2 2 2 2 2 2 1 2 2 2 2 2 2 2 2 1 1 1 2 2 1 1 1 1 2 2 1 1 1 2 1 1 1 2 2 1 1 1 1 1 1 1 2 2 2 1 1 2 1 2 1 0 1 2 1 0 1 1 1 1 1 2 1 1 1 1 1 1 0 1 1 1 1 1 2 1 1 1 1 1 1 1 1 1 0 1 1 0 1 1 0 1 1 1 1 0 0 1 1 1 1 1 2 1 0 0 1 0 0 0 0 0 0 1 1 0 1 1 0 1 1 1 0 0 0 1 1 1 1 0 0 1 0 1 1 1 0 1 1 0 1 1 0 2 0 1 1 1 1 2 0 1 
1 0 1 0 1 1 0 1 2 1 1 1 0 0 0 0 1 1 1 1 1 1 1 1 0 0 0 0 0 0 0 1 2 2 1 0 0 2 1 1 1 0 1 0 0 1 1 0 1 1 1 0 1 0 1 1 0 1 1 1 2 1 1 2 0 0 1 1 1 0 0 1 1 1 1 1 0 1 1 2 1 1 1 0 1 1 1 0 1 1 1 0 1 2 2 1 1 1 1 1 1 1 1 1 2 2 1 1 1 1 1 2 2 1 1 1 0 1 1 1 1 1 1 1 1 1 1 2 1 1 1 1 1 1 2 2 1 1 1 1 1 2 2 1 2 2 2 2 2 2 2 2 2 2 2 2 2 2 3 3 3 3 2 1 2 2 2 2 2 3 3 2 2 2 2 2 3 3 3 3 3 3 3 4 4 3 4 4 3 4 3 4 5 4 4 4 4 4 5 5 5 5 6 7 7 6 5 6 7 8 9 9 10 10 10 11 14 17 22 33 48 65 82 96 105 112 117 120 123 125 126 127 129 131 132 132 133 134 134 134 135 136 137 137 138 139 140 140 140 141 141 141 141 141 141 141 141 141 140 140 140 139 139 139 139 138 137 138 138 137 136 136 136 136 135 135 134 133 132 131 130 130 130 129 129 128 127 127 127 127 126 125 124 124 123 123 122 121 121 121 120 119 118 118 117 116 115 114 114 113 112 112 112 111 109 108 107 107 106 105 104 103 102 101 100 99 98 97 96 95 94 93 91 90 88 88 88 87 87 87 88 90 94 100 107 116 125 134 141 146 150 151 152 152 152 152 152 152 153 152 153 153 154 154 154 154 154 154 154 154 155 156 155 155 155 156 157 156 156 156 156 156 155 155 155 155 154 154 154 153 153 153 152 151 150 150 148 146 146 146 147 148 147 145 143 141 140 140 142 145 148 149 150 150 151 153 154 154 154 154 154 154 155 154 154 154 154 153 153 153 152 152 151 150 149 149 148 147 145 143 142 140 133 117 91 58 32 18 12 12 11 9 8 8 7 7 6 5 6 6 5 5 5 5 4 4 4 4 5 4 3 2 3 3 3 3 2 3 3 3 3 3 2 2 2 2 2 2 2 2 3 2 2 2 2 2 2 2 2 1 1 1 1 2 2 2 1 1 1 1 1 1 2 2 2 2 2 2 1 1 1 1 2 1 1 1 1 2 1 1 1 2 2 1 1 1 1 1 1 1 1 1 1 1 1 1 1 1 1 1 1 1 0 1 1 1 1 2 1 1 1 0 2 1 1 0 1 1 1 1 0 1 1 1 1 1 1 0 0 2 1 1 0 0 1 0 0 1 1 1 1 1 0 1 0 0 0 0 0 1 1 0 1 0 1 1 1 0 0 1 1 1 0 0 1 1 1 0 0 1 1 1 1 1 0 1 1 0 1 0 1 1 0 0 1 0 1 1 1 0 
1 1 1 1 1 1 1 1 2 0 1 1 1 1 1 0 1 1 1 1 1 1 1 0 1 1 0 1 0 0 0 1 1 0 1 0 1 1 1 1 1 1 1 0 1 1 1 1 0 0 2 2 1 1 2 2 0 0 1 0 1 1 0 1 1 1 1 1 1 1 1 1 1 1 1 1 1 1 0 1 1 1 2 1 1 1 1 0 0 0 1 1 2 1 1 1 1 1 1 1 1 1 2 1 1 2 2 2 2 1 1 1 1 1 1 1 1 1 1 0 0 1 1 2 2 1 1 1 1 1 1 1 1 1 2 2 1 1 1 1 1 1 1 1 2 1 1 1 2 2 2 1 2 1 1 2 2 2 2 2 2 2 2 2 2 2 2 2 2 2 2 2 3 3 2 2 3 4 4 3 3 3 3 3 3 3 4 4 4 4 4 3 4 4 4 5 4 4 4 4 5 5 5 6 6 6 5 6 7 7 8 8 8 8 9 11 12 14 16 22 33 48 65 81 95 104 111 116 119 122 123 125 127 128 129 130 131 132 133 133 134 135 135 136 137 138 139 139 140 140 141 140 140 141 141 141 141 141 140 140 140 141 140 139 138 138 138 138 138 138 137 137 136 136 135 134 134 133 132 131 130 129 129 128 127 127 126 126 126 125 125 124 124 123 122 122 121 120 120 119 119 118 118 117 116 116 115 114 113 112 112 112 111 109 109 107 106 106 105 104 103 102 100 99 99 98 97 96 95 94 92 91 90 89 88 88 87 85 85 84 85 86 88 93 100 108 118 128 136 143 147 150 151 151 151 152 152 153 152 152 153 153 153 154 154 154 154 154 154 154 155 155 155 155 155 155 155 156 156 155 155 155 155 155 155 155 154 153 153 153 153 152 151 150 150 149 147 145 146 147 148 145 138 131 124 119 117 119 124 131 138 144 147 149 151 152 152 153 154 154 154 154 155 155 154 153 153 153 153 153 152 151 151 149 149 148 147 145 144 142 141 138 128 107 77 46 25 15 12 11 11 9 8 8 7 7 6 5 5 5 5 4 4 4 4 5 5 4 4 4 3 3 3 3 3 3 3 3 3 3 2 2 2 3 3 2 2 2 2 2 2 2 2 2 2 2 1 1 2 2 2 2 2 2 2 2 1 1 2 2 2 1 2 2 1 1 2 2 1 1 1 2 2 1 1 1 1 2 2 1 1 1 1 1 1 1 2 2 1 1 2 1 1 1 1 1 1 2 2 2 1 1 1 1 1 1 1 2 1 1 1 1 2 1 1 1 1 1 1 1 1 1 0 1 1 0 1 1 1 1 1 2 1 -1 1 1 1 1 1 1 1 0 0 0 0 0 1 0 1 0 1 1 2 1 0 1 1 0 1 0 0 0 1 0 1 1 1 1 1 0 1 0 1 1 1 1 1 0 1 0 1 1 1 0 1 0 0 2 0 1 
2 0 1 2 -1 1 0 0 2 1 1 1 1 1 1 1 1 1 0 1 0 0 1 1 1 1 0 1 1 0 0 1 1 1 1 0 1 0 0 1 1 1 1 0 0 1 1 1 1 2 1 0 1 1 1 1 0 1 1 0 0 1 0 0 0 1 2 2 1 1 1 2 1 1 1 0 0 1 0 1 1 1 1 1 1 1 0 1 1 1 1 1 2 1 1 0 1 1 1 1 1 1 1 2 1 1 1 1 1 1 1 1 1 1 1 1 0 1 2 2 1 1 1 1 1 2 2 1 1 2 2 2 1 1 2 2 2 1 1 2 2 2 1 2 2 1 1 1 2 2 3 2 2 1 2 2 2 2 2 2 2 3 2 2 2 1 2 2 3 3 2 3 3 3 3 3 3 2 3 3 2 2 3 3 3 3 3 4 4 4 3 3 4 4 3 3 4 4 4 5 5 5 5 5 6 6 6 6 6 6 8 8 8 8 8 9 11 12 13 16 22 32 46 63 79 93 103 110 115 118 120 122 125 126 126 127 128 130 131 131 133 134 135 135 135 136 137 138 138 139 139 140 140 140 140 141 141 141 141 140 140 140 139 138 137 138 138 138 138 138 137 137 137 135 134 134 133 132 132 131 130 129 128 128 127 126 125 125 125 125 124 124 123 123 122 122 121 120 119 119 118 118 117 116 116 115 114 113 113 111 110 110 109 109 108 107 106 105 104 103 102 101 99 98 97 97 96 95 94 93 91 90 89 88 87 85 84 83 83 82 82 83 85 88 94 101 110 120 129 138 145 149 150 151 151 151 151 152 152 152 152 152 153 153 153 153 153 153 153 154 155 155 154 155 155 155 156 156 155 155 155 154 154 155 155 155 154 153 154 153 153 153 152 151 151 150 147 145 146 147 144 136 121 105 93 87 85 88 94 105 118 130 140 146 149 150 151 152 153 154 153 153 154 154 154 153 153 152 152 151 152 151 149 148 148 148 146 144 142 141 139 132 118 95 64 36 19 13 11 10 10 9 7 7 7 6 5 5 5 5 5 5 4 4 4 4 4 4 4 4 3 3 3 4 4 3 3 2 3 2 2 2 2 3 3 3 2 2 2 2 2 2 2 2 2 2 2 2 2 2 1 1 2 2 2 2 1 1 1 1 2 2 2 1 1 2 2 2 2 2 1 2 1 1 1 1 1 2 1 1 1 1 1 1 1 1 1 2 2 2 1 1 1 1 1 2 1 2 1 1 1 1 1 1 1 1 1 1 1 1 1 0 1 1 1 1 1 1 1 0 1 1 0 0 0 1 1 1 1 2 1 1 0 0 1 1 1 2 1 1 1 0 0 0 1 1 0 1 1 1 1 0 1 1 0 1 1 1 1 1 1 1 0 0 1 1 1 1 0 0 1 0 0 1 0 1 1 1 0 1 0 1 1 1 1 0 -1 1 1 0 
1 1 0 2 0 2 0 1 1 2 1 1 1 2 1 1 1 1 0 1 1 1 1 0 0 1 1 1 0 0 1 1 1 1 0 0 1 0 0 2 1 2 1 1 0 0 0 1 0 1 1 1 1 1 1 2 1 1 1 1 0 0 0 1 1 1 2 1 1 1 1 2 1 0 1 1 0 1 1 1 1 1 1 1 1 1 0 1 0 1 1 1 1 1 1 0 0 1 1 1 1 1 1 1 1 1 1 1 1 1 0 0 1 1 1 1 1 1 1 1 1 1 1 2 1 2 1 1 1 1 1 2 2 2 2 2 1 1 1 2 2 2 1 1 1 2 2 1 1 1 1 2 2 2 1 1 2 2 2 2 2 3 2 2 1 1 1 2 2 2 2 2 3 3 3 3 3 3 3 2 2 3 3 2 2 3 3 3 4 3 2 4 4 4 4 4 4 4 4 4 5 6 5 5 5 6 6 6 6 6 7 8 7 7 8 8 9 11 12 13 16 21 31 45 61 77 91 101 108 113 116 119 121 122 123 125 126 127 128 129 131 133 133 133 134 135 136 136 137 138 138 138 138 139 139 140 140 140 140 140 140 140 139 138 138 138 138 138 138 137 137 137 136 135 134 134 133 131 131 130 129 128 128 127 126 125 124 124 124 123 123 122 122 122 121 121 120 119 118 118 117 116 116 115 114 113 112 112 111 111 110 108 108 108 107 105 104 104 103 102 101 100 99 98 96 96 95 94 92 92 91 89 88 87 85 84 83 82 81 81 81 81 82 83 87 93 101 111 122 132 139 145 149 151 151 152 152 153 153 152 152 152 153 153 153 153 153 154 154 154 154 154 154 154 154 154 154 154 154 155 155 154 155 155 155 155 155 155 154 154 154 154 153 153 152 150 148 146 146 145 138 122 98 77 64 57 56 59 65 76 92 111 128 139 146 149 150 151 152 153 153 153 153 153 153 153 152 152 152 151 151 150 149 149 149 148 145 143 143 142 137 127 108 80 50 28 16 13 12 10 9 8 7 8 7 6 5 6 5 4 5 4 4 4 4 4 3 4 4 4 3 3 4 4 3 3 3 2 3 3 3 3 3 3 3 3 3 3 2 2 2 2 2 2 2 2 1 2 2 2 2 1 2 3 3 2 1 1 1 1 2 2 1 2 2 2 2 2 2 2 2 2 1 1 1 1 1 2 2 2 1 1 1 1 2 1 2 1 1 2 1 1 1 1 1 2 1 2 1 1 1 0 1 1 1 1 1 2 1 1 1 0 1 1 1 2 1 1 1 0 1 1 1 1 0 1 1 2 2 1 1 1 0 1 1 1 1 1 0 1 1 1 1 1 1 1 1 1 0 0 1 1 1 1 1 2 2 1 1 1 0 1 1 0 1 1 1 1 1 1 0 0 1 2 0 0 0 1 0 1 0 1 1 1 1 2 0 2 -1 0 
1 2 0 0 2 1 -1 1 1 1 1 0 1 1 1 1 0 0 0 1 1 1 0 1 1 1 0 1 1 0 1 0 0 1 0 0 1 0 0 1 1 2 1 1 0 0 0 1 1 1 1 0 1 1 1 0 0 1 1 2 1 1 1 1 1 1 2 1 1 1 1 2 1 1 1 1 1 1 0 1 1 1 0 1 1 1 0 1 0 1 1 0 1 0 1 0 1 1 1 0 1 1 1 1 1 1 0 1 1 1 1 1 2 1 1 1 1 1 2 2 1 1 1 2 1 1 1 1 1 2 2 2 2 2 2 2 1 1 1 1 1 2 2 2 1 1 1 1 1 2 2 2 2 2 2 2 2 1 1 1 2 2 2 2 2 1 2 3 2 2 2 2 2 2 2 2 3 2 3 3 3 3 3 3 3 3 2 2 3 3 2 3 4 4 4 4 4 4 4 5 5 6 5 4 5 5 6 6 5 5 6 7 7 7 8 8 9 10 11 12 13 15 22 31 44 60 76 90 101 108 112 115 118 119 120 121 123 125 126 127 128 130 131 132 132 133 134 135 136 137 137 137 137 138 139 139 139 139 140 140 140 140 139 139 139 139 138 138 138 137 137 136 136 135 134 133 132 131 131 130 129 129 128 127 126 125 125 124 123 122 122 121 121 121 121 120 119 119 117 117 116 116 115 115 115 113 112 111 110 109 109 108 107 106 105 105 104 103 102 101 100 99 98 97 96 95 94 92 92 91 89 88 87 86 84 84 83 82 81 80 79 79 79 79 81 86 93 102 113 124 134 142 147 149 150 151 152 152 152 151 152 153 152 152 152 153 153 153 153 154 154 154 154 155 155 154 154 155 154 154 154 155 154 154 154 155 154 153 153 154 154 154 154 153 152 150 148 147 147 144 131 107 79 56 43 38 38 40 43 52 68 89 112 130 140 146 149 150 151 152 153 153 153 153 153 152 151 151 151 152 151 150 149 149 148 147 144 142 141 139 132 116 93 64 38 22 13 12 11 10 9 8 7 7 7 6 5 5 5 5 5 4 4 4 4 3 3 4 4 3 3 4 4 3 3 3 3 3 3 3 3 3 3 3 3 2 2 3 3 2 2 2 2 2 2 2 2 2 2 2 2 2 2 1 1 2 1 1 1 1 2 2 2 2 2 2 2 2 1 1 1 1 1 1 1 1 1 1 1 1 1 1 1 1 2 1 1 1 1 1 1 1 2 1 1 1 1 2 1 1 1 0 1 0 1 1 1 1 1 1 2 1 1 1 1 2 1 0 1 0 1 2 1 1 0 0 1 2 2 1 1 1 0 0 1 1 1 1 1 1 0 1 1 1 1 1 1 1 1 0 1 1 1 1 1 2 2 1 1 2 0 1 1 0 1 0 1 1 1 1 0 1 1 1 1 1 1 1 0 1 0 1 1 1 1 1 2 1 -1 1 
2 -2 2 1 0 1 0 1 1 1 1 1 1 1 1 1 0 0 1 2 1 1 0 1 1 1 1 1 1 0 1 1 1 1 0 0 0 0 0 1 1 1 1 0 0 1 0 0 0 0 0 1 1 0 0 0 1 1 1 2 1 1 1 1 0 0 2 1 1 0 1 1 0 0 1 1 1 1 2 1 0 1 1 1 1 0 0 0 1 1 1 1 2 0 1 1 2 1 1 1 1 1 1 1 1 1 0 1 1 1 1 1 1 1 1 1 1 2 2 1 2 2 1 1 0 1 1 1 1 1 1 2 2 2 1 1 1 1 1 2 2 1 2 2 2 2 2 2 2 1 2 2 2 2 2 2 2 1 1 2 2 2 1 1 1 2 2 3 2 2 1 1 1 2 2 2 2 2 2 3 3 2 3 3 3 3 3 3 3 3 3 3 4 4 4 4 4 4 4 4 4 5 5 4 4 5 6 6 5 5 6 6 7 7 7 8 8 9 11 11 12 13 16 22 31 44 60 75 88 99 106 110 113 115 117 120 122 123 124 125 126 127 129 130 131 131 132 133 134 135 136 136 136 137 138 139 139 139 139 139 140 140 139 139 139 139 139 138 137 137 137 135 134 134 134 133 132 131 130 130 129 129 128 127 126 125 124 123 123 122 121 121 120 120 120 119 119 118 117 117 116 115 114 114 113 111 110 111 111 109 108 107 106 106 105 104 103 102 101 99 99 98 97 95 94 94 93 91 90 89 88 87 86 85 84 83 81 80 78 77 77 76 77 77 78 82 88 96 107 119 130 139 144 148 150 150 151 152 152 152 151 151 152 152 152 153 153 153 153 154 154 154 154 155 155 155 154 154 155 155 155 154 155 154 154 154 154 153 153 153 154 154 154 153 151 149 148 149 148 142 125 95 64 43 32 29 30 30 31 37 49 68 93 117 133 142 147 149 150 152 153 152 152 152 152 151 150 151 151 151 150 149 149 148 147 145 143 142 141 136 124 103 76 49 28 16 12 12 11 9 8 8 8 7 6 6 6 6 5 5 5 4 4 5 5 4 4 4 4 3 3 3 3 2 2 3 3 3 3 4 3 2 3 3 2 2 2 2 2 2 2 3 3 2 2 2 3 2 2 2 2 2 2 2 1 1 1 1 1 2 2 2 1 1 1 1 2 1 1 1 1 1 2 1 1 1 1 1 2 1 1 1 1 1 1 1 1 1 1 1 0 1 1 1 1 1 0 2 1 1 1 1 1 1 1 1 1 1 2 1 1 1 1 1 1 1 1 0 0 0 2 2 1 1 1 1 1 1 2 2 2 1 1 1 0 1 1 1 0 1 1 2 1 0 1 1 1 1 0 0 0 0 1 1 1 1 1 1 1 1 0 0 0 1 1 1 1 1 1 1 1 1 1 1 1 1 1 1 0 1 0 1 1 1 2 1 1 0 2 -1 
1 2 0 0 1 2 0 0 0 0 0 0 1 1 1 0 0 0 0 0 0 1 0 0 1 1 2 1 2 1 1 1 1 1 1 1 1 0 0 1 1 0 1 1 0 1 1 0 1 0 1 1 1 1 1 0 1 1 1 2 1 1 1 1 1 1 1 1 1 0 0 1 1 1 0 0 2 1 1 1 1 1 1 2 1 1 1 0 0 1 1 1 1 1 2 1 1 1 1 1 2 1 1 1 1 1 0 0 1 1 1 1 1 1 1 1 1 1 1 1 2 1 1 2 1 1 1 1 1 1 1 1 1 1 1 1 2 1 1 2 2 1 1 2 2 2 2 1 1 2 2 3 3 2 1 2 2 2 1 1 1 1 2 2 2 2 2 3 2 1 1 1 1 2 2 2 2 3 3 3 3 3 3 4 3 3 3 3 3 3 3 3 3 3 3 4 5 4 3 3 4 4 4 4 5 5 5 5 5 5 6 6 7 7 7 7 7 8 9 10 11 11 13 15 20 30 43 58 73 86 97 103 107 111 114 116 118 119 121 123 123 125 127 127 129 130 131 132 134 134 135 135 135 136 137 137 138 138 138 138 139 139 138 138 139 138 138 138 138 138 137 135 135 135 134 133 132 130 129 129 129 128 127 126 125 125 124 123 123 121 120 120 120 119 119 117 117 117 116 115 115 114 113 112 112 111 110 109 109 109 108 106 105 104 103 103 101 100 99 98 98 97 95 94 93 92 91 90 89 88 88 87 85 84 83 81 80 79 78 76 76 76 77 77 78 82 88 96 108 119 130 138 144 147 149 150 151 151 152 152 152 152 151 151 151 152 153 152 152 153 153 153 153 154 154 154 154 154 155 155 154 154 155 154 154 153 153 153 153 153 153 153 153 153 151 149 148 149 148 140 119 87 55 35 27 26 26 26 25 28 35 51 74 100 122 136 143 147 148 150 152 152 151 151 152 152 152 152 151 150 149 149 148 147 146 144 141 140 138 129 111 85 57 35 21 13 11 10 10 9 8 8 7 7 6 5 5 5 5 5 5 4 4 4 4 4 4 4 4 3 3 4 4 3 3 3 3 3 3 3 3 3 2 2 2 2 2 2 2 2 2 3 2 2 2 2 2 2 2 2 2 2 2 2 1 1 2 2 1 1 2 2 2 2 1 1 2 1 1 1 1 1 2 2 1 1 1 1 2 1 1 1 1 1 1 1 1 1 1 1 1 1 1 1 1 1 0 1 1 1 1 1 1 1 1 1 1 1 2 1 1 1 0 0 1 1 1 1 1 1 1 1 1 1 1 1 1 1 1 1 2 1 1 1 1 1 1 0 1 1 1 1 1 1 2 1 1 1 0 1 1 1 1 1 1 1 1 0 1 1 1 0 0 1 1 0 1 1 1 0 1 0 1 1 1 1 1 0 1 1 1 1 2 2 1 1 2 2 -1 2 
1 -1 3 0 1 1 1 1 1 0 1 1 1 1 1 0 0 0 1 2 0 1 1 0 1 0 1 0 0 1 1 1 1 1 1 0 0 1 0 1 2 1 1 1 0 1 1 0 1 1 1 2 1 0 1 1 0 1 0 1 0 0 1 1 1 1 1 1 1 0 1 0 0 0 1 0 1 1 1 1 0 1 1 2 1 1 1 0 1 2 1 1 1 1 1 1 1 1 2 1 1 1 1 2 1 1 0 1 2 2 1 1 0 1 1 1 1 1 1 2 1 1 1 2 1 1 2 1 2 2 2 1 1 1 1 1 1 1 2 2 2 1 2 2 2 2 2 1 2 2 2 2 2 2 2 2 1 1 2 2 1 2 2 1 1 2 3 3 2 2 2 2 2 3 3 2 2 3 3 3 3 2 3 4 4 3 3 3 3 3 3 3 3 4 3 4 4 4 4 4 3 4 4 4 4 5 5 5 5 6 6 6 6 7 7 7 7 8 8 9 10 11 12 12 15 20 29 41 56 71 85 94 100 105 108 111 114 116 118 120 120 122 124 125 126 128 129 131 132 132 133 134 134 134 135 136 136 136 137 138 138 138 138 138 139 139 139 140 139 138 137 136 136 135 134 133 132 130 129 129 128 128 127 126 125 124 123 122 121 121 120 119 119 118 118 117 116 116 115 114 113 113 112 111 111 110 109 108 108 107 106 105 104 103 103 102 101 99 98 97 96 96 94 93 92 91 90 89 88 88 87 86 84 83 81 80 79 78 77 77 77 78 80 83 87 91 97 106 116 126 134 141 144 147 149 149 150 151 151 152 152 152 151 151 152 151 151 151 151 151 151 151 151 152 153 154 154 154 154 154 155 155 155 154 153 153 153 153 153 153 153 153 153 152 151 149 148 148 147 138 116 81 50 31 24 23 24 23 22 23 27 38 56 82 108 127 139 145 148 149 150 152 152 151 151 152 152 152 151 150 149 148 148 147 145 143 141 139 134 119 95 66 41 25 16 12 11 10 9 8 8 7 6 6 5 5 5 4 4 5 5 4 4 4 4 4 4 4 3 3 3 4 3 3 3 3 3 4 3 3 2 2 2 3 3 3 2 2 2 2 2 2 2 2 2 1 2 2 2 1 1 2 2 1 1 1 2 2 2 2 2 2 2 1 1 1 2 1 1 1 1 2 2 1 0 1 2 1 1 1 1 2 2 1 1 1 1 2 2 1 1 2 1 1 1 2 1 1 1 1 1 0 0 1 1 1 2 1 2 1 1 1 1 1 1 2 2 1 1 1 1 1 1 1 1 2 2 1 1 1 2 1 1 0 0 1 1 1 1 0 0 1 1 2 1 1 1 1 0 1 1 1 1 1 1 1 1 1 1 1 1 0 0 2 1 1 1 1 1 0 1 0 1 1 0 1 1 0 0 0 0 0 0 0 3 0 1 0 2 0 
1 0 1 1 1 2 0 0 -1 1 0 1 0 1 1 1 1 1 0 0 -1 1 0 0 0 0 1 1 0 1 0 1 0 0 1 1 0 1 0 1 1 0 1 1 1 1 1 0 1 1 1 1 1 1 1 0 0 1 -1 1 0 1 1 1 1 1 1 1 0 0 2 1 1 0 1 1 1 1 1 1 1 1 1 2 1 1 2 1 1 2 1 1 1 1 1 2 1 1 1 1 1 1 1 1 2 2 1 1 2 2 1 1 1 1 1 1 1 1 1 1 1 1 1 1 1 1 1 1 1 1 1 2 2 2 1 1 1 1 1 2 2 1 1 2 2 2 2 2 2 1 1 1 2 1 1 1 2 2 2 2 2 2 2 2 2 2 1 2 2 2 2 3 3 2 2 2 2 3 3 3 3 2 2 3 3 3 3 3 3 4 4 3 3 3 2 3 3 3 3 4 4 4 4 4 5 5 5 5 5 6 6 6 6 6 6 7 7 8 8 8 9 10 11 12 13 15 20 28 39 54 69 81 91 98 102 106 110 113 115 117 117 119 121 122 124 125 126 128 129 130 131 133 133 133 134 135 135 136 137 137 138 138 137 138 139 139 139 139 139 138 137 136 135 135 134 132 131 130 130 129 128 127 126 125 124 124 123 121 120 119 119 118 118 117 117 116 115 115 113 112 112 112 111 110 110 109 109 108 107 106 105 103 102 102 101 100 99 98 97 96 95 95 93 92 91 90 89 88 87 87 86 84 83 82 80 79 78 78 80 82 85 88 93 97 101 107 113 120 127 133 138 142 144 146 147 148 148 149 151 151 152 152 152 152 151 150 151 151 150 150 149 150 151 152 153 154 153 152 153 154 154 153 153 153 153 153 153 153 153 153 153 153 153 152 151 149 148 147 146 137 115 80 48 30 22 22 22 21 21 21 24 29 42 65 92 117 133 142 146 147 148 151 152 152 151 151 152 152 150 149 148 148 147 146 144 142 140 135 125 105 77 50 29 18 13 12 12 10 8 8 8 8 6 5 5 6 5 4 4 5 5 4 4 4 4 4 3 3 4 3 3 4 3 3 3 3 3 3 3 3 3 3 3 3 3 2 2 2 3 2 1 2 3 2 2 2 2 2 2 2 1 1 2 2 1 1 1 2 2 2 1 1 1 1 0 1 2 2 1 1 1 2 2 2 1 1 1 0 1 1 1 1 1 1 1 1 1 1 1 1 1 1 0 1 1 1 2 1 1 0 1 1 0 1 1 1 1 0 0 1 1 1 1 0 1 2 2 2 1 1 0 1 1 0 1 2 1 1 1 1 1 0 1 0 0 1 0 1 1 1 1 1 0 2 1 1 0 1 0 1 1 1 1 1 1 2 1 1 1 1 1 0 1 2 0 1 0 0 1 0 1 1 1 2 1 2 0 0 0 1 0 1 0 2 1 2 0 2 1 1 
0 4 -2 2 1 2 0 1 0 1 1 2 0 1 1 0 0 1 1 2 0 1 0 1 1 0 2 1 1 1 0 1 0 0 0 1 1 2 1 0 1 1 1 1 1 0 1 0 1 1 2 1 1 1 1 1 0 1 -1 0 0 1 1 0 1 1 1 1 1 1 2 1 1 0 0 0 0 2 1 1 0 0 1 1 1 1 1 1 1 2 1 1 1 1 1 1 1 1 1 0 0 1 1 1 2 1 1 1 1 1 1 1 1 1 1 1 2 2 1 1 1 1 1 1 2 1 1 1 2 2 1 1 1 2 2 2 1 1 1 1 1 1 1 1 2 2 2 2 1 1 1 1 2 2 1 1 2 2 2 1 1 1 2 2 2 2 2 3 3 3 3 3 2 2 2 2 2 2 2 2 2 1 2 3 3 3 2 2 3 4 4 3 2 3 3 3 4 4 4 4 5 5 5 4 4 4 4 5 5 5 5 5 6 6 6 6 6 7 8 7 8 9 10 11 12 13 15 19 26 38 53 66 78 88 94 99 104 108 110 113 114 116 118 119 121 123 124 125 127 129 130 131 131 132 133 133 134 135 136 136 136 137 137 138 139 139 139 139 138 137 136 136 135 134 133 132 131 131 129 128 128 127 126 125 125 123 122 121 120 119 118 118 117 116 116 115 114 114 113 112 111 111 110 109 109 108 108 106 105 104 104 102 101 100 100 100 98 97 96 95 94 93 92 91 90 89 88 87 86 86 84 83 82 81 80 80 81 84 88 94 99 104 110 115 120 124 128 132 136 139 141 143 144 144 145 145 146 147 148 149 150 150 151 151 150 150 150 150 150 150 150 150 151 152 153 153 153 154 154 153 153 153 153 152 151 151 151 151 151 151 152 152 152 152 151 150 148 148 146 138 116 82 50 31 22 20 20 18 19 21 22 24 32 49 75 101 123 137 144 145 147 150 151 150 151 151 151 151 149 149 149 147 145 144 143 142 138 129 113 87 58 35 21 15 13 13 11 10 8 8 8 7 6 6 5 4 5 5 4 4 4 4 4 4 4 3 3 3 4 4 4 3 3 3 3 3 3 3 3 2 2 2 2 3 3 3 2 2 2 3 2 2 2 2 2 2 2 2 2 2 1 1 1 2 1 1 1 2 2 2 2 1 1 1 1 1 1 1 1 1 2 2 1 1 1 2 1 1 1 1 1 2 1 1 1 1 1 1 1 0 0 2 1 2 2 1 1 1 2 1 1 0 0 1 1 1 1 1 0 0 1 1 1 1 1 2 2 2 1 1 0 1 1 0 1 1 0 1 1 0 1 0 1 0 0 1 1 2 1 0 0 1 0 1 1 1 0 0 0 1 1 1 1 0 1 1 1 0 1 1 1 1 1 2 0 1 0 1 1 0 0 1 1 1 0 1 0 0 1 1 1 0 0 1 0 2 -1 4 -3 3 
2 -2 3 0 2 0 1 0 0 1 2 1 0 0 1 0 1 1 1 0 0 0 1 0 0 0 2 0 1 1 1 1 1 0 1 1 1 1 1 0 1 0 1 1 1 0 1 1 1 0 0 1 2 1 0 1 0 0 0 1 1 0 1 1 1 1 1 1 1 1 2 1 0 0 1 0 0 2 1 1 1 1 1 1 1 1 2 1 1 2 1 1 1 1 0 1 2 0 1 1 1 1 1 1 1 0 0 0 1 2 1 1 1 1 1 1 1 1 2 1 1 1 1 1 1 1 2 1 0 1 1 2 2 1 1 1 1 1 1 1 1 1 2 2 2 1 1 2 2 2 1 1 2 2 2 2 2 2 2 2 2 1 1 1 1 2 3 3 2 2 3 3 3 3 3 2 1 1 2 2 2 2 2 3 3 3 2 2 4 4 3 2 2 2 2 3 3 3 4 5 5 5 5 4 4 4 4 4 4 5 5 6 6 5 5 6 6 6 7 6 7 8 9 10 11 11 12 14 18 26 36 48 62 74 83 90 96 101 105 109 110 113 115 116 118 119 121 123 125 127 128 129 129 130 131 131 132 134 135 135 135 135 136 137 137 138 138 138 137 137 136 136 136 135 133 132 131 130 130 128 127 126 125 124 123 122 121 120 119 119 117 116 115 115 115 114 113 112 111 110 109 109 109 108 107 107 106 105 104 104 103 101 100 100 99 98 97 96 95 94 93 93 91 90 89 88 87 87 86 85 83 82 81 82 82 85 89 95 104 112 117 122 126 130 133 135 137 140 141 141 143 143 142 143 143 143 143 144 145 146 147 147 148 148 149 148 149 149 149 150 151 151 152 153 154 153 153 152 153 153 152 151 151 151 150 150 151 151 150 150 150 151 151 151 150 149 148 148 147 140 121 87 53 32 23 21 21 20 19 19 20 20 25 37 58 85 111 130 141 145 146 148 149 150 151 150 150 149 148 148 148 147 144 142 142 139 133 119 97 68 42 24 16 13 13 12 11 9 7 8 8 7 6 6 6 5 5 5 4 4 4 4 5 4 4 3 4 4 4 3 3 3 3 3 3 3 3 3 2 2 2 2 2 2 2 2 2 2 3 2 1 1 2 2 3 2 2 2 2 2 2 2 1 2 2 1 1 2 2 1 1 1 2 2 1 1 1 1 1 0 1 2 1 1 1 2 1 1 1 1 2 1 2 2 1 2 1 0 1 1 1 2 1 2 2 1 2 1 0 0 1 1 1 1 0 0 0 1 0 0 1 1 1 0 1 2 2 2 1 0 0 1 1 0 0 1 0 0 0 1 1 1 1 0 1 1 2 2 1 1 1 1 0 1 0 1 1 1 1 1 1 1 1 0 1 0 1 1 1 0 1 1 1 2 1 0 0 0 1 0 1 1 1 1 1 1 0 0 2 1 1 0 1 1 1 1 1 -1 3 -1 
1 1 0 1 2 1 0 1 0 1 1 1 1 1 1 0 1 1 1 1 0 0 1 0 0 0 1 0 1 1 1 2 1 0 0 1 1 2 1 0 1 1 1 0 0 1 1 1 0 1 0 0 1 2 1 1 0 0 0 1 2 1 1 0 1 1 1 1 0 0 1 1 1 1 1 1 1 2 1 1 0 1 1 1 2 1 2 1 0 0 1 1 1 1 1 1 1 1 2 1 0 1 1 0 1 0 1 1 1 1 1 1 1 1 0 1 2 2 2 1 1 1 1 1 1 1 1 1 1 1 1 1 2 2 2 1 1 1 1 1 1 1 1 1 1 2 1 2 2 2 2 1 2 2 2 2 2 2 2 2 1 1 1 1 1 1 2 2 2 2 2 2 2 2 2 2 2 2 2 3 3 2 2 3 4 3 2 1 3 3 3 2 2 2 3 4 4 3 4 4 4 4 4 3 3 3 3 3 4 5 5 5 6 6 6 6 5 6 7 8 8 7 8 9 10 10 11 12 14 19 26 34 45 58 68 78 87 93 98 103 106 110 111 112 114 117 119 120 121 123 125 126 127 128 129 130 131 132 133 134 134 134 134 135 136 137 137 137 136 137 137 137 136 134 132 132 131 130 129 128 127 125 124 123 122 121 121 119 118 117 116 115 114 113 113 113 112 111 111 110 109 109 108 107 106 105 104 103 103 102 101 100 99 98 97 96 96 95 94 93 92 92 90 89 88 88 86 85 84 83 83 82 84 86 90 96 103 111 119 126 130 133 136 138 140 141 142 142 143 143 143 143 143 143 143 143 143 142 143 144 144 145 146 146 146 147 147 148 149 150 151 151 152 152 152 152 152 152 152 152 151 151 151 150 149 149 149 148 148 149 149 149 149 149 149 148 147 147 147 141 124 93 57 34 23 20 20 20 19 19 19 19 20 27 43 70 99 122 137 144 146 146 148 150 151 149 148 148 148 147 146 144 143 142 141 136 124 104 77 49 29 19 14 12 11 10 8 7 7 7 7 7 7 6 5 4 5 5 5 5 4 3 4 4 4 4 3 3 3 3 3 3 3 3 3 3 3 3 3 3 2 2 2 3 2 2 2 2 2 2 2 2 2 2 3 2 1 2 2 2 1 1 1 2 2 1 1 1 1 1 1 1 2 2 1 1 1 1 1 1 1 2 1 1 1 1 2 1 1 1 2 1 1 1 0 1 1 1 2 1 2 2 1 2 1 0 1 1 1 1 1 0 1 1 1 1 0 1 1 1 2 1 1 1 2 2 1 2 1 1 1 1 1 1 1 1 1 1 0 0 1 1 2 1 1 1 1 2 1 1 1 0 0 1 1 2 1 1 1 1 1 1 1 0 0 0 1 1 1 0 1 1 1 1 1 0 0 0 1 2 1 1 1 1 1 0 0 1 1 1 1 0 0 1 0 1 0 0 0 1 
0 3 0 3 0 2 -1 1 0 2 0 2 1 1 0 0 0 1 1 1 1 1 1 1 1 0 1 1 1 1 0 1 2 1 1 1 0 2 1 0 1 1 1 1 1 0 1 2 1 0 0 0 1 1 1 2 0 0 1 2 1 0 0 1 0 1 1 0 0 0 0 1 1 1 1 1 1 2 1 1 0 1 1 0 1 0 1 1 1 1 1 1 1 1 1 1 1 1 1 1 1 2 1 1 1 0 1 1 0 1 1 1 1 1 1 1 1 1 1 1 1 1 0 0 1 1 1 1 1 2 2 2 1 1 1 1 1 1 1 2 2 2 2 1 1 1 1 2 1 1 2 2 1 1 2 2 2 2 2 2 2 2 2 1 1 1 1 2 2 2 2 2 1 2 2 2 2 2 2 2 2 2 2 2 3 3 2 2 2 3 3 2 2 2 3 4 4 3 4 4 3 3 3 4 4 4 4 4 4 4 5 6 5 5 6 6 6 6 6 7 7 7 7 8 9 10 11 11 11 13 17 23 31 41 52 64 73 81 89 95 100 104 106 108 111 113 115 117 118 119 121 122 124 126 127 128 130 131 132 132 133 133 134 135 135 135 135 135 135 136 136 136 135 133 132 131 130 129 128 126 126 125 123 122 121 119 119 118 117 116 114 114 113 113 113 112 111 110 110 109 108 108 107 106 104 103 103 103 102 101 100 99 98 97 97 96 95 93 92 91 91 90 88 88 87 86 85 84 83 82 83 87 92 97 103 111 119 126 133 137 140 142 142 143 144 144 144 144 144 144 144 143 143 143 143 142 142 141 142 142 142 143 143 143 144 144 145 147 149 150 152 152 152 152 152 152 152 151 151 151 150 150 150 149 148 148 148 148 147 148 148 148 148 148 149 149 147 146 146 142 129 101 66 39 24 19 19 19 18 18 18 18 19 22 33 54 84 113 133 142 145 145 146 149 149 148 147 148 148 147 145 143 142 140 138 128 110 85 58 35 21 15 12 12 11 9 7 6 7 8 7 6 6 6 6 5 5 5 5 5 4 4 4 4 4 3 4 4 3 3 3 3 3 2 3 3 3 3 3 2 2 2 2 2 2 2 2 3 3 2 1 1 2 2 2 2 2 2 2 2 2 2 1 1 1 1 1 2 2 1 0 1 2 1 1 1 1 1 2 2 1 1 1 2 1 1 1 1 1 1 1 1 1 1 1 2 2 1 1 1 2 2 1 2 1 0 0 0 1 1 1 1 2 1 0 2 1 2 1 1 2 1 1 1 1 1 1 2 1 0 0 0 0 1 1 1 1 1 0 1 1 2 1 1 1 1 1 2 1 1 1 0 1 1 1 1 1 0 -1 0 1 1 1 0 1 1 1 1 1 1 0 1 1 1 1 1 0 1 1 2 2 1 0 1 1 1 0 1 0 1 0 1 1 1 -1 3 0 2 0 2 
2 -1 3 1 2 0 1 0 0 0 1 1 0 0 1 0 0 1 1 1 0 1 1 1 1 1 1 1 0 1 1 1 1 1 1 1 0 1 1 1 1 0 0 0 0 1 2 2 1 1 1 1 1 2 1 2 1 0 2 1 1 0 1 1 0 0 1 0 0 0 0 1 1 1 1 0 1 1 2 1 1 1 2 1 1 0 1 2 1 1 1 1 1 1 1 0 0 1 1 2 1 1 1 1 2 1 1 1 1 1 1 0 1 1 1 1 2 1 1 2 1 1 1 1 1 1 1 1 1 1 1 1 1 1 1 2 1 1 1 1 1 2 2 1 2 2 2 2 2 2 2 2 2 2 2 1 1 1 2 2 2 2 2 2 2 1 2 2 1 1 2 2 1 1 2 2 3 2 3 2 2 1 1 2 3 3 2 2 3 3 3 3 3 2 2 2 3 3 4 4 4 3 3 3 4 4 4 4 3 4 5 5 5 5 6 5 5 6 6 7 7 7 8 7 8 9 10 9 9 11 13 16 20 27 36 48 58 68 78 85 93 98 101 104 106 109 111 113 114 116 118 120 122 123 125 126 127 128 129 130 131 132 132 133 133 134 134 134 134 134 134 134 133 132 131 130 129 128 127 126 125 124 123 121 120 119 118 117 115 114 114 113 113 112 112 111 110 109 109 108 108 107 105 104 103 102 101 101 100 100 99 97 96 96 95 94 93 93 92 91 89 88 88 87 86 85 84 83 83 84 88 95 104 112 119 126 131 136 140 143 145 146 146 145 145 145 145 145 145 145 145 145 144 144 144 143 142 141 140 140 140 141 140 140 141 142 145 148 150 151 152 152 152 152 152 152 151 150 150 150 149 149 148 148 147 147 147 146 146 146 147 147 148 148 148 148 146 146 146 144 133 110 76 46 27 19 18 19 18 17 17 18 18 20 26 42 70 102 126 139 143 145 147 149 149 148 146 146 147 145 143 142 141 139 132 117 94 66 41 24 16 14 13 12 10 8 7 7 6 6 6 6 5 5 5 5 5 4 5 5 4 4 4 4 4 3 2 3 3 3 3 3 3 3 3 3 3 2 2 3 3 2 2 2 2 2 2 2 3 2 1 1 2 3 3 2 2 2 2 1 2 2 1 1 1 2 2 2 2 2 1 1 1 2 2 2 1 1 1 1 1 2 2 1 1 1 1 1 1 1 1 1 2 1 1 1 1 1 2 2 1 1 1 0 0 1 1 0 0 0 1 1 2 1 1 2 1 1 1 1 2 1 1 1 1 1 1 1 1 0 1 1 0 0 1 0 1 1 0 1 1 2 1 1 1 0 1 1 1 0 0 0 0 1 1 1 1 0 0 1 1 1 1 0 1 1 1 1 1 0 1 1 1 1 1 1 0 1 1 1 1 1 1 1 1 1 0 1 1 1 2 1 1 0 1 0 2 0 4 1 
1 1 2 1 1 1 1 0 1 1 1 0 2 1 0 0 1 1 0 1 0 1 1 0 1 0 1 2 1 1 0 1 2 0 1 1 1 1 1 1 1 0 0 0 0 -1 1 1 1 1 1 1 1 1 0 1 1 0 2 1 1 0 1 2 1 1 1 1 0 0 1 0 0 1 1 1 1 2 2 1 1 1 1 1 1 0 0 1 1 1 1 1 1 1 1 0 1 1 1 1 1 1 1 1 1 1 1 1 1 1 1 0 1 0 1 1 1 1 1 1 1 1 1 1 1 2 1 1 1 1 1 1 1 1 1 2 2 1 1 1 2 2 1 1 1 2 2 1 1 1 2 2 2 2 1 1 1 2 2 2 2 1 2 2 2 1 1 1 1 2 2 2 2 1 2 3 3 2 2 2 3 2 0 0 2 3 3 3 3 2 3 3 3 3 3 3 3 4 5 4 3 3 3 4 4 4 4 5 4 3 4 5 5 5 5 5 5 5 5 6 5 6 7 7 7 8 9 9 9 10 11 13 15 18 25 33 42 53 63 72 82 88 93 98 101 104 107 108 110 111 114 117 119 120 121 122 124 125 126 128 128 129 130 131 132 133 133 133 134 134 133 133 132 132 130 130 129 128 126 125 125 123 122 121 120 118 117 116 115 113 112 112 111 111 110 110 109 107 106 106 106 105 104 103 102 102 102 101 100 99 97 95 95 95 94 92 92 91 90 89 88 87 87 86 84 84 83 83 85 91 99 109 119 127 133 137 140 144 146 147 147 147 147 147 147 147 146 146 146 146 145 145 144 144 143 143 142 141 141 140 140 140 141 141 141 143 146 149 151 152 152 152 152 152 152 151 150 150 149 148 147 146 145 145 145 145 144 143 143 143 144 144 144 145 146 147 147 146 146 145 137 118 87 54 31 21 19 19 18 17 18 18 20 20 24 35 58 90 118 136 143 144 145 147 148 148 148 147 146 144 141 141 140 134 122 101 73 47 28 18 13 13 12 11 9 8 7 7 7 7 6 5 6 5 5 5 4 4 5 5 4 3 3 4 4 3 2 2 2 3 3 3 2 2 2 3 2 2 2 2 3 3 3 2 1 1 2 3 2 2 1 1 2 2 2 2 2 2 2 1 2 2 2 2 1 1 2 3 3 2 2 2 2 1 1 1 2 1 1 1 1 1 2 2 2 1 1 1 1 1 2 2 2 2 1 2 2 1 1 1 1 0 0 1 1 1 0 0 1 1 2 2 2 1 1 2 1 1 1 1 1 1 1 1 1 0 0 1 1 1 0 1 1 0 1 1 2 1 2 2 1 2 1 1 1 0 1 1 1 1 1 0 1 2 1 1 1 0 1 1 0 0 1 1 1 1 0 1 1 0 1 1 1 0 0 1 0 0 1 1 2 0 1 0 1 1 0 1 1 0 1 0 1 -1 0 0 2 1 1 1 
1 1 1 1 1 0 0 0 0 2 1 0 0 0 1 1 -1 1 0 1 0 1 1 0 1 0 0 1 1 1 0 1 2 0 1 0 0 1 1 0 0 0 0 0 1 0 1 1 1 1 1 2 1 1 0 1 1 1 1 0 1 1 1 1 1 1 1 1 1 0 1 0 0 1 1 1 1 1 2 1 1 1 1 1 1 0 0 1 1 2 1 1 1 1 2 0 1 1 1 1 0 0 1 1 1 1 2 2 1 1 1 1 1 1 2 2 1 2 1 1 1 1 1 2 2 1 1 1 2 1 1 1 1 1 1 1 1 1 1 1 1 2 1 2 2 2 1 1 1 1 2 2 2 2 2 1 1 1 2 2 2 2 2 2 1 1 2 2 1 1 1 2 2 2 2 3 2 2 2 2 3 3 2 1 2 2 2 3 3 2 3 3 4 3 3 2 3 4 4 5 4 4 3 3 3 3 4 4 4 5 5 4 4 5 5 5 5 5 6 6 6 5 6 6 7 7 8 9 9 9 10 11 12 13 17 22 29 38 48 58 68 76 84 90 94 98 101 103 105 107 109 112 114 116 117 119 121 123 124 126 126 127 128 130 130 131 132 132 132 132 132 132 132 131 130 129 128 127 126 124 123 123 121 120 118 117 116 115 114 112 111 110 110 109 108 107 107 106 105 105 103 102 101 101 101 100 99 99 98 97 95 94 93 93 92 90 90 89 89 88 86 85 85 84 83 81 82 85 91 101 112 123 132 137 141 143 145 146 147 147 147 147 147 148 147 147 147 147 146 146 146 145 145 145 144 144 144 143 142 141 140 140 141 142 143 145 147 149 151 151 151 151 151 150 150 150 149 148 147 146 145 144 143 143 143 142 141 141 141 141 141 142 142 143 144 145 145 145 145 146 141 126 99 65 38 23 18 19 18 17 17 18 19 20 22 29 48 79 111 132 142 144 145 147 148 148 147 145 144 142 141 140 137 127 108 82 54 33 20 14 12 11 11 9 8 8 8 7 7 7 6 6 5 5 5 5 5 4 4 4 4 4 4 4 4 3 3 3 3 3 3 3 2 3 3 2 2 2 2 2 2 2 3 3 2 2 3 3 2 2 2 1 2 2 2 2 2 2 2 1 1 2 2 2 1 1 2 2 2 1 1 2 1 1 2 2 2 1 1 2 1 1 1 1 2 2 1 1 1 2 2 2 2 2 1 1 1 2 1 1 2 1 1 1 1 2 1 0 1 1 2 1 1 1 1 1 1 1 1 1 1 1 0 0 0 0 1 1 1 1 1 1 1 1 1 1 1 1 1 1 1 2 1 1 1 0 1 1 2 1 0 0 1 1 0 1 2 1 1 1 1 1 1 0 1 1 0 1 0 1 2 0 1 1 0 0 0 2 1 0 1 1 1 1 0 1 1 1 0 1 1 1 0 0 0 0 2 2 1 1 
1 1 1 1 0 0 0 1 0 1 1 0 1 1 0 1 0 1 -1 0 0 1 0 0 1 0 1 1 1 2 1 0 1 0 1 1 0 1 1 1 0 0 0 1 0 0 0 1 2 2 0 1 1 1 1 1 0 1 1 1 0 1 1 1 0 0 1 1 1 0 1 0 0 1 0 1 0 0 1 1 1 1 1 2 1 1 1 1 2 2 1 1 1 2 2 1 2 1 0 1 1 1 1 1 1 1 1 2 1 1 1 1 1 1 2 2 1 2 1 1 2 1 1 1 2 2 2 1 1 1 2 2 1 1 1 1 2 2 1 1 1 1 1 2 2 2 2 2 2 2 2 1 2 2 2 1 1 1 1 1 1 1 2 2 2 2 2 2 2 2 2 2 2 2 3 2 1 1 2 3 3 3 2 1 2 2 2 3 3 2 2 3 4 4 3 3 3 3 4 3 3 3 4 3 3 3 4 3 3 4 5 5 5 6 5 5 5 5 6 6 5 5 6 6 6 6 7 8 8 10 10 11 10 11 13 15 19 26 32 42 52 62 71 80 86 91 95 97 100 102 105 107 110 112 114 116 117 120 122 122 123 125 126 128 128 129 130 131 131 131 131 132 131 130 129 128 126 125 124 123 122 121 120 118 117 116 115 114 113 112 110 109 108 108 107 107 106 105 104 103 103 102 100 100 100 99 98 97 96 95 94 93 92 91 90 89 88 87 87 85 84 84 83 82 81 80 83 89 100 113 125 134 141 144 146 147 147 147 147 148 149 148 148 149 148 147 147 146 146 146 146 146 146 146 145 144 144 144 143 142 142 142 143 145 147 149 150 151 152 152 151 151 151 150 149 149 148 147 146 144 143 143 142 142 141 140 139 138 138 137 136 138 139 140 142 144 145 143 143 145 143 134 112 80 49 29 20 18 19 18 18 18 19 20 20 25 41 70 103 127 140 143 143 145 147 147 146 145 144 143 140 137 130 115 91 63 39 23 16 13 13 11 10 9 8 8 8 7 6 7 6 6 5 5 5 5 4 4 5 4 4 3 3 3 3 2 2 3 3 3 3 3 2 2 3 3 2 2 2 3 3 3 2 2 3 3 2 2 2 2 2 2 2 1 1 2 3 2 2 2 1 2 2 2 1 1 2 2 1 1 1 2 1 1 1 1 2 2 2 2 2 1 2 2 2 2 1 1 1 2 1 2 1 1 1 1 1 1 1 2 2 1 1 2 1 1 1 1 1 1 1 1 1 1 1 1 1 1 1 2 1 1 0 1 0 -1 0 1 1 1 0 1 1 1 1 1 1 1 1 1 1 1 1 2 1 1 1 1 1 1 1 1 1 1 1 1 1 1 1 1 0 1 1 0 1 1 -1 0 0 0 1 0 1 1 0 1 0 1 0 1 2 1 0 0 1 1 1 1 0 1 1 1 1 1 0 1 1 2 1 1 
2 0 1 1 2 0 0 1 1 1 1 0 1 1 1 1 0 0 1 1 1 1 1 1 1 0 1 1 1 1 0 0 1 1 1 1 1 1 1 1 1 0 1 1 0 0 0 0 1 2 1 2 1 0 1 0 1 1 0 1 0 1 1 1 1 0 0 1 1 1 1 0 1 1 0 0 1 1 1 0 1 1 1 1 1 1 1 1 1 1 1 1 1 2 1 1 1 1 1 1 1 1 1 1 1 2 2 1 1 1 1 1 2 1 1 1 1 2 1 1 1 1 2 2 1 1 1 1 2 1 1 1 1 1 1 1 1 1 1 2 1 1 1 2 2 2 1 1 1 2 2 2 2 1 1 1 1 1 1 1 2 2 2 2 2 1 2 3 3 2 2 2 2 2 2 2 2 2 2 2 3 3 3 3 2 2 2 3 3 2 2 2 3 3 3 3 3 4 4 4 3 3 3 3 3 3 4 4 4 5 4 4 4 5 5 5 5 4 5 6 6 6 6 6 6 7 7 7 8 9 9 9 10 10 10 11 14 18 23 29 37 47 58 67 75 82 87 91 95 97 99 102 104 107 110 113 115 117 118 119 121 122 124 126 127 128 129 130 130 130 131 130 129 128 128 127 126 124 123 122 121 120 119 117 116 115 113 112 112 111 109 107 107 106 105 105 104 103 102 101 100 99 99 98 98 97 96 95 95 94 92 91 91 90 89 88 87 86 85 84 83 82 82 81 81 83 90 101 113 126 136 142 145 147 148 148 147 148 149 149 149 149 149 149 149 147 147 147 147 148 147 147 146 146 146 145 144 144 143 143 143 144 145 147 149 150 151 151 151 150 150 149 149 148 147 147 146 145 144 143 142 141 140 139 139 137 136 135 135 133 133 135 136 137 139 141 142 142 142 143 144 138 122 95 64 38 23 18 18 18 18 18 18 18 19 22 35 62 97 124 139 143 143 144 146 146 145 144 143 141 138 132 120 98 71 45 27 18 14 12 11 10 10 9 8 8 7 6 6 6 6 6 5 4 4 4 5 5 4 4 4 3 3 3 3 3 3 3 3 3 3 3 3 3 3 2 2 2 2 3 3 2 2 2 2 3 3 2 1 2 2 2 2 2 2 2 2 1 1 2 2 2 2 1 1 2 2 1 1 1 1 2 2 1 2 2 2 1 2 2 2 1 1 1 2 2 1 1 1 1 1 1 1 1 1 1 1 1 2 2 2 1 1 2 1 1 1 0 1 1 1 0 0 1 1 1 1 1 1 2 1 1 0 0 0 0 1 2 2 1 0 1 2 1 1 1 1 1 1 1 1 0 1 1 1 1 1 2 1 0 1 1 1 1 0 0 1 1 1 1 0 1 2 1 0 0 0 1 1 1 1 0 1 1 0 0 0 1 1 1 0 0 1 0 0 0 1 1 0 1 1 1 1 0 1 0 0 1 2 0 
-1 1 0 0 1 2 0 1 1 1 1 0 1 1 1 1 0 -1 1 0 1 2 1 1 1 0 2 2 1 1 0 1 1 0 1 1 1 1 0 0 1 0 1 1 0 1 0 0 1 1 1 1 1 1 2 0 1 2 1 2 1 1 1 0 0 0 1 2 1 1 1 1 1 0 0 0 1 1 1 1 2 2 2 1 1 1 1 0 1 0 1 1 1 1 1 1 1 0 1 1 0 1 1 1 1 2 2 1 1 1 1 1 1 1 1 1 0 1 1 1 1 1 2 1 1 1 1 1 2 1 2 2 1 1 1 1 1 1 1 1 1 1 1 1 1 1 1 1 2 2 2 1 1 1 1 1 1 2 2 2 2 2 2 2 2 2 2 3 3 2 1 1 2 2 2 2 2 2 2 2 3 3 3 3 2 1 2 3 3 2 2 2 2 3 4 3 4 3 2 2 2 2 3 3 3 3 4 3 3 4 4 4 4 4 4 4 4 5 5 5 6 6 6 7 7 6 6 7 7 9 9 8 9 10 9 9 11 13 16 20 26 35 44 52 61 70 76 82 87 90 93 96 99 102 104 107 110 112 113 115 118 120 122 123 124 125 126 127 128 129 129 129 128 127 126 126 125 123 121 120 120 119 117 116 114 113 112 111 110 109 107 106 106 104 103 103 102 102 101 100 99 99 98 97 97 95 94 94 93 92 91 90 89 88 88 87 86 84 83 83 82 81 80 80 83 90 100 113 126 136 143 146 147 147 148 150 149 149 149 150 150 150 149 149 149 148 148 147 147 148 148 147 147 147 146 146 146 145 145 145 146 146 147 149 150 151 151 151 151 150 149 148 148 147 146 145 144 142 141 140 139 138 137 135 134 133 132 131 130 128 128 129 131 131 134 136 138 140 140 140 142 141 131 110 80 50 29 19 18 19 19 19 19 19 19 22 33 57 92 121 136 143 144 144 145 146 145 144 141 138 133 122 104 78 52 30 19 14 13 12 11 9 8 8 8 8 8 6 6 6 6 5 5 4 4 4 4 4 3 4 4 4 3 3 3 4 3 3 3 3 3 3 3 3 3 2 2 2 3 3 2 2 3 3 2 2 2 2 1 1 2 3 2 2 1 1 2 2 2 2 1 1 2 1 1 2 2 2 2 1 1 2 2 2 1 1 1 2 2 1 1 1 1 1 2 2 1 0 1 1 2 1 1 1 1 1 1 1 2 1 2 1 1 2 2 1 1 1 1 1 1 1 1 1 1 1 1 1 1 1 1 1 1 0 0 0 1 1 1 1 1 0 1 1 1 1 0 1 1 1 2 0 1 1 0 2 1 1 1 0 1 1 1 0 1 0 1 1 0 1 1 1 2 1 0 0 0 1 1 1 1 0 0 2 1 1 1 1 2 1 0 0 1 1 1 1 1 1 1 1 0 1 1 1 0 1 0 2 0 1 
0 2 -2 2 1 1 1 1 1 1 2 0 1 1 1 1 1 0 1 0 1 2 0 0 1 0 1 1 1 1 -1 0 1 1 1 0 0 1 0 1 2 1 1 1 0 1 0 0 1 0 0 1 1 0 1 0 0 0 0 2 1 1 2 1 0 0 1 1 1 2 1 0 1 0 0 0 1 1 1 1 1 1 1 1 0 0 0 1 2 0 1 1 2 2 1 1 1 0 1 1 1 1 0 1 1 1 2 1 1 1 1 1 1 1 1 0 1 2 1 0 1 2 2 1 1 1 1 0 2 2 2 2 2 2 2 2 1 1 2 2 1 1 2 1 1 1 2 2 1 1 2 2 1 1 1 1 2 2 2 2 1 2 2 2 2 2 2 1 2 2 2 2 2 2 2 2 2 2 3 2 2 2 3 3 3 1 2 3 3 2 2 2 2 2 2 2 3 3 3 2 3 3 3 3 3 4 4 4 4 4 4 4 4 3 4 5 4 5 6 5 6 6 5 6 6 6 7 7 7 8 8 8 9 9 9 10 11 11 13 15 18 24 30 38 47 55 63 71 77 81 85 90 93 95 98 101 104 106 109 112 115 116 118 119 120 122 124 125 125 126 127 127 126 125 125 124 123 122 121 120 119 118 116 115 113 112 111 110 109 107 106 105 104 103 102 102 101 100 99 98 97 97 97 96 95 93 92 92 91 90 89 88 87 87 86 85 84 83 82 81 80 79 80 82 88 100 113 126 136 143 146 147 148 148 149 149 150 150 151 150 150 150 150 150 150 149 149 148 148 149 149 148 147 147 148 148 147 147 147 148 148 149 149 150 150 150 150 150 149 148 148 147 146 145 143 142 141 140 139 138 137 135 133 131 129 128 126 125 125 123 121 121 123 123 125 128 132 136 138 139 142 142 136 121 96 66 40 25 19 19 18 18 19 19 18 21 31 54 88 119 137 143 142 141 143 145 144 143 139 133 122 106 83 57 36 22 16 13 12 11 9 8 8 8 8 7 6 6 6 6 6 6 5 4 4 4 4 4 4 4 5 4 3 3 4 3 3 2 3 3 3 2 2 2 2 2 2 2 2 2 3 2 2 2 2 2 2 2 2 2 2 2 2 2 2 1 1 1 1 1 1 1 1 2 2 2 2 2 1 1 1 2 1 1 2 2 1 1 1 1 1 1 1 1 1 1 1 1 1 1 1 1 2 1 1 1 1 1 2 1 1 1 1 1 1 1 1 1 1 1 1 2 1 1 1 1 2 1 1 1 1 1 1 1 1 1 1 2 1 1 0 1 1 1 1 1 0 1 1 1 2 0 1 1 0 2 1 2 1 0 0 2 1 0 1 0 1 1 0 1 0 1 2 1 0 0 1 2 1 0 0 0 0 1 1 2 1 0 1 1 1 1 0 0 1 0 0 0 1 1 -1 1 1 0 0 0 0 2 -1 2 
2 -1 2 0 1 0 1 1 0 1 3 1 1 1 0 1 1 0 1 0 1 2 1 0 1 0 1 2 0 0 0 1 1 1 1 1 1 1 0 0 1 1 1 1 0 1 1 0 1 0 0 1 1 1 1 0 1 1 1 2 1 1 1 1 1 0 0 1 1 1 1 1 1 0 0 1 2 1 0 1 1 2 2 1 0 1 1 1 1 0 1 0 1 1 1 1 1 1 1 0 0 1 1 1 1 1 1 1 1 1 1 1 1 2 2 1 1 1 1 0 1 1 1 1 0 1 1 1 1 1 2 1 1 1 2 2 1 1 2 2 2 1 2 2 1 1 2 2 2 2 2 1 1 2 2 2 2 2 2 2 1 2 2 2 2 2 1 2 2 2 2 2 2 2 2 2 1 1 2 2 3 3 3 3 2 2 2 2 3 4 3 2 2 2 3 3 3 3 2 3 3 3 4 4 3 3 3 3 3 4 5 5 5 4 4 5 5 5 6 5 5 5 5 6 6 5 5 6 7 8 8 7 8 9 10 10 10 11 12 12 13 17 20 25 32 41 49 57 63 69 75 80 84 87 90 93 97 100 102 106 110 112 114 116 118 119 120 121 122 123 124 125 124 124 123 122 121 120 118 117 116 116 115 113 112 110 109 108 107 106 104 103 103 102 101 100 100 98 98 97 96 95 95 94 93 91 91 91 89 88 88 87 86 85 85 84 83 82 80 79 78 77 78 84 95 110 124 135 142 145 147 147 148 149 149 149 149 150 150 150 150 150 149 149 149 150 150 149 148 148 148 148 148 147 147 148 148 148 149 149 150 151 151 150 150 150 150 149 148 147 146 145 145 143 142 140 139 137 136 135 133 131 128 126 124 123 121 119 117 115 113 112 112 112 114 117 123 129 133 135 139 142 141 131 113 85 57 35 24 20 18 18 19 19 17 20 32 55 89 119 136 142 142 141 142 143 144 141 134 121 104 83 61 41 25 16 13 12 11 10 8 7 7 8 8 7 6 6 6 6 7 6 5 4 4 4 4 3 4 4 4 3 3 3 3 3 3 3 3 3 3 3 3 2 2 2 3 3 3 2 2 2 2 2 1 1 2 2 2 2 2 2 2 2 2 1 1 1 2 2 2 1 1 2 2 1 1 2 1 0 0 1 2 2 1 1 1 1 1 1 0 1 1 1 1 2 2 1 0 1 1 1 2 1 1 1 1 1 1 1 1 1 0 1 2 2 1 1 1 2 2 2 1 1 1 0 2 2 1 0 1 1 1 2 1 1 1 1 1 1 0 0 0 0 1 1 1 1 1 1 2 1 1 1 -1 1 1 1 1 0 1 2 1 1 1 1 1 1 0 1 0 0 1 1 1 1 1 1 1 1 1 -1 0 1 1 2 1 1 2 1 1 1 1 0 0 -1 0 1 0 1 1 0 0 0 2 1 2 0 3 0 
0 1 0 1 2 1 0 0 0 1 1 1 1 0 0 1 0 0 1 1 1 1 1 0 1 1 1 1 1 1 1 0 1 1 1 2 1 0 1 1 1 1 1 1 0 1 1 1 1 0 0 1 1 1 1 1 1 0 0 1 0 1 0 0 1 1 0 1 1 1 2 1 0 0 1 1 1 1 1 0 0 1 2 2 1 1 1 1 1 0 1 0 0 1 1 1 1 1 1 0 1 2 1 1 1 2 1 1 1 1 1 1 1 2 2 1 1 1 1 1 1 1 1 1 0 1 2 1 1 1 2 1 1 1 0 1 1 1 1 1 1 1 1 1 1 1 1 2 1 1 1 2 2 2 1 1 2 2 2 2 1 2 2 2 2 2 2 2 2 2 1 2 2 2 2 2 2 1 2 3 3 2 2 3 3 2 2 2 3 3 3 3 2 2 2 2 2 3 3 3 3 3 4 3 3 3 3 3 3 3 3 4 5 5 4 5 4 3 4 5 6 5 4 5 5 5 6 6 6 7 7 7 8 8 8 9 10 10 10 10 11 13 15 17 22 28 35 43 50 56 62 68 74 79 83 86 89 93 97 100 104 107 109 112 115 116 118 119 120 120 121 122 122 121 122 121 120 118 117 115 115 114 113 111 109 108 107 105 103 103 102 102 101 100 99 99 98 96 96 95 94 93 92 92 91 90 89 89 88 87 86 84 84 84 83 81 80 80 79 78 77 77 80 89 104 120 133 141 145 147 147 148 149 149 149 148 148 149 150 150 150 150 150 150 149 149 150 149 149 148 148 148 149 149 149 149 149 149 150 151 151 151 151 150 151 150 150 149 148 145 144 144 143 141 139 138 136 134 133 131 128 126 124 121 118 115 113 110 107 104 102 99 98 97 98 100 106 115 123 129 134 139 140 137 126 105 78 53 34 24 20 18 19 19 18 22 35 60 94 121 136 141 142 141 142 144 144 138 125 105 83 60 41 27 18 14 13 12 11 9 8 8 8 7 7 6 6 5 6 6 6 5 4 4 4 5 4 3 4 4 4 3 2 3 4 3 2 2 3 3 3 4 3 3 2 2 2 3 3 2 2 1 2 2 2 2 2 2 2 2 2 2 2 2 2 2 2 2 2 2 2 2 1 2 2 1 1 1 1 1 2 1 1 1 1 1 1 1 1 1 1 1 1 1 1 1 2 1 1 1 0 1 2 2 1 0 1 1 1 1 1 2 2 1 1 1 1 1 1 1 1 1 1 1 1 0 1 2 2 1 1 1 1 1 1 1 1 0 0 1 0 1 2 1 1 2 1 1 1 1 1 1 1 1 0 0 0 1 1 1 0 1 1 2 1 0 1 1 0 0 1 1 0 1 1 0 1 2 1 0 0 -1 1 1 1 1 1 1 1 1 1 1 0 1 1 -1 -1 0 1 0 0 0 1 1 0 0 1 1 1 1 
0 2 1 0 2 0 1 0 0 1 1 1 1 0 0 1 1 1 0 1 1 0 1 0 1 1 1 1 0 1 1 0 1 1 1 1 1 1 1 1 1 2 1 0 0 1 1 0 1 1 0 1 0 1 0 1 1 0 1 0 1 1 0 0 1 1 -1 1 1 1 2 1 1 0 0 1 3 1 0 0 0 2 2 2 1 1 1 1 1 1 1 1 1 1 1 1 1 1 0 1 1 1 1 2 1 1 1 1 1 1 1 2 2 2 1 1 1 1 1 1 1 1 1 1 1 1 2 2 1 1 0 0 1 1 1 1 1 1 1 1 1 1 1 1 1 1 1 1 1 1 2 2 2 2 2 2 3 3 2 1 2 2 3 2 1 1 1 1 2 2 3 2 1 2 2 2 1 2 2 2 2 2 2 2 3 2 1 2 2 3 3 3 3 3 2 1 2 3 2 3 3 3 3 3 3 3 3 3 3 3 3 4 4 4 4 4 2 2 3 4 4 5 4 5 6 6 6 6 6 7 6 6 6 7 7 8 8 9 9 10 10 10 11 12 15 20 24 29 35 42 48 55 61 67 72 77 80 85 89 93 97 101 105 108 110 112 113 115 117 117 117 118 119 119 119 118 117 116 115 113 113 112 111 109 108 106 105 103 102 101 100 99 98 97 97 95 94 94 94 93 92 91 90 90 90 89 88 87 86 85 84 83 83 82 80 79 78 77 77 76 75 76 82 95 112 128 138 144 146 147 148 148 150 150 150 150 150 151 151 150 150 150 151 151 150 150 150 150 150 149 150 150 149 149 150 150 150 150 151 151 151 151 150 149 148 148 147 147 145 144 142 141 140 139 138 135 133 131 129 127 124 122 118 114 110 107 104 100 95 92 89 85 81 79 78 79 85 96 107 116 125 132 137 138 134 121 100 76 54 39 29 25 23 23 24 30 44 70 101 125 136 141 141 140 142 143 142 133 114 87 61 41 27 19 15 13 12 11 10 9 8 8 7 7 6 7 6 5 6 6 6 5 4 4 4 5 5 4 3 3 3 3 3 3 3 2 2 3 4 4 3 2 3 3 2 2 2 2 3 3 3 2 2 2 2 2 2 2 3 3 2 2 1 2 2 2 1 2 2 2 2 2 2 1 1 1 1 1 1 1 1 1 2 1 1 1 1 1 1 2 2 2 1 1 1 2 2 1 1 0 0 1 1 1 1 1 1 1 1 2 2 1 1 1 1 1 1 1 1 1 1 1 1 0 0 1 1 1 1 1 0 1 1 2 1 0 1 1 1 1 0 1 1 0 2 2 1 1 1 1 1 2 1 1 1 0 1 1 1 0 1 2 1 1 1 1 1 1 1 1 0 0 0 1 1 2 2 1 0 1 0 -1 0 0 0 1 2 2 0 1 2 1 0 0 1 0 0 1 1 1 1 -1 2 1 1 1 2 0 0 1 
1 0 2 1 1 -1 1 1 -1 1 2 1 0 0 1 0 0 1 1 1 1 -1 0 0 0 0 0 2 1 1 1 2 0 0 1 0 0 0 1 1 1 2 1 0 0 1 0 1 1 0 1 1 0 1 1 1 1 1 1 1 1 1 0 0 1 2 0 0 0 1 3 1 1 1 0 1 1 1 1 0 1 1 1 1 1 1 1 1 1 1 0 1 0 1 1 0 0 1 1 1 1 0 0 1 0 1 2 0 1 1 1 1 0 1 1 2 1 1 1 1 1 1 1 1 1 1 0 1 1 1 1 1 1 1 1 1 1 1 1 1 2 1 1 1 1 1 0 1 2 1 1 1 2 2 2 2 2 2 2 2 1 2 2 2 2 2 2 2 1 1 2 2 2 2 2 2 2 2 1 1 2 3 2 2 2 2 2 2 2 3 3 3 2 2 2 3 3 3 3 3 3 2 3 4 3 3 3 3 4 4 3 3 3 3 4 4 3 3 3 4 5 6 5 5 5 4 5 6 5 5 6 7 6 7 6 7 8 9 9 9 9 10 11 11 11 13 16 20 25 29 33 40 47 53 59 65 70 75 80 84 89 94 98 101 104 107 109 110 112 113 114 114 114 115 115 114 114 113 111 111 110 109 108 107 106 104 103 101 100 99 97 97 96 96 96 94 93 92 92 91 90 89 88 88 88 87 85 84 83 83 82 81 80 80 78 77 76 76 76 74 73 77 87 103 121 135 142 145 146 146 147 148 149 149 149 150 150 151 151 150 150 151 151 151 151 150 150 150 150 150 150 150 150 151 151 151 151 150 150 150 150 150 149 148 147 146 146 145 143 142 140 138 137 136 134 132 130 128 125 121 118 115 112 107 103 98 94 89 84 80 77 73 68 65 63 63 67 76 88 100 111 122 131 137 137 131 119 101 81 63 50 42 37 35 36 45 61 85 112 130 137 140 139 139 141 143 140 128 104 73 45 28 19 16 14 13 12 11 9 9 9 8 7 7 6 7 6 5 5 6 5 5 4 4 4 5 4 3 3 3 3 3 3 3 3 3 3 3 3 3 2 2 3 3 2 2 2 3 3 3 3 3 2 2 2 2 2 2 3 3 2 1 2 2 1 1 1 1 1 2 2 2 2 1 1 1 1 2 2 1 1 1 2 1 0 1 2 2 2 2 1 2 2 2 1 1 1 1 1 1 0 1 1 2 1 1 1 1 1 2 2 1 2 2 1 1 0 0 1 1 1 1 1 1 1 1 2 2 1 1 1 1 0 2 2 1 1 0 0 2 0 1 1 0 1 0 1 1 1 0 0 2 2 2 1 0 1 1 1 2 1 1 1 2 1 1 1 1 1 0 0 1 0 1 0 1 1 1 1 0 0 0 1 0 1 1 0 1 1 1 0 1 2 1 1 0 1 1 1 1 2 0 1 1 2 1 0 1 4 -1 
0 3 -1 1 1 1 -1 1 1 1 0 1 1 1 0 1 1 1 1 1 1 1 0 0 0 2 0 0 1 1 0 1 1 0 1 1 0 0 0 1 0 1 1 0 0 1 1 1 1 0 1 1 -1 0 0 1 1 1 1 1 1 1 1 1 0 0 0 1 1 0 2 1 1 1 0 1 1 0 1 0 0 1 2 2 0 1 1 1 1 1 0 1 1 2 2 1 1 1 0 1 1 0 0 1 0 0 1 0 1 1 1 1 1 2 1 1 1 2 2 1 1 2 1 1 1 0 1 2 2 1 1 1 1 1 1 1 1 1 1 2 2 1 1 2 2 1 1 1 1 1 1 1 1 1 1 2 2 2 2 1 1 2 2 1 1 1 1 1 1 2 2 2 2 2 2 2 2 2 2 2 2 2 2 2 3 3 3 2 2 2 3 3 3 3 2 2 3 3 2 3 3 2 3 4 3 3 3 3 4 4 3 4 3 3 3 4 4 4 4 4 4 4 4 4 5 4 5 6 5 5 5 5 5 7 6 7 7 8 7 8 9 9 9 9 10 11 12 14 17 21 24 28 33 40 46 52 58 64 70 75 80 85 91 95 98 101 103 105 107 108 109 111 111 111 110 110 109 109 108 108 108 107 106 105 103 102 101 99 98 96 95 94 93 92 92 92 91 90 89 89 88 87 86 86 85 84 83 82 81 81 80 79 78 78 76 75 75 75 74 72 73 80 93 112 129 140 145 146 146 147 149 149 149 149 150 151 151 151 151 151 151 151 151 152 151 151 150 152 152 152 152 151 151 152 152 151 151 151 150 150 149 149 148 147 145 144 143 143 142 141 138 137 135 133 131 129 126 123 120 117 114 109 105 100 94 89 85 80 77 75 72 69 65 62 60 60 61 67 77 90 102 114 124 132 136 137 132 121 107 93 78 66 60 59 62 70 83 103 121 133 138 139 139 138 139 140 138 127 100 65 37 21 15 14 14 12 10 9 8 9 8 7 6 6 6 7 5 5 5 5 4 5 4 3 3 4 5 4 3 3 3 4 3 3 3 3 3 4 4 4 3 2 3 3 3 3 2 2 2 3 3 2 2 2 3 2 1 2 2 2 2 2 1 1 2 2 2 2 1 2 2 2 1 1 2 2 1 2 2 2 2 1 1 1 2 3 2 1 1 2 1 2 1 1 2 2 2 1 1 2 2 2 0 2 1 1 1 1 1 1 1 1 2 1 0 0 1 1 1 1 2 2 1 2 1 1 1 1 2 1 0 2 1 1 1 0 2 2 1 2 0 1 1 1 1 1 1 1 1 1 1 1 1 2 1 1 1 0 1 1 0 2 2 1 1 1 1 0 0 0 1 0 0 1 2 2 0 1 1 0 0 1 0 1 2 0 1 1 0 1 1 1 -1 0 1 1 0 1 1 1 1 1 1 2 -1 1 0 2 -1 1 
1 1 1 2 -1 0 0 1 0 1 0 1 0 1 0 1 0 1 1 1 1 0 0 2 0 1 2 2 1 1 0 1 1 1 1 0 1 1 0 1 1 1 1 0 0 1 1 0 1 0 1 1 0 1 1 1 2 1 1 2 1 1 1 0 1 1 0 1 1 1 2 1 2 2 0 1 0 0 1 0 2 2 1 1 1 1 2 1 1 1 1 1 0 1 2 1 1 1 2 3 1 0 0 1 1 0 1 0 2 1 1 1 1 1 1 1 1 1 2 1 1 1 1 1 1 0 0 1 1 1 1 1 1 1 1 2 2 1 1 2 2 2 1 1 1 1 2 2 1 1 0 1 1 2 1 1 1 1 1 1 1 2 1 1 1 1 2 2 1 1 1 1 1 1 1 2 2 2 3 2 2 3 3 2 2 3 3 3 3 3 3 2 1 2 2 2 3 4 3 3 3 2 3 4 4 3 3 2 3 4 4 5 4 3 4 4 5 5 4 4 4 5 5 5 4 4 5 6 5 5 6 5 5 6 6 7 8 8 8 8 8 8 8 9 9 10 11 12 13 15 17 19 23 28 33 39 45 51 57 62 68 74 80 86 90 94 96 98 101 103 105 105 105 106 106 106 105 105 105 104 103 103 102 101 99 98 98 96 95 94 92 91 90 89 89 89 89 88 86 85 85 84 84 84 83 81 81 80 79 79 78 76 75 75 74 73 73 72 71 71 73 82 99 119 133 141 145 145 146 147 148 149 149 149 150 150 150 150 151 151 151 151 151 150 150 150 150 151 151 151 151 151 151 151 151 150 150 150 149 149 148 148 147 145 144 143 141 140 140 138 135 134 132 129 127 124 122 119 115 111 107 103 99 95 90 85 82 80 78 77 76 76 74 73 72 71 71 74 80 89 100 110 119 128 134 137 137 133 125 115 104 95 89 87 90 97 106 119 130 135 136 137 137 137 138 140 137 125 97 61 33 18 14 14 12 10 10 9 8 8 7 6 6 6 7 7 6 4 4 4 4 4 4 4 4 5 4 4 3 3 3 4 3 2 2 3 3 3 3 3 2 3 3 3 3 2 2 2 3 2 2 2 3 2 1 1 2 2 1 1 2 1 1 2 2 2 2 2 1 1 2 2 2 2 2 2 1 2 1 1 1 1 2 1 1 2 1 1 1 0 0 2 1 1 1 1 2 2 2 1 1 2 1 1 0 1 1 1 0 1 1 0 1 1 1 1 0 0 2 1 2 1 1 2 1 2 1 1 1 1 0 2 1 2 2 1 1 1 1 2 0 1 1 1 1 1 1 2 1 1 1 1 2 1 0 1 1 0 1 1 1 2 1 1 1 1 1 1 0 0 0 1 2 2 0 2 1 1 0 1 1 0 0 2 1 -1 1 1 1 2 0 1 1 1 0 1 1 1 0 2 1 0 0 1 0 1 0 2 1 0 
1 0 1 0 1 1 -1 0 2 1 0 0 1 1 2 1 1 1 1 0 1 0 0 2 1 1 1 0 1 1 0 1 1 1 1 0 1 0 0 0 0 1 1 1 0 1 1 1 1 0 1 1 0 1 1 1 1 1 1 1 0 1 1 0 1 1 1 1 1 1 1 0 1 1 1 1 0 0 1 0 1 1 1 2 1 0 1 2 1 1 0 1 1 1 1 1 1 2 1 2 1 1 1 1 1 1 1 1 1 1 1 1 1 1 0 1 1 1 2 1 1 2 1 2 1 1 2 2 1 1 1 1 1 1 1 1 1 1 1 1 1 1 1 2 2 2 2 2 1 1 1 1 2 1 1 1 2 2 2 1 1 1 1 1 1 1 2 2 1 1 1 1 1 1 1 2 2 2 2 3 2 2 1 1 2 3 3 3 3 3 2 2 2 2 2 2 2 3 3 3 3 3 3 3 3 3 3 2 3 3 3 4 4 3 3 3 3 4 4 4 4 4 5 5 4 4 5 6 5 5 5 5 6 6 7 7 7 7 7 8 8 7 7 8 9 10 10 11 11 12 13 14 17 19 23 28 33 38 44 49 54 61 68 75 80 83 87 90 93 96 98 99 100 100 101 101 101 101 101 100 101 100 99 97 96 95 94 93 92 91 90 88 88 87 86 85 84 84 84 82 82 81 81 80 79 79 78 78 77 76 75 74 73 72 71 70 69 69 68 68 73 86 107 125 136 141 144 145 146 147 148 149 150 150 150 150 150 151 151 151 151 151 151 151 151 151 151 151 151 151 151 151 151 151 151 150 150 150 149 148 147 146 145 144 142 141 139 138 137 136 133 131 128 126 123 120 118 115 111 108 104 99 94 91 89 86 83 83 84 85 87 88 89 89 88 88 89 91 94 100 108 115 121 128 133 136 138 138 135 129 122 116 112 112 113 116 122 128 132 133 134 135 136 136 137 138 136 125 98 60 32 17 13 13 12 10 9 8 8 7 6 5 5 5 6 6 4 4 5 5 4 4 4 4 4 4 4 4 4 3 3 3 2 3 3 3 2 2 3 2 2 3 3 3 2 2 2 2 1 2 2 2 2 2 3 2 2 2 2 2 2 1 1 2 2 2 2 2 3 2 2 2 2 2 2 2 2 1 1 1 2 2 1 1 1 2 2 1 2 1 1 1 1 1 1 2 1 1 1 2 2 1 1 1 1 1 1 1 1 0 1 1 1 0 0 1 1 1 1 1 1 2 2 1 1 1 1 0 1 1 0 1 1 1 2 0 1 1 1 2 1 1 1 0 1 1 0 1 1 1 1 0 1 1 0 1 1 1 1 1 1 1 0 0 1 1 2 1 0 1 1 0 1 2 1 1 0 1 1 1 1 0 0 1 1 1 2 -1 1 2 1 1 0 0 1 1 1 0 1 1 1 1 1 0 0 0 1 1 1 0 
1 2 0 2 0 0 1 0 1 0 0 1 1 2 1 1 1 1 2 0 1 0 0 2 0 0 1 1 1 0 1 1 0 0 0 1 1 1 0 0 0 1 1 1 0 2 2 1 0 0 0 1 1 1 1 0 1 1 1 2 1 1 0 0 1 1 0 1 1 1 1 1 2 1 1 2 1 1 1 1 2 1 1 1 1 1 1 1 1 1 1 0 1 1 1 2 1 2 2 2 1 1 1 2 2 1 1 1 1 0 1 1 1 1 1 1 1 1 1 1 1 1 1 2 2 1 1 1 1 1 1 1 2 1 1 1 2 1 1 1 1 2 2 2 2 2 2 2 2 2 2 2 2 2 2 1 1 1 2 2 1 2 2 2 1 1 2 2 2 1 1 2 2 2 1 2 2 2 2 2 2 2 2 2 2 2 3 3 2 2 2 2 2 2 2 1 1 1 2 3 3 3 3 3 3 4 3 2 3 3 2 4 4 4 4 3 3 4 4 4 4 4 5 5 4 4 4 5 5 5 5 6 6 6 5 5 6 7 7 7 7 7 7 8 9 9 9 9 9 10 11 12 13 13 15 19 22 26 30 35 40 47 54 60 67 71 75 79 83 87 90 91 93 94 95 96 96 96 96 96 96 95 94 93 92 91 90 90 89 88 86 86 85 84 83 83 82 82 81 81 80 79 78 76 76 76 74 74 74 73 71 71 70 69 69 68 67 66 65 67 74 89 111 128 138 142 143 144 146 147 148 148 148 149 151 150 149 150 150 150 150 150 151 151 151 151 151 151 151 151 151 151 151 150 150 150 149 149 148 147 145 144 143 142 141 139 137 135 134 132 129 126 124 121 118 116 114 111 108 105 102 98 94 92 92 90 90 91 93 95 98 99 101 102 103 105 107 108 110 112 117 122 127 132 135 136 136 137 137 136 134 130 127 127 127 128 130 132 133 133 134 135 136 135 135 137 136 125 98 59 30 16 12 12 11 9 8 8 7 6 6 6 5 5 6 5 4 4 5 4 4 4 3 3 3 4 3 3 3 3 3 3 3 3 3 3 3 2 2 2 2 2 2 2 2 1 2 2 2 2 2 2 2 2 2 3 3 3 2 1 2 2 1 2 2 2 1 1 1 2 2 2 2 2 2 1 1 1 0 1 2 1 1 0 0 2 2 1 1 1 1 1 1 1 0 1 2 1 1 1 1 2 1 1 0 1 1 1 0 0 2 1 1 1 1 1 1 1 0 1 2 1 1 1 1 0 1 1 1 1 1 2 1 0 1 1 1 1 1 1 1 0 1 1 1 2 1 1 1 0 1 1 1 1 0 1 1 1 1 1 1 1 0 0 1 1 2 1 1 0 0 1 2 1 0 0 1 0 0 0 0 1 0 1 0 0 2 0 1 1 1 2 0 0 1 1 1 0 1 0 1 1 1 0 1 1 1 2 0 0 
1 1 1 1 0 0 1 0 1 1 1 1 1 1 2 1 1 0 1 1 2 1 0 1 1 1 1 0 0 0 0 1 0 1 0 0 1 1 0 0 1 1 0 1 1 1 1 1 0 1 0 0 1 1 1 0 1 1 1 1 1 2 1 0 1 1 1 1 0 2 1 0 1 1 2 1 1 1 1 1 2 2 1 1 0 0 1 1 1 1 0 0 2 1 0 1 1 1 1 1 1 1 1 1 1 1 1 1 1 1 1 2 1 1 2 1 1 1 1 1 0 0 1 1 1 1 1 0 0 1 1 1 1 2 1 1 1 1 1 1 1 1 2 2 1 1 2 2 2 1 1 2 2 1 1 2 2 1 2 1 2 2 2 3 3 2 1 2 2 2 2 3 2 2 2 2 2 3 3 2 2 2 2 3 3 2 2 3 2 2 2 2 2 2 2 2 2 1 2 3 3 3 3 3 3 4 3 3 4 3 2 3 2 3 4 3 3 3 3 3 4 4 4 4 4 4 4 4 4 5 5 5 5 5 5 5 5 5 6 6 6 6 6 7 8 8 8 7 8 9 10 11 11 11 12 13 14 18 22 25 29 34 40 47 52 57 63 68 71 75 79 81 83 85 87 89 90 91 91 91 91 91 91 90 88 87 86 85 84 84 82 81 81 81 80 80 79 78 77 77 76 75 75 74 73 73 71 71 72 70 68 68 67 65 65 64 64 63 62 64 73 91 114 130 138 142 143 145 146 147 147 148 149 150 150 149 149 151 151 150 150 151 151 151 151 151 151 150 150 151 151 150 150 150 149 148 148 148 146 145 144 142 141 140 139 137 135 132 130 128 126 123 121 118 116 114 112 109 107 104 102 100 97 96 97 97 97 98 100 103 105 108 110 113 114 116 117 119 121 124 127 130 134 137 138 137 135 136 137 138 139 138 136 135 135 134 134 134 134 134 134 136 135 134 135 137 136 124 96 57 28 15 10 10 10 8 7 7 7 7 6 5 5 6 5 5 4 4 5 5 4 3 3 3 3 3 3 3 3 3 3 4 3 3 3 4 3 3 3 2 1 2 2 2 2 2 3 3 2 2 2 2 2 2 2 3 3 2 2 1 1 1 2 2 2 2 1 1 1 2 1 1 1 2 1 1 2 1 1 1 2 1 1 1 1 2 2 2 2 1 1 1 2 2 1 1 1 1 2 1 1 1 2 1 1 1 1 2 1 0 1 1 1 1 1 0 1 1 0 1 2 1 1 1 0 0 1 1 0 1 1 1 1 1 1 1 0 1 1 1 1 0 1 0 0 1 0 1 1 0 1 0 0 1 0 1 0 2 1 0 1 0 0 0 1 1 1 0 0 1 1 1 1 1 0 0 0 0 1 1 1 1 0 0 0 0 1 1 0 1 1 2 0 0 1 1 1 0 1 0 1 1 0 0 0 1 0 1 0 0 
1 3 0 0 2 0 1 0 2 1 1 1 1 1 1 0 1 0 1 0 1 0 1 1 1 1 1 1 1 0 0 1 0 1 0 1 1 0 0 0 1 0 1 2 1 1 1 1 1 1 0 0 2 1 1 1 1 0 1 2 2 2 1 0 1 0 0 0 0 1 1 2 1 0 2 1 1 1 0 1 2 1 1 1 0 0 1 1 1 1 1 0 2 1 1 1 1 1 1 1 1 1 1 1 1 1 1 1 1 1 1 2 1 1 2 1 2 1 1 1 1 1 1 1 1 1 0 0 1 1 1 1 1 1 1 1 2 2 1 1 1 1 1 1 1 2 2 2 2 2 2 1 1 1 2 1 1 1 2 1 1 2 2 2 1 1 1 2 2 1 2 3 3 3 3 2 2 3 3 2 3 3 3 3 3 2 2 2 1 2 2 2 2 3 3 3 3 1 2 3 3 2 3 3 3 4 4 4 4 3 2 3 3 3 4 4 3 3 3 4 4 4 4 4 4 4 4 4 4 5 5 5 5 5 4 4 5 6 6 6 6 6 7 7 7 7 7 7 7 8 9 9 10 10 11 11 12 13 16 18 21 24 28 33 38 43 48 53 57 62 67 70 73 76 79 81 83 84 84 84 85 84 84 84 83 82 81 80 80 79 78 77 77 77 76 75 75 74 74 74 74 72 71 71 70 70 68 67 67 66 65 65 64 62 62 61 60 60 59 62 73 92 114 131 138 141 142 144 145 146 146 148 149 149 150 149 150 151 150 150 151 151 151 151 150 150 150 150 150 150 150 149 149 148 147 147 146 145 144 143 141 140 139 136 135 134 131 129 126 124 122 120 118 116 113 112 110 108 106 104 103 102 101 102 103 104 105 107 109 111 114 116 118 120 122 124 125 127 129 132 134 136 138 141 141 140 138 136 135 137 139 139 140 140 138 137 136 136 136 135 135 135 135 134 136 138 135 121 92 53 25 13 9 9 9 7 6 6 6 6 6 5 5 6 6 5 5 4 5 5 4 3 3 3 3 4 3 3 4 3 3 3 3 2 2 3 3 3 3 2 2 2 2 2 2 2 3 3 3 2 2 2 2 2 2 2 2 2 2 2 2 2 2 2 2 1 1 2 2 1 1 1 2 2 2 1 1 2 2 1 1 1 1 1 1 2 1 2 2 2 2 1 2 2 1 1 1 1 2 1 1 2 1 1 1 1 1 1 1 1 2 2 1 1 1 1 1 1 1 1 1 1 1 0 0 0 1 1 1 1 1 1 2 1 0 2 1 1 1 1 1 0 1 1 1 2 1 0 1 0 0 1 0 1 1 1 0 1 0 1 1 0 1 2 2 1 1 0 0 1 0 1 1 1 1 0 1 0 1 0 1 1 0 0 1 1 1 1 1 2 1 1 1 0 1 0 1 0 1 -1 1 0 1 0 0 0 1 1 -1 1 
3 -3 3 0 1 0 1 1 1 1 1 1 1 0 1 1 1 1 0 0 1 0 1 1 1 1 1 0 1 0 -1 1 0 0 0 1 0 0 1 0 1 0 1 1 1 1 1 1 1 0 0 0 2 1 1 1 0 0 1 1 1 1 1 1 1 0 1 1 1 1 1 2 1 0 2 1 2 1 0 1 2 2 1 0 1 0 1 1 1 1 1 1 1 0 0 1 1 1 1 0 1 1 1 1 1 1 0 0 1 1 1 1 1 2 2 2 2 2 1 2 2 1 1 1 2 2 1 1 1 0 0 1 1 1 1 1 1 1 1 1 1 1 1 2 1 2 2 2 1 2 2 2 1 1 1 2 1 1 2 2 1 1 2 2 1 0 1 2 2 1 2 3 3 2 2 2 2 2 2 2 3 2 3 3 3 2 2 2 1 2 2 2 2 3 3 3 3 2 2 3 3 2 2 3 3 3 3 3 4 3 2 3 3 3 4 3 3 3 4 4 4 4 3 3 3 3 4 4 4 4 5 4 4 5 4 4 5 5 5 6 6 6 6 6 6 6 6 7 7 8 8 8 8 9 10 10 10 11 13 13 15 17 19 23 26 30 34 39 43 48 53 57 61 64 68 71 73 74 76 77 78 78 78 78 78 77 77 75 74 73 72 72 73 72 71 71 71 71 70 70 69 68 68 67 67 67 65 64 64 62 60 60 59 58 58 57 56 56 56 60 71 91 114 130 137 140 141 143 145 145 146 147 148 149 149 149 149 150 150 151 150 150 150 150 149 149 149 149 149 149 148 147 147 147 147 146 145 143 142 141 139 137 136 134 132 131 129 126 123 121 119 118 116 114 112 110 109 107 106 106 106 106 106 107 109 110 112 115 116 118 120 122 124 127 128 129 130 132 134 137 139 140 142 143 143 142 140 137 135 135 137 139 141 141 140 139 138 137 137 137 136 135 134 134 136 138 133 116 84 48 23 12 9 10 9 7 6 6 6 6 6 5 5 6 6 5 4 4 4 4 4 4 4 3 3 4 4 3 3 3 3 3 2 2 3 3 3 3 3 2 2 2 2 1 1 2 3 2 2 2 3 2 2 2 2 1 1 1 2 2 2 2 2 2 2 2 1 2 2 2 1 1 2 2 2 2 2 2 2 2 1 1 0 1 1 2 1 1 2 2 1 1 1 1 1 1 1 1 1 1 1 2 1 1 0 0 1 1 1 1 1 1 1 1 1 1 1 1 1 1 1 1 1 1 1 1 1 1 0 1 2 1 1 1 1 2 0 1 2 1 1 1 1 1 0 1 1 0 1 1 0 1 1 1 1 0 0 1 1 1 1 1 1 2 2 1 1 0 0 2 1 1 1 1 1 1 1 0 1 0 1 1 0 0 0 0 1 1 0 1 1 0 1 0 1 0 0 1 1 0 1 1 0 0 1 0 1 -2 5 -2 
1 3 0 0 1 2 1 1 0 1 0 0 0 1 1 1 0 1 1 1 1 1 1 1 0 1 1 1 0 0 -1 1 1 1 1 1 0 1 1 0 1 0 0 2 1 1 1 1 0 1 1 1 1 1 1 1 0 1 1 1 1 1 1 1 1 1 1 0 1 2 1 2 1 0 1 1 2 1 1 1 1 1 1 1 1 1 1 2 0 0 0 1 1 0 0 1 1 0 0 0 1 1 1 1 1 1 1 1 1 1 1 2 1 1 1 1 1 1 1 2 2 1 1 2 3 2 2 2 1 1 1 1 0 1 2 1 1 1 1 1 1 1 1 1 2 1 1 2 2 1 1 1 1 1 1 1 2 1 1 1 1 1 1 1 1 1 1 2 3 2 2 2 2 2 2 1 1 2 2 2 2 2 2 2 2 2 2 2 2 2 3 3 2 2 2 3 3 2 2 3 3 2 2 2 3 3 2 2 3 3 3 3 3 3 4 3 3 4 4 3 4 4 3 4 4 4 4 4 4 4 4 4 4 5 5 5 5 4 4 5 5 5 5 5 5 6 6 7 7 7 6 7 8 8 9 9 9 10 11 11 12 13 14 16 18 20 23 26 30 34 38 43 47 51 55 59 62 64 66 67 69 70 70 70 70 70 70 69 68 67 67 67 67 67 66 66 65 65 65 66 66 65 64 63 63 62 60 60 59 59 57 57 56 55 54 53 52 51 51 56 69 91 114 130 137 139 140 142 144 144 145 146 147 147 147 148 149 149 148 149 150 149 149 149 149 149 149 149 149 148 147 146 146 146 145 144 143 141 140 139 137 135 133 131 129 128 126 124 121 119 117 116 114 113 111 109 108 108 107 107 108 110 111 113 115 116 117 120 122 124 126 127 129 130 132 133 135 136 138 140 141 143 144 146 145 143 140 138 136 136 136 137 138 139 139 139 138 138 139 139 137 136 136 136 137 137 128 106 73 41 20 11 9 9 9 7 6 6 6 6 5 4 5 6 6 5 4 3 4 4 3 3 3 3 3 4 3 3 3 3 3 3 2 2 2 3 3 3 3 3 2 2 2 2 2 2 2 2 1 1 2 2 2 2 1 1 2 2 1 2 2 2 2 1 1 1 2 2 1 1 1 2 2 1 1 2 2 2 2 2 1 1 1 1 1 2 1 1 2 2 1 0 1 1 1 1 1 1 1 1 1 1 1 1 1 1 1 1 0 1 1 2 1 1 1 1 1 1 1 1 0 0 2 1 1 1 1 1 1 0 1 1 1 1 1 2 1 0 1 1 2 1 1 1 1 1 1 0 0 1 0 1 1 1 1 1 1 1 1 1 0 1 1 1 1 1 1 1 1 1 0 1 1 0 1 1 0 0 1 1 2 1 0 1 1 1 1 1 0 1 0 1 1 0 0 0 -1 1 1 1 1 1 0 1 0 0 1 1 -1 2 
1 2 0 2 0 1 0 1 0 1 1 0 1 0 0 1 1 1 1 1 1 1 1 1 1 0 1 1 0 1 0 1 1 0 1 2 0 1 1 0 1 1 1 1 1 1 1 1 1 0 1 2 1 1 1 1 0 1 0 0 1 0 1 2 1 1 1 1 1 2 1 1 1 1 1 1 1 1 1 1 1 2 0 -1 1 1 1 1 1 1 1 0 1 1 0 1 2 2 1 0 1 1 1 1 1 1 1 1 1 1 1 1 1 1 2 2 1 1 1 1 1 1 2 2 2 2 2 2 1 1 1 2 1 2 2 1 1 2 2 2 1 1 1 2 2 2 1 2 1 2 2 1 1 1 1 2 2 2 1 1 1 2 2 2 2 2 1 2 2 2 2 2 2 2 2 2 2 2 2 2 2 2 1 2 2 3 2 3 3 3 2 2 2 2 2 3 3 2 2 3 4 3 3 4 3 2 1 2 3 3 3 3 3 3 3 3 3 3 4 4 4 3 3 4 4 4 4 5 5 4 4 4 4 5 5 5 5 5 4 4 5 6 5 5 4 5 6 6 6 7 6 7 8 8 8 8 8 9 9 10 10 11 11 12 14 15 16 18 21 23 26 30 34 38 42 45 48 52 55 58 60 61 62 63 63 63 62 61 61 60 60 59 60 61 60 59 60 60 60 60 60 60 59 59 58 58 57 56 55 55 53 52 52 51 50 49 48 46 46 51 65 88 112 129 136 138 139 141 143 144 144 145 147 147 147 147 148 148 149 150 149 148 149 149 148 148 149 148 148 147 146 145 144 144 144 143 141 139 137 135 133 132 130 129 126 125 124 121 119 117 116 114 114 113 112 110 109 109 110 111 112 114 116 118 120 121 122 125 126 127 129 130 131 132 134 136 138 139 141 142 143 144 146 146 144 142 140 138 136 136 135 134 134 133 134 135 136 137 139 139 139 138 138 138 137 132 118 93 59 31 16 10 9 8 7 6 6 6 5 5 5 4 4 5 5 5 4 4 4 5 4 4 3 2 2 3 3 3 3 2 3 3 2 2 2 2 2 3 3 2 2 2 2 2 2 2 2 2 2 1 1 2 2 2 2 2 2 2 2 2 2 2 2 1 1 1 2 2 2 2 1 1 1 1 1 2 1 1 2 2 1 1 1 1 1 1 1 1 1 1 1 0 1 1 1 1 1 1 2 2 1 1 1 1 1 1 0 1 1 2 1 1 1 1 1 0 1 1 1 1 1 0 1 1 1 1 0 1 1 0 1 1 0 1 1 1 1 1 1 1 1 1 1 1 0 0 1 0 0 2 1 1 2 1 1 1 1 1 1 0 0 1 1 1 0 1 1 1 1 1 0 1 1 0 1 0 0 0 0 0 1 1 1 1 0 1 0 1 1 1 1 0 0 0 0 0 0 1 1 1 1 1 0 1 1 1 0 2 -1 2 
3 -2 2 0 1 1 2 1 0 1 1 0 2 1 1 1 0 1 1 1 0 1 1 0 1 1 1 1 0 1 1 0 1 1 1 2 1 1 1 1 1 1 1 1 2 1 1 0 1 1 1 1 1 2 2 0 0 1 0 1 1 1 2 2 1 0 1 1 1 1 1 1 1 1 1 2 1 0 1 1 0 2 0 0 1 1 2 2 1 1 1 1 2 1 1 2 1 1 1 1 1 1 2 1 1 2 1 1 1 1 1 2 2 1 0 0 0 1 1 1 1 1 1 1 2 2 2 1 1 1 2 2 1 1 1 1 1 1 1 2 2 2 2 1 1 1 1 1 2 2 1 2 1 1 1 2 2 1 1 1 1 2 2 2 2 3 2 2 2 2 2 2 2 2 2 2 2 2 2 2 2 2 2 1 1 2 3 4 3 3 2 2 3 3 2 2 2 2 2 2 3 2 3 4 4 3 2 3 3 3 3 4 4 3 3 4 4 3 3 3 4 3 4 4 5 4 5 5 4 4 4 4 5 5 5 5 5 5 5 5 5 6 6 5 4 5 6 6 6 6 5 6 7 7 7 7 8 8 8 8 8 9 10 11 12 12 12 13 15 16 17 20 24 27 29 32 36 39 42 45 48 49 50 52 53 53 53 53 53 52 52 52 53 53 54 54 54 53 53 53 53 53 53 53 53 52 51 50 50 50 49 47 46 46 45 44 42 41 42 47 61 85 110 127 134 137 138 139 141 143 143 144 146 146 145 146 147 148 148 149 149 149 148 147 147 148 147 147 146 145 145 144 143 142 142 141 139 137 135 133 131 129 128 126 124 122 121 120 118 117 115 114 113 112 112 111 110 111 112 113 116 118 120 122 124 125 126 128 129 131 132 132 134 135 136 138 140 141 141 143 144 145 145 145 144 141 139 138 137 136 133 129 125 120 117 119 124 130 134 136 137 137 136 134 131 120 100 73 44 23 13 9 8 7 7 6 6 5 5 5 5 5 5 5 5 4 3 3 4 4 4 3 3 3 4 3 3 2 1 2 3 3 2 2 3 3 2 2 2 2 2 2 2 3 3 3 2 2 2 2 2 2 2 2 2 2 2 2 2 2 2 2 1 1 1 2 2 2 2 2 2 2 2 1 1 1 1 1 1 1 2 1 0 1 1 1 1 1 1 1 1 1 2 1 1 1 1 2 2 1 1 1 1 1 2 1 0 0 0 1 1 1 0 0 1 1 1 1 1 1 0 0 1 1 1 1 0 1 2 0 0 0 -1 1 2 2 1 1 1 1 1 0 0 0 1 1 1 1 1 2 1 1 2 1 1 1 1 1 1 0 0 1 0 1 -1 1 1 1 2 1 1 1 2 1 1 -1 0 1 0 1 1 0 1 1 0 1 0 1 1 0 0 1 1 0 1 0 0 1 0 1 1 0 0 0 1 -1 1 -2 2 0 
0 3 -1 2 1 2 0 1 0 1 0 0 1 1 1 1 0 1 1 0 0 1 1 0 0 1 1 1 0 0 2 1 1 1 0 1 0 1 1 1 1 2 1 1 1 0 1 1 1 1 0 2 1 1 1 1 1 1 1 1 1 0 2 1 1 1 1 1 1 1 2 2 1 1 1 1 1 0 0 1 0 1 1 1 1 1 1 1 1 2 2 1 2 2 1 2 1 2 1 1 2 1 2 1 1 1 1 2 1 1 1 1 1 1 1 1 1 1 1 1 1 1 1 2 1 1 1 1 0 1 1 1 1 1 1 2 2 2 1 2 1 1 1 2 2 1 1 1 2 2 1 1 1 1 2 2 2 2 1 1 2 1 1 2 2 2 2 2 1 1 2 2 2 1 2 1 1 2 2 1 1 2 2 2 1 2 3 3 3 2 2 2 3 3 3 3 2 2 2 3 3 3 3 4 4 3 3 3 4 3 3 3 3 3 4 4 3 3 3 4 4 3 3 4 4 3 4 5 5 4 4 5 5 5 5 5 5 4 4 5 5 6 5 5 5 6 7 6 6 6 6 6 6 7 7 7 7 7 8 8 8 8 9 10 10 10 10 11 12 13 14 15 17 19 20 22 25 28 30 33 35 37 39 41 42 43 43 43 43 43 44 44 44 45 45 45 45 45 46 46 45 45 45 46 46 46 45 45 44 43 42 41 40 39 38 38 36 35 35 39 53 78 104 123 132 135 136 138 140 141 142 143 145 145 145 145 146 147 147 147 147 147 147 147 147 146 146 145 145 143 143 143 142 140 139 138 136 135 133 131 129 127 125 123 121 120 120 119 118 116 115 115 114 114 113 112 113 113 114 116 119 121 122 124 127 128 129 130 132 133 134 135 137 138 139 140 141 142 143 144 145 146 145 144 142 140 138 137 135 132 126 118 108 99 92 92 98 106 114 120 122 124 122 118 110 97 76 51 29 15 10 9 8 7 7 6 6 5 4 4 5 4 4 4 4 4 3 4 4 5 4 3 2 3 4 4 4 3 2 2 3 3 2 2 3 3 3 2 2 1 1 2 3 3 3 2 3 2 2 2 2 2 2 2 2 1 1 2 2 2 2 2 1 1 2 2 2 2 2 2 2 1 1 2 2 2 1 1 1 0 1 1 1 1 1 1 1 1 1 1 1 0 1 2 1 1 1 1 1 1 1 0 1 1 1 1 1 1 0 1 0 0 0 0 1 0 1 1 1 1 0 1 1 1 0 1 1 1 1 1 1 1 0 1 1 1 1 1 1 0 0 0 1 0 0 1 1 1 0 1 1 1 1 1 0 1 1 1 1 0 0 0 0 2 0 1 1 1 1 1 1 1 1 1 1 0 0 1 0 1 0 1 1 0 0 1 0 1 1 1 0 1 0 1 1 1 1 2 0 1 1 1 0 2 1 2 -1 2 -3 2 
0 1 0 0 1 2 1 1 1 1 0 1 1 1 1 0 0 0 1 1 0 1 1 0 1 1 1 1 0 0 2 0 0 1 0 1 1 0 0 1 1 1 0 1 1 0 1 1 2 2 1 1 1 0 0 0 0 1 1 1 0 0 1 1 0 1 1 1 1 2 2 1 1 1 1 1 1 1 1 1 1 1 0 1 1 1 1 0 1 2 2 1 1 1 1 1 0 1 1 1 1 1 1 1 1 2 1 1 1 2 1 1 1 0 0 0 1 1 1 1 1 1 1 1 1 1 1 1 1 1 1 0 1 1 1 2 2 2 1 1 2 2 2 2 1 2 2 1 1 1 1 1 1 1 2 2 1 2 2 2 2 1 1 2 2 2 3 2 2 2 1 2 2 2 2 2 2 2 1 1 2 2 2 1 1 1 2 2 3 2 1 2 3 3 2 1 2 3 2 2 2 3 3 2 3 3 3 3 3 3 2 2 2 3 3 3 3 4 3 4 4 4 3 3 3 4 4 4 3 3 4 4 5 5 5 4 4 4 4 4 4 4 5 6 5 5 6 6 6 6 5 5 5 6 7 8 7 6 7 7 7 7 8 9 10 9 9 10 10 11 11 12 13 14 15 17 18 19 21 23 25 26 28 29 30 32 32 32 33 33 33 33 34 36 36 36 36 37 38 37 37 37 37 37 37 37 37 36 36 36 35 34 33 33 32 31 29 29 29 32 45 68 95 116 128 133 135 137 139 141 141 142 143 144 144 144 144 146 146 146 145 146 146 146 145 145 144 144 142 142 142 140 139 138 137 135 133 132 130 128 127 125 123 121 119 119 119 118 117 116 115 113 113 113 113 114 115 116 117 119 122 124 125 127 128 129 130 132 134 134 134 137 139 141 141 142 143 144 144 144 144 145 145 144 142 139 136 133 129 122 111 99 84 71 62 62 67 75 84 91 95 97 95 88 79 67 50 31 18 11 9 8 8 7 6 6 5 5 5 5 5 5 4 5 4 3 3 4 4 4 4 3 3 4 4 4 3 3 2 1 2 2 3 3 3 2 2 2 2 1 2 3 3 2 2 2 2 2 2 2 2 2 2 1 1 1 1 2 2 2 2 2 2 2 2 2 2 2 2 1 1 2 2 2 2 2 1 1 1 1 2 1 1 1 2 2 2 1 1 1 1 1 1 1 0 1 1 1 1 1 1 0 1 1 2 1 1 1 1 1 0 0 1 1 2 1 1 1 0 0 1 1 1 2 1 1 1 0 1 1 1 1 1 1 1 1 1 1 1 1 1 0 0 0 1 1 0 1 0 1 1 0 1 1 1 0 -1 0 1 1 1 0 0 1 0 2 1 1 2 1 1 1 1 1 1 0 1 0 0 1 0 1 2 1 0 1 1 1 0 0 1 1 0 1 0 0 0 1 1 1 0 0 0 1 0 1 0 1 0 2 
2 -3 2 0 0 1 1 0 1 0 0 0 1 1 1 0 1 0 1 1 1 1 1 0 1 2 1 1 0 0 1 0 1 1 0 0 1 1 2 1 0 1 1 1 1 0 1 1 1 1 2 1 1 0 -1 0 1 1 1 1 1 0 1 0 1 1 1 2 1 0 0 1 1 1 1 1 0 1 0 0 1 1 1 1 1 0 1 0 0 1 1 0 1 1 1 1 0 1 1 1 1 0 1 1 1 1 1 2 1 2 1 1 1 1 2 1 1 0 1 1 1 1 0 0 1 1 2 1 0 1 1 1 1 1 2 2 1 1 1 1 1 1 1 1 1 1 1 1 1 1 1 1 1 2 3 2 1 1 2 2 2 1 1 1 1 2 2 2 1 1 2 2 1 1 1 1 2 2 1 1 1 1 2 2 2 2 3 2 2 2 1 2 2 2 2 2 2 2 2 2 2 2 2 3 3 2 1 2 3 3 2 2 2 2 2 3 4 4 4 4 3 3 3 3 3 3 3 3 4 3 3 4 4 4 4 4 3 3 4 4 4 4 4 5 5 6 5 5 6 6 6 5 5 6 7 7 7 8 8 7 7 7 7 8 8 8 8 8 8 10 11 11 10 10 11 12 13 14 15 16 17 18 19 21 22 23 24 24 24 24 24 24 25 26 27 27 27 27 28 28 28 28 28 29 29 29 29 29 29 28 27 26 25 25 25 23 23 23 22 24 35 55 83 108 123 130 133 134 137 139 141 142 142 143 144 144 144 144 144 144 145 145 144 145 145 144 143 142 141 140 139 138 136 135 134 132 130 128 127 125 123 121 120 118 117 117 117 118 117 116 115 114 114 114 115 116 118 119 120 121 124 126 128 129 130 131 133 134 135 135 136 138 139 141 141 142 143 143 144 144 145 145 145 142 138 134 130 124 115 102 88 74 59 47 39 37 41 46 52 59 65 66 64 58 49 40 30 20 13 10 9 9 8 7 6 6 6 5 4 5 5 4 4 5 4 3 3 4 4 4 4 4 3 3 3 4 4 3 2 2 2 2 2 2 2 3 3 2 2 2 2 2 2 2 2 2 1 1 2 2 2 2 1 1 1 2 1 1 2 2 3 2 1 2 2 2 1 1 2 2 1 1 1 2 2 2 1 2 2 1 1 1 2 1 1 2 2 1 1 1 1 0 1 2 1 2 1 1 1 1 1 0 1 1 1 1 2 2 1 1 1 2 2 1 1 1 2 1 0 1 1 1 1 2 1 1 2 1 1 2 2 1 1 0 2 2 1 0 0 1 2 1 0 0 2 2 1 1 0 1 1 1 1 0 1 0 0 1 1 1 1 0 0 1 1 1 1 0 1 1 1 1 0 1 1 1 1 0 0 0 0 1 1 0 1 1 1 1 1 1 1 0 1 1 0 1 1 0 1 0 1 0 1 0 2 2 0 -1 5 0 
-1 3 -1 0 1 2 0 1 0 1 1 0 0 1 1 -1 1 1 0 1 0 1 1 0 1 1 1 1 1 0 0 0 1 1 0 1 0 0 2 1 0 0 0 0 0 0 1 1 1 1 1 1 1 0 -1 1 1 2 2 1 1 0 1 1 1 1 1 1 1 0 0 0 0 1 1 1 0 1 1 1 1 1 1 1 0 0 1 0 0 0 1 1 1 0 1 1 0 0 0 1 1 1 1 1 1 1 1 1 2 2 1 1 1 1 1 0 1 1 2 1 1 1 0 0 1 1 1 1 1 1 1 1 1 1 1 1 1 1 1 1 1 2 2 1 1 1 1 1 1 1 1 1 2 2 2 2 1 2 2 2 2 2 1 2 2 2 2 3 1 1 1 1 1 1 1 1 1 1 1 2 2 2 3 2 1 2 2 2 3 2 1 1 2 2 2 2 2 2 2 2 3 3 3 3 3 2 2 2 3 3 3 3 3 3 3 2 3 4 4 4 4 3 3 2 2 3 4 4 3 3 4 4 3 3 4 4 4 4 4 4 3 3 4 5 5 6 6 5 5 5 5 6 5 6 7 6 6 7 7 6 6 7 7 8 7 7 7 7 8 8 9 10 9 9 10 11 11 11 11 12 13 14 14 15 15 16 17 18 17 17 17 17 18 18 19 19 20 20 21 20 20 20 21 21 21 21 20 21 21 21 20 19 19 19 18 17 18 19 19 21 28 45 71 99 117 127 131 133 135 138 139 140 139 140 142 143 143 143 143 143 143 144 143 142 142 141 141 141 139 138 137 135 134 133 131 129 127 125 123 121 120 119 118 117 117 116 116 116 116 115 114 113 113 115 117 119 120 122 123 124 126 128 130 131 132 133 134 135 136 136 138 140 141 141 141 142 144 145 145 144 144 144 142 138 133 126 117 106 93 78 63 51 39 30 25 24 26 29 32 37 41 42 39 35 30 24 19 14 11 10 9 9 8 7 6 6 5 5 5 6 5 4 4 4 4 3 3 4 4 3 3 3 3 3 3 2 3 3 3 3 3 3 3 3 2 2 1 1 2 2 2 3 3 1 1 2 2 2 2 2 2 2 2 1 1 2 2 2 2 1 1 1 2 2 2 1 1 1 1 1 1 1 2 2 2 2 2 2 2 2 1 2 2 1 1 2 1 0 1 2 1 0 0 1 1 1 1 2 1 1 1 1 1 1 2 2 2 1 1 1 1 1 2 1 2 1 1 0 0 1 1 1 1 1 1 2 2 1 0 1 1 1 1 0 1 2 1 1 1 1 1 1 0 0 2 1 1 1 0 1 1 1 1 1 2 0 1 1 1 1 0 0 0 1 1 1 1 1 1 1 1 2 0 0 1 1 1 0 0 1 0 0 1 1 1 1 1 1 1 1 1 0 1 1 0 1 1 1 1 1 0 0 0 1 0 1 1 2 -2 2 
0 1 0 1 1 0 0 1 1 0 1 0 1 1 1 0 1 1 0 2 1 1 1 1 1 1 1 1 0 1 1 0 0 1 0 1 0 1 2 1 1 1 0 0 0 1 0 1 1 0 1 1 1 0 0 2 1 2 1 1 1 1 1 1 1 1 1 2 1 0 0 0 1 1 2 1 0 1 0 0 1 1 2 1 1 1 0 1 1 0 1 1 1 1 1 1 0 1 1 1 1 1 1 1 1 1 1 1 2 2 1 1 1 1 1 1 1 1 1 2 2 2 1 0 1 1 2 2 1 1 2 1 2 2 1 1 1 1 1 1 1 2 2 1 1 0 0 1 1 2 1 1 1 2 2 2 1 2 2 2 1 1 1 1 2 2 2 2 2 2 2 2 1 1 1 1 1 1 1 2 2 1 2 3 2 2 2 2 2 2 2 2 2 1 2 2 1 2 2 3 3 2 2 3 4 4 3 2 2 3 3 3 3 3 3 3 3 3 3 3 3 3 3 3 3 3 4 4 4 4 4 4 4 4 3 3 4 4 4 4 4 4 3 4 3 4 5 5 5 5 5 5 5 5 6 6 6 6 6 6 5 6 7 7 7 6 7 7 7 7 8 8 8 8 8 8 8 9 10 11 11 11 12 12 12 13 13 13 13 13 13 13 14 14 15 15 14 14 15 15 15 15 16 15 15 15 15 15 15 15 15 14 15 15 13 13 14 15 15 15 20 34 58 86 109 122 129 131 132 135 137 138 139 139 140 141 141 141 141 141 141 142 141 141 140 140 139 139 137 136 135 133 131 129 127 126 124 123 121 119 118 118 117 117 116 116 115 115 116 116 115 114 115 117 119 121 123 124 125 127 128 129 131 132 133 136 137 137 138 139 140 141 141 142 143 144 144 144 144 145 144 142 137 129 120 109 96 82 67 53 41 33 27 22 19 19 20 20 21 23 26 27 25 21 18 16 14 12 10 10 9 8 7 6 7 6 5 4 4 5 4 3 4 4 5 4 4 4 4 3 3 3 2 3 2 2 3 3 3 3 3 2 3 3 2 2 2 2 2 2 2 3 3 2 2 1 1 2 3 2 2 2 1 1 2 2 2 2 1 2 2 2 2 2 2 2 2 1 2 2 2 1 1 1 2 1 2 2 1 2 1 1 1 1 1 1 0 1 1 1 1 1 1 1 1 1 1 1 1 1 1 1 0 1 1 1 0 1 1 1 1 1 1 1 1 1 0 1 1 1 1 1 1 0 1 1 0 1 0 1 1 1 1 0 1 2 1 1 0 1 1 1 0 0 1 2 2 1 0 2 1 1 1 0 2 0 1 1 1 1 0 1 1 0 0 1 1 1 0 0 0 1 0 0 1 1 1 1 0 1 0 0 1 0 0 1 1 1 1 1 1 -1 0 1 0 1 1 1 0 0 0 1 1 1 1 1 0 1 1 1 
2 -2 2 0 1 1 2 1 0 0 1 0 1 1 2 1 0 0 1 1 0 1 1 1 1 0 0 1 1 1 1 0 1 1 0 1 1 1 1 1 1 0 1 1 1 1 1 1 1 1 1 1 0 0 0 2 2 1 0 0 1 0 0 0 1 1 1 1 1 1 0 -1 0 1 1 1 0 0 0 1 1 1 2 0 1 1 1 1 1 0 1 2 1 1 1 1 1 1 0 2 1 1 1 1 1 1 2 1 2 1 1 1 1 1 1 1 1 2 1 1 2 1 1 1 1 1 1 1 2 2 2 1 1 1 0 1 1 1 1 1 2 2 1 1 0 0 1 1 1 2 2 2 2 1 1 2 2 2 1 1 2 2 1 0 1 1 2 3 2 2 1 1 1 2 2 2 2 1 1 2 3 2 2 2 1 1 2 2 2 2 2 2 2 2 2 2 2 2 2 3 3 2 2 3 3 3 3 3 3 3 3 3 3 3 3 3 3 3 3 3 3 3 4 4 4 4 4 3 3 3 4 5 4 4 4 4 4 4 4 4 4 4 4 4 3 4 5 5 5 5 4 5 5 5 5 5 6 5 5 4 5 6 6 6 6 7 7 6 6 6 6 7 8 7 8 8 8 8 8 9 9 9 9 9 10 11 11 11 10 10 10 10 11 12 11 11 11 12 12 12 12 12 12 12 11 12 12 12 12 12 11 11 12 12 12 12 13 13 14 14 16 26 46 73 99 116 125 128 130 132 134 136 137 138 138 140 141 140 140 140 139 139 139 139 138 138 137 136 135 133 131 129 127 125 123 123 121 120 118 117 117 116 117 116 115 114 113 113 114 114 115 116 117 118 121 123 125 126 127 129 130 131 132 133 134 136 136 137 138 139 140 141 141 142 143 143 144 145 145 144 141 135 126 114 100 85 70 56 43 33 26 22 18 16 16 16 16 16 16 17 17 17 16 14 13 12 11 10 10 9 8 7 6 6 6 6 5 4 4 5 4 4 4 5 5 4 4 4 4 3 3 2 2 2 2 2 2 2 2 3 3 3 3 3 2 2 2 2 2 3 3 3 3 2 1 1 2 2 2 2 2 2 2 1 1 1 1 2 2 1 1 1 2 2 2 1 1 1 1 1 1 1 1 2 1 1 2 2 2 2 1 1 2 1 1 1 1 1 2 2 1 1 2 1 1 0 1 1 2 1 1 2 1 1 1 1 1 1 2 1 1 0 0 1 1 1 1 0 1 1 1 1 1 0 1 1 0 1 0 1 1 0 0 0 1 1 2 1 0 1 1 1 1 1 1 1 1 1 0 1 1 1 2 0 1 1 1 0 0 1 1 0 0 1 2 0 1 1 1 1 0 1 0 0 1 1 2 1 0 0 0 0 1 1 1 1 0 0 1 1 1 0 1 1 1 0 1 1 1 1 1 0 1 0 1 1 0 -1 4 -2 
-1 4 0 0 2 0 1 0 1 0 1 0 2 1 1 0 1 1 1 1 2 1 1 1 2 1 1 0 1 0 1 0 0 1 1 1 1 1 0 1 1 0 2 1 0 1 0 1 1 1 1 1 1 1 1 1 1 1 1 0 0 0 0 0 1 0 1 1 0 0 1 0 1 0 0 2 1 0 -1 0 2 1 2 1 1 0 0 1 1 1 1 1 1 1 1 1 1 1 1 1 1 1 0 0 1 1 2 0 1 1 1 0 0 1 1 1 1 2 1 1 1 1 2 1 2 1 2 1 1 1 1 1 1 1 0 1 1 1 1 1 2 2 1 1 1 1 2 2 2 2 2 2 2 1 1 2 2 2 1 1 1 1 1 1 1 1 1 2 2 2 1 2 2 2 2 2 2 2 2 2 2 2 2 2 2 2 2 2 2 2 2 2 2 2 2 2 2 2 2 2 3 3 2 3 3 3 3 3 3 2 2 2 3 3 3 4 3 2 2 3 3 3 3 3 4 4 4 4 4 3 3 3 4 4 3 3 4 3 3 4 4 4 4 4 4 4 4 4 5 5 5 5 5 5 6 6 5 5 5 5 5 5 6 6 5 6 6 6 7 6 6 7 7 7 7 7 7 7 8 8 8 8 8 8 9 9 9 9 9 9 9 9 9 9 9 9 9 10 10 11 11 11 11 11 10 10 11 11 10 10 10 10 11 11 10 11 11 12 14 13 14 21 34 58 85 106 119 124 127 129 132 133 135 136 137 137 138 138 139 138 137 137 137 136 135 135 134 133 131 130 128 127 124 122 121 120 118 117 116 115 115 115 115 114 114 113 112 112 114 115 117 118 118 120 123 124 126 128 128 129 130 131 133 134 135 136 136 138 139 140 140 141 141 142 142 142 143 143 143 141 135 123 106 90 73 59 46 36 28 21 17 16 15 15 15 14 14 13 12 12 12 12 12 11 10 10 10 9 9 9 8 7 6 6 6 5 4 4 4 4 3 3 3 4 4 4 4 3 3 4 4 4 2 2 3 2 2 2 3 3 3 3 3 2 2 3 3 3 3 3 3 3 2 2 2 2 1 2 2 2 2 2 2 1 1 1 1 1 2 1 1 1 1 1 1 1 1 1 1 1 1 1 1 2 1 1 2 2 2 2 2 2 2 2 1 1 1 1 1 2 1 1 2 1 2 1 2 1 1 1 1 2 1 2 1 1 1 1 1 1 1 1 2 1 0 1 1 1 2 2 1 1 1 0 0 0 0 1 0 1 0 0 1 1 1 0 1 1 1 1 1 1 1 0 0 1 1 1 1 1 1 0 1 1 1 1 1 1 1 0 0 1 1 0 1 1 2 2 0 0 0 1 1 0 1 1 1 1 1 1 0 1 2 1 0 1 1 1 1 1 0 0 1 0 1 0 1 1 1 1 1 -1 2 0 1 -1 1 2 -2 1 
2 -2 1 0 0 1 1 0 0 0 1 0 1 1 1 1 0 0 1 1 1 0 1 1 1 1 0 0 0 0 1 0 0 0 1 1 1 1 0 1 1 0 1 1 1 1 0 1 1 1 1 1 0 0 1 1 1 1 1 1 0 0 0 1 2 1 1 1 0 1 1 1 1 1 1 1 0 0 0 1 2 1 2 1 1 1 1 1 1 1 1 1 0 1 1 0 0 0 1 2 1 1 1 1 1 2 1 0 1 1 1 0 1 1 0 1 1 1 1 1 1 1 1 1 2 2 1 0 1 1 1 1 1 0 0 1 1 1 1 1 1 1 1 1 1 1 1 1 1 1 2 2 2 1 1 1 1 1 1 1 1 1 1 1 1 2 2 2 2 1 0 0 1 2 2 2 2 2 2 2 2 2 2 2 2 2 2 2 2 1 1 1 1 2 2 3 3 3 2 1 1 2 3 3 3 3 2 2 2 2 2 3 4 3 3 3 3 3 3 3 3 3 3 3 3 3 3 3 3 3 3 3 3 4 4 4 4 5 4 4 4 4 5 5 5 4 4 4 4 4 4 4 4 5 6 6 6 5 5 5 4 4 5 7 6 6 6 5 6 6 7 7 7 7 7 8 8 7 7 6 6 7 7 7 7 7 8 9 8 8 8 9 9 8 8 8 8 8 7 7 8 9 9 9 9 9 9 9 9 10 10 10 10 10 10 10 10 11 12 13 14 17 27 47 72 95 111 120 124 127 129 131 133 133 133 133 134 135 136 135 134 133 134 134 133 132 130 129 127 125 123 122 120 119 118 117 116 116 115 114 114 113 112 112 112 112 111 111 113 115 117 118 118 120 123 125 127 128 129 130 131 133 134 135 135 136 137 138 139 140 140 141 142 143 143 142 143 144 143 137 124 103 81 62 48 38 30 23 18 16 14 14 13 13 12 12 11 11 11 11 11 10 9 9 10 10 8 7 7 7 7 7 6 6 6 6 5 4 4 4 4 4 4 4 4 3 3 3 3 3 3 3 3 3 3 3 3 2 3 3 3 3 3 3 3 2 2 3 3 3 2 2 1 1 2 2 2 3 2 2 2 2 2 1 1 1 1 2 2 2 1 2 2 1 1 1 1 2 2 1 1 1 1 1 2 2 1 1 1 1 1 1 1 2 2 1 1 1 2 2 1 1 3 2 1 0 1 2 1 1 1 2 1 1 0 1 1 1 1 1 2 1 0 1 1 2 1 1 2 1 1 1 1 0 1 0 1 1 0 1 1 0 1 1 2 1 1 1 1 1 1 0 1 1 1 1 1 1 1 0 0 1 1 1 1 1 1 0 1 1 1 1 2 1 1 0 0 1 0 1 1 1 1 0 0 1 2 1 1 1 0 1 1 0 1 0 1 1 0 1 0 1 1 0 0 0 1 1 1 1 1 0 1 0 1 1 0 0 4 -2 
0 4 -3 1 0 1 0 1 0 0 0 1 1 1 0 0 1 1 2 1 1 0 1 1 0 1 0 0 1 0 1 1 0 0 1 1 0 1 0 1 1 0 1 1 1 2 1 2 1 1 0 0 0 1 0 0 1 0 1 0 0 2 1 1 2 2 1 1 0 1 1 1 1 1 0 1 1 0 0 1 1 1 1 1 1 0 -1 0 1 1 0 1 0 1 1 0 1 1 1 1 1 1 1 1 0 1 1 1 1 1 1 1 1 1 0 1 1 2 0 0 1 1 1 1 1 1 2 1 1 1 1 2 2 1 1 1 0 1 1 1 1 1 1 2 2 1 1 1 1 2 2 2 1 1 1 2 2 2 1 0 1 1 2 2 2 2 1 2 2 2 2 2 2 2 2 3 2 1 1 2 2 2 1 2 2 2 2 2 1 0 1 1 2 3 2 2 2 2 2 2 1 1 2 3 3 3 3 3 3 2 2 2 3 3 3 3 2 2 2 3 3 3 3 3 3 3 3 2 3 4 4 3 4 4 3 3 3 3 3 3 3 4 4 4 4 4 4 4 4 4 5 4 3 4 5 5 5 5 5 5 4 4 5 5 5 5 5 5 5 6 7 7 7 6 7 7 6 6 6 7 7 7 8 8 8 8 7 7 8 7 7 8 8 8 7 8 8 9 8 8 8 8 8 9 8 8 8 9 9 9 9 9 9 9 9 9 9 10 11 12 12 14 20 35 57 81 100 113 120 124 126 128 130 131 131 131 132 133 133 133 132 131 131 130 130 130 128 126 124 122 121 120 118 117 116 114 113 112 112 112 112 111 111 111 111 111 112 113 115 116 118 120 122 123 125 127 128 129 130 132 133 133 134 135 136 138 138 139 140 140 140 141 143 142 142 142 143 143 140 129 109 83 59 41 30 24 20 17 14 13 13 13 12 12 11 10 10 10 9 9 9 9 8 8 8 8 7 7 6 6 6 6 5 5 5 5 5 4 3 3 3 3 3 4 4 4 4 3 3 4 4 4 3 2 2 2 2 2 2 2 2 2 2 2 2 2 2 2 2 2 2 1 1 1 2 2 2 2 2 3 3 2 1 2 2 2 1 2 2 2 2 1 1 2 2 1 1 2 3 2 1 1 1 1 1 1 1 1 1 1 1 2 1 1 1 2 2 1 1 2 2 1 2 1 1 1 2 2 0 1 1 1 0 1 1 1 1 2 1 0 0 1 2 2 1 1 1 1 1 0 1 1 1 0 1 0 1 1 1 1 1 1 1 1 1 1 1 1 1 1 2 1 0 0 1 2 1 1 2 1 0 0 0 1 1 1 1 1 1 0 0 1 1 0 1 1 0 1 1 1 0 0 1 1 1 1 1 1 1 0 0 1 1 1 1 0 1 1 0 1 0 1 0 0 0 0 1 1 1 1 0 0 0 1 0 1 -1 3 -3 2 
1 -1 0 0 0 1 1 1 1 0 1 0 0 1 1 0 0 0 1 1 1 1 1 1 0 1 1 1 1 0 1 1 0 0 1 1 0 1 1 1 1 1 1 0 1 1 1 1 0 0 1 0 0 0 0 1 1 0 1 1 0 1 1 2 2 2 1 1 1 1 1 1 1 1 0 0 1 0 1 1 1 1 0 1 1 1 0 0 1 0 1 1 0 0 1 1 1 1 2 2 2 1 1 1 1 1 0 1 1 1 1 1 2 1 1 1 1 1 1 1 1 1 1 0 1 1 1 1 2 1 1 2 2 1 1 1 2 1 0 0 1 2 1 1 1 1 1 1 1 2 2 2 1 1 1 1 1 1 1 1 1 2 2 2 2 2 2 2 2 1 1 1 2 2 2 2 1 1 1 1 2 2 2 2 1 1 1 1 2 2 2 2 2 3 2 2 3 3 2 2 2 2 2 3 3 3 3 3 3 3 2 2 3 3 2 3 2 2 2 2 2 3 3 3 3 3 3 3 4 3 3 3 4 4 3 3 3 4 3 3 4 5 5 4 4 4 4 4 4 4 4 4 3 4 5 5 4 4 5 4 3 4 5 6 6 4 4 5 5 5 5 6 6 6 6 6 6 6 5 5 6 5 5 5 5 6 6 6 6 7 7 8 8 7 7 7 7 7 7 7 7 7 7 7 7 7 8 7 7 8 8 8 7 8 10 10 10 9 10 11 12 12 16 25 42 64 84 100 112 118 122 124 126 127 128 128 129 129 130 130 130 129 128 127 126 126 124 122 120 118 116 115 113 113 112 111 110 110 110 110 110 110 109 110 111 112 112 113 115 117 119 121 122 124 125 126 127 129 131 133 133 133 134 136 138 139 139 139 139 139 140 142 142 142 141 142 143 142 134 117 90 61 39 26 21 18 16 15 13 12 12 11 10 9 10 10 10 9 9 8 8 7 7 7 8 8 7 6 5 5 5 5 5 5 5 5 5 4 4 4 5 5 4 4 3 3 4 4 3 3 3 3 3 3 3 3 2 2 3 3 2 2 2 2 1 1 2 2 2 2 2 2 2 2 2 2 2 2 2 2 2 1 1 1 2 2 2 2 2 2 1 1 2 3 2 1 2 2 2 2 1 1 1 1 1 1 1 1 1 1 1 1 0 1 1 1 1 2 2 2 1 1 2 1 1 0 0 1 1 1 0 0 1 1 1 1 2 1 1 1 1 1 1 2 2 2 1 0 1 1 1 1 1 1 1 1 2 1 0 1 1 1 0 1 1 1 1 1 1 1 1 1 0 1 2 2 1 1 1 0 0 0 0 1 1 0 1 1 1 0 0 1 1 1 1 2 1 1 1 1 1 0 0 0 0 1 0 1 1 1 1 1 0 1 2 1 2 1 1 1 0 1 1 0 0 1 1 1 1 0 0 0 0 0 1 1 0 0 1 -1 
2 0 2 -1 1 0 1 0 1 1 0 0 1 0 1 1 1 1 1 1 1 1 0 1 0 1 2 1 0 0 1 0 1 1 1 1 1 1 1 1 1 0 0 0 0 1 1 1 0 0 0 0 1 1 1 1 1 1 1 0 0 2 1 1 1 1 1 0 0 0 1 0 0 1 0 0 1 0 1 1 0 0 0 1 1 1 1 1 0 0 1 1 2 1 1 0 1 1 1 2 1 0 0 1 0 0 0 1 1 1 1 1 2 1 1 1 1 1 1 1 2 2 1 1 0 1 1 1 1 1 1 1 1 1 1 1 1 1 1 1 1 1 2 3 2 1 1 1 1 2 2 1 1 1 1 1 1 1 1 1 1 2 2 2 1 1 1 1 1 2 2 1 1 1 2 2 2 1 1 1 1 1 1 1 2 2 2 2 2 2 2 2 2 2 3 2 2 1 1 2 2 2 2 2 2 2 2 2 2 3 2 1 2 2 2 2 2 2 2 2 3 3 3 2 2 2 2 2 3 3 3 3 3 3 3 3 3 3 3 3 3 3 3 3 4 4 4 4 4 5 5 4 4 4 4 4 4 4 4 5 5 5 5 4 4 4 4 5 5 5 6 6 5 5 5 5 5 5 5 6 7 7 7 7 6 6 5 5 5 5 5 6 7 7 7 7 7 7 7 7 6 6 6 7 7 8 8 8 7 7 7 8 8 8 9 9 9 9 9 10 11 11 14 19 29 45 65 84 99 109 116 121 123 124 125 126 127 127 127 127 126 126 125 124 123 122 120 118 116 115 113 111 109 109 108 107 108 108 108 108 109 109 109 110 111 113 114 116 118 120 121 122 124 125 127 128 129 130 132 132 132 133 134 136 138 139 140 139 138 139 141 142 142 141 141 141 141 136 123 100 72 46 28 19 16 15 13 12 11 11 11 10 9 9 10 10 9 8 7 7 7 7 7 7 7 6 6 6 5 5 5 4 5 5 4 4 4 4 4 3 4 4 3 4 4 4 4 4 4 4 3 3 3 2 2 3 3 2 2 2 2 2 1 1 2 2 2 2 2 2 2 1 2 2 2 1 1 2 1 1 2 2 2 2 2 2 1 2 2 2 1 1 1 2 2 2 1 1 2 2 1 1 1 1 1 2 1 2 2 2 2 1 2 2 2 1 1 1 1 1 2 2 1 1 2 2 1 2 1 1 1 1 1 0 1 1 2 2 1 1 0 1 1 1 1 1 1 1 1 1 1 1 1 1 0 1 1 1 1 1 1 1 0 1 0 1 1 0 1 1 1 1 0 1 1 2 1 1 2 1 1 1 0 2 1 0 1 1 1 1 1 0 1 1 1 1 1 1 1 1 0 0 1 1 1 1 1 1 1 0 1 1 0 1 1 1 2 1 1 1 1 1 1 1 0 1 1 1 1 0 1 0 1 0 1 0 3 -1 1 0 
0 2 0 0 1 1 0 0 1 1 0 0 1 1 1 0 0 1 1 1 0 1 1 1 0 0 1 2 1 0 1 1 1 1 0 0 1 1 0 0 0 1 1 1 1 0 1 0 0 1 1 1 1 1 1 1 1 1 1 1 1 1 0 0 1 1 0 0 1 1 1 1 0 1 0 0 0 0 1 1 0 0 0 2 2 1 1 1 0 1 1 1 1 0 2 2 0 0 1 1 1 0 0 1 0 1 1 1 1 2 1 1 1 0 1 0 1 2 2 1 1 0 1 1 1 0 1 2 2 1 1 1 1 1 1 0 1 1 1 2 2 2 2 2 1 1 1 1 0 1 2 2 2 1 1 0 0 0 1 2 2 2 1 1 1 1 2 2 1 1 1 1 1 2 2 2 1 1 1 1 1 2 2 2 1 2 2 2 2 2 3 3 2 2 2 1 2 2 2 2 1 1 1 2 3 2 2 3 3 2 2 2 2 2 3 3 2 2 2 3 3 3 3 2 2 3 3 2 2 2 3 3 3 3 3 3 3 4 4 4 4 3 4 4 4 3 3 4 3 3 4 4 4 4 5 5 4 3 3 4 4 5 5 5 5 5 4 5 4 4 4 4 4 5 5 5 5 5 6 5 5 4 5 5 5 5 5 6 7 6 5 5 6 5 6 6 7 7 7 7 7 7 7 7 7 7 7 7 6 7 7 8 8 8 8 9 9 8 9 10 11 11 12 14 21 31 46 63 81 96 107 113 117 119 120 121 122 122 123 123 122 122 120 119 118 117 115 113 111 110 109 107 106 105 104 104 105 105 105 106 106 107 108 109 111 112 113 115 118 119 120 122 124 125 126 128 128 130 132 132 133 134 136 137 137 138 138 138 139 140 140 141 141 141 141 141 138 126 106 79 51 30 19 15 14 14 13 11 10 11 11 10 9 8 7 7 7 8 8 8 8 8 7 7 6 6 5 5 5 5 5 5 5 5 5 5 5 4 4 4 4 4 4 4 4 4 5 4 4 3 2 3 3 3 3 3 3 4 4 3 3 3 2 2 2 1 2 3 3 2 2 2 2 2 2 2 2 2 1 1 1 1 2 1 2 1 1 2 2 2 2 1 1 2 1 1 1 1 1 1 1 2 2 2 1 2 2 1 1 1 2 1 1 1 1 1 1 1 1 2 1 1 1 1 1 1 1 1 1 1 3 1 1 1 2 1 1 0 1 1 1 1 1 1 1 1 1 1 1 1 0 1 1 2 1 1 2 1 1 1 1 1 0 1 1 1 2 1 1 1 0 1 0 1 1 1 1 0 0 0 1 1 1 2 1 1 1 2 1 0 0 1 1 1 0 1 1 0 1 2 1 0 1 1 0 1 0 0 1 1 0 1 1 1 0 1 1 1 0 0 1 1 1 1 0 1 0 1 1 1 1 1 1 1 0 1 2 1 -1 1 
3 -2 3 0 0 -1 1 0 2 1 1 1 1 0 0 0 1 1 0 0 0 1 1 1 1 1 1 1 0 -1 0 1 0 0 1 0 0 1 1 1 1 1 1 1 1 1 1 1 1 1 0 2 2 1 2 1 1 2 1 0 0 0 0 1 1 1 0 0 1 0 1 1 1 2 1 1 1 1 1 1 1 1 1 2 1 1 1 1 1 1 1 1 2 1 1 0 0 1 0 0 1 2 1 1 1 0 1 1 1 2 1 1 1 0 1 0 1 1 1 0 1 1 1 2 2 2 1 1 0 1 1 1 0 1 1 2 2 2 2 2 2 1 1 2 1 1 0 1 1 2 1 2 1 0 1 1 1 2 2 2 2 2 2 1 1 2 1 1 1 2 3 2 1 1 1 1 1 2 2 1 1 0 1 2 2 2 2 2 2 2 2 2 2 1 2 2 2 2 2 2 2 1 1 2 3 2 2 1 1 2 2 2 2 2 3 3 2 2 2 2 2 2 3 3 3 3 2 2 3 3 2 2 2 3 4 3 3 4 4 3 3 3 3 3 3 3 3 4 4 4 4 4 4 4 4 4 4 4 4 4 4 4 4 4 4 4 4 4 4 4 4 5 5 5 5 5 5 5 6 6 6 6 6 6 6 6 5 5 5 6 6 5 5 6 7 7 7 7 7 7 7 7 8 9 9 8 8 8 8 9 9 9 8 7 7 8 8 8 8 9 10 11 12 14 16 22 32 46 63 80 95 106 112 114 116 117 118 118 118 119 118 117 116 115 114 112 110 107 105 105 104 102 100 100 101 101 102 102 102 103 104 106 107 109 111 113 115 117 119 121 123 124 125 126 127 129 130 131 133 133 134 135 135 135 136 137 139 139 138 138 138 139 140 140 140 137 129 111 87 60 37 23 16 14 12 11 10 9 9 10 10 9 9 9 8 7 6 6 6 7 7 7 7 6 6 5 5 5 5 5 5 4 5 5 4 4 4 4 3 3 3 4 4 4 4 4 3 4 4 4 3 3 3 3 3 3 3 3 3 3 2 2 2 2 3 3 3 3 2 1 1 1 2 2 2 2 2 2 2 1 1 2 2 2 2 2 2 2 2 1 1 1 1 1 1 0 1 2 2 2 1 1 2 2 2 2 2 1 1 1 1 1 2 2 2 2 2 1 1 1 1 2 2 2 2 2 1 1 1 0 1 1 2 2 1 1 1 1 1 1 0 1 1 0 0 1 0 1 1 1 1 1 1 1 0 0 1 0 0 1 1 1 1 1 1 0 1 1 0 0 0 1 1 1 1 1 0 0 1 1 1 1 2 1 0 1 0 1 1 0 1 1 1 1 0 0 1 0 0 1 0 0 1 1 1 1 0 0 1 1 1 2 0 0 1 1 1 1 1 0 1 0 1 0 0 1 1 1 0 0 1 0 1 0 1 1 2 -2 4 -2 
0 3 -2 1 1 0 1 1 1 0 1 1 1 1 0 1 1 1 1 1 0 1 1 1 0 0 1 1 1 0 0 1 1 1 1 0 0 1 0 1 1 1 2 2 1 1 1 0 1 1 0 1 1 0 1 0 0 0 0 0 1 0 0 1 1 1 1 1 1 1 1 1 0 1 1 1 0 1 2 2 1 0 0 1 0 0 1 0 1 1 0 1 1 1 2 2 1 0 1 2 1 1 0 1 1 0 1 1 1 1 1 2 1 1 1 1 1 1 1 0 0 1 1 2 1 1 1 1 1 0 0 0 0 1 2 1 0 1 1 2 2 1 1 1 1 2 1 1 1 1 1 1 2 1 1 1 1 1 2 2 2 1 1 1 1 2 2 2 1 1 1 1 2 2 2 2 1 2 1 1 1 1 2 3 2 1 2 2 2 2 3 3 3 1 1 2 1 2 2 1 1 1 2 2 2 3 2 2 1 2 2 2 2 2 3 3 2 1 2 3 2 2 2 2 3 3 2 2 2 2 3 3 3 2 2 2 3 4 4 4 4 4 4 4 3 2 3 4 4 3 3 3 4 5 4 4 4 3 3 3 3 4 4 4 4 4 4 4 4 4 4 5 5 6 6 5 5 5 5 5 4 4 4 4 5 5 5 6 6 6 6 5 5 5 6 6 6 7 8 8 8 9 10 11 12 12 12 12 13 13 13 13 12 11 10 10 10 9 9 9 9 9 10 11 13 15 20 30 44 60 77 90 100 106 109 110 112 113 114 114 113 112 110 109 107 105 103 101 100 99 98 97 96 97 97 97 98 99 100 101 103 105 107 110 112 114 115 117 119 121 123 124 125 126 128 129 129 130 132 134 134 135 134 134 135 136 138 139 139 139 139 139 139 138 136 130 116 93 66 41 24 16 13 13 12 11 10 10 10 9 8 8 7 7 6 6 7 7 6 6 6 5 5 5 5 5 4 5 5 6 5 4 3 4 5 5 5 4 3 2 3 4 4 4 4 4 4 4 4 3 2 2 3 3 3 3 3 3 2 3 2 2 2 3 3 3 2 3 3 2 2 2 2 2 2 2 2 2 2 1 1 2 2 2 2 2 2 2 1 1 1 1 1 1 1 1 1 1 1 2 2 2 2 2 2 2 1 1 2 1 1 0 0 0 1 1 1 1 2 1 0 1 1 1 1 1 1 1 1 1 2 2 2 2 1 2 1 1 1 1 1 1 0 0 1 1 1 2 1 0 1 0 0 2 1 0 1 0 1 1 1 1 1 1 2 1 1 1 1 1 0 1 1 2 1 1 1 1 1 1 1 1 1 1 1 1 0 1 1 0 1 1 1 1 0 0 1 1 0 1 1 0 1 1 0 1 1 0 1 1 1 0 0 1 1 1 1 1 1 -1 0 1 1 1 0 0 1 0 0 1 2 1 1 0 1 1 1 3 -3 1 
1 1 0 0 0 2 0 1 1 1 0 1 1 1 0 1 2 1 1 0 0 0 1 1 0 0 0 0 0 1 0 1 1 1 1 0 0 1 1 1 1 1 1 1 1 1 0 1 1 1 0 1 1 1 1 0 0 0 1 -1 1 1 1 1 0 1 1 2 1 0 0 0 1 0 1 1 1 1 0 1 1 1 0 1 0 0 1 0 0 1 0 1 2 1 1 0 1 2 1 1 0 1 2 1 1 0 1 2 2 2 1 1 1 1 2 2 1 1 2 1 2 2 2 2 1 1 1 1 1 0 1 1 0 0 1 1 0 1 2 2 1 0 1 2 2 1 1 1 2 2 2 2 2 1 1 2 2 2 1 1 2 2 1 2 2 2 1 1 1 2 1 1 1 1 1 0 1 2 2 1 1 1 2 2 2 2 1 1 1 2 2 2 2 1 1 2 2 2 2 2 2 2 2 2 2 2 2 2 2 2 3 3 2 2 2 2 3 2 2 2 2 1 2 2 3 3 2 2 2 3 3 3 3 3 3 3 3 3 2 2 3 4 4 4 3 2 3 3 4 4 4 5 5 3 3 4 5 4 3 3 4 4 4 4 5 5 5 4 3 4 5 5 5 5 5 5 5 5 5 6 6 5 4 4 5 5 5 5 6 6 5 5 6 6 6 6 5 6 6 6 6 7 9 11 12 14 15 16 18 19 20 21 20 18 17 17 15 14 12 11 10 11 11 12 12 14 16 21 30 42 58 74 87 96 101 103 105 106 108 108 107 105 104 103 101 98 96 95 94 92 92 92 92 92 93 94 95 97 98 100 102 105 108 109 111 114 116 117 118 120 123 124 125 127 128 130 130 131 133 133 134 134 133 134 135 136 137 138 138 137 137 137 137 136 131 119 98 72 46 28 18 14 13 12 10 9 9 10 10 9 7 6 7 7 8 8 7 6 5 4 5 5 5 5 5 5 5 5 4 4 4 4 4 4 4 4 4 3 3 2 3 3 3 3 3 3 3 3 3 3 3 3 3 3 2 3 3 3 3 3 2 2 3 3 3 3 2 2 2 1 2 2 3 3 3 3 2 1 2 2 2 2 1 1 2 3 2 1 2 2 1 1 1 2 2 2 2 2 2 2 1 1 2 2 2 2 1 1 2 1 1 1 1 1 0 0 1 1 1 0 1 2 0 0 1 1 1 1 1 1 2 1 1 2 1 1 1 1 2 1 1 1 2 1 1 1 0 1 0 0 1 1 1 2 1 1 1 -1 0 1 1 0 0 1 1 1 1 1 1 1 1 2 2 1 1 1 1 0 0 2 1 1 0 0 1 1 1 1 1 1 1 1 1 1 1 1 1 2 1 0 0 0 1 2 1 0 0 1 1 0 1 1 1 1 1 1 1 0 0 0 1 0 -1 1 1 1 0 1 1 1 0 2 2 1 0 2 1 1 -1 1 
2 -1 2 1 0 0 1 1 0 0 1 1 1 1 1 1 0 0 1 1 1 0 0 1 1 0 0 0 1 1 1 1 1 1 1 1 1 0 1 0 0 1 2 1 1 1 1 1 0 1 1 1 1 1 1 1 0 0 1 1 3 1 1 1 1 1 0 0 1 2 0 -1 0 0 1 1 0 1 1 1 1 1 1 1 0 0 1 0 0 1 0 1 1 1 1 0 0 0 1 2 1 1 0 1 2 1 2 1 1 2 1 1 1 1 1 1 1 1 1 0 0 1 2 2 1 1 1 0 1 1 1 0 1 1 2 2 1 1 0 1 2 2 2 2 1 1 1 1 2 1 1 1 1 1 1 2 2 1 1 1 2 2 2 1 0 0 1 1 2 2 1 1 1 1 1 1 2 2 2 1 1 1 2 2 1 1 1 2 2 2 2 2 2 2 1 1 1 1 2 2 2 2 2 2 2 2 2 3 2 2 2 2 2 2 2 2 3 3 3 3 3 3 2 2 2 3 3 2 3 3 3 3 2 2 2 2 3 4 4 3 3 3 4 4 4 3 3 4 4 4 3 3 4 3 4 4 3 3 3 3 4 3 3 3 4 4 4 4 4 4 4 5 5 4 4 4 4 4 4 5 6 5 5 5 4 4 4 4 4 4 4 5 5 5 5 6 6 6 6 6 6 7 8 10 11 13 14 15 18 22 25 27 28 29 29 27 24 22 19 16 14 13 12 12 13 14 14 16 21 29 41 54 68 80 89 93 96 99 101 102 101 100 98 96 94 91 89 88 86 86 86 86 87 88 90 91 93 95 97 99 102 104 107 109 112 114 116 118 120 121 122 123 125 127 129 129 129 129 131 132 133 134 134 135 136 136 136 137 137 137 137 136 134 128 116 98 75 51 31 19 14 12 12 11 10 9 9 8 7 6 6 7 7 6 6 6 6 6 6 6 5 5 4 5 5 5 4 3 4 5 5 4 3 2 3 3 3 3 2 2 2 3 3 3 3 3 3 3 3 2 2 3 4 3 2 2 2 3 2 2 2 2 2 2 2 2 3 3 2 2 3 3 2 2 2 2 3 3 2 1 2 3 2 2 2 2 2 1 1 1 2 2 1 1 2 3 3 2 1 2 2 2 2 1 2 2 1 1 1 2 2 1 0 1 2 1 0 1 2 1 0 1 1 2 1 0 1 2 1 0 1 1 1 1 0 1 1 1 1 1 1 0 0 0 1 2 1 1 1 0 1 1 1 1 1 1 1 0 0 1 2 1 1 1 1 1 1 0 0 1 1 1 1 0 1 0 1 1 1 2 1 2 1 0 1 0 0 0 1 1 2 1 1 0 2 2 0 1 1 0 0 1 1 1 0 1 1 2 1 1 1 0 0 0 0 1 1 1 2 0 0 1 1 1 0 0 1 0 0 1 2 2 -1 -1 1 1 0 1 4 -1 
-1 3 -1 1 1 1 0 1 1 1 0 0 1 2 1 0 1 0 1 1 1 1 0 1 1 1 1 0 0 1 2 1 1 1 0 1 2 1 1 1 1 1 1 1 2 0 0 1 1 1 1 1 1 2 1 1 0 0 1 0 1 1 2 2 0 1 1 1 0 -1 0 1 2 0 0 1 1 1 0 0 1 2 1 0 1 1 1 1 1 0 0 0 1 2 2 1 1 1 2 1 1 1 2 1 1 0 1 1 1 1 1 1 1 1 1 1 1 1 1 1 1 2 1 0 0 1 1 1 1 1 1 1 1 1 1 1 0 0 2 2 1 0 1 1 2 2 1 1 1 2 2 2 3 2 1 1 2 1 2 1 1 1 0 0 0 1 1 1 1 1 1 1 2 2 2 1 1 2 2 2 1 1 2 2 2 2 2 2 2 2 2 2 2 2 2 2 2 1 2 2 2 2 2 1 1 2 3 3 2 2 3 3 2 1 1 1 2 2 2 3 3 2 3 3 3 3 3 3 3 3 2 3 4 4 3 2 2 3 3 3 3 3 3 3 3 3 4 3 3 3 3 4 4 3 4 4 4 4 4 3 3 4 4 4 4 4 4 4 3 3 4 3 3 4 4 5 5 5 5 5 5 5 5 5 5 6 5 5 5 5 5 5 5 5 4 4 5 5 5 5 5 6 7 8 9 10 11 13 15 18 22 25 28 29 30 29 27 25 22 20 18 16 16 15 16 17 18 18 19 23 31 41 53 64 74 80 85 87 90 91 92 91 90 88 86 83 81 78 77 78 80 81 83 85 87 88 90 93 96 98 101 104 107 109 111 114 116 117 118 121 123 123 125 127 128 128 128 129 131 132 134 135 135 134 133 133 134 135 137 136 135 131 125 113 96 74 52 33 20 13 11 11 11 10 9 8 8 8 7 6 7 7 6 5 5 6 7 6 5 5 5 5 5 5 5 5 5 4 4 5 4 4 4 4 5 4 3 3 3 3 3 3 3 3 3 2 3 3 3 2 2 2 2 2 2 3 3 3 3 2 2 2 2 2 2 2 1 2 3 3 2 2 2 3 3 3 2 0 1 2 2 1 1 2 2 2 2 2 2 2 2 1 1 2 2 2 2 2 2 1 1 1 2 2 1 0 1 1 1 1 1 2 2 2 1 0 0 1 2 2 3 2 1 0 1 0 1 1 1 1 1 1 1 1 0 0 1 1 2 1 0 1 2 1 0 0 1 1 1 0 1 1 1 1 1 1 1 1 0 1 1 0 0 1 1 1 0 1 0 0 1 2 2 0 1 0 1 1 0 2 1 1 1 1 1 0 1 0 1 1 1 1 2 1 0 1 1 1 1 1 2 1 0 1 1 0 0 1 0 1 0 0 1 2 1 1 1 0 0 0 0 1 0 1 1 0 -1 0 2 1 1 1 0 1 -2 1 2 1 -2 2 
1 0 1 1 1 0 1 0 1 1 1 1 1 1 1 1 0 -1 1 2 1 1 1 2 2 0 0 1 1 1 1 2 2 1 1 1 0 0 1 0 0 1 1 0 0 0 1 0 -1 0 1 1 0 1 1 2 0 0 1 2 2 1 0 0 1 2 0 0 0 1 1 0 0 0 0 0 1 2 2 2 1 1 2 0 0 1 1 2 1 0 1 1 1 1 1 0 0 1 1 1 2 2 2 1 1 1 0 1 1 1 1 1 2 2 1 0 1 1 1 1 0 0 0 1 2 1 0 0 1 1 1 1 1 1 1 2 3 3 1 0 1 2 2 1 1 1 0 1 2 2 1 1 1 1 1 2 2 2 2 1 1 2 1 1 0 0 1 2 2 2 2 2 2 2 1 1 1 1 1 2 1 1 2 2 3 2 1 2 3 2 2 2 2 1 0 1 2 2 2 1 1 1 2 1 1 1 2 2 2 1 1 1 2 2 2 2 3 3 2 2 3 3 3 3 3 3 3 3 3 3 2 2 2 2 2 3 4 4 3 3 3 3 3 3 4 3 3 3 3 3 3 3 3 3 4 4 4 4 3 3 3 3 4 4 4 4 4 5 5 5 5 4 3 3 3 4 4 4 4 4 4 4 4 4 5 4 4 3 4 4 4 5 5 5 5 5 6 5 5 5 6 6 6 6 6 7 8 9 10 13 16 18 21 23 24 25 25 24 22 19 18 17 16 16 17 19 19 19 19 21 25 30 37 46 56 64 70 73 76 79 81 81 81 80 77 74 71 68 67 68 70 73 76 79 82 86 90 92 95 98 101 104 106 108 111 113 114 117 120 121 121 123 125 126 126 126 127 129 130 131 132 133 133 133 133 134 134 135 136 134 129 121 109 91 71 51 34 22 16 14 13 12 10 8 7 8 8 7 6 6 6 6 5 6 6 6 5 5 5 6 6 5 4 4 4 4 4 4 3 3 4 4 4 4 3 3 3 4 3 3 3 3 4 3 3 2 3 3 3 2 2 3 3 2 1 2 2 3 3 3 2 1 1 2 2 2 2 3 3 2 2 2 2 2 1 2 2 2 2 2 2 2 2 1 2 2 2 1 1 1 1 2 2 1 1 2 3 2 1 1 1 1 1 1 1 1 1 0 0 2 2 2 1 2 2 2 1 1 1 1 1 1 2 1 1 0 1 2 1 0 0 1 1 1 2 2 2 2 1 1 0 0 0 0 1 2 1 0 1 1 0 1 2 1 1 1 1 2 0 0 1 1 1 0 1 1 1 0 0 1 2 1 1 0 1 0 1 2 0 1 1 1 0 0 1 1 1 1 2 1 1 1 1 1 1 1 0 0 1 0 0 1 0 0 1 1 1 1 0 1 1 1 2 1 1 2 1 1 2 2 1 1 0 0 1 0 2 2 1 1 1 1 1 1 0 1 1 -1 3 0 
1 1 -1 1 0 0 1 1 2 1 2 0 1 2 0 0 1 1 1 1 1 1 0 0 2 1 1 1 1 1 1 1 2 1 1 1 1 1 0 0 1 1 0 1 0 0 1 1 1 1 2 1 0 1 1 1 1 1 0 0 0 0 1 1 1 2 0 1 1 0 1 1 2 1 0 1 0 1 1 1 2 1 2 1 1 1 -1 1 1 1 1 0 0 2 1 1 1 1 1 1 2 1 1 0 0 1 0 0 0 1 2 2 1 1 0 0 1 1 0 1 1 1 2 1 1 1 1 2 1 0 1 0 1 2 2 2 1 1 1 2 2 1 0 0 1 2 2 2 1 1 2 2 2 2 2 1 0 1 1 1 2 2 2 1 1 1 1 1 1 2 2 1 1 2 2 2 2 2 2 2 1 2 2 2 3 2 2 2 2 1 0 1 2 3 3 1 1 1 1 1 1 1 2 2 2 2 2 2 2 2 3 3 3 2 2 2 1 1 2 3 3 2 2 3 3 2 2 3 3 3 3 3 3 3 3 3 2 2 3 3 3 3 3 4 4 4 3 3 3 3 2 2 3 4 3 3 2 3 3 3 3 4 4 4 4 4 3 4 4 4 4 4 4 4 4 5 4 4 4 4 4 3 3 4 5 5 5 5 4 5 5 5 4 4 4 4 4 5 6 6 5 5 6 6 5 6 6 7 7 8 10 12 13 14 15 17 17 17 15 13 12 12 13 14 15 15 16 16 17 18 19 22 26 32 39 47 53 57 59 62 65 67 68 68 66 63 59 56 56 59 64 68 72 77 80 83 87 91 95 98 100 103 105 107 109 112 114 115 117 119 120 122 123 125 126 127 127 128 128 128 128 130 132 134 133 132 132 132 130 126 118 104 86 65 46 31 21 16 13 11 9 8 8 8 8 8 8 6 6 6 6 6 5 4 5 5 6 5 5 4 3 3 4 5 4 4 4 4 4 5 5 4 3 3 4 4 4 3 3 3 3 3 3 3 3 3 3 3 2 2 2 2 3 3 2 2 2 2 2 1 2 2 3 3 2 1 1 2 2 3 3 2 1 1 1 2 2 1 1 2 1 2 2 2 2 3 2 2 2 2 2 2 2 2 1 1 2 2 1 1 1 2 2 2 1 1 1 1 1 1 1 2 2 2 1 1 1 2 1 1 2 2 1 1 1 1 1 1 1 2 0 0 1 1 1 1 1 1 1 2 1 1 1 1 0 0 2 2 1 1 0 1 2 0 1 1 0 1 0 1 1 0 1 2 1 0 1 2 0 0 1 1 1 -1 1 1 0 1 0 1 1 1 2 1 0 1 1 1 1 1 0 1 0 1 0 1 1 0 1 1 1 1 1 0 0 0 1 1 0 0 0 1 1 1 1 2 1 0 0 1 1 1 1 1 1 0 1 0 0 1 1 1 1 0 0 1 0 1 1 2 
0 0 1 0 1 0 0 1 1 0 1 1 1 1 1 1 0 0 1 1 1 0 1 1 1 1 1 0 1 1 0 1 1 1 1 0 0 1 0 1 1 1 0 1 0 1 1 0 1 1 2 0 1 1 -1 0 1 1 1 1 1 0 1 0 0 1 1 2 0 0 1 1 2 0 0 1 1 1 2 1 1 2 1 0 0 0 0 1 1 0 1 1 1 1 -1 0 1 1 1 1 1 1 2 2 0 0 0 1 2 1 1 0 1 2 1 0 1 1 1 2 1 1 1 1 2 1 1 1 0 1 2 1 1 1 0 1 2 2 2 1 1 1 1 1 1 2 2 2 2 1 1 1 1 1 1 1 1 1 2 1 1 1 1 2 1 1 2 2 1 1 1 1 2 2 2 1 1 2 2 2 2 2 2 2 1 1 0 1 2 2 1 1 1 1 2 2 2 2 2 1 1 1 2 2 2 2 2 3 3 2 1 2 2 2 3 3 3 3 2 2 2 2 2 2 2 2 2 2 3 3 3 2 2 2 3 3 4 3 2 2 3 3 3 3 3 3 3 3 2 2 3 3 3 4 4 3 4 4 3 2 2 3 3 3 3 3 3 3 4 5 5 4 4 4 4 4 3 3 3 4 4 5 4 4 4 4 3 3 4 4 5 4 5 4 5 5 5 5 4 4 5 5 5 4 5 6 6 6 6 6 8 9 10 11 11 12 12 12 12 11 11 11 11 12 13 13 13 14 15 16 16 17 18 20 25 31 37 41 44 46 49 52 53 53 51 48 46 44 45 49 54 60 67 72 77 81 85 89 93 97 100 102 105 107 109 110 112 114 117 119 120 121 123 124 124 124 126 127 128 129 129 131 132 132 132 131 130 126 120 111 97 79 60 42 29 21 16 13 12 12 10 9 8 8 7 7 6 6 6 6 5 5 5 5 6 6 5 5 4 4 5 5 4 3 4 4 5 5 3 3 3 3 4 4 3 3 3 3 3 3 2 2 3 4 3 2 2 2 3 2 2 2 2 2 3 3 2 2 3 3 3 2 1 1 1 1 1 1 2 2 2 2 2 2 2 2 1 1 2 3 3 2 1 1 1 2 2 2 2 1 1 2 2 2 2 2 1 2 2 1 1 1 1 2 1 0 1 1 1 2 2 1 1 2 3 2 1 2 2 1 2 1 1 0 1 2 2 1 1 1 0 1 2 1 1 1 1 2 1 2 1 0 0 0 1 1 1 0 2 3 1 1 1 1 1 1 1 1 0 0 1 2 1 0 1 1 1 1 0 1 1 0 1 1 1 1 0 1 0 0 1 1 1 1 0 0 1 1 0 1 1 1 0 1 1 0 1 2 1 1 0 0 0 0 1 1 0 1 1 1 1 1 1 2 1 0 0 1 0 1 1 1 1 0 0 0 0 1 2 2 1 2 2 0 0 0 2 0 1 1 
1 0 1 -1 0 2 1 1 2 0 1 1 1 0 1 0 0 0 1 1 1 0 2 1 1 1 1 1 1 0 0 1 0 -1 1 1 1 1 1 0 1 0 1 1 1 1 1 1 1 0 1 1 1 0 0 1 1 0 1 1 2 1 0 0 1 1 0 1 1 1 1 0 1 0 1 2 0 0 1 1 2 1 0 1 1 1 1 0 1 1 2 1 0 0 0 1 1 1 1 1 2 1 1 0 1 2 1 1 1 0 2 2 1 0 0 0 1 1 0 0 1 2 2 1 1 1 1 1 1 2 2 1 1 1 0 1 2 1 1 1 1 1 0 1 2 2 2 2 2 1 1 1 1 1 1 1 1 1 1 1 1 2 2 1 0 1 1 1 1 2 2 2 1 1 1 2 2 1 2 2 2 1 1 2 2 2 2 2 2 1 1 2 2 2 2 2 2 2 2 1 1 1 2 3 2 2 2 2 2 2 2 2 2 2 3 3 2 2 2 3 3 2 2 2 2 2 2 1 1 2 3 2 2 2 2 3 2 2 3 3 3 2 2 3 3 3 4 3 3 3 2 2 2 3 4 3 3 4 3 3 2 3 3 3 3 3 3 3 3 3 3 3 4 4 4 5 4 4 4 4 4 5 4 4 3 3 3 4 5 5 4 5 5 4 4 4 4 5 4 4 4 4 4 4 5 5 5 5 6 6 6 7 6 7 8 9 9 8 8 9 8 7 8 9 8 8 8 9 11 12 13 13 13 14 17 21 24 27 29 31 33 35 37 38 37 35 33 33 35 41 49 56 63 69 74 79 83 88 91 94 97 100 103 105 108 110 112 114 116 117 118 120 121 122 123 124 125 126 127 126 127 128 129 129 129 128 123 114 102 87 71 55 40 28 19 14 12 11 11 10 9 7 7 7 7 7 7 7 6 6 5 5 5 5 5 5 5 5 5 5 5 4 4 4 4 4 4 3 3 4 4 3 3 3 3 3 3 3 2 2 2 3 4 3 2 3 3 3 2 1 2 3 4 3 2 2 2 3 2 2 3 3 2 2 1 1 1 2 3 2 1 1 2 2 2 2 3 3 2 1 0 1 2 2 2 1 1 1 1 1 2 3 2 0 0 1 2 2 2 1 2 2 1 1 1 1 1 0 1 2 1 1 1 1 1 1 1 2 2 0 1 1 1 1 0 1 1 1 1 1 0 1 1 1 2 1 1 1 1 1 2 2 1 1 1 0 1 1 1 2 2 1 1 0 1 2 1 0 1 1 1 1 1 1 1 0 0 1 1 0 1 1 1 0 1 1 1 0 1 2 2 1 0 0 1 1 2 1 0 0 0 1 1 1 1 1 1 0 0 0 0 1 1 0 0 1 0 0 1 0 1 2 1 0 1 1 1 1 0 2 2 0 0 0 1 1 0 0 1 0 0 2 1 -1 1 0 0 0 1 1 
2 0 1 0 1 0 0 -1 1 0 1 0 1 1 1 0 0 1 0 0 2 2 2 0 1 2 1 -1 -1 0 1 0 0 0 1 0 1 1 1 2 2 1 1 1 1 1 0 0 1 1 1 0 0 1 0 0 0 1 3 0 0 1 2 1 0 0 2 2 1 0 1 0 2 0 1 1 1 1 1 0 0 2 2 2 0 0 1 0 0 1 1 1 1 1 0 1 1 1 2 1 0 0 2 2 2 0 0 1 2 1 0 1 1 1 1 1 1 1 1 1 2 1 1 1 2 1 1 2 1 1 0 1 1 1 1 1 2 1 1 1 1 1 1 1 2 2 2 1 1 1 1 1 1 2 2 1 0 1 2 2 2 1 1 1 1 1 1 1 2 2 1 1 2 1 1 1 1 1 1 1 1 2 2 2 1 1 0 1 2 3 2 2 1 1 1 1 1 2 3 2 1 0 1 1 1 1 2 2 2 2 2 1 1 1 2 2 2 3 3 2 2 2 2 2 2 1 1 2 2 2 2 3 3 2 2 2 2 2 2 3 3 3 3 3 3 2 2 2 3 4 4 4 3 3 4 5 4 4 4 4 4 3 3 3 3 3 3 3 4 4 4 4 4 3 3 3 4 4 4 4 4 4 4 4 4 4 4 4 4 4 4 5 5 5 5 4 4 5 5 4 3 4 4 5 4 4 5 5 5 5 6 6 6 6 6 6 6 7 7 7 7 7 8 9 9 9 9 9 11 12 12 12 12 11 12 14 17 19 20 21 22 24 25 25 25 25 23 24 28 35 42 50 58 65 71 76 80 85 89 92 96 99 102 104 106 108 110 111 113 115 118 119 120 121 122 123 124 125 125 126 127 127 126 124 122 117 107 94 79 62 47 35 24 17 14 12 12 11 11 9 8 7 7 7 7 6 6 5 4 5 6 6 6 5 5 5 5 4 4 3 3 4 4 4 5 5 4 3 3 3 3 3 3 3 3 2 2 2 3 3 3 3 2 2 3 3 2 3 3 3 2 2 1 2 3 3 3 2 1 2 3 3 2 1 1 2 2 2 2 2 2 2 1 1 1 2 2 1 1 2 2 1 0 1 2 3 2 1 1 2 2 1 1 2 3 2 2 1 1 2 2 1 2 3 2 1 1 1 1 2 1 1 1 1 1 2 1 2 2 2 2 2 1 0 1 2 1 1 1 1 1 1 1 1 1 1 0 1 1 1 1 1 1 1 1 0 1 1 1 2 2 1 0 1 1 1 1 0 1 1 1 1 1 0 0 0 1 1 -1 1 2 0 1 2 2 0 0 1 2 0 0 2 2 2 1 0 1 0 1 1 1 1 1 0 1 1 1 0 0 1 1 0 0 0 0 1 1 1 1 0 1 0 1 1 2 1 1 1 0 0 1 1 2 1 0 0 1 0 1 1 2 2 1 0 1 -1 2 0 0 0 
2 -1 2 1 0 0 1 2 0 0 1 2 1 -1 0 1 0 -1 0 2 1 1 0 1 1 1 0 1 1 0 1 1 0 1 0 0 1 1 1 1 0 1 1 1 0 1 2 1 1 0 0 1 1 1 0 0 2 1 1 0 2 1 -1 1 1 1 1 1 1 1 1 0 0 0 1 1 1 1 1 1 1 1 0 2 1 2 2 1 1 1 1 1 1 0 0 2 2 1 0 1 1 1 1 1 1 1 0 1 1 1 0 1 1 1 1 1 1 1 2 1 1 1 1 1 1 1 1 2 1 1 1 1 1 1 0 0 0 1 1 1 1 1 1 2 2 2 1 1 1 1 1 2 2 1 0 0 1 2 2 1 2 2 1 1 0 1 2 1 0 0 2 3 2 2 1 1 2 1 1 1 1 2 2 1 2 2 2 1 1 2 2 2 2 1 1 2 2 3 3 2 1 2 2 2 2 2 2 2 2 1 1 2 2 2 2 2 2 2 2 2 2 2 3 2 2 3 3 3 3 3 2 2 2 2 2 2 3 3 4 4 3 3 3 3 3 3 3 3 3 2 2 3 3 3 3 3 3 3 3 3 3 3 3 3 3 4 3 3 2 2 3 3 3 2 2 3 3 3 4 4 4 4 3 3 3 4 4 5 4 4 4 4 5 5 4 4 4 5 5 5 6 5 5 4 4 4 4 4 4 5 5 5 5 6 6 6 6 6 7 7 7 7 7 7 7 7 8 8 8 9 9 9 10 10 10 11 12 13 14 15 16 16 17 17 17 17 17 18 21 28 36 44 52 60 66 72 77 82 86 89 93 96 99 102 104 106 108 110 111 113 114 116 117 118 119 120 121 123 124 124 123 121 118 113 107 98 86 71 54 39 28 21 16 13 12 12 12 10 8 7 8 7 6 6 5 5 5 6 5 5 5 4 4 5 5 5 4 5 5 5 5 5 5 4 4 4 4 4 4 4 3 4 4 3 2 2 2 3 3 3 3 3 2 2 3 3 3 3 2 2 2 3 3 2 2 2 2 2 2 2 2 2 2 2 1 2 2 3 2 1 0 1 2 2 1 1 1 2 2 1 1 1 2 2 1 0 1 1 1 1 1 2 2 1 1 1 2 2 2 1 1 2 2 2 1 1 1 1 1 2 2 0 0 1 2 2 1 1 2 2 1 2 2 2 2 1 1 1 1 0 1 1 2 1 1 1 0 1 1 0 1 2 1 1 1 1 0 0 1 1 2 1 1 2 1 1 2 1 1 1 1 1 0 0 1 1 1 2 1 1 0 1 2 1 0 1 1 0 1 2 1 1 0 1 1 1 2 1 0 1 1 1 1 2 1 0 1 1 1 0 1 1 1 2 1 1 1 0 1 0 0 1 2 0 0 1 1 1 0 1 1 1 0 0 0 1 0 1 1 0 1 1 0 1 0 -1 1 -1 2 -1 
-1 6 -1 -1 2 1 0 -1 0 2 1 0 0 1 1 0 0 1 1 0 0 2 1 0 1 1 0 1 1 1 1 1 0 1 0 1 2 1 1 1 1 1 0 1 1 1 1 0 2 1 0 0 0 0 2 1 0 1 2 0 0 1 1 2 1 1 1 1 1 0 0 1 1 1 0 1 1 2 1 0 0 1 1 2 1 1 1 0 0 1 1 1 2 1 1 1 1 1 1 0 0 1 1 1 1 0 0 1 0 1 1 2 1 0 0 1 0 0 1 0 1 0 1 2 2 1 2 2 2 1 1 0 0 1 1 1 1 1 1 1 1 1 1 1 1 2 2 1 2 2 2 1 0 1 2 1 0 0 1 2 2 2 1 1 0 0 0 1 2 2 1 1 1 1 1 2 2 2 1 1 0 1 2 2 2 2 2 2 1 2 2 2 2 2 1 1 2 2 3 2 2 3 3 2 1 1 1 2 2 2 2 2 2 1 1 1 1 1 2 3 2 1 2 2 2 2 2 2 2 2 3 3 2 2 2 3 3 3 2 1 2 2 3 3 3 2 2 3 3 4 4 3 2 3 3 3 3 3 3 4 4 4 3 3 3 3 2 2 3 4 4 5 5 4 4 3 3 3 3 4 4 4 4 4 4 5 5 5 5 4 3 3 4 4 4 4 4 4 4 5 5 5 6 6 5 5 5 5 5 4 5 5 5 3 4 5 5 5 5 5 6 6 6 7 7 7 8 8 8 8 8 8 8 9 9 10 10 11 11 12 12 13 13 13 13 13 14 15 17 23 31 40 48 55 62 68 73 78 82 85 89 93 96 99 102 104 106 107 109 110 112 113 115 117 119 119 119 119 117 115 112 107 101 92 83 72 59 45 33 25 19 15 13 12 11 10 8 7 7 8 7 7 6 6 5 5 5 4 4 5 5 5 5 5 4 3 3 3 3 3 3 3 3 4 5 4 3 3 3 4 4 4 3 3 2 2 2 3 3 2 3 3 2 2 3 3 3 3 3 2 2 2 2 2 2 2 2 2 2 2 2 1 2 2 2 2 2 2 2 2 2 2 2 1 2 2 2 1 2 2 1 1 2 2 2 2 1 1 1 2 2 2 1 1 2 2 1 0 1 2 3 2 1 2 2 1 1 1 2 1 1 0 1 1 1 0 2 2 1 1 1 2 2 1 1 1 2 1 0 0 1 1 1 1 2 1 -1 0 2 2 0 0 1 1 0 0 1 1 0 0 1 1 0 1 1 2 1 0 2 2 1 1 1 0 0 1 1 2 1 0 1 2 0 0 0 0 0 1 1 0 0 2 1 0 1 1 0 1 2 0 0 1 1 0 0 1 1 0 1 1 1 1 1 2 1 1 2 0 0 1 1 1 1 1 2 1 0 1 1 1 1 1 1 1 1 0 -1 0 1 0 1 0 2 2 -1 0 2 2 -4 3 
5 -8 5 2 1 -1 2 1 0 -1 1 2 2 0 0 1 1 0 1 1 1 1 0 0 0 1 2 0 1 1 2 1 1 1 1 1 1 0 1 1 0 1 1 2 1 2 2 0 1 0 1 3 2 1 0 0 2 2 0 1 1 0 1 1 1 0 1 0 0 0 1 1 0 1 2 1 0 1 2 1 0 0 0 1 1 1 1 1 1 1 0 0 1 1 1 1 1 0 0 1 2 1 1 1 2 1 1 0 1 1 0 0 0 1 0 0 0 1 0 0 2 2 1 1 0 1 2 1 1 1 1 1 1 1 1 0 0 0 2 2 2 1 1 2 2 1 1 2 1 0 1 2 2 2 0 0 1 2 1 1 2 2 0 0 0 2 2 1 0 0 2 2 2 1 2 2 2 0 0 1 2 2 1 1 1 2 2 2 2 2 3 2 1 1 1 2 3 3 3 3 2 2 1 1 1 1 2 2 2 2 2 2 2 2 1 2 3 3 2 2 2 2 3 2 2 2 3 3 3 2 2 1 2 2 2 3 3 3 3 2 2 1 2 3 3 3 3 3 3 3 3 4 4 4 4 3 3 3 3 3 2 3 3 4 4 4 3 2 2 2 3 3 4 5 5 4 4 3 3 3 4 3 2 3 3 4 3 3 4 4 4 4 4 4 3 4 4 4 4 4 4 4 4 4 4 4 5 5 6 6 6 6 6 5 5 5 6 6 7 6 6 6 6 6 5 5 6 7 6 6 7 7 7 8 9 9 8 8 9 9 10 10 10 10 10 10 11 12 14 18 23 30 38 47 54 61 66 71 76 81 84 88 92 95 97 100 103 104 105 106 107 109 110 110 110 109 108 107 104 99 93 84 75 65 56 46 37 28 22 17 14 12 11 10 10 10 10 9 8 7 6 6 6 7 7 6 5 5 5 6 6 5 4 4 4 4 4 5 5 4 3 3 4 4 4 3 3 3 4 4 4 3 2 2 3 4 3 3 3 3 3 3 2 2 3 3 3 2 2 2 2 3 2 2 2 2 3 3 2 2 1 1 2 2 1 1 2 2 2 2 2 2 2 2 2 2 2 1 2 2 1 1 1 1 1 1 1 1 1 1 2 1 1 1 1 1 2 2 1 0 0 2 3 2 0 0 1 2 1 1 2 1 0 0 1 1 1 1 1 2 2 1 1 1 1 0 0 1 2 2 1 0 1 1 1 1 2 2 1 1 1 1 0 0 1 2 2 1 1 1 0 0 1 2 1 0 1 1 2 1 0 1 1 0 0 1 1 0 1 1 0 0 1 2 1 0 1 1 0 0 1 0 1 1 0 0 1 1 0 1 2 1 0 2 1 -1 1 2 1 -1 0 1 0 1 1 0 2 1 1 0 0 1 1 1 1 0 1 1 1 0 1 1 2 1 0 0 0 0 1 1 2 0 0 -1 2 2 0 -3 9 -5 
-2 6 -3 0 1 2 0 0 1 2 1 0 0 1 1 1 1 1 0 0 0 1 0 1 0 0 1 1 1 1 0 1 1 1 1 1 1 1 1 1 1 2 0 1 1 1 1 1 2 1 1 0 0 1 1 0 0 2 0 0 0 2 2 0 1 1 1 0 1 0 0 1 1 1 0 1 1 1 1 1 0 1 0 0 0 1 1 2 1 1 1 0 0 1 1 0 1 1 1 1 1 1 1 2 1 1 1 1 0 0 1 1 1 0 0 0 0 0 1 1 1 0 1 1 1 1 1 0 1 1 2 1 1 1 0 1 2 2 2 1 0 1 2 2 2 2 1 0 1 2 2 1 0 1 2 2 1 0 1 1 1 1 2 2 2 1 1 2 2 1 2 2 1 1 0 1 2 2 1 1 0 0 1 1 1 2 2 2 2 1 1 1 2 2 1 1 1 1 2 1 1 2 3 2 1 1 1 2 2 2 2 2 3 3 2 1 2 2 3 3 2 2 2 3 3 3 2 2 2 2 3 3 2 2 2 2 2 2 2 2 2 3 3 2 2 2 3 3 3 3 3 3 3 3 3 3 3 4 4 4 3 3 3 4 5 4 3 3 3 3 4 3 3 3 4 4 4 4 4 4 4 4 4 4 4 4 5 5 5 4 5 4 4 4 4 4 4 4 4 4 4 4 4 4 4 4 4 4 5 5 5 4 4 4 4 5 4 5 6 5 5 6 6 5 6 6 6 6 6 6 7 7 8 8 9 8 9 9 9 9 9 9 10 10 9 9 10 11 13 15 18 23 30 37 43 49 55 60 64 69 73 77 81 85 89 92 94 95 95 96 97 97 97 97 97 96 92 87 80 73 64 56 49 42 35 29 23 18 14 12 12 11 11 11 10 9 8 7 8 8 8 7 6 6 6 5 4 4 5 6 5 4 4 5 5 5 3 3 3 3 4 4 4 3 3 3 4 4 3 3 3 3 3 3 3 3 2 2 3 3 2 2 2 3 4 3 2 2 2 2 2 3 3 2 1 2 3 3 2 2 2 1 1 2 2 2 2 1 2 2 1 1 2 2 3 2 1 1 2 2 1 1 1 1 1 1 1 2 1 1 1 1 1 1 1 1 1 1 1 2 2 1 1 1 1 1 1 1 1 1 1 1 1 2 1 0 1 1 1 2 2 1 1 1 1 1 2 1 1 1 1 2 1 1 0 1 2 1 1 2 1 1 2 2 0 0 1 1 1 1 0 0 0 1 1 1 1 0 0 1 2 2 1 0 0 1 1 1 1 0 1 2 1 0 0 1 0 1 1 1 2 1 1 -1 0 2 1 0 1 1 -1 1 1 1 0 1 1 0 1 0 1 0 -1 1 2 1 0 -1 1 1 1 1 1 1 -1 -1 1 1 1 1 1 0 1 1 1 1 -1 -1 1 1 -1 1 2 1 0 1 1 4 -6 4 
0 1 0 0 0 1 0 0 0 0 1 1 0 0 1 1 1 0 0 0 0 0 0 1 1 1 1 1 1 1 0 0 1 0 0 1 1 0 0 1 2 2 1 0 1 1 1 0 1 1 1 0 1 2 0 0 1 0 -1 2 1 0 1 1 1 0 0 0 0 1 0 0 1 1 1 0 0 0 2 1 1 1 0 0 1 1 1 1 1 1 0 0 0 1 1 1 2 1 0 1 2 0 0 1 1 1 1 1 0 0 1 1 1 1 0 0 1 1 0 0 0 1 2 1 1 1 1 1 1 1 1 1 0 1 1 2 1 0 0 1 1 1 2 2 1 1 2 1 1 1 0 1 2 1 1 2 2 1 1 1 2 2 2 1 1 1 1 1 1 1 2 1 1 1 2 2 1 0 1 2 2 1 1 1 2 2 1 1 2 3 3 2 1 1 1 1 2 2 2 2 2 1 2 2 2 2 3 3 2 2 2 1 1 2 2 2 2 2 2 2 3 3 2 2 2 3 3 3 2 1 2 2 2 2 1 1 2 3 3 3 3 2 2 3 3 3 2 3 2 2 3 3 3 3 3 2 3 4 3 2 2 2 3 4 4 4 3 3 3 2 2 2 2 3 3 3 3 4 4 4 4 3 3 3 4 4 4 4 4 4 4 4 3 3 3 2 3 4 5 4 3 3 4 4 3 3 4 4 4 4 5 4 4 4 5 6 6 5 5 6 6 6 5 6 6 6 6 6 6 6 6 7 6 6 7 7 7 8 8 8 8 7 8 8 8 8 8 8 9 10 12 15 20 24 29 34 39 44 49 54 59 62 66 69 73 75 77 77 77 78 78 77 75 74 73 70 66 61 55 48 42 36 31 26 22 18 15 13 12 12 12 11 10 8 7 8 9 9 8 7 5 5 5 6 6 5 4 4 5 5 5 5 4 4 4 4 4 5 5 4 3 3 3 4 4 4 4 3 3 4 4 2 2 2 3 3 3 3 2 2 3 3 4 4 3 2 2 3 3 3 2 2 2 2 2 2 2 2 2 2 2 2 2 2 2 2 2 2 2 2 2 2 1 1 1 2 2 2 3 2 1 1 1 0 1 1 2 2 1 1 1 1 0 1 1 1 1 1 1 2 2 1 2 2 1 1 1 1 2 1 1 1 1 1 1 1 1 2 1 1 2 2 2 1 0 0 1 1 2 3 1 0 0 0 1 1 0 0 1 2 2 1 1 1 0 1 2 1 1 1 1 2 1 0 1 1 1 1 1 0 0 1 1 2 1 1 1 1 1 1 1 0 1 1 0 0 1 2 0 0 2 0 1 2 1 0 2 2 1 1 0 1 1 2 1 1 0 0 1 0 1 1 1 1 1 0 1 2 0 0 2 1 0 1 0 1 1 0 1 0 1 0 1 1 1 0 0 -1 0 2 1 1 0 0 2 1 1 3 0 0 
3 -3 1 -1 2 0 1 0 3 0 1 0 1 0 1 0 2 1 0 -1 1 1 0 0 1 1 2 1 0 1 1 0 0 1 2 1 0 0 1 2 1 0 0 1 1 -1 0 2 1 -1 1 0 0 0 1 1 0 1 1 0 -1 1 2 0 1 0 1 1 0 0 0 0 1 1 0 1 2 0 1 1 1 1 0 1 1 1 1 1 1 1 0 0 0 0 1 1 1 0 0 0 1 0 1 1 1 1 1 1 2 1 1 0 0 1 1 1 1 1 1 1 1 1 1 1 2 2 2 1 0 0 1 1 1 1 1 0 1 1 1 1 1 0 1 2 2 1 0 0 1 2 2 1 1 1 1 1 1 2 1 0 0 0 2 2 2 2 1 1 1 1 2 2 2 2 1 1 2 2 1 1 1 1 1 1 1 1 1 2 2 1 1 1 1 1 1 2 2 2 2 1 1 2 3 2 2 1 1 1 1 1 1 2 2 2 2 2 2 2 2 2 2 2 3 3 2 2 2 3 2 2 2 2 2 2 2 2 2 2 2 3 3 3 3 2 2 2 2 3 3 3 3 2 3 3 2 2 2 3 3 2 2 1 3 3 2 3 3 3 3 3 3 2 2 2 2 3 3 3 3 4 4 3 3 3 3 3 3 3 3 3 4 4 4 3 2 3 3 3 4 4 3 3 4 4 4 4 4 4 4 4 4 4 3 4 4 4 4 4 4 5 5 4 5 5 5 6 6 6 6 6 6 6 6 6 7 7 7 8 8 8 8 7 8 8 8 8 8 8 9 10 11 12 15 17 20 23 26 29 32 36 39 42 46 49 52 54 56 56 54 53 53 52 50 50 49 47 44 40 34 29 25 22 20 17 15 14 12 11 11 12 10 9 9 9 8 7 6 5 6 6 6 6 6 5 4 4 5 5 5 5 5 4 4 4 5 5 4 3 3 3 3 4 4 3 3 3 4 4 4 3 2 2 3 3 4 3 1 1 2 4 4 3 3 4 4 3 2 2 2 2 2 3 2 2 2 3 3 1 1 2 3 2 2 2 2 2 2 1 1 2 2 2 2 2 2 2 1 2 2 2 2 1 1 2 2 1 1 1 2 1 1 1 2 2 1 0 1 1 1 1 1 2 2 2 1 1 1 2 1 1 1 1 1 0 1 1 1 1 1 1 2 1 1 1 2 2 1 1 1 2 0 1 1 0 1 1 1 2 0 -1 1 2 2 1 1 1 1 1 1 1 1 1 1 1 1 0 0 0 2 1 1 1 0 1 1 1 1 1 0 1 2 0 1 0 0 2 0 0 1 1 2 1 1 0 0 1 2 0 0 2 1 -1 1 1 1 2 1 0 1 2 2 0 1 1 1 1 1 1 0 0 1 0 1 1 1 0 0 0 2 1 1 0 1 1 0 0 1 0 1 1 1 1 1 -2 2 0 2 -2 4 -1 
-1 2 -1 2 -1 2 1 1 -1 1 1 1 -1 0 1 1 0 0 1 2 0 0 0 2 1 0 0 2 0 0 -1 0 1 0 0 1 1 1 0 0 1 2 1 0 1 2 1 1 0 2 1 0 0 0 1 2 0 0 1 1 0 1 0 0 2 1 1 1 0 0 1 1 0 0 1 1 0 0 1 1 0 2 1 0 1 2 1 0 1 1 1 0 0 0 1 1 1 1 1 1 0 1 2 0 0 1 0 1 1 0 1 2 1 1 1 1 1 1 1 1 0 1 1 1 2 1 0 0 1 1 0 1 1 1 1 1 0 1 0 1 1 2 1 1 0 0 1 2 2 2 1 1 0 1 2 2 1 1 1 1 1 1 2 2 1 1 1 2 2 2 2 1 1 2 2 1 0 1 2 2 2 1 1 2 2 2 1 1 2 3 2 1 1 1 1 1 2 2 2 2 1 1 2 2 2 1 1 2 2 2 1 1 2 2 2 2 2 2 2 2 2 1 1 2 2 2 2 2 2 2 2 2 2 2 2 2 2 3 3 2 2 3 3 2 1 1 2 3 3 3 3 3 2 2 2 3 3 2 2 1 1 1 2 3 2 2 2 3 3 3 2 3 4 3 3 3 3 3 3 3 2 2 2 2 2 2 2 2 3 3 3 3 3 4 3 3 3 3 4 3 3 3 4 4 4 4 4 4 4 4 5 5 5 5 5 5 5 5 5 5 5 5 5 5 4 5 5 5 5 5 5 6 6 6 6 6 6 7 7 7 7 7 7 7 7 8 8 7 8 8 9 10 11 12 14 16 18 20 21 24 26 29 30 32 34 35 35 35 34 34 33 33 32 31 31 30 28 25 22 20 18 17 16 14 12 10 10 11 11 10 9 9 8 7 6 6 6 6 6 6 5 5 5 5 6 6 6 5 5 5 4 4 4 5 4 4 4 4 4 5 4 3 3 3 3 4 3 3 2 3 3 3 3 2 2 2 2 3 3 3 3 3 3 4 3 2 1 2 3 3 2 2 3 3 2 1 1 1 2 2 2 2 1 1 2 2 2 2 2 2 1 2 2 2 2 2 3 3 2 1 1 2 3 2 1 1 2 2 2 1 1 2 2 1 2 2 2 1 1 2 3 2 1 1 2 2 1 1 2 2 1 1 1 1 2 1 0 2 2 1 1 1 2 1 0 1 2 2 1 0 1 2 1 0 1 2 0 1 1 1 1 0 0 1 2 2 0 1 1 1 1 1 1 1 1 1 1 0 0 -1 2 3 0 0 1 2 1 0 1 2 1 1 2 1 -1 1 2 2 1 -1 1 2 0 0 1 0 -1 2 2 1 1 1 1 0 1 1 0 1 0 0 1 2 0 -1 1 2 0 0 0 1 1 0 1 1 1 1 1 1 1 1 1 1 0 1 1 1 0 1 1 2 0 1 0 2 0 1 -1 2 -1 1 
-2 6 -3 2 1 3 -1 0 1 2 -1 0 1 2 -1 0 1 2 0 0 1 2 0 0 1 2 0 1 0 1 0 1 1 1 2 2 1 0 0 1 1 0 1 2 0 0 1 1 0 1 0 0 1 1 1 0 0 0 1 0 -1 0 0 1 1 0 1 1 0 1 0 0 1 1 0 1 2 0 -1 1 1 0 1 1 1 1 1 1 0 0 0 1 1 -1 0 1 0 0 0 2 1 0 1 0 1 0 0 1 0 1 1 1 1 1 2 2 1 1 0 1 1 2 2 1 1 0 1 1 0 -1 0 1 2 1 1 0 0 1 2 2 1 1 1 1 1 1 0 1 1 2 1 1 2 2 1 0 1 2 2 1 0 1 2 2 2 1 1 1 2 1 1 2 2 1 1 1 1 1 1 1 1 2 1 1 1 2 2 1 2 2 2 1 1 1 2 2 1 0 1 2 2 2 2 1 2 2 2 1 1 2 2 2 1 1 1 2 3 3 2 2 2 2 2 3 2 1 2 3 2 1 1 2 3 3 3 2 2 2 2 2 2 2 2 3 2 1 2 3 3 3 3 3 2 2 2 2 3 3 2 1 1 3 3 3 3 3 3 3 3 3 3 3 3 3 3 3 3 3 3 3 4 4 4 3 3 3 3 3 3 3 4 4 4 4 4 4 5 5 4 3 3 4 4 4 4 4 4 4 3 3 4 4 4 4 4 4 4 4 4 5 5 5 4 4 4 5 5 5 5 5 5 6 6 6 6 6 6 6 7 7 7 7 7 7 7 7 8 8 9 9 9 9 10 10 11 12 13 14 15 16 17 18 19 21 22 23 23 24 23 22 21 21 21 21 20 19 18 16 16 14 13 13 12 11 11 10 9 9 9 8 8 8 7 7 6 6 6 6 6 6 5 5 5 5 5 5 5 5 5 4 4 5 4 4 4 5 5 4 4 4 4 3 4 4 3 3 3 3 3 3 3 3 3 3 3 2 2 3 2 2 3 4 3 2 2 2 2 2 2 2 2 2 3 2 2 2 1 1 2 2 2 2 2 2 2 2 2 2 2 1 1 2 2 3 2 1 1 2 2 2 1 1 2 2 1 1 1 1 2 2 1 1 1 1 1 1 1 1 1 1 1 2 2 2 2 1 1 1 1 1 1 1 2 1 0 1 2 2 1 1 2 2 1 1 1 2 1 1 2 2 1 1 1 1 1 1 1 2 1 0 2 2 0 0 1 2 1 2 1 0 1 1 2 1 1 1 1 0 1 2 1 0 1 3 0 -1 1 2 1 0 0 0 1 0 0 2 1 0 2 2 0 1 1 1 0 0 0 1 1 2 2 -1 0 2 1 0 1 1 0 1 1 0 1 2 1 -1 0 2 1 -1 0 1 1 0 1 1 0 1 1 1 0 1 0 1 1 1 0 2 1 1 0 1 1 2 -2 2 1 3 -4 4 
3 -6 5 1 -1 -1 3 0 0 0 1 0 1 0 1 0 0 0 2 1 1 0 1 1 1 0 0 1 1 0 0 0 1 2 2 0 1 2 1 0 2 1 0 1 1 1 0 0 1 2 1 1 0 -1 2 2 1 0 1 0 0 0 0 1 2 1 2 0 0 0 1 0 -1 1 1 0 0 1 1 1 1 0 1 1 0 1 0 0 1 2 1 1 1 0 0 1 1 1 0 2 2 1 0 0 1 0 1 1 1 1 0 1 1 1 1 1 2 1 1 2 2 0 0 1 1 0 1 1 1 2 1 1 2 1 0 1 2 1 1 1 1 1 1 1 2 2 1 1 2 2 1 1 1 1 1 1 1 1 1 1 0 1 2 1 1 2 2 1 1 1 1 1 1 1 1 1 1 1 2 2 1 1 1 2 1 1 1 2 2 2 1 1 1 1 0 0 1 2 2 1 1 1 2 2 2 2 2 2 2 2 1 2 2 2 1 1 2 3 3 2 1 1 2 2 2 2 1 1 2 3 3 2 2 2 3 3 3 2 1 2 3 3 3 3 3 2 2 2 3 3 2 2 2 3 4 4 3 2 2 2 3 3 2 3 3 3 3 3 2 1 2 3 3 3 3 3 3 3 3 3 3 3 3 3 3 3 3 3 3 3 3 3 3 3 3 3 3 3 3 3 3 3 4 4 4 4 3 4 4 4 4 3 4 5 5 4 4 5 5 5 4 4 4 4 5 5 5 5 5 5 5 5 6 6 6 6 5 5 5 5 6 6 6 6 6 7 7 6 7 8 8 8 9 9 10 10 12 12 12 13 14 15 15 15 16 16 16 16 17 17 16 16 15 14 15 14 13 13 13 12 12 11 11 10 9 8 8 8 8 7 7 7 7 6 6 6 7 7 6 5 5 5 5 5 5 5 4 4 4 4 4 4 5 5 4 4 4 4 4 4 4 4 4 4 4 4 3 3 2 3 3 3 2 2 2 2 3 3 3 2 3 3 3 3 3 2 1 1 2 2 2 2 3 3 2 1 2 2 2 2 2 2 1 1 2 2 3 2 1 1 1 2 1 1 2 1 2 2 1 1 1 1 1 1 1 1 1 1 1 1 1 1 2 0 1 2 2 1 1 1 1 1 1 1 2 2 1 1 1 2 1 0 1 2 2 1 0 0 1 2 1 1 2 1 0 0 1 1 1 1 2 2 2 1 0 2 1 1 1 1 1 0 0 1 1 1 0 1 1 2 1 -1 0 1 3 1 0 1 0 1 2 2 1 0 0 2 1 -1 0 2 1 0 0 1 0 1 2 1 0 0 2 3 0 -1 1 2 0 0 1 0 1 2 1 -1 1 2 1 0 0 1 0 0 2 0 0 1 2 0 -1 1 2 0 0 0 2 1 0 1 2 1 0 0 1 1 1 0 1 0 1 1 2 -1 0 0 2 1 0 -3 8 -3 
0 3 -1 1 2 0 0 0 2 1 0 0 1 1 1 0 2 1 0 0 1 1 1 1 0 0 1 0 1 0 1 1 1 1 2 1 0 1 2 1 0 0 2 1 0 2 1 0 0 2 1 0 1 2 1 1 2 1 0 0 1 1 0 1 1 1 2 0 1 -1 1 1 -1 -1 0 0 1 1 1 0 1 1 1 1 1 1 1 1 0 0 1 1 1 1 1 0 0 1 1 2 1 0 0 0 0 0 2 1 0 1 1 1 0 1 1 1 1 1 1 1 1 1 1 1 1 0 1 1 1 1 0 0 2 1 0 1 2 1 1 1 2 1 1 1 1 1 1 1 2 2 1 1 1 2 1 0 1 2 2 1 1 1 2 1 1 1 1 1 1 1 2 2 2 1 1 1 2 2 1 1 2 2 0 0 2 3 2 0 1 3 2 1 1 1 2 1 0 0 1 2 2 1 1 1 2 2 1 0 1 3 3 2 1 1 2 2 1 1 2 3 2 3 3 2 2 1 1 1 2 2 2 2 2 2 2 2 2 2 2 2 2 2 2 3 2 3 3 3 2 2 2 2 2 3 4 3 3 3 3 3 3 2 2 2 3 4 4 3 2 2 2 3 4 4 3 3 3 3 3 4 4 4 4 3 2 3 4 4 4 4 3 3 4 4 3 3 3 3 4 4 3 4 4 4 3 3 3 4 4 3 3 3 3 3 3 3 3 4 4 4 4 5 4 4 4 4 4 4 4 4 4 5 5 5 5 5 5 5 5 5 6 6 6 6 6 6 7 7 7 8 8 8 8 9 9 9 9 9 9 10 11 10 11 12 12 12 12 12 13 13 12 11 11 12 13 12 10 10 11 10 9 8 8 8 8 8 8 8 7 7 7 7 6 6 6 6 6 5 4 5 5 5 5 5 4 4 4 4 5 4 4 4 4 4 4 4 3 3 3 3 3 4 4 4 4 4 3 3 3 3 3 3 3 2 2 2 3 3 3 2 2 3 3 2 2 2 2 2 2 2 2 2 2 2 2 2 2 2 2 2 2 1 2 2 2 2 2 2 2 1 1 1 1 1 1 1 1 1 2 1 1 1 1 1 1 1 1 2 1 1 1 1 1 1 1 1 1 1 1 2 2 1 2 2 1 1 2 2 1 1 2 1 1 1 0 1 1 0 0 1 1 2 2 1 0 1 2 1 1 1 2 1 1 1 1 2 1 0 1 1 2 1 1 0 0 1 1 1 1 1 2 2 2 0 0 1 1 2 1 1 2 2 2 1 0 0 1 1 3 0 -1 1 1 0 -1 1 3 1 1 2 1 0 0 2 0 -1 0 2 1 0 1 1 1 1 1 -1 1 2 0 0 1 1 1 1 2 1 0 1 2 0 0 1 2 1 0 0 2 1 0 0 2 1 0 1 1 1 0 0 1 1 1 1 1 0 0 0 2 2 -1 2 
-3 5 -1 1 0 1 -1 0 1 1 0 0 0 1 1 0 0 1 1 0 0 0 1 0 -1 -1 0 0 1 1 0 0 1 1 1 1 1 2 1 1 1 0 0 1 0 0 1 2 0 0 1 1 0 1 1 0 1 1 1 0 1 2 0 0 1 2 0 -1 1 0 0 1 0 0 1 1 1 0 0 1 1 0 1 1 1 1 1 0 0 0 2 2 1 1 1 1 0 0 1 1 1 0 1 2 2 1 1 1 1 1 1 1 0 1 1 1 1 1 1 1 1 0 0 0 1 1 1 2 2 1 0 0 1 1 1 1 2 1 2 2 2 2 1 0 0 1 1 1 1 1 1 1 1 1 2 2 2 1 1 2 2 1 0 1 1 2 1 2 2 1 1 2 3 2 2 1 2 2 1 1 1 2 2 1 1 1 2 2 2 1 1 2 3 1 0 1 2 2 2 1 2 2 1 1 0 1 2 2 1 2 2 2 2 2 2 1 2 2 3 2 2 3 3 2 2 2 1 2 2 2 2 2 2 2 2 3 3 2 2 2 3 3 3 3 2 2 2 2 2 2 2 1 2 3 4 4 3 2 2 2 2 1 1 2 3 3 4 4 3 3 3 3 3 3 3 3 3 2 2 3 3 3 3 2 2 3 3 3 4 4 4 4 4 4 4 3 3 2 3 3 4 3 3 3 3 3 3 3 4 4 4 3 3 4 5 4 4 4 5 5 4 4 4 3 4 4 4 4 4 4 5 5 4 4 5 5 4 4 5 6 6 6 5 6 6 6 6 6 6 6 6 7 7 8 8 7 8 8 8 8 9 9 9 9 9 9 9 9 9 10 10 9 9 9 10 9 9 9 9 9 9 8 7 8 8 8 8 7 7 6 6 5 5 5 5 5 6 5 4 4 4 5 5 5 5 4 4 3 3 3 3 4 4 3 3 3 3 4 4 4 4 4 3 3 3 3 3 2 2 3 3 2 2 2 2 3 4 3 2 2 2 3 3 2 2 2 2 2 2 2 2 2 2 2 2 2 2 2 2 2 2 2 2 1 1 2 2 2 1 1 2 2 1 1 2 2 2 2 2 2 2 1 2 2 2 1 1 2 2 1 2 1 1 1 2 2 1 1 1 2 1 1 1 2 2 1 1 1 2 2 2 1 1 1 1 1 1 1 2 2 1 1 2 1 1 0 1 1 1 1 1 2 1 2 1 1 2 1 0 1 1 1 1 1 0 0 1 1 1 1 1 1 1 2 1 0 1 1 1 2 1 1 1 1 1 1 1 1 1 1 2 2 -1 0 1 1 1 1 2 1 1 2 0 0 1 2 1 -1 0 2 0 0 1 1 0 1 1 0 0 2 1 0 1 1 1 0 1 0 0 1 2 1 0 1 1 0 0 0 1 1 0 0 1 1 0 0 1 1 1 0 0 1 1 0 -1 0 1 4 -4 2 
4 -8 7 -1 1 -2 2 1 1 -1 1 1 1 1 1 1 1 1 1 0 1 1 1 0 0 0 1 0 1 1 1 0 1 1 1 0 0 2 2 1 1 1 1 0 1 1 0 0 1 0 0 1 1 0 0 1 1 0 1 1 0 1 1 0 0 2 2 0 0 1 1 1 0 1 0 -1 1 1 0 1 2 2 1 1 1 0 1 1 1 0 1 1 1 2 1 1 0 0 0 0 1 1 1 2 1 1 1 0 1 1 1 1 0 1 0 1 1 1 1 1 0 1 1 1 1 1 1 2 1 0 0 0 0 1 1 1 1 1 1 1 1 0 1 2 1 0 0 1 1 1 1 1 1 1 1 2 2 2 2 1 2 2 1 0 0 2 2 2 1 2 2 2 1 1 2 2 1 1 1 1 2 1 1 1 2 2 1 1 2 3 2 1 1 2 2 1 1 2 2 1 2 2 2 2 2 2 1 1 2 3 2 1 1 2 2 1 1 2 3 2 2 3 2 2 2 3 2 1 1 2 3 3 2 2 2 3 3 2 2 3 3 2 2 2 2 2 2 2 3 3 3 2 2 3 3 3 2 2 2 3 2 2 2 2 3 3 3 2 3 3 3 3 3 3 3 3 2 2 3 3 3 3 3 3 2 2 2 3 5 5 4 3 4 4 4 3 3 3 3 4 3 3 4 4 3 3 3 3 3 3 4 3 3 4 3 3 4 4 5 4 4 4 4 4 4 4 4 4 4 4 4 5 5 5 5 5 6 5 5 5 5 5 5 6 6 6 6 6 6 6 6 6 7 8 8 7 7 7 7 7 7 7 8 8 8 9 8 8 8 8 9 8 8 8 9 8 8 8 8 8 7 7 8 9 8 7 6 6 6 5 5 6 6 6 6 5 5 5 5 5 4 4 5 5 4 4 3 3 3 4 4 4 4 3 3 3 3 3 4 3 3 4 3 3 3 3 3 3 3 3 3 2 2 3 3 3 2 2 3 2 2 3 3 2 2 2 2 2 1 2 2 2 1 1 1 2 2 2 2 2 2 2 2 2 2 2 2 2 2 2 2 2 1 1 1 2 2 2 2 1 1 2 2 1 1 1 1 2 2 1 1 1 1 2 2 1 1 1 1 1 1 1 1 2 2 1 1 1 2 1 1 2 2 0 0 1 1 1 1 1 1 1 1 1 1 1 1 0 1 1 1 1 0 1 1 1 2 2 1 1 1 1 2 1 2 1 1 0 0 1 0 1 1 1 1 1 1 0 1 1 1 1 1 1 0 1 2 1 1 0 0 1 1 1 0 0 2 2 1 -1 2 2 -1 1 2 0 0 1 1 0 0 2 1 0 0 1 0 1 1 0 0 1 2 0 0 0 1 1 1 0 1 2 1 0 0 1 1 -1 0 1 1 0 0 0 1 0 1 0 1 0 2 0 1 -1 3 0 3 -5 9 -4 
-1 5 -3 1 1 2 -1 0 0 2 1 0 0 2 0 1 1 1 1 1 0 1 1 1 0 0 1 0 1 1 1 0 1 1 0 0 0 2 1 1 1 1 1 1 0 1 1 0 -1 0 0 1 1 1 -1 1 2 0 1 2 1 1 0 1 1 0 0 2 1 0 1 1 0 0 2 1 0 0 1 1 1 2 1 1 1 0 0 0 1 1 1 1 1 1 0 2 0 0 0 0 1 0 1 2 1 0 0 0 1 0 1 1 1 0 0 1 1 1 1 1 1 1 1 1 1 1 1 1 2 1 1 1 1 1 1 1 1 1 0 0 1 2 1 1 1 1 1 1 0 1 1 1 0 1 2 2 1 2 2 2 1 1 1 1 1 0 1 2 2 1 1 2 2 1 1 2 3 2 1 1 2 2 1 0 1 2 1 1 1 2 2 2 2 1 2 2 2 2 2 2 2 2 2 2 2 2 2 2 2 2 2 1 1 1 2 2 2 2 3 3 2 2 2 2 2 2 2 2 2 2 3 2 2 3 2 2 2 3 3 3 2 3 3 2 2 2 3 2 2 2 3 2 2 3 3 3 2 2 3 2 2 2 3 3 3 2 2 2 2 3 3 3 3 2 3 3 3 3 3 3 2 3 3 3 2 2 3 4 3 3 3 3 3 3 3 4 3 3 2 3 3 3 3 3 3 3 3 3 3 4 4 4 4 4 5 5 4 4 4 4 4 4 3 3 3 4 4 4 4 4 4 4 5 5 5 4 4 5 5 5 5 4 4 5 5 5 5 5 6 5 5 5 6 6 7 7 7 7 7 7 7 7 8 8 7 6 6 7 8 8 8 7 7 7 7 6 7 8 8 7 7 7 7 7 6 6 5 5 5 5 5 5 5 4 5 5 5 5 5 4 4 4 4 4 4 4 3 3 4 4 4 3 3 3 3 3 4 4 4 4 4 3 3 3 2 2 3 3 3 3 3 2 2 2 3 3 3 3 3 2 2 2 2 2 2 2 2 2 1 1 2 2 2 2 2 2 2 2 1 1 2 2 2 1 2 2 2 2 1 1 2 2 2 2 3 2 2 2 2 2 1 2 2 2 2 1 1 1 1 1 2 2 1 1 2 1 0 0 1 2 1 1 0 1 1 1 1 0 0 0 1 2 2 1 1 0 0 1 2 1 1 1 1 1 0 0 1 1 1 1 1 2 0 0 1 1 2 1 1 2 1 1 1 1 2 0 1 1 0 0 0 1 1 2 1 1 1 1 1 0 0 1 1 -1 -1 1 0 0 1 1 0 1 2 1 0 1 1 1 1 1 2 1 0 2 1 0 1 1 0 1 1 0 0 2 1 0 0 1 1 1 1 0 1 1 1 0 0 0 0 1 1 1 0 2 1 0 1 1 0 0 0 1 1 1 0 0 1 1 0 1 1 2 1 1 -1 1 1 4 -3 3 
-2 3 0 0 0 1 0 2 -1 0 2 1 0 1 0 2 1 1 1 2 1 0 0 1 1 1 1 1 1 0 0 1 0 0 0 0 0 1 1 1 1 1 1 1 1 1 1 0 0 1 0 0 0 2 0 -1 1 2 1 0 1 2 0 0 1 1 0 1 1 1 0 1 1 0 1 0 0 0 1 1 1 1 0 0 0 0 1 1 1 1 1 0 1 1 0 1 0 1 1 0 1 2 1 0 1 2 1 0 2 1 1 1 1 1 1 1 1 1 1 1 0 2 2 1 1 2 1 1 2 2 2 1 1 2 2 1 0 1 1 1 0 0 1 2 2 1 1 2 1 0 0 1 1 1 1 2 2 1 1 1 2 2 1 1 1 1 1 1 2 2 1 1 2 2 1 1 2 2 2 1 1 1 1 1 1 1 2 2 2 2 1 2 2 2 2 2 2 2 2 1 2 2 1 1 2 2 1 1 1 2 2 2 2 1 1 2 2 3 3 2 1 1 2 2 2 2 2 2 1 2 3 3 3 2 2 2 3 2 3 3 2 2 2 2 2 2 3 3 3 3 3 2 2 2 3 2 2 2 3 3 3 3 2 3 3 2 1 1 2 3 3 4 3 3 2 2 2 2 2 2 2 3 3 3 3 2 2 3 3 3 3 2 2 3 3 3 4 3 3 4 3 2 3 3 3 3 3 3 4 4 4 3 3 4 4 4 3 3 4 5 4 4 3 4 4 4 4 4 3 3 4 5 4 4 4 4 4 4 4 5 5 4 4 5 5 5 5 4 5 5 5 5 6 6 6 6 6 5 6 6 6 6 6 6 6 6 7 8 7 7 6 6 6 6 6 6 6 7 7 6 6 6 6 5 5 5 5 5 5 5 5 6 6 6 5 4 4 5 5 4 4 3 3 3 3 2 3 3 3 4 3 3 3 3 3 3 4 3 3 3 3 3 3 3 3 3 3 3 3 2 2 2 3 3 3 2 2 2 2 2 2 2 2 2 2 2 2 2 1 1 2 2 2 2 2 2 2 2 2 2 2 2 2 2 2 1 1 2 2 2 2 2 2 2 2 1 1 1 1 1 1 1 1 1 2 2 1 1 2 2 1 2 1 1 2 1 1 1 2 2 2 1 1 1 1 1 1 1 1 1 1 2 1 1 1 1 1 1 2 1 2 1 0 1 1 1 2 1 0 1 1 1 0 1 1 0 1 2 2 1 0 2 2 1 1 1 1 1 0 0 1 0 0 2 2 1 0 1 1 1 1 1 0 1 1 1 0 1 0 0 1 2 2 0 0 1 1 1 1 2 1 1 1 1 0 1 2 0 0 0 0 0 0 1 0 1 1 1 0 0 1 1 1 0 0 1 0 0 1 1 0 1 0 1 2 1 0 0 0 1 0 1 1 1 1 0 0 1 1 1 0 1 0 2 0 0 0 2 -2 2 
3 -5 4 -1 1 -1 1 0 1 -1 1 0 1 0 0 0 1 0 1 1 1 0 0 -1 1 1 1 -1 1 1 2 2 0 0 0 0 0 1 1 0 1 1 1 1 2 1 1 1 0 -1 1 2 0 1 2 1 -1 0 2 1 1 1 2 1 0 1 1 1 1 1 1 0 1 1 1 0 0 0 1 1 1 0 0 1 1 -1 0 1 1 1 1 1 1 0 1 2 1 0 1 1 1 1 1 2 1 1 2 2 1 1 1 2 2 1 1 1 1 0 1 1 0 1 2 1 0 0 1 1 1 1 1 1 1 1 1 1 1 1 1 1 2 1 1 1 1 2 1 1 1 1 1 1 1 1 1 1 1 2 1 0 0 2 2 1 0 1 1 1 0 0 1 2 1 0 1 2 2 1 1 2 2 1 0 0 1 1 1 0 1 2 2 1 2 2 2 2 2 2 2 2 2 1 1 2 2 1 1 1 2 2 2 2 2 1 1 1 2 2 2 2 2 2 2 2 2 2 1 1 2 2 2 1 2 2 2 2 2 2 2 2 2 2 2 2 1 1 2 3 3 2 2 2 2 2 2 2 3 3 3 2 2 3 3 3 2 2 3 3 3 2 3 3 3 3 3 3 3 3 3 2 2 2 2 1 2 3 3 3 3 3 3 3 4 4 2 2 3 3 3 4 4 3 3 3 4 3 3 3 4 3 3 3 4 4 5 5 4 4 4 4 4 4 3 4 4 4 3 3 3 3 3 4 4 4 4 3 4 4 4 4 4 3 4 5 4 4 4 4 4 5 5 5 5 5 5 6 6 6 6 6 6 6 7 6 6 5 6 7 7 6 5 5 6 7 6 6 6 6 6 6 6 6 6 5 5 5 5 5 5 4 4 5 5 4 4 4 4 4 4 4 4 4 4 4 4 3 4 4 3 3 3 2 3 3 3 3 3 4 4 4 3 3 3 3 3 3 3 3 2 2 2 2 3 2 2 3 3 3 2 2 3 2 1 1 2 3 3 2 2 2 2 1 1 2 2 2 2 1 1 2 2 1 1 2 2 2 2 1 2 2 2 1 2 2 2 1 1 2 2 1 1 1 1 1 1 2 1 1 1 1 2 2 1 1 2 1 1 1 2 2 2 2 2 1 0 1 2 1 1 0 1 2 2 1 1 1 1 2 2 2 2 1 1 2 2 2 2 2 1 1 1 1 1 1 0 0 1 1 1 1 2 2 1 1 1 0 0 1 1 1 1 0 1 1 0 0 1 1 1 0 0 0 1 1 1 1 1 1 0 0 2 1 1 1 1 0 1 2 1 0 1 2 1 0 1 1 0 0 2 1 1 1 1 0 1 1 1 1 1 0 0 1 1 0 0 0 1 0 1 0 0 1 1 0 2 1 1 0 0 0 2 1 2 0 0 0 2 0 0 0 1 1 1 -1 3 1 1 -3 6 -2 
-1 4 -1 -1 1 2 -1 0 0 1 1 0 0 0 1 1 0 1 1 1 1 1 1 1 1 1 1 0 0 1 1 1 1 1 0 1 1 0 0 1 1 0 0 0 1 1 0 0 1 1 0 0 2 1 0 1 2 1 0 1 2 0 1 1 1 1 1 1 1 1 0 1 1 1 0 0 1 1 1 0 1 0 0 0 1 1 1 2 1 2 1 0 0 2 1 0 1 1 1 1 1 1 0 1 1 1 1 1 1 1 0 0 2 1 1 0 1 0 0 1 1 2 1 1 1 1 1 1 1 1 1 1 1 1 1 1 1 1 2 2 1 0 1 1 1 1 2 1 0 1 1 1 0 0 1 1 1 0 1 1 1 1 2 2 1 1 1 1 1 1 1 1 2 1 0 0 2 2 2 0 0 1 1 1 1 1 2 1 1 1 2 2 2 1 2 2 1 1 1 2 2 2 1 1 2 2 1 1 1 2 2 2 2 2 2 2 2 2 2 1 2 3 2 2 2 2 2 2 2 2 1 1 1 2 2 2 1 1 2 2 1 2 2 2 2 2 3 3 2 2 2 2 2 2 2 2 3 2 3 3 2 2 2 3 3 3 3 3 3 2 2 2 3 3 3 3 3 3 3 3 3 3 3 2 2 2 2 3 3 3 3 3 3 4 3 3 3 2 3 3 3 2 3 3 3 3 3 3 4 3 3 3 3 3 3 3 2 3 3 3 3 4 4 4 4 4 4 3 3 4 4 4 4 4 5 4 4 4 4 4 4 4 4 4 4 4 4 4 4 5 4 5 5 5 5 5 5 5 5 5 5 5 5 5 6 5 6 6 6 5 5 5 5 6 6 6 6 5 5 5 5 5 5 5 5 6 6 5 5 4 4 5 4 4 5 5 5 4 4 4 4 4 4 4 4 3 4 5 4 3 3 3 3 3 3 3 2 2 3 3 2 3 2 2 3 3 3 3 3 3 2 2 3 3 3 2 2 2 3 3 2 2 2 3 2 2 2 3 2 2 2 2 2 2 2 2 2 1 1 1 1 1 1 1 2 2 2 1 2 2 2 2 1 1 2 1 2 2 2 1 2 1 1 1 0 1 1 1 2 2 2 2 2 2 1 1 2 2 1 1 1 1 1 2 2 1 1 1 1 1 0 1 1 1 1 1 1 1 2 2 2 0 0 1 1 2 2 1 1 1 2 1 1 1 1 1 1 0 0 1 2 2 1 2 0 0 1 1 2 2 1 0 1 0 0 1 1 1 1 2 1 1 1 1 1 2 1 1 1 0 0 0 1 1 1 1 2 2 1 1 1 1 2 2 1 -1 0 2 2 1 1 1 1 0 1 1 0 1 1 0 0 0 0 0 1 1 1 0 1 1 0 0 1 2 1 0 1 2 1 1 1 1 1 1 0 0 1 0 0 0 -1 1 1 1 0 1 1 2 -2 3 
1 -1 2 0 0 0 1 1 0 0 1 1 0 1 1 1 0 0 0 2 1 1 0 1 1 1 0 0 1 1 1 1 1 1 1 1 1 1 0 0 0 1 1 1 0 1 0 0 0 1 1 0 1 1 1 0 0 1 1 1 1 0 1 1 1 1 1 1 -1 0 1 1 -1 1 2 0 -1 1 2 0 0 0 0 0 1 2 1 1 1 0 1 1 0 1 1 0 1 1 1 1 1 0 0 1 1 1 2 2 0 1 1 1 1 1 1 0 0 1 1 1 1 1 1 1 1 1 1 1 0 1 1 1 0 1 1 1 1 1 1 2 1 1 0 1 2 1 1 1 1 1 0 1 1 1 1 1 2 2 1 1 2 2 1 1 1 1 1 1 1 1 1 1 1 2 1 2 2 2 2 1 0 1 1 1 1 1 1 2 1 1 1 2 2 1 1 1 2 2 0 1 2 2 1 1 1 1 2 2 1 1 1 2 2 1 1 1 1 1 1 2 2 2 2 2 2 2 2 2 2 1 1 1 1 1 2 2 2 2 2 2 2 2 2 2 2 2 2 2 1 2 2 2 2 2 2 3 3 3 2 2 2 2 2 2 2 2 2 3 2 2 2 2 2 3 3 3 3 3 3 3 2 2 1 1 2 2 2 3 3 3 2 2 3 3 3 3 3 2 2 3 2 2 3 3 3 3 3 3 3 3 3 3 3 3 3 3 3 3 2 3 3 2 3 3 3 3 3 4 3 3 4 4 4 4 5 4 4 4 3 4 4 4 3 4 4 4 4 4 4 4 5 6 6 5 5 5 5 5 5 6 6 5 5 6 5 5 6 6 5 6 6 5 6 7 6 6 5 5 5 5 6 5 5 4 4 5 5 5 4 3 3 3 4 4 4 4 4 4 3 3 3 4 4 4 4 3 4 4 4 3 3 2 2 2 2 3 3 3 3 3 3 3 2 3 3 2 1 2 3 2 2 2 3 3 2 3 3 3 3 3 3 2 2 2 2 3 2 2 2 2 2 2 2 3 2 2 2 2 2 2 1 1 2 2 2 1 1 1 1 2 2 2 1 1 2 2 2 2 2 2 2 2 1 1 1 2 2 1 1 2 2 2 1 1 1 2 2 2 1 1 1 1 1 1 1 2 2 1 1 2 1 1 1 1 1 1 1 1 2 2 1 1 2 1 1 1 1 1 1 1 2 0 1 1 0 1 1 1 1 1 1 2 1 1 0 1 1 1 2 2 2 1 1 0 1 1 0 0 2 1 0 2 0 0 1 1 0 0 2 1 -1 0 1 1 0 1 1 1 0 1 1 1 1 1 0 0 0 1 1 2 2 0 0 0 0 0 1 1 0 1 1 1 0 0 1 1 1 1 0 1 1 1 0 1 1 1 1 1 1 1 1 1 0 1 0 1 0 0 -1 0 0 1 0 0 1 1 1 0 3 0 
2 -1 1 2 2 -1 1 0 1 1 0 0 1 1 1 0 0 1 1 0 1 1 1 0 0 1 0 0 0 1 2 1 0 1 1 0 0 1 1 1 0 0 1 1 1 1 0 0 1 1 1 1 1 0 1 1 1 1 1 1 1 1 1 0 1 1 0 1 1 1 0 1 1 1 0 2 1 0 1 2 0 1 1 1 0 2 2 1 0 0 0 1 1 0 0 0 1 1 1 1 1 0 1 0 1 1 0 1 1 1 0 1 1 0 0 0 1 1 1 1 1 1 1 1 2 1 1 1 1 1 1 1 0 1 1 1 1 2 2 1 1 1 1 1 1 1 1 1 1 1 1 1 1 1 1 1 2 1 1 1 1 1 1 1 1 1 2 1 1 0 1 1 1 1 1 2 2 1 1 1 1 1 1 1 1 2 2 1 1 2 3 2 1 1 2 1 1 1 1 2 1 1 0 1 1 1 1 1 2 2 1 2 2 2 2 2 2 1 2 2 2 2 1 1 2 2 2 1 2 2 1 1 1 1 2 2 2 2 2 2 1 2 2 2 3 3 2 2 1 1 2 2 2 2 2 2 2 2 2 2 2 2 2 2 2 2 2 3 2 2 2 3 3 3 3 3 3 3 3 3 3 3 2 1 2 2 1 2 3 3 2 2 2 3 4 4 4 3 3 3 3 3 3 3 3 3 3 3 3 3 3 4 4 3 3 2 3 3 2 3 4 3 4 4 4 4 3 3 4 4 4 4 4 4 4 4 4 4 4 4 4 4 4 4 5 5 5 4 5 5 5 5 5 5 5 5 4 4 4 5 5 5 5 4 4 4 5 5 4 4 5 5 5 5 5 4 5 5 4 4 4 5 5 5 5 5 5 5 5 4 4 4 4 4 5 5 4 3 3 3 4 4 4 4 3 3 3 3 4 4 3 3 3 3 3 3 3 2 2 2 2 3 2 3 3 2 1 2 2 2 2 2 2 2 2 2 2 1 2 3 3 3 3 2 2 2 2 1 1 2 2 2 2 3 2 2 1 1 2 2 2 1 1 2 2 1 2 1 1 1 2 2 1 1 2 2 2 1 1 1 2 2 1 1 1 1 2 2 1 1 2 2 1 1 1 2 1 1 1 1 1 1 2 1 1 1 2 2 1 1 1 1 2 1 1 2 1 1 1 1 1 1 2 1 1 2 1 0 1 1 2 1 1 0 1 1 0 1 2 1 0 1 1 1 1 2 1 1 1 1 2 1 1 2 1 -1 0 1 1 1 2 1 0 1 1 0 1 1 1 1 1 1 0 0 1 1 0 1 2 1 1 1 1 1 0 0 0 2 1 0 1 1 1 1 0 1 1 1 1 1 1 1 1 1 0 0 0 0 0 1 1 1 2 1 1 1 0 1 1 1 1 1 1 1 1 1 1 0 0 1 2 0 0 -1 1 0 0 0 2 1 
-1 3 -1 2 0 0 1 0 1 1 1 1 1 1 1 1 1 0 1 1 0 0 1 1 0 -2 -1 1 1 0 1 1 1 0 1 1 1 1 1 1 1 1 1 1 1 1 1 0 0 1 1 1 1 -1 0 0 1 1 1 0 0 1 1 0 0 1 1 0 0 2 1 0 1 2 0 0 2 1 0 1 1 1 0 1 2 1 1 1 1 0 1 1 0 -1 1 1 0 1 2 1 0 0 1 0 1 1 1 1 1 1 0 0 0 1 1 1 1 1 1 1 1 0 1 1 1 1 1 1 1 1 1 1 1 1 1 1 1 1 1 1 1 1 1 1 1 1 2 1 1 1 1 1 1 1 2 2 2 2 2 1 1 1 1 1 1 1 1 1 2 2 1 1 2 2 1 1 1 2 2 1 1 2 2 1 1 2 2 2 1 2 3 2 1 0 1 2 2 2 2 2 1 1 1 1 1 2 2 1 1 1 1 1 2 2 1 1 1 1 2 2 1 1 2 1 2 2 2 2 2 2 2 2 1 1 2 2 2 2 2 2 2 2 2 2 2 3 3 2 1 1 2 1 2 2 3 3 2 2 2 2 2 1 1 2 2 2 2 3 3 2 2 3 2 2 3 4 4 3 2 1 2 3 3 3 3 3 2 2 2 2 2 3 3 3 3 3 4 3 3 3 3 3 3 3 3 3 3 3 3 3 3 3 3 3 3 3 3 3 2 3 3 3 3 2 2 3 3 4 4 4 4 4 4 4 4 3 3 3 4 4 3 2 3 4 3 3 4 4 4 4 4 4 4 4 5 5 4 4 4 5 5 5 5 4 4 4 4 5 4 4 5 5 5 5 5 5 4 4 4 5 5 5 4 4 4 3 4 4 4 3 3 3 4 4 4 4 3 3 4 4 4 4 4 4 4 3 3 3 3 3 3 2 2 2 2 2 3 3 3 2 2 2 3 3 3 2 2 2 3 2 2 1 2 3 3 2 2 2 2 2 2 1 2 2 2 2 1 2 2 2 2 2 2 2 2 2 2 2 2 2 2 2 2 1 1 2 2 1 1 2 2 1 1 1 2 2 2 2 2 1 2 2 2 1 1 1 1 1 1 1 1 1 1 1 1 1 2 1 1 1 1 1 1 0 1 1 1 1 1 1 1 1 2 2 2 1 1 1 1 1 1 1 1 0 1 1 1 1 1 1 1 1 1 0 0 1 2 2 1 0 1 1 0 0 2 1 0 1 1 1 1 1 1 0 1 1 1 -1 0 1 2 1 1 2 0 0 0 0 1 2 2 0 0 1 0 0 0 1 1 1 1 1 1 0 0 1 1 1 1 1 1 1 1 1 1 1 1 1 1 0 0 -1 -1 0 1 0 0 0 1 1 1 1 2 2 1 0 0 1 1 0 0 1 0 1 0 0 1 1 1 1 1 0 1 1 0 1 1 2 -1 2 
0 1 0 2 0 1 0 0 1 1 1 1 0 1 1 0 1 1 1 1 0 1 0 1 1 0 -1 0 1 1 1 0 1 2 1 0 1 1 1 1 1 2 1 1 1 1 0 0 1 1 1 2 2 1 1 0 1 1 0 0 0 0 1 2 1 0 0 1 0 0 2 2 0 -1 2 1 0 1 2 1 -1 1 1 1 1 2 1 0 1 2 0 0 1 0 -1 1 1 0 0 2 1 0 1 1 2 1 0 0 1 1 1 1 1 1 1 2 1 0 0 1 1 0 2 2 1 1 0 1 1 1 1 1 1 0 1 1 1 1 1 1 0 0 1 1 1 1 1 2 1 0 1 2 2 0 1 1 2 2 1 1 1 1 1 1 1 1 1 1 2 2 1 1 1 2 2 1 1 2 2 1 1 1 2 1 1 1 1 1 1 2 2 2 2 1 1 1 1 1 1 1 1 1 1 2 2 1 1 0 1 2 2 2 2 2 2 2 2 1 1 2 2 2 1 1 2 2 2 2 2 2 2 2 2 2 1 1 2 2 2 1 2 3 3 3 4 3 2 1 1 2 2 1 1 2 3 3 2 2 2 3 2 1 1 3 3 3 3 2 2 2 3 3 2 1 2 3 3 2 2 2 3 3 3 3 3 3 2 2 3 4 3 3 3 2 2 3 3 3 3 2 3 3 3 3 2 2 2 3 3 3 3 3 3 3 2 2 3 4 3 3 4 4 4 3 3 3 4 4 4 3 4 4 4 3 3 4 4 4 4 4 4 4 3 3 5 5 5 4 4 4 4 4 4 4 4 4 5 4 4 4 5 5 4 4 4 4 4 5 5 4 4 4 4 5 5 4 5 5 4 5 5 4 3 3 4 4 4 4 4 4 4 3 4 4 4 4 4 3 4 4 4 3 3 3 3 3 3 3 3 3 4 4 3 3 4 3 3 3 2 2 2 2 3 3 3 3 2 2 2 2 2 2 2 2 2 2 2 2 2 2 2 2 3 2 2 1 1 1 1 2 2 2 2 2 2 1 1 1 2 2 2 2 2 1 1 1 2 2 2 1 2 2 1 1 1 1 1 1 1 1 1 1 1 1 2 1 1 1 1 1 2 2 2 2 2 2 1 1 0 0 1 2 2 1 1 1 1 1 1 1 1 0 0 1 2 1 2 1 0 1 2 1 1 1 2 1 2 1 0 1 1 1 1 1 1 0 0 2 2 2 1 0 0 1 1 1 2 2 0 1 2 2 1 1 1 0 0 1 1 0 0 1 1 1 1 1 1 0 1 1 0 1 2 1 0 0 1 0 0 2 2 1 1 1 0 0 1 2 1 0 1 1 1 1 1 1 1 1 1 1 1 1 0 0 0 0 0 0 0 1 1 1 0 1 1 1 0 0 0 1 1 0 0 1 0 1 0 0 1 1 1 0 0 2 1 0 0 1 1 1 
1 -2 2 1 -1 1 0 2 1 1 0 1 0 1 1 0 2 1 1 1 0 0 1 1 0 0 0 0 1 1 1 0 0 1 0 0 0 0 2 1 1 2 1 1 1 1 0 0 0 1 2 2 1 0 0 0 0 1 1 -1 0 0 0 1 1 1 1 0 1 1 0 0 1 0 0 1 0 1 0 1 0 -1 0 1 1 0 0 1 0 0 1 1 0 0 1 1 0 1 1 0 1 2 1 0 2 1 0 0 1 1 1 1 1 1 0 1 1 0 1 1 1 1 1 1 1 1 1 1 1 1 1 1 1 1 1 1 1 1 2 1 1 1 1 1 1 1 1 1 1 1 1 1 1 1 1 1 1 2 1 0 1 1 1 1 1 2 2 2 1 1 1 2 2 1 1 2 1 1 1 1 1 2 2 1 1 1 2 1 1 1 2 1 1 1 1 1 1 2 2 1 1 2 3 3 2 1 1 2 2 1 1 1 2 3 2 1 2 2 2 2 1 1 1 2 2 2 1 2 2 2 2 2 1 1 2 2 2 1 1 2 3 3 2 2 2 2 2 1 1 2 2 1 2 2 3 3 2 3 2 2 1 1 1 2 3 3 2 3 2 2 2 2 1 1 3 4 3 2 2 2 2 2 2 3 4 4 3 2 2 2 2 3 3 3 3 3 3 3 2 2 3 4 4 3 2 2 2 2 2 3 3 3 4 4 4 3 3 3 3 3 4 3 3 4 4 3 3 4 4 4 4 3 4 4 4 3 3 4 4 4 4 4 4 4 4 4 4 4 3 4 4 3 3 4 4 4 4 4 4 5 5 5 4 4 4 4 4 5 5 4 4 5 5 5 4 4 4 4 4 4 4 4 3 3 4 4 4 3 3 4 4 3 2 3 4 4 4 3 4 4 3 3 3 3 2 3 3 2 2 3 3 3 3 3 2 2 3 4 3 2 2 2 3 3 2 3 2 2 2 2 2 1 1 2 3 3 2 2 2 2 1 2 2 1 2 2 2 2 2 2 2 1 1 2 2 2 2 2 2 2 2 2 1 1 2 2 1 2 2 2 2 2 1 1 1 2 2 2 2 1 1 2 2 2 1 1 0 0 1 1 1 1 1 1 1 1 2 2 2 1 1 1 1 1 1 1 1 2 1 0 1 1 1 1 2 1 1 1 2 2 1 1 1 1 1 1 2 1 1 2 1 1 1 0 1 2 1 1 1 0 0 1 1 1 1 1 1 1 2 2 1 1 1 1 1 1 1 1 1 1 0 0 0 1 2 1 -1 1 1 0 0 0 0 1 2 1 1 0 1 2 1 2 1 0 1 1 1 1 1 1 1 1 1 1 1 1 1 0 1 0 0 0 0 1 -1 0 1 0 0 0 1 1 0 1 0 0 1 1 0 0 1 1 1 1 -1 1 0 0 1 0 0 1 -1 1 1 1 0 0 3 1 
0 2 0 0 0 2 1 0 1 1 0 0 0 0 1 0 1 1 1 1 0 0 0 0 0 0 0 1 1 0 1 1 0 0 0 1 1 0 1 1 1 1 0 1 1 1 1 1 0 0 1 1 2 1 0 1 1 1 1 0 1 0 0 1 0 0 1 0 0 0 1 0 1 0 1 2 1 1 1 1 0 0 1 1 2 2 0 0 1 1 0 1 1 0 1 2 2 0 1 2 0 0 1 1 1 1 1 0 1 2 1 0 2 2 0 1 1 1 1 0 1 1 1 1 1 1 2 1 1 1 1 1 2 2 1 0 0 2 2 1 0 1 1 0 0 0 2 1 1 1 1 1 0 0 1 1 1 1 1 1 1 1 1 1 1 1 1 1 2 2 1 1 1 1 1 1 1 1 1 1 2 2 2 1 1 1 1 1 1 2 2 1 1 1 2 2 1 0 1 2 2 2 1 1 2 2 0 0 1 3 2 1 0 2 3 2 1 1 2 2 1 1 1 1 2 2 1 1 1 2 2 2 2 2 1 1 1 2 2 2 1 2 3 3 2 2 3 2 2 2 2 2 2 1 2 2 2 3 3 2 1 1 1 2 3 3 3 2 2 2 3 3 3 2 2 2 2 3 3 3 3 2 2 2 1 2 3 3 3 2 3 3 3 2 3 3 3 3 3 3 3 3 4 4 3 3 3 3 3 3 2 3 3 2 2 2 2 3 4 4 4 3 3 2 3 3 3 3 3 3 3 3 3 4 4 3 3 3 4 4 4 4 4 4 3 3 3 4 4 4 4 4 3 4 4 4 4 4 4 4 4 4 4 4 4 4 4 4 4 4 4 3 3 3 4 4 4 4 4 4 4 4 3 3 4 4 3 3 3 3 3 3 3 3 3 3 3 3 3 3 4 4 3 2 2 2 2 2 3 3 3 2 3 3 3 3 2 2 2 2 3 3 3 3 3 3 2 2 2 1 1 1 2 3 3 2 2 1 2 2 2 2 2 2 2 2 2 2 2 2 2 2 2 1 1 2 2 2 2 3 3 3 2 1 1 2 2 2 2 2 2 1 1 1 1 1 1 2 2 1 1 1 2 2 2 1 1 2 2 1 0 1 2 2 1 1 1 2 2 1 1 2 2 0 0 0 1 1 2 1 0 0 0 1 1 1 2 1 2 1 1 2 1 1 1 1 1 1 0 1 1 1 2 2 1 0 0 1 1 0 1 0 0 0 1 1 1 0 1 1 2 2 1 0 1 1 1 1 0 1 1 1 0 0 1 1 1 2 1 0 0 0 0 1 1 0 1 1 1 1 0 2 2 1 0 0 2 2 1 1 0 1 1 1 1 0 1 1 1 0 1 1 -1 0 0 0 1 1 1 0 -1 0 0 0 1 0 0 1 1 0 1 1 1 1 0 1 0 1 2 0 0 1 1 0 1 0 1 2 -1 1 
2 -1 2 0 1 0 1 1 0 0 1 0 1 0 1 1 1 0 0 1 1 0 -1 0 0 1 0 1 2 1 1 0 0 1 0 0 1 1 1 -1 0 2 1 0 1 1 0 0 0 1 1 1 1 1 0 0 1 2 1 0 0 0 1 2 1 0 0 0 0 1 1 0 1 3 1 0 0 1 0 1 1 -1 1 2 1 0 1 1 0 1 2 1 0 2 2 0 2 2 0 0 0 1 0 1 1 0 0 0 0 1 2 1 1 1 1 1 1 1 2 1 1 1 0 1 1 1 2 2 1 1 2 1 1 0 1 1 1 1 1 1 1 0 1 1 1 0 1 1 1 1 0 1 1 1 1 1 1 1 1 1 1 0 1 1 1 1 1 1 1 2 1 1 1 1 1 0 1 2 1 1 2 2 2 1 1 1 2 2 1 1 1 1 2 1 0 1 1 2 1 1 1 2 2 1 1 2 2 2 2 1 2 2 1 1 1 1 2 2 2 2 1 1 1 1 2 2 2 2 2 2 2 2 2 2 1 1 1 1 1 2 2 2 2 1 2 2 2 2 1 1 2 2 2 2 2 2 2 1 1 1 1 1 1 2 3 3 2 2 2 2 2 2 1 2 3 2 2 2 3 3 3 3 2 2 2 2 3 2 2 2 2 3 3 3 2 2 2 2 2 3 3 3 3 4 4 3 3 3 3 3 3 3 3 3 3 4 3 3 3 3 3 3 3 3 3 3 3 3 3 3 3 4 3 3 4 4 4 3 4 4 5 4 4 3 4 4 4 4 4 4 5 4 4 4 4 4 4 4 4 4 4 4 5 4 4 4 4 3 4 4 3 3 4 4 3 3 3 4 4 4 4 4 3 3 4 4 4 4 4 4 3 3 3 3 3 3 3 3 3 3 3 3 3 3 3 3 4 4 3 2 2 2 3 3 3 2 2 3 3 2 2 3 3 3 3 3 2 2 2 2 2 2 2 2 2 3 2 1 1 2 2 2 2 2 2 2 2 2 2 2 1 1 2 2 1 1 1 1 2 1 0 1 1 2 2 2 2 2 2 2 2 1 1 1 1 2 2 1 1 1 1 1 2 2 2 1 1 2 2 2 2 1 1 1 1 2 2 1 2 2 1 0 1 1 0 1 1 1 1 1 1 1 1 1 0 1 2 1 2 2 1 2 2 2 2 1 1 1 1 1 1 1 1 1 0 1 1 1 1 1 1 0 1 1 -1 1 2 0 1 2 1 1 1 1 1 0 1 2 1 2 0 -1 1 1 1 0 1 1 2 1 0 -1 0 1 1 1 2 1 1 1 1 1 1 0 1 1 0 1 1 1 0 0 1 1 2 0 0 0 1 1 0 0 0 0 0 1 1 0 1 1 1 1 0 0 0 0 1 0 0 0 1 1 1 0 1 1 1 1 1 0 1 1 1 0 2 0 1 0 2 1 
1 2 0 1 1 1 1 1 0 1 1 0 1 1 0 1 1 1 1 1 1 0 1 1 0 1 1 1 0 1 1 1 0 0 1 1 0 1 1 1 0 0 1 1 0 0 1 1 0 0 1 1 1 0 1 1 0 0 1 1 0 1 1 0 1 0 0 1 1 -1 1 2 1 1 2 0 0 1 1 1 2 1 0 0 2 1 -1 1 2 -1 1 3 1 -1 1 2 1 0 0 1 0 1 0 0 1 1 1 0 1 1 0 1 2 1 1 2 1 1 1 1 1 1 0 1 1 1 1 1 2 1 0 0 1 2 1 0 0 1 1 0 0 1 1 0 0 1 1 1 2 2 1 1 1 1 2 0 0 2 2 1 1 1 1 1 1 1 1 1 1 1 2 1 1 1 2 2 1 1 1 2 2 2 1 2 2 1 0 1 1 1 1 1 1 2 2 2 1 1 2 2 2 2 0 1 2 2 1 1 2 2 2 1 1 2 2 2 1 1 1 2 2 1 1 2 2 3 2 1 1 3 3 2 1 2 2 2 2 1 1 1 2 2 2 3 2 2 2 2 2 2 2 1 1 2 2 3 2 2 2 1 1 2 2 3 3 2 2 2 2 3 3 3 2 1 2 2 2 2 2 3 3 2 2 2 2 2 2 2 3 2 2 2 2 3 3 3 3 3 3 4 3 3 3 4 4 3 3 2 2 2 2 2 2 2 2 3 3 3 3 3 3 2 2 3 3 3 3 3 3 3 3 3 3 3 3 3 3 3 3 3 3 3 3 3 2 3 3 3 3 3 4 4 3 3 3 4 4 3 4 4 4 3 4 5 5 4 4 4 4 4 4 3 4 4 3 3 4 4 4 3 3 3 3 3 3 3 3 3 3 3 3 3 3 3 3 3 3 3 3 3 3 3 2 2 3 3 3 2 1 2 2 2 2 3 2 1 1 2 2 2 2 2 3 3 2 2 2 2 2 2 1 2 2 2 2 2 2 2 3 2 2 2 1 2 2 2 2 2 2 2 2 2 2 2 2 2 1 1 2 2 2 1 1 1 2 2 1 2 2 2 1 1 1 2 1 1 1 1 2 2 1 1 2 2 1 1 2 2 2 1 2 2 1 2 2 1 1 1 1 2 1 1 0 0 0 0 1 1 1 1 0 1 0 1 1 1 1 0 1 1 1 1 0 1 1 1 1 2 1 0 1 1 1 2 0 0 0 0 1 1 1 1 0 1 1 1 0 0 1 0 0 3 2 0 1 1 0 0 1 2 1 1 1 0 -1 1 1 1 1 1 0 1 0 0 1 2 1 1 1 1 0 1 1 0 1 1 0 1 0 -1 0 1 1 1 1 1 1 0 0 0 0 0 0 0 0 1 2 1 0 0 1 1 1 0 0 1 1 0 -1 1 1 1 0 0 1 0 0 1 1 1 1 0 0 0 1 1 0 2 1 1 
-1 4 -1 2 0 2 0 0 0 2 1 0 0 1 1 1 0 1 0 0 1 1 1 1 1 1 1 1 0 0 0 1 1 1 0 0 0 1 -1 0 1 1 1 2 1 1 0 1 1 1 0 1 1 1 0 0 1 1 0 0 1 1 1 0 0 0 -1 0 1 0 0 1 1 2 2 0 1 1 1 1 0 1 2 0 0 2 1 -1 1 2 1 0 1 1 0 0 1 1 0 0 1 1 1 1 1 0 1 0 0 0 0 0 1 1 1 1 1 1 1 1 1 1 1 1 0 0 2 2 1 1 1 1 1 1 1 1 1 1 0 0 0 1 2 1 1 1 1 1 0 1 2 2 0 1 1 1 0 1 2 2 1 1 1 2 2 1 0 1 1 1 0 1 1 1 1 1 1 1 1 1 1 2 3 1 1 2 2 1 1 1 1 0 1 1 1 2 2 1 1 1 2 1 0 0 1 2 1 1 1 2 3 2 1 2 2 2 1 1 1 2 2 2 1 1 1 2 1 2 2 2 1 1 1 2 2 2 1 1 2 2 2 2 2 3 2 1 1 2 2 2 2 2 3 3 3 3 3 2 1 0 1 2 3 3 3 2 2 1 2 2 2 2 2 2 2 2 2 2 2 2 2 3 3 3 2 2 2 3 2 2 2 2 2 2 1 2 2 2 2 3 3 3 3 3 3 3 3 3 2 3 3 3 2 2 3 3 3 3 3 3 3 3 3 3 3 3 3 3 3 2 2 2 2 3 3 3 3 3 3 3 4 4 4 4 3 4 4 4 4 4 4 3 3 3 3 4 4 5 4 4 3 3 4 3 3 4 3 3 3 4 3 4 4 4 3 3 4 4 4 3 3 3 3 4 4 4 4 4 4 3 4 4 4 3 3 3 3 3 3 3 3 2 2 2 3 3 3 2 3 3 3 3 3 2 2 1 2 2 2 3 3 2 2 2 2 2 2 1 2 2 3 2 2 1 1 2 2 2 2 2 2 2 1 2 1 1 2 2 2 2 2 1 2 2 2 1 2 2 2 1 2 2 1 2 2 2 1 1 1 1 1 2 1 1 1 2 1 1 1 2 2 1 1 2 2 2 1 1 2 1 1 2 1 1 1 2 2 2 1 1 1 0 0 0 1 1 1 1 1 1 1 1 0 0 0 0 1 1 1 0 0 1 2 2 1 1 0 1 2 1 1 1 1 1 0 1 1 0 1 1 2 1 1 1 1 1 1 1 0 0 1 1 0 1 2 0 0 2 0 0 1 1 0 1 2 2 0 0 1 1 0 1 1 1 1 1 1 1 1 1 1 1 1 0 0 0 1 1 0 0 0 1 1 2 1 0 0 1 1 1 1 0 0 0 0 0 0 1 2 1 0 0 0 1 0 0 1 1 0 1 0 1 1 0 0 0 1 1 -1 1 0 1 1 1 -1 2 0 3 -2 2 
1 -2 3 1 1 0 1 1 1 1 1 1 0 0 1 1 1 0 1 1 1 0 0 0 0 1 1 0 0 0 1 2 1 0 1 1 0 1 1 1 1 1 2 1 1 1 1 0 1 1 1 0 0 1 0 0 1 2 1 0 0 1 2 0 0 1 1 0 1 1 0 0 1 1 0 1 2 1 1 1 0 0 1 1 0 1 1 0 0 0 2 1 1 1 2 1 0 2 2 0 0 1 1 0 1 1 1 1 1 0 0 0 0 0 1 1 1 1 1 1 1 1 2 1 1 1 1 1 1 1 1 1 1 1 1 1 1 1 1 2 2 1 1 1 1 1 1 1 1 1 1 1 2 1 0 0 1 1 1 1 1 1 1 1 1 1 1 1 1 1 1 1 1 1 1 1 1 1 1 1 0 1 2 2 1 1 1 2 1 1 1 1 1 1 2 2 2 2 1 1 2 3 2 0 0 1 2 2 1 1 2 2 1 1 1 2 1 1 1 1 1 1 2 1 1 1 1 2 2 2 2 2 2 2 2 2 2 1 1 1 1 2 2 3 2 1 2 2 2 2 2 3 3 3 3 3 3 2 1 2 2 2 2 2 2 2 2 2 3 3 3 2 2 2 3 3 3 3 2 2 1 2 2 2 2 2 2 2 1 2 2 2 2 2 2 3 3 2 2 2 3 3 3 3 3 3 2 2 2 2 3 3 3 3 3 3 3 3 3 3 2 2 3 3 3 3 3 3 3 3 3 3 3 4 3 3 4 3 3 3 3 3 3 3 3 3 3 3 3 3 4 4 4 4 4 3 3 3 4 3 3 4 4 3 4 4 4 3 3 3 4 4 3 3 3 3 3 4 4 3 2 2 3 4 4 2 2 2 2 2 2 2 3 3 3 3 3 3 3 4 4 3 2 3 3 3 2 2 2 2 3 2 2 2 2 2 3 3 3 2 3 2 2 2 2 2 2 2 2 2 2 2 1 1 1 1 2 2 2 2 2 1 2 2 2 2 2 2 2 1 1 1 2 2 2 2 2 3 2 2 2 2 2 2 2 1 1 1 1 1 1 1 1 2 2 2 2 2 1 1 1 1 1 2 1 1 1 1 1 1 1 1 1 1 1 1 1 2 2 2 1 1 0 0 0 1 1 1 1 1 1 1 1 0 0 1 1 1 0 1 1 0 1 0 1 2 1 1 1 1 2 2 0 -1 0 0 1 1 1 0 0 2 2 0 1 1 0 1 0 1 0 0 1 1 1 1 2 1 0 1 2 0 0 2 1 1 1 1 0 -1 1 1 1 2 2 1 1 1 1 1 1 1 1 1 1 1 1 0 1 0 0 0 1 1 1 1 0 1 1 0 0 1 1 0 0 1 1 1 1 0 0 0 1 1 1 1 1 0 0 1 0 0 0 1 1 0 0 0 1 0 0 0 1 0 0 0 1 -1 4 -1 
1 -1 2 0 2 1 1 -1 1 0 1 0 1 0 1 0 2 0 1 1 1 1 1 0 1 1 2 1 0 1 1 0 0 1 1 1 0 0 1 1 1 0 1 1 0 0 1 1 1 0 0 1 0 0 1 1 1 1 1 1 0 -1 1 1 -1 -1 1 1 1 1 1 0 0 1 1 1 2 1 0 1 1 0 1 2 1 0 1 1 1 0 1 2 2 0 0 2 0 -1 1 1 1 0 0 1 1 1 1 1 1 0 0 1 1 0 1 1 1 1 1 2 1 -1 1 0 1 1 0 0 2 2 1 1 2 2 0 0 0 1 1 1 2 2 2 0 1 1 1 0 1 1 2 1 1 1 1 1 1 1 2 1 1 1 1 1 1 1 1 1 0 1 1 1 1 1 1 1 1 0 1 2 2 1 2 2 2 2 1 1 2 2 1 1 1 1 2 1 1 2 2 1 2 1 1 1 1 1 2 2 2 2 2 1 1 2 2 1 1 1 1 1 1 1 1 1 2 2 2 2 2 3 3 3 3 2 1 1 2 2 2 1 1 1 1 2 2 1 1 2 2 2 2 3 3 3 3 2 2 1 1 1 1 2 3 3 3 3 2 1 1 2 2 2 2 2 2 2 2 2 2 3 3 1 1 2 3 3 2 2 3 3 2 2 2 2 2 1 2 2 2 2 2 2 2 2 3 3 3 3 3 3 3 3 3 2 3 3 3 3 3 3 3 2 2 2 2 2 2 2 2 1 1 2 3 3 3 3 3 3 3 3 3 3 3 3 3 4 4 3 3 3 4 4 3 3 3 4 4 3 4 4 3 2 2 2 2 3 3 3 3 3 3 4 4 3 3 2 3 3 3 2 3 4 3 3 3 3 3 3 3 3 3 3 3 3 3 2 2 2 3 3 3 2 2 3 3 3 3 4 4 3 3 2 2 2 3 2 2 3 3 2 2 2 2 2 3 2 2 2 2 2 2 2 1 1 1 1 2 2 2 3 2 2 3 2 1 2 2 2 2 1 2 3 2 1 2 1 1 1 1 2 2 1 1 2 2 1 1 1 1 1 1 1 1 1 1 1 2 1 1 1 1 1 1 1 1 2 3 2 1 1 1 1 1 1 2 2 1 2 2 2 2 1 1 0 1 1 1 1 1 1 2 1 0 0 1 1 1 1 0 1 1 0 1 2 1 0 0 1 2 1 2 1 1 1 2 0 0 1 1 1 1 1 1 2 3 1 0 1 1 1 1 1 1 1 1 2 2 1 1 1 2 1 1 1 1 2 2 0 -1 0 1 1 1 1 1 1 1 1 0 1 2 1 1 1 0 1 2 0 0 0 0 1 1 0 1 0 0 0 0 1 1 0 0 0 0 1 2 1 0 0 1 0 0 0 1 1 0 0 1 1 2 0 0 1 2 1 1 0 2 0 2 1 1 1 1 0 3 0 1 -1 
1 1 1 1 0 0 1 1 1 1 0 0 0 1 2 0 0 1 1 1 0 0 1 1 1 0 2 2 0 -1 1 1 1 1 0 1 1 1 1 1 1 -1 0 0 0 1 0 0 2 1 0 0 1 1 0 0 2 2 0 0 1 1 0 0 1 0 0 1 1 1 1 0 1 1 1 1 1 2 1 -1 0 2 1 0 1 1 0 0 1 2 1 0 0 1 1 0 1 1 0 -1 1 1 0 0 1 1 1 1 1 1 1 0 0 1 1 0 1 2 1 1 0 0 1 1 1 1 1 1 0 1 1 1 1 0 0 1 1 1 1 2 2 1 1 1 2 1 1 0 0 0 1 1 1 1 1 1 1 1 1 1 1 1 1 1 1 1 1 1 0 1 1 2 2 1 1 1 1 1 1 1 1 2 1 1 1 2 2 1 1 1 2 1 0 0 1 1 2 2 1 2 3 2 1 1 1 2 2 1 1 1 2 2 2 1 1 2 2 2 2 1 0 1 2 2 2 2 1 1 2 2 2 2 2 2 2 2 1 1 1 1 2 1 1 2 2 1 2 2 2 1 1 1 2 3 3 2 1 1 2 2 2 2 3 2 2 2 2 3 3 2 1 2 2 2 3 3 3 3 3 2 2 2 2 2 3 3 2 2 1 2 3 3 3 3 3 3 2 2 2 2 2 2 2 1 1 1 2 2 2 2 3 4 3 2 2 2 2 3 3 3 3 2 2 2 3 4 3 2 3 4 3 3 3 4 3 3 3 3 3 3 3 3 3 3 3 3 3 3 3 3 4 4 3 3 3 3 2 2 3 3 3 3 3 3 4 4 4 4 4 4 3 3 3 3 3 3 3 3 3 3 4 3 3 3 2 2 2 3 3 2 2 3 3 3 3 4 4 3 3 4 3 3 2 2 2 2 2 3 3 2 2 2 2 2 3 3 3 3 3 3 3 2 1 2 2 2 2 2 2 2 2 2 1 0 1 2 2 2 2 2 2 2 2 2 2 2 2 2 2 1 2 2 2 2 2 1 1 2 2 1 2 2 1 1 2 2 1 1 1 2 1 1 1 2 2 2 2 1 2 1 2 2 1 1 1 1 1 1 1 2 2 1 2 2 1 1 1 2 2 1 1 2 1 1 0 0 1 1 0 0 1 1 1 0 1 1 1 2 1 1 1 0 1 1 1 1 1 0 1 2 1 1 1 1 1 2 2 1 1 1 1 1 2 2 1 1 1 1 1 1 0 0 0 2 2 2 0 1 3 2 1 1 1 0 1 1 1 0 0 0 0 0 1 1 1 1 0 1 2 2 1 0 1 2 1 1 1 1 1 0 0 0 0 1 1 -1 0 1 1 0 0 0 1 1 1 0 2 2 1 0 0 1 2 1 0 1 1 2 1 0 0 1 2 1 0 0 1 1 1 0 1 1 0 0 1 1 0 1 0 0 
0 2 0 1 2 0 0 0 1 0 0 1 1 0 1 1 0 1 1 1 0 0 1 1 1 -1 0 1 0 0 1 0 1 1 1 1 1 1 1 1 1 0 1 1 0 1 1 1 0 0 1 1 1 1 2 0 0 0 2 1 0 1 1 0 0 1 1 1 0 1 1 0 1 0 0 2 1 0 1 1 0 1 2 1 1 0 1 1 1 1 1 2 1 1 1 1 0 0 2 1 0 0 1 2 0 0 1 1 0 0 1 1 1 1 2 1 1 1 2 1 0 1 2 1 0 1 1 1 0 1 2 1 1 1 1 1 1 1 1 1 1 2 1 1 1 1 1 1 0 1 1 1 1 0 1 2 2 1 1 1 1 1 0 1 2 2 0 0 1 2 1 1 2 3 2 1 1 2 2 2 1 1 2 2 1 1 1 1 2 1 1 2 2 1 1 1 2 2 1 1 1 1 2 2 1 1 2 2 1 1 1 2 2 2 1 2 1 1 1 1 1 2 3 3 2 1 1 1 2 2 3 3 2 1 1 1 1 1 2 2 3 2 1 2 2 2 1 1 1 1 2 2 3 2 2 3 2 1 0 1 1 1 2 2 2 2 1 2 2 3 2 1 1 2 2 1 1 2 3 2 2 2 3 3 3 3 4 4 3 2 2 2 3 2 1 2 3 2 2 2 3 2 2 2 3 4 3 3 3 3 3 3 3 3 3 3 3 2 2 3 3 2 3 3 3 3 3 2 2 3 3 3 2 2 3 3 3 3 3 3 4 3 2 3 3 3 3 3 3 3 4 3 3 3 3 4 4 4 4 3 3 3 3 2 2 3 3 3 3 4 4 4 4 4 4 4 3 2 2 2 3 3 3 3 3 3 3 4 3 3 3 3 4 4 3 2 3 2 2 2 2 2 3 3 3 2 2 2 2 2 2 2 3 3 3 2 2 1 2 2 2 2 1 2 3 2 2 2 3 3 2 1 2 2 1 1 2 2 2 2 1 1 2 2 1 1 2 2 2 2 2 2 1 1 1 1 1 1 2 1 1 2 1 1 1 1 2 2 1 2 2 1 1 1 1 2 1 1 1 2 1 1 1 1 1 1 1 2 1 1 1 1 1 2 1 1 1 1 1 1 1 2 2 0 1 2 1 0 1 2 1 0 1 1 1 1 1 1 1 0 0 1 1 1 0 1 2 1 1 0 0 1 2 1 1 0 1 1 2 1 1 1 0 1 2 2 1 0 1 1 1 1 0 0 0 1 0 1 1 1 2 2 0 1 2 0 0 1 0 1 1 0 0 0 1 1 0 1 1 0 1 2 1 1 0 1 1 1 1 1 1 1 1 1 1 1 1 1 0 1 1 1 1 1 1 1 1 1 0 1 0 0 1 0 0 1 0 1 2 1 1 0 0 1 2 0 0 1 1 1 0 0 2 1 1 0 1 2 -1 0 
3 -2 3 -1 1 -1 2 0 1 1 2 0 1 1 0 0 1 1 1 0 0 1 1 0 1 2 1 0 1 1 0 -1 1 1 1 1 1 1 1 1 1 0 0 0 1 1 0 1 1 1 0 0 1 0 1 1 1 0 1 1 1 0 0 0 1 0 0 2 1 0 1 1 1 1 0 1 1 1 1 2 1 1 1 1 0 0 1 2 1 1 1 1 1 1 -1 0 2 0 0 2 2 1 -1 0 1 2 1 1 1 1 0 0 2 1 0 1 1 0 0 0 1 1 1 2 1 1 1 1 0 0 0 0 0 1 1 2 1 1 1 1 2 1 0 1 1 0 0 1 1 0 1 1 1 1 1 1 1 1 1 0 0 1 1 1 1 1 2 2 1 1 1 2 2 2 2 2 1 0 1 2 2 1 1 1 2 2 1 0 1 1 2 1 1 1 1 1 1 2 2 1 1 2 2 2 1 1 1 1 1 1 2 2 2 2 2 2 2 2 2 1 0 1 2 2 1 2 2 1 1 1 1 1 2 2 2 2 2 2 2 2 2 2 2 2 2 1 2 2 3 2 2 2 2 2 2 2 2 2 2 3 2 2 2 2 1 2 2 2 2 2 2 2 2 2 2 3 3 2 2 2 3 3 2 2 2 2 2 2 3 3 2 1 2 3 3 3 3 2 3 3 2 2 2 2 1 1 2 2 3 3 2 2 2 2 2 2 2 2 2 2 3 3 2 2 3 4 3 2 2 3 3 3 3 3 3 3 3 3 3 3 3 3 2 2 3 3 3 3 3 3 3 3 3 3 3 4 3 2 3 3 3 3 3 3 4 4 4 4 5 4 2 1 2 3 3 3 3 3 3 3 3 3 3 3 3 2 3 3 3 2 2 3 3 3 2 2 2 2 3 3 2 3 3 3 2 2 2 2 2 1 2 2 2 3 3 3 3 2 1 1 2 2 2 2 2 2 2 2 2 2 2 2 2 2 2 2 2 2 1 1 1 1 2 2 2 2 2 2 2 2 2 2 2 2 2 2 1 1 2 2 1 1 1 1 2 3 2 1 0 1 2 2 2 2 1 1 1 1 2 2 1 1 2 2 1 1 1 1 2 2 2 2 2 2 1 1 1 1 0 0 1 2 2 1 1 1 1 1 1 1 1 1 1 1 1 2 2 0 0 1 2 1 0 1 2 1 1 1 0 0 1 1 1 1 1 1 1 0 0 1 1 1 1 2 0 0 2 1 1 1 0 0 1 2 0 1 1 1 1 1 1 1 1 1 0 0 1 1 1 2 1 1 2 0 0 1 1 0 1 1 1 0 0 1 1 1 0 2 1 0 1 1 1 0 1 2 1 1 1 1 0 1 2 1 0 0 1 2 0 0 1 1 1 0 0 2 1 0 0 0 0 0 1 0 1 0 1 0 0 1 1 0 2 -1 1 0 1 -2 4 -1 
0 0 1 0 1 1 0 0 1 1 1 0 0 0 0 1 0 1 1 1 0 0 1 1 0 0 1 1 1 2 1 1 1 0 1 1 0 1 2 1 0 1 1 0 1 1 1 0 -1 1 1 1 2 1 1 0 0 1 1 0 1 1 0 0 1 2 0 0 1 1 -1 0 1 2 1 0 1 2 1 1 1 2 1 1 1 1 1 1 1 1 1 1 0 1 2 0 1 1 0 0 0 1 1 0 1 2 2 1 0 1 1 0 1 2 1 0 1 2 1 0 1 2 1 1 0 0 0 0 1 1 1 1 1 1 0 1 2 1 0 1 1 1 1 1 1 1 1 0 1 1 1 1 1 1 2 2 2 1 2 2 1 0 0 1 1 0 1 2 1 0 1 2 2 2 1 1 1 1 1 1 1 1 2 1 1 1 1 1 1 1 2 2 2 2 1 1 1 1 1 1 1 1 1 2 2 2 1 1 1 1 2 2 1 1 2 1 1 1 1 1 1 2 2 2 2 1 1 1 1 2 2 2 2 2 1 1 1 1 2 2 3 3 3 3 2 1 1 1 2 2 2 2 3 3 2 2 2 2 1 1 1 1 2 2 1 1 2 2 2 2 2 2 2 2 2 2 2 2 2 2 2 2 2 2 2 2 2 3 3 3 2 2 2 2 2 2 2 2 2 2 2 3 3 2 2 2 2 3 3 2 2 3 3 3 3 2 1 2 2 2 3 2 3 3 3 3 2 3 3 2 2 2 3 3 2 2 2 3 3 3 3 3 3 2 2 2 3 3 3 3 3 3 2 3 3 3 2 2 4 4 3 3 3 3 3 2 2 2 3 3 2 2 3 3 3 3 3 2 2 2 3 3 3 3 4 4 4 4 3 2 2 3 3 3 2 2 2 2 2 2 2 2 3 3 3 2 1 1 2 3 3 3 2 2 3 2 2 2 2 2 1 2 2 2 3 3 2 2 3 2 2 2 2 2 1 2 2 2 2 2 2 2 2 2 2 2 3 2 2 3 2 1 1 2 2 3 2 1 1 1 1 1 1 1 2 2 1 1 1 1 1 1 2 1 1 2 1 1 1 1 1 1 1 1 1 1 2 2 1 1 1 2 2 2 1 1 1 2 2 1 1 2 1 0 0 1 1 1 1 1 2 1 0 1 1 2 1 0 1 0 0 2 2 2 1 1 1 0 0 0 1 0 1 1 1 1 0 1 1 1 0 0 1 1 0 2 2 1 1 2 1 1 2 1 0 0 1 0 1 1 1 1 1 2 1 0 1 1 1 1 2 2 1 0 2 1 0 1 2 2 1 1 1 0 0 1 0 0 0 1 2 0 1 1 1 1 0 1 1 0 1 2 2 1 1 0 1 2 1 1 1 0 0 1 0 0 0 0 0 1 1 1 1 1 0 0 1 1 0 1 1 0 1 0 1 1 1 0 1 1 
0 3 -1 0 0 1 0 1 1 0 0 2 1 1 1 1 0 1 1 0 0 1 1 1 0 1 2 1 1 1 0 2 1 1 1 0 1 1 1 1 1 1 1 0 1 -1 0 1 -1 1 1 2 1 1 1 1 0 1 1 1 0 0 1 1 -1 1 2 0 0 1 1 0 0 1 1 -1 0 1 1 1 1 1 1 0 1 1 0 2 1 0 0 1 1 0 1 1 0 0 1 1 1 0 1 1 1 1 1 1 1 0 1 2 1 1 1 1 0 0 1 1 0 1 1 2 1 1 1 0 0 1 1 0 0 1 1 1 1 1 1 1 1 1 1 0 0 1 2 1 1 1 1 1 1 1 1 1 1 1 2 2 1 1 1 1 1 1 1 1 2 1 0 1 2 2 2 1 1 1 1 1 1 1 1 1 1 1 1 1 0 0 1 2 2 2 1 1 1 1 1 1 1 2 2 1 1 1 1 1 2 1 1 2 1 1 1 1 2 2 1 1 1 1 2 2 2 2 2 2 1 1 1 1 1 1 2 2 2 2 2 2 1 1 2 2 2 1 2 2 2 1 1 2 2 2 2 2 2 2 2 2 3 3 3 3 2 2 2 1 2 2 2 2 2 2 2 2 2 3 2 2 2 2 2 3 2 2 2 2 2 2 2 2 2 2 2 3 3 2 2 2 2 3 2 2 3 2 2 2 3 3 3 3 2 3 2 2 2 3 2 2 2 2 3 3 3 3 2 3 3 2 2 3 3 3 3 2 2 2 2 3 3 2 2 3 3 3 2 2 3 3 3 3 3 3 2 2 3 3 3 3 3 2 2 3 3 2 2 3 4 4 3 3 2 3 2 2 3 3 3 3 3 3 3 2 2 2 2 3 3 3 2 3 3 3 2 2 2 2 2 3 4 3 3 3 2 1 2 2 3 3 2 2 2 2 2 3 3 2 1 1 1 2 2 2 2 2 2 2 2 2 1 2 2 2 2 2 2 2 2 2 2 2 2 2 1 0 1 2 2 2 2 2 2 2 2 2 1 1 2 2 2 1 1 1 1 2 2 1 1 1 1 2 2 1 1 2 1 1 1 1 2 2 1 2 1 1 2 2 1 1 2 2 1 2 1 1 1 2 1 1 1 2 2 2 2 2 1 0 1 2 1 0 0 1 1 1 2 1 0 -1 0 2 1 1 1 2 0 -1 1 1 1 1 1 1 1 1 2 2 0 0 0 1 1 0 0 1 0 1 1 1 1 2 1 0 1 1 0 1 2 1 1 0 1 1 0 2 2 1 0 0 1 1 0 2 1 -1 1 1 1 2 1 1 0 1 2 1 0 0 0 1 1 0 2 1 -1 1 1 1 1 1 1 1 0 0 0 1 0 1 1 0 0 1 0 1 0 0 1 1 1 1 1 1 0 1 1 2 1 0 1 1 0 1 1 0 0 1 0 3 -1 2 
3 -3 1 2 0 1 0 2 0 1 0 1 0 0 0 0 1 1 0 1 1 1 0 1 0 1 1 0 1 1 0 2 0 1 0 0 0 1 1 2 0 1 0 0 1 0 0 2 1 1 0 2 1 1 0 1 1 1 1 1 1 0 0 1 0 0 0 1 1 -1 0 2 0 0 1 1 0 1 1 1 0 0 1 0 1 2 1 1 1 0 0 1 1 0 1 1 0 0 0 1 1 0 1 1 1 1 1 1 1 0 0 1 2 1 0 1 1 1 0 1 1 1 1 1 1 1 0 1 2 1 0 1 1 1 1 1 1 1 1 2 1 1 1 1 1 1 1 1 0 0 1 0 0 1 1 1 1 1 1 1 1 2 2 1 0 1 2 1 1 1 1 1 1 2 2 1 1 1 1 1 1 1 2 1 1 1 1 1 1 1 1 1 2 2 1 1 1 2 2 1 0 1 1 1 2 2 2 1 1 1 2 3 2 2 1 1 1 2 1 1 1 1 2 1 1 1 2 1 1 1 2 2 2 1 1 2 2 2 2 2 2 2 2 2 2 2 2 2 1 1 1 1 2 2 2 1 1 2 2 1 1 2 2 3 2 2 1 1 1 2 2 1 1 1 2 2 2 2 2 2 2 2 2 2 2 2 2 2 2 2 2 2 2 2 2 2 2 2 2 2 2 3 2 2 2 2 2 2 2 2 2 2 2 3 3 2 2 2 2 2 2 3 3 3 3 3 3 3 3 3 3 2 2 2 2 2 2 3 3 2 2 3 3 3 3 2 3 3 3 3 3 2 2 2 2 2 2 3 3 3 3 3 3 3 3 2 1 1 2 2 3 3 3 3 3 4 3 3 3 3 2 2 3 3 3 2 2 3 3 2 2 2 3 3 3 2 2 2 3 3 3 3 2 2 2 2 3 3 4 4 3 2 2 2 2 2 2 3 2 2 2 2 2 3 2 3 2 2 2 2 2 3 3 2 1 1 2 2 2 2 2 2 2 2 3 2 2 2 1 1 1 1 2 2 2 2 2 2 1 1 2 3 2 1 1 1 2 1 1 1 1 2 2 2 2 1 1 2 1 0 1 1 2 2 1 1 1 2 1 1 1 1 2 1 1 1 1 1 1 2 2 1 0 1 1 1 0 1 2 1 0 1 1 1 1 1 1 1 0 1 1 1 1 1 1 0 0 1 1 0 0 1 1 1 2 1 1 2 0 1 1 0 1 1 1 0 0 1 0 1 1 2 2 1 1 0 0 2 1 0 1 0 0 0 1 2 1 0 1 1 0 1 1 1 0 0 1 0 1 2 1 1 0 1 1 1 1 1 0 0 1 2 1 0 -1 2 0 1 1 1 1 1 0 1 0 1 0 0 0 0 1 2 0 0 0 1 1 0 0 2 1 0 0 1 1 2 1 1 0 1 1 1 -1 2 1 1 0 0 2 -1 
-2 4 -2 1 0 2 -1 1 0 2 0 1 1 1 0 1 0 1 1 2 0 1 0 1 0 1 1 0 1 1 1 1 0 1 1 0 0 0 1 1 0 0 0 0 0 1 1 1 0 0 0 1 1 1 0 1 1 1 1 0 1 2 0 0 1 1 0 0 1 1 0 1 1 1 0 0 1 0 0 1 1 1 2 1 0 1 1 1 1 1 1 0 1 2 1 0 0 1 0 1 2 1 1 1 1 2 1 0 0 1 1 1 1 1 1 1 1 1 1 2 2 1 0 1 1 1 0 1 2 2 1 2 1 0 0 1 1 1 0 1 1 1 0 1 2 1 0 1 1 1 1 1 0 1 1 1 1 1 1 1 1 1 1 1 1 1 1 2 1 0 1 1 1 1 1 1 2 1 1 1 1 1 1 1 1 1 2 1 0 1 2 2 1 1 1 2 1 1 1 1 0 1 1 1 2 2 1 1 1 2 2 2 1 1 2 1 1 1 1 2 2 1 1 1 1 1 1 2 2 2 2 2 1 1 1 1 1 2 2 2 2 2 2 1 1 2 2 2 2 1 2 2 2 2 2 2 2 2 2 1 1 2 2 2 2 2 2 1 1 2 2 2 1 2 1 1 1 2 1 1 1 2 3 3 2 2 2 2 2 2 1 2 2 2 2 2 2 2 3 2 2 3 3 3 3 3 2 2 2 2 2 3 3 3 3 3 3 3 3 2 2 2 3 3 3 2 2 3 3 3 2 2 3 3 2 2 2 2 3 3 2 2 3 3 2 2 3 3 3 3 3 3 3 3 3 2 2 3 3 2 1 1 2 3 2 2 2 3 4 4 4 3 3 3 4 4 3 2 2 2 2 2 2 3 3 2 2 3 2 2 2 3 3 3 2 2 1 2 2 3 3 3 3 3 3 3 3 3 4 3 2 2 2 2 2 2 2 2 2 3 2 2 2 2 2 2 2 2 3 3 2 2 2 2 2 2 2 2 2 1 2 2 2 1 2 2 2 2 1 2 2 2 2 2 2 2 1 1 1 2 2 1 2 2 1 1 1 1 2 2 1 1 1 0 0 1 1 1 1 2 2 1 2 2 2 2 2 1 1 1 1 1 2 1 1 2 2 1 1 1 1 1 1 2 2 2 1 2 2 1 1 2 1 1 1 1 1 1 0 1 1 1 2 1 1 1 1 1 1 1 1 1 1 1 1 1 2 2 0 1 1 1 2 1 0 0 1 1 0 1 0 1 1 1 1 0 0 1 1 1 1 0 0 1 1 1 1 1 0 0 0 1 1 1 1 1 0 0 1 1 0 1 1 1 1 0 1 1 1 0 0 1 0 2 1 0 0 1 2 1 0 1 0 0 0 1 1 0 0 0 0 1 0 1 1 0 1 1 1 1 0 1 1 1 0 2 1 2 0 2 1 1 -1 1 -1 2 0 4 -2 2 
0 0 0 2 0 1 -1 1 -1 1 1 1 1 1 1 1 -1 0 1 0 0 1 1 1 1 1 1 1 1 1 1 0 0 0 0 0 1 1 0 0 0 0 0 1 0 1 2 1 1 0 0 1 0 1 1 0 0 1 1 1 0 1 0 0 1 1 1 0 0 1 2 1 1 1 -1 0 0 1 1 1 1 1 1 1 1 1 1 2 1 1 1 1 1 1 1 0 -1 0 1 1 1 1 1 1 0 0 0 1 0 1 1 1 1 1 1 1 1 1 0 0 1 1 1 0 0 1 1 0 1 1 1 1 1 1 1 0 1 2 2 1 1 1 1 1 1 1 0 0 0 1 1 1 1 0 0 1 1 1 0 1 1 2 2 1 1 1 1 1 1 0 0 0 0 1 1 2 2 2 1 1 1 1 2 1 0 0 1 2 2 1 0 1 2 1 1 2 1 1 1 1 1 1 1 1 1 2 2 2 1 1 2 2 1 1 1 2 2 2 2 2 1 1 1 1 1 2 2 1 1 1 1 1 1 2 2 2 1 1 1 1 1 1 2 2 2 3 3 2 0 1 1 2 2 1 1 1 1 2 2 1 1 2 2 2 2 2 1 1 1 1 1 1 1 2 2 1 2 2 2 1 1 1 1 1 1 2 1 1 2 2 2 2 2 2 2 2 3 3 3 3 3 2 2 2 2 2 2 2 2 1 1 2 2 2 2 2 2 2 2 2 2 2 2 2 2 2 2 2 3 3 2 2 1 2 2 3 2 3 3 3 3 3 3 3 3 3 3 3 3 3 2 2 1 2 2 2 2 2 2 2 2 3 3 4 3 3 3 2 2 2 3 2 2 2 3 3 3 3 3 2 2 3 3 3 3 2 2 2 2 3 2 2 3 3 3 2 2 2 1 1 2 2 2 2 2 3 3 2 2 3 3 2 2 2 2 2 3 3 3 3 2 2 2 2 2 2 2 2 2 2 2 3 3 2 1 1 1 1 1 1 2 2 2 2 2 2 1 2 2 1 2 2 2 2 2 2 1 1 1 1 1 1 2 2 2 1 1 1 1 0 1 2 2 1 1 1 2 2 1 1 1 1 1 2 1 1 1 1 1 1 1 1 1 1 2 1 0 1 1 1 1 1 1 1 0 1 1 1 1 1 1 0 0 2 2 1 0 1 1 1 1 2 1 -1 0 0 1 1 1 1 1 1 1 1 1 1 1 1 1 1 1 1 1 0 0 0 0 0 0 1 0 1 2 1 1 2 1 1 1 1 0 0 0 1 0 0 1 1 1 2 2 0 0 1 1 2 0 1 1 0 0 1 1 1 1 1 1 1 1 1 1 1 0 2 1 0 1 1 1 1 2 1 0 1 0 1 0 0 1 2 1 0 0 1 1 1 1 1 1 0 0 1 0 0 1 1 0 1 1 1 -1 0 0 1 -1 2 0 1 1 1 
2 -1 1 2 1 0 1 1 0 1 1 0 1 1 0 1 0 1 1 1 1 1 0 0 0 0 1 1 1 1 1 0 1 0 1 1 1 1 1 0 0 0 0 1 0 1 1 0 1 0 1 1 1 0 0 1 2 1 0 2 0 1 1 0 1 1 1 1 0 0 0 0 1 1 0 0 0 1 1 0 1 1 1 1 2 1 0 1 1 0 1 1 1 1 1 1 0 0 1 1 0 1 0 1 1 1 0 1 1 1 1 1 1 1 1 2 1 1 1 1 1 1 1 1 1 0 1 1 1 1 2 2 1 0 0 1 1 1 2 2 1 1 2 2 1 1 1 0 0 0 0 1 1 1 1 1 1 1 1 1 1 1 2 1 1 1 1 1 1 1 1 1 1 2 2 2 1 1 1 1 1 1 1 1 1 1 1 1 1 1 1 1 1 1 1 2 2 2 1 1 1 1 1 1 1 1 1 1 1 1 1 1 1 2 2 2 1 1 1 2 2 2 2 2 1 1 1 1 2 2 1 1 2 2 1 1 1 1 1 2 2 2 1 1 1 1 0 1 1 1 2 3 3 3 2 2 1 1 1 1 1 1 1 1 2 3 3 2 2 2 2 1 1 2 2 1 1 2 2 2 1 2 2 1 1 2 3 3 2 2 2 2 2 2 3 3 2 2 3 3 2 2 2 2 2 2 2 2 2 2 2 2 2 2 1 2 2 3 2 2 2 2 2 2 2 2 3 2 2 3 3 2 2 2 2 2 2 2 3 2 2 3 3 3 3 3 2 2 3 4 3 3 4 4 3 2 3 4 3 2 2 2 2 2 2 2 2 2 3 3 3 4 4 3 4 4 3 3 3 2 2 2 3 3 4 3 2 3 3 2 2 3 3 3 3 3 2 1 2 2 3 3 3 3 3 2 2 2 2 2 3 3 3 2 2 1 1 2 2 3 3 3 2 2 2 1 2 2 2 2 1 1 2 2 2 2 1 1 1 1 2 2 2 2 2 2 2 2 2 1 2 2 2 2 1 1 1 2 2 1 1 2 2 2 2 2 3 2 1 1 1 1 1 2 2 2 1 1 1 2 1 1 1 2 2 1 2 1 1 1 1 1 2 1 1 1 1 1 1 1 1 1 1 1 1 1 1 1 1 1 1 1 1 2 2 1 1 1 0 1 1 1 0 0 1 1 1 1 2 1 1 1 1 1 1 1 1 1 1 1 1 2 1 1 1 0 0 1 1 1 0 1 1 1 1 1 1 1 1 1 1 2 1 0 1 0 1 0 0 1 1 1 1 1 0 1 1 1 1 0 1 0 1 1 1 1 0 1 2 1 0 1 0 1 1 1 1 0 1 1 1 0 0 0 1 1 1 2 0 -1 0 1 1 0 0 1 1 0 0 1 2 1 1 0 1 0 0 1 0 1 0 0 1 0 -1 0 1 0 3 0 
1 2 2 0 1 1 0 0 1 0 1 1 2 1 1 2 0 -1 -1 1 1 0 0 0 1 0 1 0 0 1 0 0 1 1 1 1 0 1 1 1 0 1 0 1 0 0 1 1 0 0 2 2 0 0 1 0 1 1 0 2 1 0 1 1 1 1 1 1 1 0 1 1 0 0 1 1 1 1 2 1 0 1 1 1 1 1 1 0 1 2 1 0 1 1 0 1 1 0 2 1 1 1 0 1 1 0 1 0 0 1 1 0 1 1 0 1 1 1 0 1 1 1 1 2 1 0 1 1 1 0 1 1 0 0 0 1 2 2 1 2 1 0 0 1 2 2 1 1 1 1 1 1 1 1 1 1 1 0 0 1 1 2 2 1 1 1 1 1 1 1 1 1 1 1 1 1 1 1 2 1 1 1 2 1 0 0 0 1 1 1 1 1 1 2 2 2 2 1 1 1 1 1 1 1 1 1 2 1 1 2 2 1 1 2 2 1 1 1 1 1 1 1 1 2 3 3 2 1 1 1 1 1 2 3 3 3 2 2 1 1 1 1 2 2 2 2 1 1 1 1 2 2 1 1 1 1 1 1 1 1 2 2 2 1 1 2 1 2 2 2 1 2 2 3 2 2 2 2 3 3 2 1 1 2 2 2 1 1 2 2 3 3 2 2 2 2 2 3 3 2 2 1 1 1 2 2 2 2 2 2 2 1 1 2 2 2 2 2 2 2 2 3 3 3 2 2 2 2 2 2 2 2 3 3 3 2 2 2 3 3 3 3 3 3 3 3 2 2 2 2 2 3 3 2 2 2 3 3 2 2 2 2 2 3 3 3 3 3 3 2 3 3 3 2 2 3 3 3 3 3 3 2 2 2 2 2 2 2 3 3 2 2 2 2 2 2 2 2 3 3 3 3 3 2 2 1 2 2 3 3 2 3 3 1 1 2 2 2 3 2 1 2 2 2 2 2 2 2 2 2 2 1 1 2 1 1 2 2 1 1 2 2 2 2 2 2 2 1 1 2 2 1 1 2 2 1 1 2 2 2 2 2 1 1 1 2 2 2 1 1 1 1 1 1 1 2 1 1 1 1 2 1 1 1 1 1 1 1 1 2 2 2 2 1 1 1 1 1 1 1 1 1 1 1 1 1 1 1 1 0 0 1 1 1 1 2 1 0 0 1 1 0 1 1 1 1 2 2 1 1 1 0 1 1 1 1 1 0 1 1 1 1 0 1 1 0 1 1 0 1 2 1 1 1 1 1 1 1 1 1 0 1 1 1 1 0 0 1 1 1 1 1 1 1 0 0 1 1 0 0 1 0 0 1 1 2 1 1 1 1 0 1 1 1 0 0 0 1 1 1 1 1 0 0 1 1 0 1 1 1 1 -1 0 2 1 1 1 2 1 1 1 0 0 0 0 0 0 1 0 0 0 1 1 0 0 0 1 0 1 0 
0 3 0 -1 2 0 1 0 1 -1 1 1 1 1 2 0 0 0 0 0 0 1 1 0 1 0 1 0 0 1 1 1 1 1 1 1 0 1 1 0 1 1 1 0 0 0 0 1 1 1 1 0 0 0 0 0 1 1 0 2 1 0 0 1 1 1 1 1 2 1 0 1 1 0 0 0 1 2 2 0 0 0 1 2 2 1 1 0 1 1 0 0 1 2 1 0 1 1 1 0 1 1 -1 1 2 0 1 2 1 1 2 0 0 0 1 0 1 1 1 1 1 1 1 1 1 1 1 1 1 1 1 1 0 0 0 0 0 1 1 2 1 0 1 1 1 1 1 2 1 0 1 1 1 1 1 1 1 1 1 0 0 1 1 1 1 0 1 1 1 1 1 2 1 1 1 1 1 1 1 1 1 1 1 1 1 1 1 2 2 1 1 0 1 1 2 1 1 2 1 1 0 1 2 2 1 1 2 1 1 1 1 1 1 1 1 1 1 1 1 1 1 2 2 2 2 1 0 0 1 1 2 3 3 3 2 1 1 2 3 2 2 3 3 2 1 1 1 2 2 2 2 2 2 2 2 2 1 2 2 2 2 2 1 1 1 2 3 2 2 2 2 2 2 1 1 1 2 2 3 2 2 2 2 2 2 2 2 2 2 2 2 1 1 2 2 2 2 2 2 1 2 2 3 3 3 2 2 2 2 2 2 2 2 2 2 2 2 3 2 2 2 2 3 3 2 2 2 2 3 2 2 2 2 2 2 2 2 2 2 2 2 3 2 2 2 2 2 1 2 2 2 3 3 3 2 2 3 3 2 2 2 2 2 2 3 2 3 3 2 3 3 3 4 4 3 3 3 3 3 2 1 1 2 2 2 3 3 3 2 2 2 1 2 3 3 2 2 3 3 2 3 3 3 3 3 3 2 1 2 3 2 2 2 1 2 2 2 2 2 1 1 2 2 2 2 2 2 2 1 1 1 1 2 2 2 2 2 2 2 1 2 2 2 2 2 2 2 2 2 2 1 1 1 1 2 1 1 2 2 2 2 2 2 1 1 1 2 2 1 1 1 1 1 1 1 1 1 1 2 1 1 2 2 2 2 1 1 1 1 2 2 1 1 1 1 1 1 1 1 1 1 1 1 2 1 1 2 1 1 1 1 1 1 0 1 2 1 1 1 1 1 0 1 1 1 2 1 0 0 1 1 0 1 1 0 1 0 -1 1 2 1 1 1 1 0 0 1 1 1 1 1 1 1 1 1 1 1 1 1 1 1 1 1 1 0 1 0 1 1 -1 1 2 2 1 1 0 0 0 1 1 1 -1 0 1 1 1 1 0 0 1 0 1 1 1 2 1 0 0 1 1 1 0 1 1 1 1 0 0 1 1 1 1 1 1 0 1 0 0 0 0 2 0 1 0 1 1 0 0 1 0 1 1 1 0 2 -1 1 2 -1 1 
2 -2 2 -1 1 -1 1 0 0 0 1 1 1 1 1 0 1 0 0 0 0 1 1 0 1 1 0 0 1 1 0 0 0 1 1 0 1 1 0 0 1 1 0 0 0 1 0 0 0 1 2 0 0 1 1 0 1 1 1 1 1 1 1 1 1 1 1 1 1 1 0 0 0 0 1 0 1 2 2 1 0 1 1 1 1 1 1 0 1 1 1 2 0 0 2 1 -1 1 2 0 0 2 1 0 1 1 1 1 1 1 1 2 1 1 1 1 0 0 2 1 0 2 1 0 1 2 1 1 1 1 1 1 0 1 1 1 0 1 1 1 1 1 1 0 1 1 1 1 1 0 1 1 1 1 1 1 1 1 0 1 1 1 1 1 1 1 1 1 1 1 1 1 1 1 1 1 1 1 1 1 1 1 1 2 2 1 0 1 2 1 1 0 0 2 2 1 1 2 1 1 1 1 2 2 2 1 1 1 1 2 2 1 1 1 1 1 1 2 3 2 1 1 1 2 2 2 2 1 1 1 1 1 2 2 2 1 1 1 2 2 2 1 1 2 2 2 2 2 2 2 2 1 1 1 1 1 2 2 2 1 1 1 1 1 2 2 2 1 2 3 3 2 2 2 2 2 2 2 3 2 2 2 2 2 2 1 1 1 1 2 2 2 2 2 1 1 2 2 2 2 1 1 2 3 3 2 2 3 3 2 2 2 2 3 3 2 2 2 1 2 2 3 3 3 2 2 2 1 2 2 2 3 4 3 2 2 3 2 2 2 2 2 2 2 2 2 2 3 3 2 2 3 3 2 2 2 3 3 2 1 2 3 3 3 3 3 3 3 2 2 2 2 3 2 2 1 2 3 3 3 2 2 2 2 2 2 2 2 2 2 2 2 2 2 2 2 2 3 2 2 2 2 2 2 2 2 3 3 3 2 1 1 1 2 2 2 2 2 2 1 1 2 2 2 2 2 2 2 2 2 2 1 2 2 2 1 1 2 2 2 2 1 1 1 1 2 2 1 1 1 1 1 2 2 2 1 0 1 2 2 2 2 2 2 1 1 1 1 1 1 1 1 1 0 1 2 1 0 1 1 1 1 2 2 2 1 1 1 1 2 1 1 1 1 1 1 1 1 1 1 1 1 1 1 2 2 2 1 1 1 0 1 1 1 1 0 0 1 2 0 1 2 1 1 1 1 0 1 1 1 1 1 0 1 2 2 1 1 2 1 0 2 1 0 1 1 0 1 2 0 1 0 0 1 1 1 1 1 1 1 0 1 1 1 0 1 0 0 0 0 1 1 0 1 1 1 0 1 1 1 1 0 0 1 0 1 2 1 0 1 1 1 1 0 1 1 0 0 1 1 2 1 1 1 0 1 0 0 0 0 1 1 1 0 1 1 0 1 1 0 1 0 1 1 1 1 1 0 0 0 1 1 1 1 1 -1 2 -1 2 0 
1 1 0 0 1 1 0 1 0 1 1 0 1 1 0 1 1 0 1 1 0 0 0 0 1 1 -1 0 1 0 0 1 0 0 0 0 1 1 0 1 1 0 1 1 0 0 0 1 0 0 0 0 0 1 1 1 1 0 1 0 1 2 1 1 1 1 1 2 1 1 1 1 1 0 -1 0 2 2 1 1 0 1 1 2 1 1 0 0 1 2 0 0 1 1 1 1 1 0 0 1 1 0 1 0 0 2 1 0 1 1 0 1 1 0 -1 1 2 0 0 0 0 1 1 0 1 2 1 1 1 1 0 0 1 1 1 0 1 1 1 1 2 2 1 1 1 2 1 1 1 1 0 0 0 1 1 1 1 2 1 0 0 1 2 1 0 0 1 1 0 1 1 1 1 1 2 2 2 1 1 1 1 2 2 1 1 1 1 1 1 1 1 1 1 1 1 1 1 1 1 2 1 1 2 2 2 2 1 1 1 1 1 1 0 1 1 2 2 2 2 1 2 2 1 0 1 1 1 1 1 1 1 2 2 1 1 1 1 2 2 2 2 2 2 1 0 0 1 2 2 2 2 2 2 2 2 2 2 2 2 1 1 0 1 1 1 1 2 2 2 2 3 3 3 2 1 1 1 1 2 2 2 2 2 2 2 2 2 2 2 2 2 2 2 1 2 2 2 2 1 0 1 2 3 3 2 2 2 1 2 2 2 2 2 2 2 2 3 3 2 2 2 2 2 2 2 2 3 2 2 2 2 2 3 3 2 2 2 2 1 1 2 2 2 2 2 2 2 3 3 3 3 3 3 3 2 2 3 3 2 2 2 2 2 2 3 2 2 2 2 2 3 3 3 2 2 2 2 3 3 2 1 1 1 2 3 3 2 2 2 2 2 2 3 3 2 2 2 2 2 2 2 2 2 3 3 2 2 2 2 2 2 2 1 1 2 3 2 1 2 2 1 1 2 2 1 1 2 2 2 2 2 1 1 2 2 2 2 2 2 2 2 1 1 2 2 2 1 1 2 2 1 1 1 2 2 1 1 2 2 1 2 2 2 1 1 1 1 0 1 1 2 1 1 1 1 1 1 1 1 1 1 1 2 2 2 1 1 1 1 1 1 1 1 1 1 1 1 1 1 1 1 1 1 1 1 1 2 2 1 0 1 1 0 0 0 0 1 1 1 0 1 1 1 2 2 0 1 1 0 0 1 1 0 1 1 1 1 1 0 0 1 1 0 0 1 1 1 2 1 0 1 0 0 1 1 1 1 0 1 1 2 1 1 1 0 0 1 1 0 1 1 1 1 0 0 1 1 1 1 1 0 1 0 1 1 0 1 0 1 2 1 0 1 2 1 0 0 1 1 1 1 0 1 1 0 0 0 1 2 1 0 1 1 0 1 1 1 1 0 1 1 1 1 1 1 0 1 1 1 0 0 1 1 1 -1 0 1 1 0 2 
1 0 2 0 0 0 0 1 0 -1 0 1 2 1 0 1 0 1 2 1 0 0 1 1 1 1 0 1 1 0 0 0 0 1 1 0 1 1 1 0 0 1 1 1 0 1 1 0 0 1 1 0 0 1 1 1 0 0 2 0 0 1 1 1 1 1 1 1 0 1 1 0 0 1 0 0 0 1 0 0 0 1 1 1 1 0 1 1 1 1 1 0 1 2 1 0 1 1 0 1 1 0 1 1 0 1 2 2 0 1 2 1 0 1 1 1 1 0 0 1 0 0 1 1 0 1 2 1 0 2 1 0 1 1 0 1 1 1 0 1 1 1 1 1 1 1 1 1 1 1 0 1 1 1 1 2 2 1 0 1 1 1 1 1 1 1 1 1 0 1 1 1 0 0 1 2 1 1 1 2 1 1 1 2 2 1 0 1 2 1 1 1 1 2 1 1 1 1 1 1 1 1 1 1 1 1 2 2 2 1 1 1 1 1 1 2 2 2 2 2 1 1 0 1 1 1 1 1 2 2 1 1 2 2 1 1 1 1 2 2 2 1 1 1 2 2 2 2 1 2 2 2 1 2 2 2 2 2 1 1 1 2 2 1 1 2 2 2 2 2 2 3 2 2 2 2 1 1 1 2 2 2 2 2 2 2 2 2 2 2 2 2 2 2 2 2 1 2 3 2 1 2 2 2 2 3 2 2 1 1 1 2 3 3 2 2 1 1 2 2 2 2 2 2 2 2 2 2 2 2 3 3 2 2 2 2 2 2 2 2 2 2 2 2 2 3 2 3 3 2 2 2 2 2 1 2 3 2 1 2 2 3 3 2 2 3 3 3 3 2 2 2 2 2 2 2 2 3 2 2 3 3 2 2 3 3 2 2 2 2 3 3 3 2 2 2 2 2 2 2 2 2 2 2 2 2 2 2 2 2 2 2 1 2 2 2 2 1 1 2 2 2 2 3 2 2 2 2 1 1 2 2 2 2 1 1 1 2 2 2 2 2 2 2 2 2 2 2 2 2 1 1 2 2 2 1 1 1 2 2 1 1 1 2 2 1 1 2 2 1 1 1 1 1 1 1 1 1 1 1 1 1 1 1 1 1 1 2 1 1 1 1 0 1 1 1 1 2 1 1 1 1 1 2 1 1 1 1 0 1 2 1 1 1 1 1 1 1 1 2 2 1 1 1 1 1 1 1 1 1 0 0 1 2 1 1 1 1 -1 1 1 0 1 1 0 1 1 0 0 1 1 1 1 1 0 1 1 1 1 0 0 1 2 1 1 1 1 0 0 2 1 0 1 0 0 1 1 0 1 0 0 2 0 1 1 0 0 0 1 2 1 0 0 0 1 1 1 1 1 1 2 1 0 0 0 1 1 0 1 1 0 1 1 0 1 1 1 1 0 1 1 1 0 0 1 0 0 1 1 1 1 1 1 0 1 1 1 -1 2 0 
1 0 -1 2 -1 2 0 1 0 1 0 0 0 1 0 0 0 2 1 0 1 1 0 0 0 1 1 1 0 0 1 1 1 2 0 0 1 1 0 0 1 1 1 1 1 1 0 0 1 1 0 0 1 0 -1 1 1 0 0 1 1 1 1 2 1 0 1 2 1 0 0 0 1 0 0 2 0 1 1 0 0 1 1 1 0 1 1 1 1 0 1 1 1 1 1 1 1 1 0 1 2 1 0 0 1 1 0 1 1 0 1 2 1 0 1 1 1 1 0 0 1 0 -1 1 1 1 1 1 1 2 1 1 1 1 0 1 1 1 0 0 0 1 1 0 0 1 1 1 1 1 0 0 0 1 1 1 1 2 2 1 1 1 1 1 0 0 1 1 1 1 1 2 1 0 1 2 2 1 1 1 1 1 1 1 2 2 1 1 1 2 2 1 1 2 2 1 1 1 1 1 1 1 1 1 2 2 2 1 2 2 1 1 1 1 1 2 1 1 2 2 2 1 1 1 1 0 1 1 2 3 2 2 1 1 1 1 1 2 2 1 2 2 2 2 1 2 2 2 1 1 2 2 2 2 2 2 2 2 2 2 1 2 1 1 1 2 1 1 2 2 2 2 2 1 2 3 2 1 1 2 2 2 3 3 2 2 3 3 3 3 2 2 2 2 2 2 1 1 1 1 2 3 3 3 2 2 2 1 1 1 2 2 2 1 1 2 2 3 2 2 2 2 2 2 2 3 3 2 2 2 2 2 2 2 1 2 2 2 2 2 2 3 3 2 2 2 2 3 3 2 2 2 2 2 2 2 3 2 2 2 2 2 2 2 2 2 3 3 3 3 3 3 2 3 3 3 2 2 2 1 1 1 2 2 3 2 2 2 2 3 2 2 2 3 2 2 2 2 2 2 3 3 3 2 2 2 1 1 2 3 3 2 1 1 2 3 2 2 2 2 1 1 1 1 1 1 1 1 1 2 2 2 1 2 2 2 2 2 2 2 2 2 2 2 2 2 2 2 1 1 1 1 1 1 1 1 1 2 1 1 1 1 1 0 1 2 1 1 1 1 1 1 1 1 1 1 1 1 1 2 1 1 1 1 1 1 1 1 1 1 1 1 1 1 1 1 2 2 1 1 1 1 0 1 1 1 1 1 1 1 1 1 1 1 0 1 2 1 1 2 1 1 1 0 1 2 1 0 1 1 0 1 1 1 1 1 0 0 1 2 1 1 1 0 0 1 2 1 0 1 0 1 2 1 0 -1 0 1 1 0 1 2 0 0 2 1 1 1 0 1 1 1 0 0 0 1 1 1 1 0 0 1 0 1 1 0 0 1 1 1 1 1 0 1 1 1 1 2 1 1 0 0 0 1 0 0 1 1 1 1 0 1 0 1 1 1 0 1 1 1 0 1 0 1 1 0 0 2 0 2 1 2 0 1 0 2 -2 1 1 0 
-2 6 -3 1 1 1 1 1 1 0 0 1 1 0 0 1 0 1 1 1 1 0 0 1 1 1 0 1 1 1 0 0 1 2 0 0 1 0 0 0 1 1 1 1 0 1 1 1 1 2 2 1 0 0 1 0 0 2 1 1 1 1 1 0 0 2 1 0 1 1 0 0 1 1 0 1 0 0 0 0 1 1 0 1 1 1 0 1 1 1 2 0 1 1 1 1 0 2 1 0 0 1 1 0 0 1 0 0 1 1 1 1 1 1 1 1 0 1 1 0 1 1 0 0 1 1 0 0 1 1 1 2 1 1 0 1 1 1 0 0 0 1 1 1 0 0 1 2 1 0 0 0 0 1 1 1 2 1 1 1 2 1 1 1 1 1 1 0 1 2 1 0 1 1 2 2 1 1 1 1 1 1 2 1 0 0 0 1 1 1 0 1 1 1 1 1 2 2 1 1 1 1 2 1 1 1 2 2 1 1 1 1 1 1 2 2 1 1 1 1 1 1 1 1 1 1 1 2 1 1 2 2 2 1 1 1 1 1 1 1 1 1 1 2 2 2 2 1 1 2 2 1 1 2 1 1 1 1 2 1 2 3 2 1 2 2 2 2 2 1 1 1 2 2 2 2 2 2 2 2 1 1 1 2 1 1 2 1 2 2 2 3 2 1 1 2 2 2 2 2 2 2 1 2 2 2 2 1 1 1 1 2 2 2 2 2 1 1 1 2 2 3 3 2 2 2 2 3 3 2 3 3 2 1 1 1 2 2 2 2 2 2 2 2 2 2 2 3 3 2 2 2 2 2 2 2 2 3 2 2 2 2 3 2 1 2 3 3 3 3 2 2 2 2 3 3 2 2 2 2 2 2 2 3 2 2 3 3 3 3 3 2 2 2 2 2 3 2 2 1 1 1 2 2 2 2 1 2 2 2 2 2 2 2 2 2 2 2 3 2 1 2 2 2 2 1 2 2 2 2 2 3 2 2 1 1 2 1 1 1 2 2 2 1 1 2 2 1 2 2 2 2 1 0 1 1 2 2 1 1 1 1 1 1 1 1 1 2 1 1 1 1 1 1 1 1 1 2 2 1 1 1 1 1 0 1 1 1 1 1 1 1 1 1 1 1 1 1 1 0 1 1 1 1 1 1 1 1 1 1 1 2 1 1 0 1 1 0 1 2 1 1 1 0 1 0 0 1 1 0 0 1 1 0 2 1 0 2 2 1 1 1 1 0 1 1 0 0 0 1 1 2 1 0 0 0 1 1 1 1 1 1 1 1 2 1 1 1 0 1 0 1 0 1 1 1 2 1 0 1 1 1 1 1 1 1 0 0 0 1 1 1 1 1 1 1 0 1 1 1 0 1 0 1 1 0 1 0 1 1 1 0 0 1 1 0 0 1 1 1 0 0 1 1 0 0 1 2 1 2 1 1 1 1 0 0 0 4 -6 3 
5 -9 7 0 1 -1 3 0 2 0 1 1 1 0 0 0 1 1 1 0 1 1 1 0 0 0 0 0 1 1 1 0 1 1 1 1 1 0 0 0 0 1 1 1 1 1 0 0 1 1 1 0 -1 -1 1 0 0 1 1 1 1 0 1 1 0 0 1 0 1 0 0 1 1 1 1 1 0 1 1 0 1 1 1 0 0 1 1 0 1 1 0 1 2 1 0 1 0 0 1 2 1 0 1 1 0 0 0 0 1 2 2 1 1 0 1 1 0 0 1 1 1 0 0 1 1 1 1 0 0 1 1 1 1 1 1 1 2 1 0 0 1 1 1 1 1 0 1 1 1 0 1 0 1 1 1 1 1 1 1 1 1 1 1 1 0 1 1 1 1 1 2 2 1 0 1 2 2 1 1 2 2 1 1 1 2 1 0 1 2 1 1 1 1 2 2 1 1 2 2 1 1 1 2 2 1 1 1 2 1 1 1 2 2 1 1 1 2 2 2 1 1 2 1 1 1 1 1 2 2 1 1 1 2 2 2 1 1 1 1 1 1 0 1 2 2 1 1 1 1 2 2 1 2 2 2 2 2 2 2 2 1 1 1 1 2 3 2 1 1 2 3 2 1 1 2 3 3 2 1 1 2 2 2 2 2 1 1 2 3 3 2 2 1 2 3 3 2 2 2 1 1 2 2 2 2 1 1 2 2 2 2 2 2 1 1 2 3 2 2 2 2 2 2 2 3 3 3 2 2 2 2 2 2 2 2 2 3 2 2 2 2 2 3 2 1 2 3 3 2 2 2 2 2 1 2 2 2 2 2 2 2 2 2 2 1 1 2 2 3 3 2 1 2 2 3 3 2 2 2 2 1 2 2 3 3 3 3 2 2 2 2 2 3 3 3 2 3 2 2 2 2 3 3 2 3 3 2 1 1 2 2 1 1 1 2 2 2 1 1 1 1 1 1 1 1 1 1 2 2 2 2 2 1 1 1 2 2 1 1 2 2 2 2 1 1 1 2 2 2 2 1 1 1 1 1 1 2 2 1 1 1 1 1 1 1 1 1 1 1 0 1 2 2 2 2 2 1 1 2 2 1 1 1 1 0 1 1 1 1 2 2 2 1 1 1 1 1 1 2 2 1 0 1 1 1 1 1 1 1 1 2 1 1 0 0 1 1 1 1 1 1 1 1 0 1 1 1 1 0 0 1 1 1 1 2 1 1 1 1 1 1 1 0 0 1 1 1 2 1 0 0 1 2 1 1 0 0 0 1 2 1 1 0 -1 1 2 2 1 0 0 1 1 1 1 1 0 1 1 1 1 1 0 1 0 1 2 0 0 1 1 0 0 1 0 1 2 1 1 0 1 1 1 0 0 1 0 0 0 0 1 2 1 0 0 1 2 1 -1 0 1 2 0 0 0 1 1 1 0 1 1 1 0 1 0 3 1 2 -7 9 -4 
-3 7 -4 1 1 2 1 0 1 1 1 1 0 1 1 0 0 1 1 2 1 1 1 1 1 0 0 0 1 1 1 1 1 0 0 1 1 0 0 1 1 0 0 0 1 1 1 1 1 0 0 0 1 0 1 0 1 1 0 0 1 1 0 0 1 1 1 0 1 0 1 2 1 1 1 1 1 0 0 1 1 0 0 1 1 1 1 0 1 2 0 1 1 0 0 1 2 1 1 1 1 0 0 1 1 0 1 1 1 1 1 1 2 1 1 0 0 0 0 1 1 1 0 0 1 2 1 0 1 1 1 1 1 1 0 0 0 1 0 0 1 1 1 1 1 1 1 1 1 1 1 1 1 1 2 1 0 0 1 1 1 0 1 2 3 1 1 1 1 1 1 1 1 1 1 1 2 2 1 1 2 2 2 1 1 1 1 1 1 1 1 2 1 1 2 2 2 1 1 1 2 1 1 1 2 2 0 0 1 2 2 0 0 1 2 2 1 0 1 1 2 1 1 1 2 2 1 1 1 2 1 1 1 2 2 2 2 1 1 1 1 0 0 1 2 2 2 1 1 2 2 2 2 2 1 2 2 2 2 1 1 2 1 1 1 1 2 2 1 0 1 2 3 2 1 1 1 2 3 3 2 1 1 1 2 2 2 2 1 1 2 3 3 2 1 1 2 2 3 3 3 2 1 1 1 2 2 2 2 2 2 2 2 2 2 2 2 2 2 2 2 3 2 2 2 2 2 2 2 3 3 3 3 2 2 2 2 2 3 3 2 2 2 2 1 2 2 2 2 2 2 2 2 2 2 2 2 2 2 1 2 2 3 2 2 2 3 3 3 3 2 2 2 2 2 2 2 2 2 2 2 2 2 2 2 2 2 2 2 2 2 1 2 3 2 1 2 2 2 2 1 1 1 1 1 2 2 1 1 1 2 1 2 2 2 2 2 2 2 2 1 1 2 2 2 2 2 2 2 2 2 2 1 1 1 1 1 1 1 2 2 1 1 1 1 1 1 1 1 1 1 1 1 1 1 1 1 1 0 0 1 1 1 0 1 1 1 1 1 1 1 1 1 2 1 1 1 1 1 1 1 1 1 1 1 1 1 0 1 1 1 1 1 1 2 2 1 0 1 1 1 1 2 1 1 1 0 1 1 1 1 1 2 1 1 1 1 1 1 1 1 1 1 1 0 0 0 1 1 1 1 0 1 0 0 1 2 1 1 1 1 1 1 1 1 0 0 1 1 1 2 1 -1 0 1 1 2 1 1 1 1 0 1 1 1 1 1 0 1 1 1 1 0 1 2 1 0 0 1 0 1 0 1 0 0 1 0 1 1 0 1 2 2 1 0 0 0 1 1 1 1 2 1 0 1 0 0 1 1 1 0 0 0 1 1 0 1 1 1 0 0 0 0 0 -1 1 0 1 2 1 1 2 1 2 -1 0 1 5 -6 4 
1 -1 0 1 1 0 1 2 0 1 0 1 0 1 1 1 2 1 -1 1 1 1 1 2 1 1 -1 -1 0 2 2 0 0 1 0 1 1 1 0 0 1 1 0 0 1 1 1 0 0 1 1 0 0 1 1 0 0 1 1 0 -1 1 1 1 0 0 2 1 0 0 1 1 0 1 1 0 1 2 0 0 0 1 1 1 1 0 2 1 0 1 0 1 0 1 1 0 1 1 1 1 1 1 0 0 1 1 2 2 0 1 1 1 0 0 1 1 1 0 1 2 1 0 0 1 1 1 2 1 0 1 1 1 0 0 1 1 0 1 1 1 1 1 2 2 0 0 0 1 1 0 1 1 1 1 1 1 1 1 1 1 1 1 0 0 1 2 2 1 1 1 1 1 0 1 1 1 1 1 1 1 1 1 1 1 1 1 1 1 1 1 1 1 1 2 2 1 1 1 1 0 0 2 3 2 1 0 0 1 1 0 1 2 1 1 1 1 2 2 1 1 2 2 2 2 1 1 2 1 0 1 1 2 2 1 1 1 1 1 1 1 1 1 2 2 1 1 1 2 2 2 2 2 2 2 2 2 1 2 2 2 2 2 1 1 2 2 1 1 1 2 3 3 2 1 1 2 2 1 1 2 2 2 2 2 2 2 2 2 2 2 2 1 0 1 2 2 2 2 2 2 2 2 2 2 2 2 2 2 2 2 2 3 3 2 1 1 2 2 3 3 2 2 1 2 2 1 2 2 2 2 2 2 2 2 2 2 2 2 1 1 2 3 3 2 1 2 2 2 2 2 2 2 2 2 2 2 2 2 2 2 2 2 2 3 3 2 2 1 2 3 3 2 1 2 2 3 2 2 2 2 1 2 2 2 2 2 2 2 1 1 2 3 3 2 2 2 2 2 2 2 2 3 2 2 2 2 2 2 1 1 2 2 2 2 2 2 3 2 1 1 2 2 2 2 2 1 1 2 2 2 1 2 2 1 1 1 1 2 2 1 1 2 2 2 1 2 2 2 1 1 1 1 1 1 1 1 0 1 2 1 1 1 2 2 2 2 1 2 2 1 1 1 2 2 2 1 0 1 2 2 2 1 1 1 1 1 1 1 1 1 1 1 1 1 1 1 1 2 1 0 0 0 1 1 1 1 0 1 1 1 1 1 1 1 1 1 1 1 1 0 1 1 0 1 0 1 1 0 0 1 1 1 2 1 0 1 0 -1 0 0 0 1 1 1 0 1 2 1 1 0 0 -1 1 2 0 1 1 0 0 1 2 1 1 0 -1 1 1 0 1 1 0 0 2 1 0 0 0 0 1 0 0 0 0 1 1 0 0 1 1 1 1 0 0 1 1 2 1 0 1 2 2 1 0 0 1 1 0 0 0 2 1 0 -1 0 1 2 1 0 0 2 1 0 -1 1 1 2 0 0 0 1 2 1 0 1 1 1 0 0 3 0 
1 1 0 1 0 2 0 2 0 1 0 1 1 1 0 0 0 1 1 1 1 1 1 2 1 1 0 1 0 2 2 1 0 0 1 1 0 1 0 1 1 1 0 1 1 1 1 1 0 1 1 1 1 1 1 1 1 0 1 1 -1 -1 0 1 1 0 1 1 0 1 1 1 1 0 1 2 1 0 0 1 0 1 1 0 0 0 1 2 1 1 1 1 1 1 1 1 1 1 0 1 1 1 0 1 1 0 1 2 1 1 1 1 1 1 0 0 2 1 0 1 1 0 0 1 2 1 1 1 1 1 1 1 1 1 0 1 1 0 0 1 1 1 1 1 1 1 1 0 0 1 1 0 0 1 1 1 0 1 1 1 1 1 1 2 1 1 2 1 0 1 1 1 1 1 1 1 1 1 0 0 1 1 1 1 1 1 1 1 0 1 1 1 1 2 2 2 1 1 2 2 2 1 1 1 2 1 0 0 0 1 1 0 0 1 2 1 1 1 1 2 2 1 1 2 2 2 1 1 1 2 1 0 1 1 1 1 1 1 1 2 2 1 1 1 1 2 2 1 2 2 2 2 1 1 2 2 2 2 1 1 2 2 2 1 1 1 1 2 2 1 1 2 2 3 1 1 2 1 1 1 1 1 1 1 2 2 2 2 2 1 1 2 2 2 1 1 1 1 2 2 2 2 3 2 1 2 2 2 2 2 2 2 2 3 2 2 2 2 2 2 2 2 1 2 2 3 2 2 2 2 2 2 2 2 3 2 2 1 1 1 2 2 1 2 2 3 3 2 1 1 2 2 2 2 2 2 2 2 1 2 3 3 2 2 2 2 2 2 2 2 2 2 2 2 1 1 2 2 2 2 2 2 2 2 2 1 1 2 2 2 2 2 2 2 3 2 2 2 2 2 2 2 2 1 1 2 2 2 1 1 2 2 2 3 2 2 2 2 2 2 1 1 2 2 1 2 1 1 1 1 2 2 1 1 1 2 1 1 2 2 2 2 2 2 1 1 1 1 1 2 1 0 1 2 1 1 1 1 1 1 1 1 1 1 1 2 1 1 1 1 1 1 1 1 2 2 2 1 1 0 0 1 0 1 2 2 1 1 1 1 1 1 0 1 1 1 1 2 1 1 1 1 1 1 0 0 0 1 1 1 1 1 1 1 1 1 0 1 2 1 1 1 1 2 0 0 1 1 1 1 2 1 1 0 1 1 0 0 1 1 0 1 1 1 0 1 1 1 1 0 0 0 1 1 0 1 1 1 1 0 1 1 0 1 1 1 0 0 1 1 1 1 0 0 1 2 1 0 0 0 2 1 0 1 1 1 1 2 1 0 1 1 1 1 0 1 1 1 1 1 1 1 1 0 -1 0 1 2 0 0 0 1 1 0 0 1 0 1 0 1 0 1 1 1 0 2 1 1 0 1 1 2 1 1 0 2 0 1 1 0 
-1 5 -2 2 0 2 0 2 0 2 0 2 0 0 -1 0 0 1 0 1 0 1 1 1 0 0 0 1 1 1 0 1 0 0 1 1 0 1 0 0 0 1 0 1 1 1 0 1 0 1 1 0 1 1 0 1 1 1 1 0 0 1 1 0 0 1 1 0 0 1 0 0 0 0 1 2 2 1 0 0 1 2 0 -1 0 1 0 1 2 1 1 1 0 1 1 0 0 1 2 0 1 2 1 0 1 1 1 1 1 1 0 1 1 1 1 0 0 1 2 1 1 2 1 1 1 1 1 1 2 2 2 1 1 1 1 1 0 0 1 1 0 1 1 1 1 1 1 1 1 1 0 0 0 1 1 1 1 0 1 1 1 1 1 2 2 1 1 1 1 1 0 1 1 2 1 0 0 1 0 0 1 1 1 1 1 1 1 1 0 1 1 1 1 1 1 1 1 0 1 1 1 2 2 2 1 1 0 0 0 1 1 1 1 1 2 2 1 1 1 1 1 2 2 2 2 2 2 1 1 2 2 2 2 1 1 2 2 1 1 2 2 2 1 1 1 2 2 2 2 2 2 2 1 1 2 1 2 2 1 1 1 1 1 2 2 2 2 2 2 1 1 2 2 2 1 1 2 2 1 1 1 2 2 1 1 1 1 2 2 2 2 2 2 2 2 2 2 2 2 2 2 2 2 2 2 2 2 2 1 1 1 2 2 2 1 1 1 2 2 2 2 2 2 2 1 2 2 3 3 2 2 2 2 2 2 2 1 1 2 2 2 2 2 1 1 2 2 2 2 3 3 3 2 2 2 2 1 2 2 2 3 3 3 3 2 2 1 1 1 2 2 2 1 1 2 2 2 2 2 3 2 2 2 2 1 2 2 2 2 2 2 3 2 2 3 2 2 2 2 2 2 2 2 2 2 2 2 2 2 2 2 1 1 2 2 2 1 1 1 2 1 1 2 2 2 2 1 1 1 1 1 1 2 3 2 2 1 2 2 1 1 2 2 2 1 1 1 1 1 2 2 1 1 1 1 2 2 1 1 2 2 1 1 1 1 1 1 1 1 1 1 1 1 2 2 1 1 1 0 0 1 1 1 1 1 1 1 2 1 0 1 1 1 1 1 1 1 1 0 0 1 2 1 1 1 0 0 0 0 1 0 1 1 1 1 1 0 1 1 1 1 2 1 1 1 2 2 2 2 1 1 2 1 1 1 1 0 1 1 0 1 2 1 0 1 1 1 1 2 1 1 1 0 0 1 1 0 1 1 0 0 1 1 1 1 1 1 1 0 0 1 1 0 0 1 1 0 1 0 1 1 1 1 2 1 0 1 1 1 1 0 0 1 1 1 1 1 1 1 1 0 1 1 0 0 1 0 1 1 1 0 0 0 1 0 1 0 1 1 1 0 1 0 1 0 1 0 2 0 2 0 2 1 2 -1 1 0 4 -3 3 
2 -2 1 3 0 1 0 1 0 1 0 1 1 0 0 0 0 1 0 0 1 1 0 1 1 1 1 1 0 1 -1 -1 0 0 1 1 0 1 1 1 2 1 0 2 1 0 0 1 0 1 1 1 0 1 1 1 0 1 1 0 0 0 1 1 0 0 1 2 1 0 0 1 1 0 0 2 1 0 1 1 0 0 1 1 0 1 1 1 1 1 1 1 1 1 0 1 1 -1 0 2 1 0 1 1 0 1 2 0 0 1 0 1 1 0 1 2 0 0 1 1 0 0 1 1 1 1 1 2 2 2 1 1 1 0 1 1 0 -1 0 0 1 1 1 1 1 1 1 1 1 1 0 1 1 1 1 1 0 1 1 0 0 2 1 1 1 1 1 1 1 1 1 1 1 1 1 1 1 1 1 1 1 1 1 2 2 1 1 1 1 1 0 1 1 1 1 1 1 1 1 1 0 1 2 2 0 0 1 2 2 1 0 1 1 2 1 1 1 1 1 1 2 2 1 1 1 1 1 2 1 1 1 2 2 1 0 1 1 2 1 1 1 2 2 1 1 1 1 1 1 2 2 1 1 2 2 1 1 2 2 1 1 1 1 1 3 3 1 1 1 1 2 1 1 1 2 3 2 2 1 1 1 2 2 2 2 2 2 2 3 3 2 2 2 2 3 3 2 1 1 1 1 2 2 2 2 2 2 2 2 2 1 1 2 2 2 2 2 2 2 2 2 2 2 2 2 2 2 2 2 1 1 2 2 3 3 3 3 2 1 1 2 2 2 2 2 2 2 2 2 1 2 2 2 2 2 2 2 2 2 2 2 2 2 2 2 2 2 2 3 3 2 2 2 1 1 1 2 3 3 3 2 2 3 2 2 2 2 3 3 2 2 2 2 2 2 2 3 2 2 2 2 2 2 2 1 1 1 3 3 2 2 2 3 3 2 1 1 1 1 2 2 2 2 2 2 1 1 2 1 1 1 2 2 2 1 2 2 2 1 1 2 2 2 1 1 1 1 1 1 1 2 2 1 2 1 1 1 2 2 2 1 1 2 2 1 1 1 1 1 1 1 1 1 1 1 1 1 2 2 1 1 1 1 1 1 2 3 2 1 1 1 1 1 1 0 1 1 1 1 1 1 1 0 0 0 1 1 1 1 1 1 0 0 1 1 1 2 2 1 1 1 1 1 1 1 1 1 2 1 1 1 0 0 1 1 0 0 1 1 1 1 0 0 1 0 0 1 2 1 1 1 0 0 1 1 0 0 0 0 1 1 1 0 0 1 1 1 2 1 1 1 1 1 1 0 0 1 1 1 1 0 1 1 0 1 2 1 0 1 2 0 1 1 0 0 2 2 1 1 2 0 0 0 1 1 1 1 1 0 0 1 1 0 0 0 2 1 0 0 1 1 1 0 1 0 1 0 1 0 1 0 2 0 1 1 1 -1 0 3 0 
-1 2 1 0 1 1 0 0 1 1 1 0 1 0 1 0 0 0 1 1 0 0 1 1 1 1 2 1 1 0 0 0 1 1 1 1 0 1 2 1 1 1 1 1 1 1 1 0 1 1 1 1 1 1 1 1 1 1 1 0 1 1 1 1 1 2 1 1 0 1 1 0 1 1 1 1 1 1 0 0 2 1 0 0 1 1 0 1 1 0 1 0 1 0 0 1 1 1 1 2 1 0 1 1 1 1 1 1 1 2 1 -1 1 1 1 1 1 2 0 0 1 1 0 0 0 0 1 1 2 2 1 1 1 1 1 1 1 1 1 1 1 1 0 1 1 2 2 1 1 1 1 1 1 1 1 1 1 0 0 1 1 1 1 1 2 2 1 1 1 1 1 1 1 1 1 1 1 1 1 1 1 1 2 2 1 1 2 1 1 1 1 1 0 0 1 1 1 1 1 1 2 2 2 1 2 2 1 0 1 2 1 0 0 1 2 2 1 0 1 1 1 1 1 2 2 2 1 1 2 2 1 1 1 1 1 1 1 1 1 2 2 2 1 1 2 2 2 1 2 2 2 1 1 1 1 2 2 1 1 1 1 1 2 2 2 2 2 2 2 1 1 1 2 2 2 1 1 2 2 2 1 2 2 1 1 2 2 2 1 1 1 2 2 2 1 1 1 2 2 2 2 2 2 2 2 2 2 2 2 2 1 2 2 2 1 1 1 2 2 2 2 2 2 2 2 1 1 2 3 3 3 2 2 2 2 2 2 2 3 3 2 1 1 2 2 2 2 2 3 3 3 2 3 2 2 2 2 2 2 1 2 3 3 2 2 1 1 2 2 2 1 1 2 1 1 1 1 2 1 1 2 2 2 2 3 2 2 2 2 2 2 2 2 1 1 2 2 2 2 2 2 2 1 1 1 1 1 2 2 2 3 2 2 2 2 2 1 2 3 3 2 2 2 2 2 2 2 2 1 1 1 1 1 1 2 2 2 1 1 1 1 2 2 2 1 1 1 0 0 1 1 1 1 1 1 1 1 1 0 1 1 1 1 1 1 1 1 1 2 2 1 1 1 1 1 1 1 0 0 1 1 2 1 1 1 1 1 1 2 1 1 1 2 1 1 1 1 0 0 0 1 2 2 1 1 0 0 1 0 0 1 1 0 1 1 1 1 1 1 1 1 0 1 1 1 1 1 2 0 1 2 1 0 0 0 0 2 1 1 1 1 1 0 1 1 1 1 1 1 2 1 1 1 0 0 1 1 1 1 1 0 0 1 0 1 1 1 0 0 1 1 0 0 1 1 1 0 0 0 2 1 1 0 0 0 1 2 1 1 1 1 1 1 1 1 0 1 2 1 -1 -1 1 1 1 1 0 0 1 2 1 1 0 1 1 0 0 1 1 1 0 1 1 2 1 0 0 1 1 1 1 1 1 2 1 0 0 1 1 -1 2 
2 -3 4 0 2 0 1 1 1 1 1 0 1 0 1 1 1 0 0 0 1 1 0 1 1 1 1 0 1 0 1 1 0 0 0 1 1 1 1 1 0 0 0 0 0 0 0 0 1 1 0 1 1 0 1 1 0 0 0 1 1 0 0 0 0 1 0 1 0 0 0 1 2 1 0 1 1 0 1 1 0 0 1 1 1 0 1 1 -1 0 1 0 0 1 1 0 1 2 1 1 2 1 -1 0 2 0 0 2 1 0 1 1 0 0 1 1 1 1 1 1 1 0 0 1 0 0 1 1 1 1 1 1 1 1 1 1 1 1 1 1 1 1 1 1 1 1 2 1 1 1 1 0 1 1 1 0 1 1 1 1 1 1 1 1 1 1 1 2 1 1 0 0 1 1 2 2 1 1 1 1 1 1 1 2 2 2 1 1 1 1 0 1 1 1 1 0 1 1 1 1 1 1 1 1 1 0 1 2 2 1 1 1 1 1 0 1 1 1 1 1 1 2 1 1 1 2 2 1 1 1 1 1 2 1 0 1 2 2 1 0 0 1 1 2 1 1 2 1 1 2 1 1 1 2 1 1 1 2 2 2 2 1 1 2 3 3 2 1 2 2 2 1 1 1 1 2 2 2 2 1 1 1 2 2 1 1 1 2 2 2 2 1 1 1 1 2 1 1 1 1 2 2 2 1 1 1 1 2 2 2 2 2 2 1 1 2 2 3 3 2 2 2 2 2 2 2 2 2 2 1 2 1 1 2 2 2 2 2 2 2 1 1 2 2 3 2 2 1 2 2 2 2 2 2 2 1 1 1 2 2 1 1 1 2 2 2 2 2 2 1 2 2 2 1 1 2 3 3 2 1 1 2 2 3 2 1 2 3 2 1 1 2 2 2 2 2 3 3 3 2 2 2 2 2 2 2 2 2 3 3 2 2 2 2 1 1 2 2 2 2 2 2 2 1 1 1 1 2 1 1 1 1 2 2 2 1 1 1 2 1 1 1 2 2 2 2 1 1 1 2 2 2 2 2 1 1 1 1 1 1 1 1 1 1 1 2 1 1 1 1 1 1 1 1 1 0 0 1 2 1 1 2 1 0 1 1 1 1 1 1 1 0 1 1 1 2 1 1 2 1 1 1 1 1 1 1 1 1 1 1 0 0 0 1 1 1 2 1 0 1 1 1 1 1 1 2 1 1 1 1 1 1 1 0 0 1 0 -1 1 2 0 1 2 1 1 2 2 1 1 1 0 0 1 1 1 1 0 0 1 1 1 1 1 0 0 1 2 1 1 1 1 1 2 1 1 0 1 1 1 1 0 0 0 1 1 1 0 1 1 1 1 1 0 2 2 1 1 1 0 1 1 0 -1 0 2 1 1 0 0 1 1 0 0 0 1 1 1 0 1 0 1 0 1 0 0 0 1 0 1 1 1 0 1 0 1 0 1 -3 4 -1 
-1 4 -2 -1 2 -1 0 0 1 0 1 0 1 1 0 0 0 1 1 1 1 0 1 1 1 0 0 0 1 1 1 0 0 1 0 1 1 1 1 1 1 0 0 0 1 1 1 0 1 1 0 1 1 1 1 0 0 0 1 0 0 0 1 0 1 1 1 1 0 0 1 1 1 2 1 1 1 0 0 0 1 1 0 0 1 1 0 0 0 0 0 1 1 0 1 1 1 2 2 1 0 1 0 0 1 1 0 0 1 1 1 0 0 0 1 1 1 1 1 1 1 1 1 1 1 1 1 1 1 1 1 1 1 0 1 1 1 1 1 1 1 1 0 0 1 1 1 1 1 1 1 1 1 1 1 1 1 1 1 1 1 1 0 0 1 1 1 1 2 2 1 1 1 1 1 1 1 1 1 1 1 1 1 2 2 2 2 1 1 1 1 1 1 1 1 1 1 1 1 1 1 1 1 1 1 1 1 1 1 1 1 1 1 1 1 1 0 0 1 2 2 2 1 1 2 2 1 1 2 2 2 1 1 1 2 2 1 1 1 1 1 1 0 1 1 1 1 1 1 1 2 2 2 2 2 1 1 2 2 2 2 2 1 1 1 1 1 1 1 1 1 1 2 2 1 1 1 2 2 2 1 2 1 1 1 1 2 3 2 2 2 2 2 1 1 2 2 2 2 2 2 2 2 2 1 2 2 1 1 2 2 2 2 2 2 2 2 2 2 2 2 2 2 2 2 2 2 2 2 2 2 2 2 2 2 2 2 2 2 2 3 2 2 2 3 2 2 2 3 2 1 2 3 2 1 2 2 2 2 2 2 2 2 2 2 2 2 2 2 1 1 2 2 1 1 1 1 2 2 1 1 1 2 2 2 2 2 1 1 2 1 2 2 1 1 1 2 2 2 2 2 2 2 1 1 1 1 1 1 1 1 2 2 1 1 1 2 1 2 2 2 2 1 1 1 1 1 2 2 2 1 1 1 1 1 2 1 1 2 1 1 1 1 2 2 2 1 0 0 1 1 1 2 2 1 1 1 1 1 1 1 1 2 2 1 1 1 1 0 0 1 1 0 1 1 1 1 1 1 2 2 2 1 1 0 1 1 1 1 2 2 1 1 1 1 1 2 1 1 1 1 1 2 1 1 1 1 1 2 1 1 1 1 1 1 1 1 1 1 1 1 1 1 1 1 1 1 0 0 0 1 2 1 0 1 1 0 1 2 1 0 1 1 1 2 2 1 1 1 0 1 1 1 0 0 1 0 1 1 0 0 0 1 2 2 0 0 1 2 2 1 0 0 0 1 1 1 1 0 1 1 1 0 0 0 1 1 1 1 0 1 2 1 1 1 1 0 1 1 0 1 0 1 1 1 1 1 1 1 1 0 0 1 1 1 0 1 1 1 1 1 0 1 1 1 0 0 1 0 -1 1 1 2 1 1 0 0 2 -1 1 
1 -1 2 -1 0 0 1 1 0 1 2 0 0 0 0 1 1 1 0 1 1 0 1 1 1 0 1 1 1 1 1 1 0 0 0 1 1 1 0 0 0 0 1 1 1 1 0 0 1 0 1 1 1 1 0 0 1 1 0 0 0 0 1 1 2 1 0 1 1 0 1 1 2 1 0 1 1 0 0 0 1 1 1 0 0 1 1 1 0 0 0 1 1 1 1 0 0 1 2 1 0 1 1 0 1 1 1 0 1 1 1 0 0 1 1 1 1 1 1 1 0 1 1 1 1 1 1 1 2 0 0 1 1 0 1 1 1 1 1 1 1 1 0 1 1 1 1 1 1 0 0 1 1 1 1 1 2 1 0 1 1 1 1 1 1 1 1 2 2 1 1 1 1 1 1 1 1 1 1 1 1 1 1 1 2 1 1 1 1 1 1 1 1 1 1 1 1 1 1 1 0 1 1 1 1 1 1 1 1 1 1 1 1 2 2 1 1 2 2 1 1 2 1 1 1 1 2 2 2 1 1 1 1 1 1 2 2 2 1 0 1 1 1 2 2 1 1 1 1 1 1 1 2 2 1 1 1 1 2 2 2 2 1 1 2 1 1 1 1 1 2 2 2 1 1 1 2 2 2 1 1 2 2 1 1 0 1 2 2 3 3 2 1 1 1 2 2 2 1 1 2 2 2 2 2 2 1 1 1 1 1 2 2 2 2 2 2 2 2 2 1 1 1 2 2 2 2 2 2 1 1 1 2 2 2 1 1 1 2 3 2 2 2 2 3 2 1 1 2 2 2 2 2 2 2 2 1 2 2 2 1 2 2 2 2 2 2 2 2 2 2 2 2 1 1 1 1 2 2 2 2 2 3 3 2 1 1 1 1 2 2 2 2 2 2 2 2 2 2 2 1 1 1 2 2 2 1 1 1 1 1 1 1 1 2 2 2 1 1 1 1 1 1 0 1 1 2 2 2 1 1 1 2 2 1 0 0 1 2 1 1 1 1 2 2 2 2 1 2 2 2 2 2 2 1 1 1 1 1 1 1 1 1 1 1 1 1 1 1 1 1 1 2 2 1 1 1 2 2 2 3 2 1 1 1 1 1 1 2 1 0 0 1 1 1 2 2 1 1 1 1 1 2 2 1 1 1 2 1 1 0 1 1 1 2 2 1 1 2 2 1 1 1 1 1 1 1 1 1 1 1 1 0 1 1 1 1 1 0 0 1 1 1 1 1 0 0 1 1 0 0 0 1 0 0 0 0 1 0 0 0 1 1 1 0 1 2 1 1 1 1 1 0 0 1 1 1 1 1 0 0 1 2 1 0 1 1 0 1 1 2 1 1 1 1 1 1 0 0 1 1 0 0 0 1 1 1 1 1 1 1 0 1 1 1 0 1 1 1 1 1 0 0 -1 0 0 0 0 0 0 1 0 1 1 1 1 1 -1 3 0 
1 -1 2 -2 1 1 1 0 1 1 1 0 2 1 1 0 1 1 1 1 1 1 2 0 1 0 1 1 1 1 0 0 0 0 1 0 1 1 0 0 1 1 1 1 1 0 0 1 1 0 1 1 1 1 0 0 1 1 0 1 1 1 1 1 2 1 1 0 1 1 1 1 1 1 0 0 1 0 0 1 1 0 1 0 0 1 0 0 0 1 1 0 1 1 0 1 2 0 0 1 1 0 1 1 1 1 2 1 1 0 1 1 1 1 0 1 1 1 1 0 0 1 0 0 1 1 1 1 1 0 0 0 1 2 2 1 1 1 1 0 1 1 1 1 0 0 1 1 1 1 0 0 1 1 1 1 1 0 0 1 1 1 1 1 1 0 1 1 1 1 1 1 2 2 1 1 1 1 1 1 1 1 0 1 1 1 1 2 1 1 1 1 1 1 1 1 2 2 1 1 1 1 1 1 1 1 1 1 2 1 1 1 1 2 1 1 1 1 1 2 2 2 2 1 1 1 1 1 2 2 3 2 2 2 1 1 2 1 1 1 1 1 2 2 2 1 2 1 1 2 2 2 2 2 1 2 2 2 2 2 2 3 2 2 1 1 1 1 1 2 1 2 2 2 1 1 1 2 1 1 1 1 1 1 1 1 2 2 2 1 1 1 2 2 1 2 1 1 1 2 3 2 1 2 2 2 2 1 1 1 2 2 2 2 2 1 1 1 2 1 1 1 2 2 1 1 1 2 2 2 2 2 2 1 1 2 2 1 1 2 2 2 2 2 2 1 1 1 2 2 2 2 2 2 2 2 2 2 2 2 2 2 2 2 2 2 2 2 2 2 2 1 1 1 1 2 1 1 2 1 1 1 1 2 3 2 1 2 2 2 2 2 2 2 2 1 2 2 2 2 3 2 1 1 1 1 1 2 2 2 2 2 1 1 2 1 2 1 1 1 1 1 1 1 1 2 2 2 2 1 2 2 2 1 1 1 1 1 1 1 1 0 0 1 2 2 2 1 1 1 1 1 2 1 1 2 2 1 1 1 1 1 1 1 1 0 1 1 1 1 2 1 1 2 2 2 1 1 1 2 1 1 1 1 1 1 1 1 1 0 1 1 1 2 1 1 1 1 1 1 1 1 1 1 1 1 1 2 1 1 1 1 1 0 1 1 0 0 1 1 1 1 0 0 0 0 1 1 1 1 1 1 1 1 1 1 1 1 -1 1 2 0 1 2 1 0 1 1 1 1 1 1 1 1 1 0 1 1 1 1 0 0 1 2 1 0 0 0 1 1 1 1 0 0 1 1 1 1 1 0 1 1 2 0 0 1 1 1 0 1 1 1 1 1 1 1 1 1 1 0 0 0 1 1 0 1 0 1 2 1 1 0 1 1 0 0 0 2 1 0 0 0 1 1 0 0 1 0 0 0 1 0 2 1 0 -1 2 -2 2 0 
3 -3 2 2 0 0 2 1 1 0 1 2 1 0 1 0 1 1 0 1 0 1 1 0 1 1 1 1 0 1 0 1 1 1 1 0 0 0 0 0 1 1 1 1 0 1 0 0 0 1 1 1 0 1 1 0 0 1 0 1 1 1 1 1 0 0 0 0 1 1 1 1 1 1 1 0 0 0 0 1 1 1 0 0 0 1 1 1 1 0 1 1 0 1 1 1 1 0 0 1 1 0 1 1 1 1 1 1 1 1 1 1 0 1 1 2 0 0 1 1 0 1 1 1 1 0 1 1 0 0 1 1 1 2 2 1 0 0 0 0 1 1 1 1 0 0 1 1 1 2 1 1 1 1 0 0 1 1 0 0 1 2 1 1 1 1 1 1 1 1 1 1 1 2 2 1 0 1 1 1 1 2 1 1 1 0 0 1 2 1 1 1 1 1 0 0 1 2 2 1 1 2 2 1 1 1 2 2 1 0 0 1 1 2 2 1 1 2 1 1 1 1 1 1 0 1 1 2 2 2 2 1 1 2 1 1 2 1 1 1 1 1 1 2 2 2 1 1 1 1 1 1 1 2 2 2 2 1 2 2 1 1 1 1 2 2 2 1 1 1 2 2 2 2 2 2 1 1 1 0 0 1 1 1 1 1 1 1 1 1 1 1 1 1 1 1 1 2 3 2 2 2 2 2 2 2 2 2 2 2 2 2 2 2 2 2 2 2 1 1 0 1 2 2 2 2 2 2 1 1 2 2 2 1 1 2 2 2 2 1 1 1 2 2 2 2 2 2 1 2 2 2 2 2 2 2 3 3 2 2 2 2 3 2 2 1 1 1 1 2 1 0 0 1 1 1 1 2 3 3 3 3 2 2 1 1 2 2 1 1 1 1 1 2 2 2 2 2 3 2 2 1 1 2 1 2 2 2 2 3 2 2 1 2 2 2 2 2 2 1 1 1 1 1 1 1 2 2 2 2 2 2 2 1 1 1 1 0 1 1 2 1 1 1 1 2 2 1 1 1 1 1 2 2 1 1 1 1 2 1 0 0 0 1 1 1 1 2 2 1 2 2 2 1 1 1 1 1 1 1 1 1 1 1 1 1 1 1 1 2 1 1 1 2 1 1 1 1 1 0 1 2 1 1 1 2 2 1 0 0 0 0 1 1 1 1 0 1 1 0 0 1 1 2 1 0 1 2 2 1 0 0 1 1 1 1 0 0 0 1 2 1 1 1 0 0 1 1 1 1 0 0 1 1 2 1 0 1 1 1 0 1 1 1 0 1 1 1 0 0 1 1 1 1 0 0 0 1 1 1 1 0 1 1 0 1 1 0 0 1 1 1 1 1 1 1 1 1 1 1 1 0 0 0 0 1 0 0 0 0 1 1 0 0 1 2 0 1 1 0 1 0 0 1 0 0 0 0 1 0 1 1 0 0 1 0 0 0 3 -2 
-3 8 -4 1 1 1 -1 0 1 1 0 1 0 1 1 0 0 0 1 1 1 1 1 0 0 1 1 1 0 0 0 1 0 0 0 1 0 0 0 1 1 0 0 1 1 1 0 0 1 1 0 1 1 1 0 1 2 1 0 1 1 1 1 1 0 0 0 -1 0 1 1 1 0 1 1 1 0 1 0 1 1 0 0 0 2 1 0 1 1 1 1 1 0 1 2 1 0 1 0 0 1 2 1 0 0 1 1 0 1 1 1 1 2 1 0 1 0 1 1 1 1 1 1 0 1 1 1 1 1 1 0 0 1 1 1 1 0 1 1 1 0 1 1 2 1 1 1 1 2 2 1 1 1 0 1 1 0 0 0 1 1 2 1 1 1 0 0 1 2 1 1 1 2 1 1 1 1 1 1 0 0 1 1 1 1 1 1 1 0 1 2 1 0 1 2 2 2 1 1 1 1 1 1 1 2 2 1 1 2 2 2 1 1 1 2 1 1 1 1 1 1 1 1 2 2 2 1 1 1 1 1 1 1 2 2 2 2 1 0 1 1 2 2 1 1 1 1 1 1 2 2 2 2 2 1 2 2 2 1 1 1 1 1 1 1 1 1 2 2 2 2 2 2 2 3 3 1 1 1 1 1 1 2 2 1 1 2 2 1 1 0 0 1 1 1 1 1 1 2 2 2 2 2 2 2 1 1 2 2 2 3 3 2 2 1 1 1 2 1 2 1 1 1 2 1 1 2 2 2 2 1 2 2 2 1 1 1 1 2 2 2 2 2 2 2 2 1 2 3 3 3 3 2 3 2 2 3 3 3 2 1 2 2 2 1 1 1 1 1 2 1 1 1 1 2 2 2 2 2 2 1 1 1 1 2 2 2 2 1 1 1 1 1 2 2 2 2 1 1 1 1 1 1 1 0 1 1 2 2 2 2 1 1 1 2 2 2 1 1 1 1 1 1 1 1 2 2 2 2 2 2 2 2 1 2 2 2 2 1 1 1 1 1 1 1 1 1 1 1 1 1 1 2 2 2 2 2 2 1 1 1 1 1 1 2 1 1 1 1 1 1 1 1 2 2 1 1 1 1 1 1 1 1 1 1 1 1 1 1 1 1 1 1 2 1 0 1 1 1 1 1 2 1 1 1 1 1 1 1 1 1 0 1 1 1 1 1 1 1 0 0 1 0 0 1 1 1 1 0 0 1 1 1 1 1 1 0 0 0 0 1 1 0 0 1 1 0 0 1 1 0 2 2 1 1 1 1 1 1 2 1 0 1 1 1 1 0 0 1 1 1 1 1 2 1 0 0 0 1 0 1 0 0 1 0 1 1 2 1 0 0 1 1 2 1 0 1 2 1 1 0 0 1 0 -1 0 0 1 1 0 0 0 2 1 0 1 1 1 1 -1 0 1 1 1 0 0 0 0 0 0 0 1 0 1 -1 -1 0 5 -8 4 
4 -4 4 1 0 0 2 0 1 0 1 1 1 0 0 1 1 0 0 0 0 1 1 1 1 2 1 1 0 0 1 1 1 1 1 0 0 1 1 1 0 0 1 0 1 1 1 1 1 0 0 1 1 0 1 1 0 -1 0 1 0 1 1 0 -1 -1 0 0 0 -1 0 2 1 1 1 1 0 0 0 1 1 1 1 1 1 1 2 1 1 1 0 1 1 2 2 1 1 1 0 0 1 1 1 1 0 0 0 1 0 0 1 1 1 1 1 1 0 0 0 1 1 0 1 1 2 1 2 1 0 1 1 1 1 1 1 1 0 0 0 1 1 1 1 1 1 0 0 1 1 1 1 1 1 1 0 0 1 1 0 0 1 2 2 1 0 1 1 1 1 1 1 1 0 1 1 1 0 0 1 2 1 1 1 1 1 1 1 1 1 1 1 1 2 2 1 1 1 2 1 1 1 1 2 1 0 1 2 1 1 0 1 1 1 2 1 1 1 2 2 1 1 1 1 1 1 2 2 2 2 1 0 0 1 1 1 1 2 2 1 1 1 2 1 1 1 2 1 1 2 1 1 1 2 2 2 2 1 1 2 2 2 1 0 1 2 2 2 1 1 2 2 2 1 2 2 1 1 2 1 1 2 2 1 1 1 1 1 1 1 1 0 1 1 1 1 1 1 1 1 1 2 2 2 2 2 2 2 2 2 2 2 2 1 1 1 2 2 2 2 2 2 1 2 2 2 2 2 2 1 1 1 2 2 1 1 2 2 1 1 2 2 2 2 2 2 2 2 2 3 3 3 2 1 1 2 2 2 2 2 2 1 1 2 1 0 0 1 1 1 1 1 1 1 1 1 1 2 2 3 3 2 2 2 2 2 2 2 2 1 1 1 1 1 1 2 2 1 2 2 2 1 1 1 1 1 2 2 1 1 2 2 2 2 2 2 1 1 2 2 1 1 1 1 1 1 1 2 2 1 1 1 1 2 1 2 1 1 0 1 2 2 1 1 1 2 2 2 2 2 1 1 1 1 2 1 1 1 1 1 2 2 1 1 2 2 2 2 2 1 1 1 2 1 0 0 1 1 1 1 2 2 1 1 1 1 1 1 2 2 2 2 1 1 1 1 1 1 1 2 1 1 1 1 1 1 1 1 1 1 0 0 0 1 1 1 1 1 1 1 1 1 0 1 1 1 1 1 2 1 1 1 1 1 1 1 1 0 0 1 1 1 1 0 0 0 0 0 0 1 0 1 1 1 2 1 1 1 1 1 1 1 1 0 0 1 1 0 0 1 1 0 1 2 1 0 0 1 1 1 0 1 0 0 1 1 1 0 2 1 1 1 1 1 1 1 0 0 0 1 2 1 1 0 0 0 0 1 1 0 0 1 1 1 0 1 2 1 0 1 1 1 1 0 1 1 0 0 0 1 0 1 1 0 0 2 1 0 -3 6 -3 
0 4 -1 1 -1 2 0 0 0 1 0 1 0 1 0 1 0 1 1 -1 0 1 1 1 1 1 0 0 0 0 1 0 0 1 1 2 1 1 1 1 1 0 0 0 2 1 0 1 1 1 0 0 1 0 1 1 0 1 1 0 1 2 0 0 0 1 0 -1 0 1 1 0 0 1 1 0 1 1 0 1 1 1 1 0 1 1 1 0 1 0 0 1 1 1 1 2 2 1 0 1 1 1 1 1 0 1 1 0 0 1 1 1 2 2 1 0 1 2 0 1 2 1 0 0 1 1 1 1 1 1 1 0 1 1 1 1 1 1 2 1 1 0 1 1 1 1 1 1 1 1 1 1 0 0 1 2 1 1 0 1 1 1 1 1 1 1 1 1 1 1 1 1 1 1 2 2 1 1 1 2 1 0 1 2 1 1 2 1 1 1 1 1 1 1 2 2 1 1 1 1 1 0 0 1 1 1 1 0 1 1 2 1 1 1 1 1 1 1 1 2 2 1 1 1 1 2 1 1 2 2 1 1 1 1 1 1 1 1 1 1 1 1 1 1 1 2 2 2 2 2 2 2 2 2 2 1 1 1 1 2 2 2 1 1 2 2 2 2 2 2 2 2 1 1 1 1 1 1 1 2 2 1 2 2 1 1 1 2 2 2 2 2 2 1 1 1 1 1 1 0 1 1 1 1 2 1 1 1 2 2 1 1 1 2 2 1 1 1 2 3 3 3 2 2 1 1 1 1 1 2 2 2 2 2 2 2 2 2 2 3 3 3 3 2 2 1 1 2 2 2 1 2 2 2 2 1 1 1 0 1 1 1 1 1 2 2 2 2 2 2 2 2 2 2 2 1 1 1 1 2 2 2 1 1 2 3 2 1 1 1 1 2 2 2 2 2 2 2 2 1 1 1 2 1 2 2 2 1 1 1 2 2 2 1 1 1 1 2 2 2 2 2 1 1 1 2 2 2 1 1 1 1 1 1 2 1 1 1 1 1 1 1 2 1 1 1 1 2 1 1 1 1 1 2 1 1 2 2 2 2 2 1 1 2 2 2 2 1 1 1 1 1 2 2 1 1 0 0 1 0 0 1 1 1 1 1 1 1 1 1 1 1 2 1 1 1 1 1 1 1 0 1 2 2 2 1 1 1 1 0 1 1 1 1 1 0 0 0 1 2 1 0 1 0 0 1 1 1 0 1 1 1 1 1 1 1 1 1 0 0 1 1 0 0 1 1 0 0 1 1 2 2 0 1 0 1 1 2 1 0 0 0 0 1 0 1 1 0 0 1 1 1 1 2 2 1 0 0 1 1 0 1 1 0 1 1 0 1 1 1 0 1 2 0 0 1 0 1 1 1 1 2 1 0 0 0 1 1 0 2 1 1 1 1 1 0 0 1 1 1 0 2 1 0 0 0 1 1 0 1 -1 1 1 2 0 2 -1 2 -1 1 
1 4 -3 2 -1 2 0 2 0 1 1 1 0 2 0 0 0 1 0 0 1 1 0 1 0 2 2 1 0 0 1 0 1 2 1 2 1 0 0 1 1 0 1 1 0 0 1 1 0 1 2 1 1 0 0 0 0 0 1 1 1 1 1 1 0 1 1 1 0 0 1 1 0 0 0 1 0 0 1 1 0 0 1 1 1 1 1 1 1 1 0 1 1 1 1 1 2 1 0 2 1 1 1 1 0 0 1 1 0 0 1 1 0 1 1 1 1 1 1 1 1 0 1 2 1 0 1 1 1 1 1 2 1 1 1 1 1 1 2 1 1 1 1 1 1 1 0 0 1 2 1 1 1 1 1 1 0 0 0 1 1 2 1 1 1 2 1 1 1 1 1 1 1 1 1 1 1 1 1 1 1 2 1 1 1 1 1 1 1 1 1 1 1 1 1 1 1 2 1 2 2 1 1 1 1 1 1 2 2 2 1 1 1 1 1 1 1 1 2 2 2 2 1 1 1 2 2 2 2 1 1 1 1 1 1 1 1 1 1 1 1 1 1 1 1 1 1 1 1 1 1 1 2 2 2 1 1 1 2 1 1 1 2 2 1 1 1 1 1 2 2 1 1 2 2 1 1 1 1 1 1 1 2 1 1 2 2 1 2 2 2 2 3 3 2 2 2 1 0 0 1 2 2 2 1 2 1 1 2 2 1 1 1 1 1 2 1 2 2 2 3 2 1 1 1 1 1 2 2 1 1 1 1 2 2 2 2 2 2 2 2 2 2 1 2 2 1 1 1 1 1 1 0 1 1 1 1 2 2 2 1 2 2 2 1 2 2 2 1 2 2 1 2 2 1 1 2 3 2 2 2 2 1 1 1 1 1 1 1 2 2 2 1 2 2 2 1 1 1 2 2 2 1 1 1 1 1 1 1 2 2 1 0 0 0 0 0 1 1 1 1 1 0 1 1 1 1 2 1 1 1 1 1 1 1 1 1 1 1 1 1 1 1 1 1 2 1 2 2 1 1 1 1 1 1 1 1 1 1 1 1 2 1 0 0 1 2 1 1 1 1 1 1 1 2 2 1 0 0 1 0 1 1 1 1 1 1 1 1 2 2 1 0 0 1 0 0 1 1 1 1 1 1 1 2 1 0 0 1 1 0 0 1 1 0 0 1 1 1 1 1 1 2 1 1 1 1 0 0 1 1 1 1 0 0 1 2 2 1 1 1 0 0 1 1 0 0 1 1 1 1 1 1 1 1 1 1 1 0 0 1 1 0 0 1 1 1 1 0 1 1 1 1 1 0 1 1 1 0 1 0 0 0 1 1 1 1 1 1 2 0 -1 1 2 0 0 1 1 1 1 1 1 1 0 0 -1 1 1 1 1 0 2 1 1 0 0 0 1 0 2 0 1 0 1 0 1 1 1 -1 1 0 1 0 2 0 2 -1 3 -2 2 
1 0 2 0 1 0 0 2 0 0 1 1 0 0 0 1 1 0 0 2 1 1 0 1 1 1 1 1 1 1 0 0 1 2 0 0 0 1 1 1 0 0 1 0 0 1 1 0 0 2 1 0 1 1 0 0 0 0 1 1 1 0 1 1 0 1 1 1 1 1 1 0 0 0 0 1 1 1 1 1 1 2 1 0 0 0 0 2 1 0 0 1 1 1 1 0 1 1 1 1 1 1 0 1 2 1 0 1 1 0 1 2 0 1 1 1 0 1 1 1 1 1 1 1 0 1 1 1 0 0 1 1 1 1 1 1 1 1 1 2 2 1 0 0 1 1 0 1 1 1 1 1 1 1 1 1 1 1 0 1 1 0 0 1 1 1 1 1 1 1 1 0 0 1 2 1 0 1 1 1 1 0 1 1 1 0 1 1 2 1 1 1 2 1 1 1 1 2 1 0 1 2 2 1 1 2 2 1 1 1 1 1 2 1 1 1 1 2 2 2 2 2 1 1 1 1 1 1 1 1 1 2 2 1 1 1 1 1 1 1 1 1 1 1 1 1 0 0 0 1 1 1 1 1 1 1 1 1 1 1 0 0 0 1 2 1 1 1 1 2 2 2 2 2 2 2 2 2 1 1 1 2 2 2 1 1 1 1 1 2 3 3 2 1 1 2 2 1 2 2 2 2 1 1 1 2 1 1 1 1 1 2 1 1 2 2 2 2 2 2 2 2 1 1 2 1 1 1 1 1 1 2 2 2 2 2 2 1 1 2 2 2 1 1 1 2 1 2 2 2 2 2 2 2 2 3 3 3 2 2 2 2 1 1 1 1 2 2 2 1 1 1 1 1 1 1 1 1 1 1 1 2 2 2 2 2 1 1 1 2 2 2 2 2 2 1 1 1 2 1 1 2 2 2 1 1 1 1 1 1 1 2 1 1 0 1 1 1 1 1 1 1 1 1 1 1 1 1 1 1 1 1 1 2 1 1 1 2 2 2 1 1 2 1 2 2 1 1 1 0 1 1 1 2 2 1 1 1 1 1 1 1 0 0 0 1 1 1 1 1 1 1 1 2 2 1 1 1 1 1 1 1 1 1 0 0 1 1 1 1 2 1 1 0 0 1 1 0 1 1 1 1 1 2 1 1 1 1 0 0 0 1 1 1 0 0 1 0 0 1 2 2 1 1 1 1 1 0 1 0 -1 0 1 1 1 2 1 1 0 0 0 1 1 0 0 0 0 1 1 1 1 1 2 1 1 1 1 0 0 1 0 1 0 0 0 0 1 1 0 0 1 1 1 0 1 0 1 1 0 1 0 0 0 1 1 0 1 1 0 1 1 0 0 1 2 1 1 1 0 1 2 1 0 0 0 0 1 1 1 1 1 1 0 1 1 1 1 0 0 2 1 0 1 1 0 1 1 1 1 1 0 1 1 1 2 0 1 -1 2 0 
1 1 0 1 0 2 0 1 1 2 1 0 1 1 0 0 0 1 1 2 0 0 1 1 -1 1 2 2 0 -1 0 1 0 0 1 1 0 0 0 1 1 1 0 0 1 1 0 1 2 0 0 2 1 0 0 2 2 1 0 0 1 0 0 1 1 1 0 0 1 2 1 0 0 1 1 0 1 1 1 1 0 0 0 1 1 1 1 2 1 1 2 1 0 1 0 0 1 1 1 1 1 1 1 0 1 1 0 -1 1 1 0 1 1 0 -1 1 1 1 1 0 0 1 1 1 0 1 1 1 1 1 1 0 1 2 1 0 0 1 1 1 1 1 1 1 1 0 0 0 0 1 1 1 0 1 2 2 0 0 0 1 1 0 1 2 1 0 0 1 1 1 1 1 1 0 1 1 1 1 0 1 1 1 0 1 1 1 1 1 1 1 1 0 0 1 2 2 2 1 1 1 1 1 0 1 2 2 1 1 2 2 2 1 1 1 1 1 1 1 1 2 1 1 1 2 2 2 1 1 0 1 1 1 1 1 1 1 1 1 2 2 1 2 1 1 1 1 1 0 0 1 1 1 1 1 0 0 1 2 2 1 0 1 1 1 1 1 1 1 1 1 0 1 2 2 2 2 2 2 2 2 2 2 2 1 1 1 2 2 2 2 2 1 1 2 2 2 2 2 2 2 2 3 2 2 1 1 1 1 2 2 2 2 2 1 1 2 2 2 2 2 1 1 1 1 1 2 1 1 2 2 2 2 2 2 2 1 1 1 0 1 1 2 2 2 2 2 2 2 2 2 2 3 2 1 2 2 2 2 2 1 1 2 1 1 1 2 1 1 1 2 2 2 2 1 1 1 1 2 2 2 3 3 3 2 2 2 2 2 2 2 1 1 1 2 2 2 1 1 1 1 1 2 2 1 1 1 1 2 2 2 1 1 1 1 0 0 1 1 0 1 1 2 1 1 1 1 1 1 1 2 1 1 1 2 1 1 1 1 1 1 1 1 2 2 1 1 0 1 1 2 2 2 1 1 1 1 1 1 1 1 2 2 1 1 1 1 1 0 0 1 1 2 1 1 1 2 2 1 1 1 1 1 2 1 1 1 1 1 1 1 1 1 1 0 1 1 1 0 1 1 1 1 1 1 0 0 0 1 1 1 1 1 1 1 1 0 0 2 2 0 1 1 1 2 1 0 1 1 0 -1 1 2 0 0 1 1 0 1 1 0 -1 0 0 0 1 1 1 1 1 2 1 1 2 1 1 1 0 0 1 1 0 1 1 0 1 1 1 1 1 1 1 1 0 0 0 1 1 0 0 1 1 1 0 1 2 1 1 2 2 0 0 1 0 0 1 0 0 1 1 0 0 1 0 0 0 0 0 1 2 1 0 0 1 1 0 0 0 1 0 0 1 1 1 1 -1 1 0 1 0 1 -1 2 2 1 -1 1 0 0 0 0 
0 3 0 1 1 1 1 1 0 1 1 1 1 1 0 1 0 1 0 1 1 1 0 -1 1 2 0 1 1 1 0 0 1 2 0 -1 0 2 1 0 1 2 1 1 1 1 1 1 1 0 1 2 -1 1 2 1 1 1 1 0 0 0 1 1 0 1 1 1 1 0 1 1 1 1 1 2 1 0 1 1 0 1 1 1 1 1 1 1 0 0 1 1 1 1 0 1 0 -1 1 2 0 0 0 1 0 0 1 0 0 1 1 1 1 0 0 1 1 0 1 2 1 0 0 1 1 1 1 2 1 0 0 1 1 0 1 2 1 0 0 1 1 1 0 1 1 0 0 1 1 0 0 1 1 1 0 0 1 1 0 0 1 2 2 1 1 1 0 1 1 1 1 1 1 1 1 1 1 1 1 1 0 0 1 1 1 1 1 1 2 2 1 1 1 1 0 1 1 1 1 0 0 1 1 1 1 1 1 2 2 1 1 1 1 1 1 1 1 1 1 1 1 2 2 2 2 1 1 1 1 2 2 2 2 1 2 2 1 1 2 2 2 2 1 1 1 1 1 2 1 1 1 1 2 2 1 0 1 2 2 2 1 1 1 2 2 1 1 1 0 1 1 1 0 1 1 2 2 2 2 2 2 2 2 2 2 1 1 2 2 2 2 2 2 1 1 2 2 2 2 2 2 1 2 2 1 1 2 2 2 1 2 2 1 1 1 1 2 2 2 2 1 1 1 1 2 2 2 2 2 2 1 2 2 1 1 2 2 1 1 2 2 2 1 1 1 1 2 2 2 2 2 2 2 1 1 2 2 2 1 1 1 1 1 1 1 1 2 2 3 3 2 2 2 2 2 2 2 2 2 1 2 2 3 3 2 2 2 2 1 1 1 1 1 2 2 2 1 1 2 2 2 2 2 2 2 2 1 1 1 1 1 2 2 1 1 1 1 1 1 2 1 1 2 2 1 1 0 1 2 1 0 1 1 1 1 1 2 2 1 1 1 1 0 0 1 1 1 0 0 1 1 0 0 1 1 1 1 1 2 2 1 1 1 2 1 1 0 0 1 1 1 1 1 1 0 1 1 2 2 2 2 2 2 1 0 1 1 1 1 0 0 1 1 1 1 1 1 1 0 1 1 1 1 1 1 1 1 1 1 1 1 1 2 1 0 1 1 1 1 1 1 1 0 1 1 1 1 1 0 1 2 1 0 1 1 1 1 0 0 -1 0 0 0 2 2 1 1 1 0 1 1 1 1 1 0 0 0 0 0 0 2 1 1 1 0 0 1 1 1 1 1 1 0 0 0 0 0 0 0 1 0 1 1 1 1 2 1 0 2 1 -1 0 0 1 1 1 0 0 1 1 0 0 1 1 0 1 1 0 1 1 1 1 1 1 1 2 0 0 1 1 1 1 1 1 0 1 0 1 0 1 1 1 0 1 1 0 -1 2 -1 1 
1 1 1 1 1 1 1 0 1 1 1 0 1 1 1 1 1 0 1 0 1 1 1 1 1 0 0 1 1 0 1 1 1 0 0 0 1 -1 0 1 1 1 1 2 1 0 1 1 0 0 1 0 0 2 2 1 2 1 0 0 1 0 0 0 1 1 0 0 1 1 0 0 0 1 1 0 0 1 0 -1 0 1 1 0 2 1 1 0 1 1 0 0 1 1 1 1 1 1 1 1 1 1 0 1 1 0 1 1 0 0 0 0 1 1 1 0 2 2 1 0 1 1 0 0 1 1 1 1 1 1 1 0 1 2 2 0 0 1 2 1 1 0 0 0 0 1 1 1 1 1 0 0 1 1 1 1 0 0 0 1 1 1 1 2 2 1 0 0 1 1 1 1 1 2 1 1 1 1 1 1 1 1 1 1 1 1 1 1 1 1 1 1 1 1 1 1 1 1 1 2 1 1 0 1 1 1 0 1 1 2 2 1 1 1 1 1 1 1 1 1 2 1 1 1 2 2 1 1 2 3 2 1 2 2 2 2 1 1 2 2 2 1 2 2 2 2 2 2 2 1 1 1 1 1 1 1 1 2 2 2 2 2 2 1 2 2 1 1 0 0 0 0 1 1 0 0 1 1 1 1 1 1 2 2 2 2 2 2 2 2 2 1 1 2 1 1 1 1 1 1 1 1 1 0 0 1 2 2 2 1 1 2 1 1 1 1 1 1 1 1 1 1 1 2 2 1 1 1 1 0 1 2 1 1 2 2 1 1 1 1 2 2 2 2 2 2 2 1 1 1 1 1 1 1 1 1 1 1 1 2 2 3 3 2 2 2 3 3 2 3 3 3 2 2 2 2 1 1 1 2 3 3 2 1 1 2 2 1 1 1 1 1 1 2 2 2 2 2 2 3 3 2 1 1 1 1 2 2 1 1 2 1 1 2 2 1 1 2 2 2 1 1 2 2 1 1 2 2 2 1 1 2 2 2 1 1 1 1 2 2 2 1 1 1 1 1 1 1 2 2 1 1 1 1 1 1 1 2 2 1 2 2 1 1 1 1 1 0 0 0 1 1 1 1 1 1 1 1 1 1 1 1 1 1 1 1 1 1 1 0 1 1 2 2 2 2 2 1 1 1 0 0 1 1 1 1 1 0 1 1 1 1 1 1 1 1 1 1 1 1 1 1 2 1 0 0 1 1 0 1 0 0 1 1 0 1 1 -1 0 0 1 0 0 1 1 1 1 1 1 1 1 1 1 1 1 1 0 1 1 0 0 0 1 0 0 1 1 0 1 1 1 1 1 1 0 0 1 1 1 1 1 0 1 1 1 1 1 -1 1 2 1 0 0 1 0 0 1 0 1 1 1 0 1 1 0 0 1 1 1 1 1 0 1 1 1 0 1 1 1 0 1 1 1 0 1 -1 1 1 1 0 1 1 1 1 0 1 0 -1 0 1 
2 -2 2 0 1 -1 2 0 1 -1 0 1 2 0 0 0 0 0 2 0 2 1 1 1 1 1 1 0 1 1 1 1 1 0 0 0 1 -1 1 1 -1 1 2 0 0 1 1 0 1 1 0 -1 1 1 1 1 2 0 0 1 2 0 0 0 0 1 0 0 1 1 1 1 1 0 1 1 1 1 0 1 1 0 1 1 1 0 1 0 1 1 1 1 1 1 1 1 1 0 0 1 1 1 0 1 1 1 1 1 0 0 1 1 0 0 1 1 0 1 1 1 0 0 1 1 1 0 1 1 1 1 1 1 0 0 1 1 1 1 1 1 1 1 1 0 0 1 2 1 1 1 1 1 1 1 1 0 0 0 0 0 1 1 1 1 1 1 1 1 1 1 1 1 1 1 1 1 1 1 1 1 1 1 1 1 1 1 1 1 1 1 2 1 1 1 1 1 1 1 2 1 2 2 1 1 1 1 0 1 1 1 1 1 2 1 2 2 2 1 1 2 2 2 1 1 0 0 1 1 2 2 2 2 2 1 2 2 2 1 1 1 1 1 2 2 2 2 2 2 2 1 1 2 2 2 2 1 1 1 1 1 2 2 2 2 1 1 2 2 1 1 1 1 1 1 1 0 0 0 1 1 1 1 1 1 1 1 1 2 2 2 3 2 1 2 2 1 1 1 2 2 1 1 1 1 1 1 1 2 2 2 2 2 2 1 1 1 1 1 2 2 2 2 2 2 2 1 1 1 1 1 1 1 1 1 2 2 2 1 1 2 2 2 1 1 1 1 1 2 2 2 1 1 1 1 1 1 2 2 2 3 2 2 2 2 2 1 1 1 1 1 1 1 1 2 2 1 1 1 1 1 1 1 1 1 1 2 1 1 1 1 1 1 1 2 2 2 2 1 2 2 2 2 2 2 2 1 1 1 1 1 2 1 2 1 1 2 2 1 1 2 2 1 1 1 1 1 1 1 1 1 0 0 1 1 1 1 1 1 1 1 1 1 1 1 1 1 1 1 2 2 2 1 1 1 1 1 1 0 1 1 1 0 1 1 2 1 0 1 1 1 1 0 0 1 2 2 1 1 1 1 1 1 1 0 0 1 1 1 1 1 1 2 1 1 1 1 1 1 2 2 2 2 2 1 1 1 1 0 1 1 1 0 0 1 1 1 1 1 1 0 1 1 1 0 1 2 1 1 0 0 1 1 1 0 1 1 1 0 0 0 0 0 1 1 0 0 1 1 0 0 0 0 0 1 1 1 1 0 0 1 1 0 1 0 1 0 0 1 1 0 1 2 0 -1 1 0 0 0 1 1 1 0 1 1 0 0 1 1 0 -1 1 0 0 1 2 0 0 1 2 0 2 1 0 1 2 1 0 1 1 0 1 1 1 1 2 2 2 0 1 1 1 0 1 0 3 0 0 0 1 0 1 0 1 0 0 -1 2 -1 2 1 
1 2 0 1 0 1 1 1 2 0 1 2 0 0 1 1 0 0 1 0 2 1 0 1 1 0 1 1 1 1 1 1 0 0 1 0 0 1 0 0 0 2 1 0 1 0 0 1 1 0 0 1 1 0 1 1 0 0 1 2 1 -1 0 1 1 1 0 0 1 1 1 1 1 0 1 0 0 0 0 1 1 0 -1 1 1 1 1 0 1 1 1 0 0 1 1 1 0 1 1 1 1 0 1 1 0 1 1 1 1 1 0 1 1 0 0 0 1 1 1 1 1 0 1 1 0 1 1 0 1 1 1 1 0 1 1 1 1 1 1 1 1 1 1 1 1 1 1 1 2 1 1 1 1 1 2 2 1 1 1 1 1 0 1 1 1 1 1 1 1 2 1 1 1 1 1 1 1 1 1 1 1 1 1 1 1 1 1 1 1 1 1 1 1 1 1 1 1 1 1 1 1 1 1 1 1 1 0 0 0 1 1 1 1 1 1 2 2 1 1 2 1 1 1 1 1 1 1 1 1 2 1 1 1 2 2 2 2 1 2 2 1 1 2 2 2 2 2 2 2 3 3 2 2 2 2 1 2 2 1 1 1 2 2 1 1 1 1 2 2 2 2 2 2 1 1 1 1 1 1 1 1 1 1 1 1 1 1 1 1 2 1 1 1 2 2 1 1 1 1 2 1 1 1 1 0 1 2 2 2 2 2 2 1 1 1 1 1 1 1 2 2 3 2 2 2 2 2 1 1 1 1 1 2 2 1 2 1 1 1 1 1 1 1 1 1 1 2 2 1 1 1 1 1 1 1 1 1 1 2 2 2 2 2 2 1 1 1 2 2 1 1 2 2 1 1 2 2 2 2 3 3 2 1 2 2 2 2 1 1 2 2 2 2 2 2 2 2 3 2 2 1 1 1 1 0 0 0 1 1 1 1 1 1 2 2 2 1 2 2 2 2 1 1 1 2 2 2 2 1 1 1 1 2 2 1 1 1 2 1 1 1 2 1 1 1 1 2 1 1 2 2 2 2 2 1 2 1 1 1 1 1 1 1 1 1 1 1 1 1 1 1 1 1 1 1 1 1 1 1 1 1 1 1 1 1 1 1 1 1 1 1 1 1 0 1 1 1 1 1 1 1 1 2 1 1 1 1 1 2 1 0 0 0 1 1 1 1 1 0 0 1 1 1 1 1 1 1 1 0 0 1 1 1 1 1 1 1 2 0 0 1 2 1 0 0 1 0 0 1 1 0 0 1 2 1 1 1 0 0 1 0 0 1 0 1 2 1 1 1 1 0 1 1 0 0 0 1 2 1 1 1 0 1 1 1 0 -1 1 1 1 0 1 1 0 2 2 0 0 2 1 1 1 1 0 0 2 1 0 1 0 1 1 0 1 1 1 2 1 1 1 0 1 1 0 1 0 0 0 0 -1 1 1 0 0 1 0 0 1 1 1 
0 2 2 -1 1 1 1 0 2 1 0 0 1 1 1 0 1 1 1 1 2 1 1 1 0 1 2 0 1 1 0 0 0 0 1 0 1 1 -1 0 2 1 0 0 1 0 0 2 0 0 2 1 2 1 1 0 0 1 1 2 2 0 0 1 1 0 0 0 0 1 1 1 1 1 0 0 0 1 1 0 1 0 0 1 0 1 1 1 1 1 1 1 1 1 1 1 1 2 2 1 0 0 1 1 1 1 0 1 1 1 1 1 1 1 1 1 0 1 2 1 1 0 1 1 0 1 1 0 1 1 1 1 1 0 0 1 1 1 1 1 0 1 1 1 0 0 1 1 1 1 1 1 1 1 2 1 1 1 1 1 1 0 1 1 1 1 1 1 1 1 1 1 1 1 2 2 1 1 1 1 1 1 1 1 1 1 1 1 1 1 1 0 0 1 0 0 1 1 1 1 1 1 1 1 1 0 0 0 1 1 1 1 1 0 0 1 1 1 1 2 2 1 1 1 1 1 1 1 2 2 2 1 1 1 1 1 1 1 1 2 2 1 1 2 2 2 1 1 2 2 1 1 2 2 2 2 2 2 2 1 2 2 2 1 1 1 1 2 2 1 1 2 2 1 1 1 2 2 1 1 1 1 1 1 1 1 1 1 1 1 1 1 1 2 2 2 2 2 2 2 2 2 1 1 1 1 1 1 1 1 2 1 1 1 2 2 2 2 2 2 2 2 2 2 2 2 2 2 2 2 1 1 2 1 1 2 1 1 1 1 2 2 2 2 2 2 2 2 2 1 1 2 3 3 2 2 2 1 1 2 2 1 1 1 1 1 1 1 1 1 1 2 2 2 2 2 2 3 3 2 2 2 2 2 2 2 1 1 2 2 2 2 1 1 2 2 1 2 2 1 1 2 2 2 2 2 2 1 1 1 1 2 2 2 2 2 1 1 2 2 2 1 1 1 1 2 2 1 0 0 1 1 1 2 1 1 1 2 1 1 1 1 1 2 2 2 2 1 1 1 1 1 1 1 1 1 1 1 0 0 1 1 1 1 1 1 1 1 1 1 1 1 1 1 1 1 1 1 1 1 1 1 1 0 0 0 1 1 1 1 1 1 1 1 1 0 0 1 1 1 2 2 1 1 1 0 1 2 1 1 1 1 0 1 1 0 1 1 0 1 1 1 0 1 1 1 1 1 0 0 0 1 1 0 1 1 1 2 1 1 1 1 1 1 0 1 1 1 1 0 0 0 0 1 1 0 1 0 0 1 0 1 1 1 1 1 0 0 1 1 0 0 0 0 1 0 1 1 1 1 1 1 1 0 1 1 0 1 0 0 0 0 2 1 1 1 1 0 1 1 0 0 2 1 0 2 2 1 1 0 1 0 0 1 0 0 2 1 1 0 0 1 1 0 0 1 1 0 1 1 1 1 1 1 1 -1 1 0 1 1 
3 -2 2 1 1 -1 1 1 0 0 1 0 0 0 1 0 1 0 0 1 1 0 0 1 0 1 1 1 2 1 0 0 1 0 0 1 1 0 1 1 1 0 2 1 0 0 1 1 0 1 1 1 2 2 1 1 0 1 1 1 1 1 0 1 1 1 0 0 1 1 1 0 1 0 0 1 1 0 1 1 1 1 0 1 2 1 1 1 1 1 1 1 0 0 1 1 1 1 1 1 1 0 0 0 0 1 1 1 1 1 2 1 1 1 0 0 1 1 1 1 1 1 1 1 1 0 1 1 1 1 1 1 1 0 0 0 1 1 1 1 1 1 1 0 0 0 1 1 1 1 1 1 0 0 1 1 1 1 1 0 1 1 1 1 1 1 1 1 1 1 1 1 1 1 1 1 1 1 1 0 0 1 0 0 1 1 1 1 1 1 2 1 1 1 1 1 1 1 1 1 1 1 1 1 1 2 1 1 1 1 1 1 1 0 0 0 1 2 2 1 1 1 0 1 2 2 1 1 2 2 1 1 1 1 1 1 2 1 1 2 2 1 1 1 1 1 1 1 1 1 1 1 1 1 1 1 1 1 1 1 1 1 1 1 1 1 1 0 1 1 1 2 2 2 2 2 2 2 2 1 1 2 2 2 1 1 2 1 1 1 1 1 1 2 2 1 1 2 2 2 2 2 2 1 1 1 1 2 1 1 1 1 1 1 2 2 2 2 2 2 1 2 2 2 2 2 2 2 2 1 1 1 2 1 1 2 2 2 1 1 1 1 1 2 2 2 2 2 1 1 2 2 2 3 2 2 2 2 2 2 2 1 1 1 1 2 2 2 2 2 2 2 1 2 1 1 1 2 2 2 2 2 1 0 1 1 1 1 2 2 1 1 1 1 1 2 2 2 1 1 1 2 2 2 1 2 2 1 0 1 2 2 1 1 1 2 1 1 2 2 2 2 1 1 1 1 1 1 1 1 2 1 1 1 1 1 1 2 2 2 1 1 2 1 1 2 2 2 2 2 2 2 2 2 1 1 1 1 1 1 1 1 1 1 1 0 1 1 1 2 2 1 1 0 1 1 1 1 1 1 1 1 1 1 1 1 1 1 1 1 1 1 1 1 1 1 0 1 2 1 1 1 1 1 1 1 1 1 1 1 1 1 1 1 1 2 2 1 0 0 0 1 1 1 1 1 1 0 0 1 1 1 1 0 1 1 0 1 1 1 1 2 2 1 0 1 1 1 1 1 0 0 0 1 1 1 1 0 0 0 1 2 0 1 1 -1 -1 0 0 0 1 0 0 0 1 1 1 1 2 1 0 1 1 1 1 0 0 0 0 1 2 0 0 1 1 0 1 2 0 1 1 0 1 1 1 0 1 2 1 0 1 1 0 0 1 0 1 0 1 1 1 0 0 1 0 0 1 1 1 1 1 1 1 0 1 0 2 -1 3 -1 
-1 4 -3 3 -1 1 -1 1 0 1 0 1 0 1 1 1 0 1 0 1 0 1 0 1 1 1 0 1 1 1 1 0 0 1 0 1 0 1 1 0 0 1 0 0 0 1 0 0 0 2 1 2 1 1 1 1 1 0 1 1 0 1 1 2 1 0 0 1 0 0 0 1 1 1 0 1 1 0 1 0 0 1 0 1 2 0 0 2 2 1 -1 1 1 0 0 1 1 1 1 1 1 1 1 1 1 2 2 1 1 1 1 1 1 1 1 2 0 0 0 1 1 0 1 1 1 0 1 1 1 1 2 1 1 1 1 0 0 1 1 1 1 1 1 1 1 1 0 1 1 1 0 1 1 1 1 1 1 1 1 1 1 1 1 1 1 1 1 1 1 1 1 1 1 0 0 1 1 0 0 1 1 1 0 0 1 1 1 1 1 2 1 1 1 1 1 1 1 2 2 2 2 2 1 1 0 1 1 1 1 1 1 1 1 1 1 1 0 1 1 1 0 0 1 2 1 0 1 1 1 1 1 0 0 1 0 1 1 0 0 1 1 1 1 1 2 1 1 1 1 1 0 0 0 1 1 1 1 1 0 0 1 1 1 1 1 1 1 0 1 0 0 1 1 1 1 1 2 2 1 1 2 2 2 1 1 1 1 2 2 2 2 1 1 1 1 1 2 2 3 3 3 3 2 1 0 1 1 1 0 1 1 1 1 2 2 2 2 2 2 2 1 0 0 1 1 2 2 2 2 2 1 1 1 1 1 2 2 2 2 2 2 2 2 1 1 2 2 2 2 2 2 2 2 3 2 2 2 1 1 2 2 2 1 1 1 2 1 2 1 1 2 2 1 1 1 0 0 1 1 0 0 0 1 1 0 0 0 1 2 2 1 0 0 1 1 1 1 1 1 2 1 2 2 2 2 2 2 1 1 1 1 1 1 1 1 2 1 1 1 1 1 1 0 0 1 1 1 1 1 1 1 1 1 1 0 0 1 1 1 1 2 2 2 1 1 2 2 2 1 1 1 1 0 0 1 1 0 0 1 2 1 1 0 1 1 0 1 1 1 1 2 2 1 1 1 2 2 1 1 1 1 1 1 0 0 1 1 1 1 0 1 1 1 1 0 0 1 1 1 1 1 0 1 2 2 1 1 1 1 1 1 1 2 1 0 1 1 1 0 1 1 1 0 0 1 1 0 0 1 1 1 0 1 2 1 1 2 1 1 0 1 2 1 1 1 1 1 1 1 0 0 1 1 1 0 1 -1 0 1 1 1 2 1 1 1 0 0 0 0 1 0 0 1 1 0 1 0 0 1 1 1 1 0 1 1 0 0 0 0 0 1 1 0 0 1 1 0 1 1 0 -1 1 1 1 1 1 0 1 1 2 0 1 1 0 -1 1 0 1 1 0 1 1 0 0 0 2 0 0 0 1 0 1 1 2 0 2 -2 3 -3 2 
0 1 1 2 0 1 0 1 0 1 1 1 0 1 1 1 0 1 1 1 -1 0 1 1 1 0 0 1 0 1 1 0 0 1 0 1 0 1 1 1 0 -1 -1 1 0 -1 0 2 0 0 1 2 1 1 1 1 1 0 0 0 0 1 1 1 1 1 1 1 0 0 1 1 1 1 0 1 0 0 0 0 -1 1 1 0 1 1 1 1 0 1 1 0 0 1 1 1 1 0 1 0 0 1 1 1 0 0 2 2 1 0 1 1 1 0 1 1 0 0 0 0 0 1 1 1 1 1 1 1 0 1 1 1 1 0 0 1 1 1 1 1 1 1 1 2 1 1 1 1 1 1 1 1 1 0 1 1 2 1 1 1 2 2 1 1 1 1 1 1 1 1 1 1 1 1 0 1 1 1 1 1 1 1 1 0 0 1 1 1 1 1 1 1 1 1 1 1 1 1 1 2 1 1 1 1 1 1 1 1 1 1 1 1 1 1 1 1 1 1 1 1 0 0 0 1 1 1 1 2 1 1 0 0 0 1 1 1 1 1 1 1 1 1 1 1 1 0 0 1 1 1 1 1 1 1 1 1 1 1 0 1 1 1 1 0 0 1 1 1 1 1 1 1 1 1 1 1 1 2 2 2 2 2 2 2 1 1 2 2 3 3 2 2 2 2 2 2 2 2 2 2 3 3 2 1 1 2 2 3 3 2 1 1 2 2 1 1 0 1 1 1 1 1 1 2 2 1 1 1 1 1 2 2 1 1 1 1 1 2 2 2 2 1 1 2 2 2 2 2 2 2 2 1 1 2 1 1 2 1 1 2 2 2 2 1 1 2 2 2 1 1 2 1 1 1 1 1 1 2 1 2 1 1 1 1 1 1 1 2 2 1 1 1 1 1 1 2 2 1 1 1 1 2 1 1 1 2 2 1 1 1 1 1 1 1 1 2 1 1 1 1 1 2 2 1 1 1 0 1 1 1 1 1 1 2 2 1 1 1 1 2 2 2 1 1 0 1 1 2 2 2 2 2 1 1 1 1 0 1 1 1 1 1 1 2 1 1 2 1 1 2 1 1 1 1 1 2 1 1 1 1 1 1 0 1 1 2 1 1 1 1 1 1 0 0 0 0 1 2 2 1 0 0 1 1 1 1 1 1 0 1 1 1 1 2 2 2 1 1 1 1 1 1 1 1 1 0 0 1 1 2 1 0 1 2 1 1 1 0 1 1 1 1 0 1 1 1 1 1 1 1 1 1 1 1 1 1 0 0 0 0 1 1 0 1 1 0 0 0 0 1 1 2 2 1 0 1 1 1 0 1 1 1 1 1 0 0 0 -1 0 1 0 0 1 0 0 1 1 0 1 1 0 1 1 1 1 1 2 1 0 2 1 0 1 1 0 1 0 1 1 0 0 1 1 1 1 1 1 1 0 1 2 1 0 1 1 2 -1 1 0 0 
1 -1 2 0 1 0 1 0 1 0 1 1 1 0 0 1 2 1 1 0 0 1 1 -1 2 1 0 0 0 1 0 -1 1 1 0 1 1 0 1 1 0 0 1 1 0 1 0 0 1 2 1 0 0 1 1 1 2 1 1 0 0 1 1 0 1 1 1 1 1 2 1 0 1 0 0 0 1 1 0 0 0 0 1 1 0 0 0 1 1 0 1 1 1 0 0 2 1 1 1 0 1 0 0 1 1 0 1 1 1 0 1 1 1 1 1 1 1 1 0 1 1 0 0 0 0 0 1 1 1 1 0 0 1 1 1 0 0 1 1 1 0 1 1 2 1 1 1 1 1 1 1 1 2 1 1 1 1 2 1 0 0 1 1 1 1 0 1 2 2 1 2 1 1 1 1 1 0 0 0 1 1 1 0 0 1 1 1 1 1 2 2 1 1 1 1 1 1 2 2 1 0 1 1 1 1 1 1 1 1 1 1 1 2 1 1 2 2 2 1 0 0 1 1 1 1 1 1 1 1 1 1 1 1 1 1 1 1 1 1 1 1 1 0 1 1 1 1 1 1 2 1 1 1 1 2 2 2 1 1 1 1 1 1 1 1 2 2 2 2 1 1 2 2 1 2 1 1 1 1 2 2 2 2 1 1 1 2 2 2 2 2 1 1 2 2 2 2 2 2 2 2 2 2 1 1 2 2 2 2 2 1 1 2 2 2 1 2 2 2 1 1 1 2 2 2 2 2 2 2 2 2 2 2 1 1 1 2 2 2 2 2 2 1 1 1 1 1 2 2 2 2 1 1 2 2 2 2 1 1 2 2 2 1 0 1 1 1 1 1 1 1 1 1 2 2 2 2 2 2 2 2 1 1 2 2 3 2 2 2 2 2 1 1 2 2 1 1 1 1 1 1 1 1 1 2 2 1 1 1 1 1 1 1 1 2 2 2 1 1 2 2 2 1 1 1 1 1 2 1 0 1 1 0 1 1 1 1 1 1 1 1 1 1 1 1 1 1 2 2 1 1 1 1 1 1 0 0 0 1 2 1 1 1 1 1 1 1 1 1 2 1 1 0 1 2 1 0 0 1 1 1 1 1 0 0 1 1 2 2 1 0 0 0 1 1 0 1 2 2 1 1 0 0 1 1 1 1 0 1 1 1 1 1 0 1 1 1 0 0 1 2 1 1 1 0 1 1 1 0 1 1 1 1 1 1 1 1 1 1 1 1 1 1 0 1 1 1 0 0 1 0 1 1 1 0 0 0 0 0 1 0 0 1 1 1 0 1 1 0 0 1 1 1 1 1 0 0 1 1 1 1 1 1 1 0 0 0 0 -1 1 1 1 0 1 1 0 1 0 0 1 1 1 0 2 2 -1 1 1 0 0 1 0 1 0 0 0 0 1 1 0 1 1 0 0 2 0 0 0 1 1 2 0 1 1 1 0 2 -1 1 0 
1 0 2 0 1 -1 1 0 1 1 0 1 0 1 0 1 1 0 1 0 0 1 1 1 1 0 0 1 1 0 0 1 0 1 2 1 0 0 1 0 0 1 1 0 0 1 0 1 1 0 1 1 1 1 1 1 0 1 1 1 1 0 0 0 1 1 1 1 0 1 1 0 0 0 1 0 0 1 -1 -1 1 0 0 1 1 1 0 0 1 1 0 0 1 1 0 1 0 1 0 -1 0 1 2 1 0 0 1 1 1 1 1 1 1 1 1 1 1 1 1 1 1 0 1 1 1 1 1 0 0 0 1 1 0 1 1 2 1 1 1 1 1 1 1 1 2 2 1 1 1 2 1 0 1 1 1 1 1 1 1 1 1 1 0 0 0 1 1 1 1 1 1 1 1 0 1 1 1 1 1 0 0 1 1 1 0 0 1 1 1 1 1 1 1 1 1 0 1 1 2 2 1 1 1 0 0 1 2 1 1 1 1 1 1 1 2 2 1 1 1 2 2 1 1 1 1 1 1 1 1 1 1 1 1 1 1 2 1 1 1 1 1 1 0 1 1 1 0 0 1 2 2 1 1 2 2 2 2 2 2 2 1 1 1 1 1 1 2 2 1 1 1 1 2 2 2 1 1 1 0 1 1 2 2 2 1 1 1 1 2 2 2 2 2 2 2 2 1 1 0 1 1 1 1 1 2 2 2 2 2 2 2 1 1 1 1 1 1 1 0 1 2 2 1 1 1 2 1 1 2 2 2 2 2 2 2 2 2 2 2 1 1 1 1 2 2 1 1 1 2 2 1 2 1 1 2 1 1 1 0 0 1 2 2 1 0 1 2 2 1 2 2 2 2 1 2 3 3 3 2 2 1 2 2 2 2 2 2 2 1 1 2 1 2 2 2 1 2 1 2 2 1 1 1 1 1 1 1 1 2 1 1 1 2 2 2 1 1 2 1 1 2 2 2 2 2 2 1 1 1 2 2 1 1 1 1 2 1 0 0 1 2 1 1 1 1 1 1 2 2 2 2 2 2 1 1 1 1 1 1 1 0 0 1 1 1 1 1 1 1 1 1 1 0 1 2 1 0 1 1 2 1 0 1 1 1 1 1 1 1 1 1 0 0 0 1 2 2 2 1 1 1 1 1 0 1 1 1 1 1 0 0 1 1 1 0 0 1 1 0 0 0 1 1 1 1 1 1 1 2 2 0 0 1 1 1 1 1 1 1 1 0 1 1 0 1 0 0 1 1 0 0 1 0 0 1 1 1 1 0 0 -1 0 1 1 1 1 1 1 1 0 1 1 0 0 0 1 1 1 1 1 0 0 1 1 0 0 0 0 0 1 0 0 0 0 2 0 -1 0 1 0 0 2 1 0 1 1 0 0 1 1 1 1 1 0 0 1 0 1 2 1 0 1 1 0 0 0 1 0 1 1 1 1 1 0 1 1 2 0 1 0 
1 0 1 1 1 0 1 2 0 1 0 0 0 1 0 1 1 0 0 1 1 0 1 1 0 1 1 1 1 1 0 0 0 2 2 1 1 1 0 1 1 0 0 2 1 1 0 1 1 0 1 1 1 1 1 1 0 1 1 1 1 0 1 1 0 0 0 1 2 2 0 0 0 0 1 0 0 2 1 1 1 1 1 1 0 1 1 0 0 1 0 0 1 1 1 1 0 0 0 1 1 0 0 0 2 1 0 1 1 0 0 1 1 1 1 0 1 1 1 1 1 0 0 1 1 1 1 1 1 1 0 1 1 1 1 1 1 1 1 1 1 2 1 0 1 1 0 1 1 1 1 2 2 2 1 0 1 2 1 0 0 0 1 1 0 0 0 2 2 1 1 1 1 1 1 1 1 1 1 1 1 1 1 1 1 1 1 1 0 1 2 1 1 1 1 1 1 2 2 1 0 1 2 2 2 2 2 2 1 1 2 2 1 1 1 2 2 2 1 1 1 1 1 1 0 1 2 2 1 0 0 1 0 1 1 2 2 1 1 1 1 2 1 2 2 2 1 1 1 1 1 1 1 1 2 2 1 1 1 1 2 2 1 1 1 1 1 1 1 1 2 2 2 2 2 2 1 1 1 1 1 1 2 2 1 1 1 1 1 1 1 1 1 1 1 1 2 2 2 2 2 1 1 1 1 1 1 2 2 2 1 1 2 2 1 1 2 1 1 1 2 1 1 0 1 1 1 1 1 1 2 2 2 3 2 2 2 2 1 2 2 1 2 2 1 1 1 2 2 2 2 2 1 1 1 2 2 2 1 1 1 1 1 1 1 2 2 2 2 2 2 2 2 2 2 1 1 1 1 0 0 1 2 2 2 2 1 2 1 1 1 1 1 1 1 1 1 1 2 2 1 1 1 2 1 1 2 2 1 1 1 1 1 1 2 2 2 2 1 1 1 2 1 1 1 1 1 1 2 1 1 0 0 1 1 1 1 1 1 2 1 1 1 3 3 2 1 1 1 1 1 1 1 1 1 1 0 1 2 2 2 2 1 1 1 1 1 2 2 1 1 1 1 1 1 0 0 1 1 2 2 1 1 0 0 0 1 1 1 1 0 1 1 1 1 1 1 1 1 1 1 1 1 1 1 1 0 0 1 1 1 1 1 1 1 1 1 1 1 1 0 0 0 0 0 1 1 1 1 0 1 1 1 1 1 2 0 1 1 1 1 0 0 0 1 1 0 1 0 1 1 0 0 1 1 0 1 1 0 1 0 0 2 1 1 1 0 1 1 1 1 1 0 1 0 1 2 1 0 1 1 1 1 0 1 1 0 0 1 1 0 1 1 0 0 1 1 0 0 1 0 0 1 1 -1 1 0 0 1 1 1 1 1 2 0 0 1 1 0 1 1 1 0 1 0 1 1 0 1 1 0 1 0 0 1 1 1 -1 1 0 
-1 3 1 -1 1 1 0 1 1 1 1 0 1 1 1 0 1 1 0 -1 0 1 1 0 -1 2 0 -2 1 1 -1 1 1 1 1 1 1 0 0 1 1 0 1 0 0 0 1 1 2 1 0 0 1 2 2 1 0 0 0 0 0 1 1 0 1 1 1 0 1 0 0 0 -1 0 1 1 0 1 0 1 1 0 0 1 1 0 0 0 1 1 0 1 2 1 0 1 1 0 0 1 1 1 1 0 1 1 1 0 1 1 1 1 1 1 1 1 1 1 1 1 1 1 1 1 1 1 1 1 1 1 1 1 1 1 1 0 0 1 1 1 1 1 1 1 1 1 0 1 0 1 1 1 1 1 1 1 1 1 1 2 1 0 0 1 1 1 1 1 1 1 1 1 1 0 0 1 1 1 1 1 1 1 1 1 1 0 1 1 1 1 1 1 1 1 1 1 1 1 1 2 2 1 0 0 1 2 1 1 1 1 1 1 1 2 2 1 0 0 1 2 1 0 1 1 1 1 1 1 1 0 0 1 1 1 1 2 2 1 1 1 2 1 1 1 1 1 1 1 1 1 1 1 0 0 0 1 1 1 2 2 1 1 1 1 1 0 1 1 1 1 1 1 1 1 1 1 2 2 2 2 2 1 1 1 1 2 1 2 2 2 2 1 0 1 1 1 1 0 1 2 2 2 1 1 1 2 1 1 2 1 1 1 1 2 2 1 1 1 0 1 1 2 2 1 1 1 2 2 2 2 2 2 2 2 2 1 1 1 2 2 2 2 2 2 1 1 2 2 1 1 1 1 1 1 2 2 1 1 1 1 1 1 2 2 2 2 2 1 2 2 1 1 1 1 1 1 1 1 2 1 2 2 2 1 2 2 2 2 2 2 2 2 1 1 1 1 1 1 1 1 0 0 1 1 1 1 2 1 1 1 2 2 2 1 1 1 1 1 1 1 2 2 2 2 1 1 1 0 1 2 2 2 1 1 2 2 1 1 1 2 2 1 1 1 2 2 1 2 2 2 1 1 2 1 0 0 1 1 1 1 1 1 1 1 2 1 1 1 1 2 1 1 1 1 1 1 1 1 1 1 1 1 1 1 1 1 1 1 2 1 1 0 1 0 1 2 1 1 1 1 1 1 1 1 1 1 1 1 1 0 1 1 1 1 0 0 1 1 1 1 1 1 1 1 0 1 1 1 1 0 1 1 1 2 2 1 1 1 1 0 1 1 0 0 1 1 1 1 1 0 0 0 0 1 0 1 1 1 1 1 1 0 1 0 0 2 1 0 1 1 2 1 0 1 0 0 1 1 1 0 0 0 1 1 1 1 1 1 1 1 1 0 -1 1 1 0 1 2 0 1 2 0 0 1 1 0 0 1 1 -1 1 2 0 2 2 -1 1 1 1 0 0 1 1 1 0 2 1 0 0 1 0 1 1 1 0 0 2 1 0 0 
2 -2 1 3 0 0 1 2 0 0 1 1 1 -1 1 1 0 0 0 0 1 0 0 2 1 1 0 0 1 0 0 1 0 0 2 1 0 1 0 1 1 1 1 1 0 0 1 0 1 1 1 1 1 1 1 1 1 1 1 1 0 0 0 1 1 1 1 0 1 1 0 0 0 1 1 0 1 1 1 0 0 1 0 0 1 1 1 0 0 1 0 0 1 0 1 1 1 0 1 1 0 0 1 0 0 1 1 0 0 1 0 1 1 1 0 1 1 1 1 1 0 1 1 1 1 1 1 1 1 1 1 0 0 0 1 1 1 0 0 1 1 1 1 0 0 1 1 0 0 1 1 0 0 0 0 0 1 1 0 1 1 1 1 0 1 1 1 1 1 1 1 1 1 1 1 1 1 1 1 1 1 1 2 2 1 1 1 2 1 1 1 1 1 1 1 1 1 1 1 1 1 2 1 1 1 1 1 1 2 1 1 1 1 2 2 1 1 1 1 1 2 2 2 1 1 1 1 1 2 1 1 1 0 0 1 2 2 1 1 1 1 1 1 2 2 2 1 1 1 1 2 1 1 1 1 1 1 1 1 2 2 2 2 2 1 1 1 1 1 2 2 1 1 1 1 1 1 1 1 1 1 2 2 1 1 1 1 1 2 1 2 1 1 1 0 1 1 1 1 1 2 1 1 1 1 0 0 1 1 1 1 1 1 2 2 1 1 1 1 1 2 1 1 1 1 2 1 2 3 3 2 2 2 2 1 1 1 2 2 2 2 2 1 1 1 1 2 2 1 1 1 2 2 1 1 1 2 2 1 1 1 1 1 1 2 2 1 0 1 2 2 1 1 1 2 2 2 1 1 1 1 1 2 2 2 2 2 1 1 1 2 2 1 0 0 1 1 1 1 2 2 1 1 2 2 2 1 1 1 2 1 1 2 2 2 1 2 2 1 1 1 1 1 1 1 1 1 1 1 1 0 1 1 1 1 1 1 0 1 2 1 1 1 1 2 2 2 1 1 1 1 1 1 1 1 1 1 1 1 2 1 1 2 1 1 1 2 2 1 1 1 1 1 1 1 0 1 1 1 1 1 1 1 1 1 1 2 1 0 1 1 1 0 1 1 1 0 -1 0 1 1 1 1 1 1 0 0 1 1 1 1 0 1 1 1 1 1 1 1 1 1 1 1 1 1 1 1 1 1 0 1 1 0 1 1 1 1 1 1 1 2 1 0 0 1 1 1 1 1 0 2 1 1 1 1 0 0 1 1 0 1 1 1 0 0 1 1 0 0 1 1 2 0 1 1 1 0 0 1 1 1 0 1 1 1 1 1 1 1 1 1 1 0 1 1 1 0 1 1 0 0 1 2 0 0 1 0 0 1 1 1 1 0 0 1 0 1 -1 1 1 0 0 1 1 0 1 2 1 0 1 2 1 0 -1 1 2 -2 0 3 -1 
-2 4 -3 2 0 2 0 1 0 1 -1 0 1 0 0 2 0 0 0 0 0 1 0 1 1 1 0 0 0 2 1 0 0 1 1 0 0 1 0 1 1 0 0 1 1 1 1 1 1 1 1 1 0 1 1 1 1 0 0 1 1 0 0 1 1 1 1 1 1 0 1 1 0 1 1 1 1 0 0 1 0 1 1 1 1 1 0 0 0 0 0 1 1 1 1 1 1 1 1 1 2 1 0 1 1 1 1 0 0 1 1 0 0 1 1 0 1 1 1 1 1 1 1 1 1 0 0 1 1 1 1 1 1 1 1 1 0 1 1 1 1 0 1 1 0 1 1 1 1 1 1 1 0 0 0 0 0 0 0 0 0 0 0 1 2 1 1 1 1 1 1 1 1 1 1 1 1 1 1 1 1 1 1 1 2 1 1 1 1 0 0 0 1 1 1 1 1 1 1 1 1 1 1 1 1 1 1 0 0 1 1 1 1 1 1 1 1 1 1 2 2 1 1 1 1 1 1 1 1 1 1 2 2 1 1 0 1 1 1 1 2 2 1 0 1 1 1 1 1 2 2 1 1 2 3 2 2 1 1 1 0 0 0 1 2 1 1 2 1 1 1 1 1 1 0 1 1 1 1 1 0 1 1 1 1 2 2 1 2 2 2 2 1 1 1 1 1 1 1 2 1 1 0 0 1 1 1 1 1 1 1 1 1 2 2 2 2 2 1 0 1 1 2 2 3 3 2 2 2 1 1 1 1 2 2 1 1 2 2 1 2 2 2 2 1 0 1 1 0 0 1 1 1 1 1 1 1 2 2 1 2 2 1 2 2 2 1 0 0 1 1 1 1 2 2 2 2 2 2 2 2 2 2 2 2 2 3 2 2 2 1 2 2 2 1 1 1 1 2 2 1 0 1 1 1 1 1 1 1 1 1 1 1 1 1 1 1 1 0 1 2 2 1 1 1 1 1 1 1 1 1 1 1 1 1 1 1 1 1 1 0 0 0 1 1 1 1 2 3 2 1 1 1 1 2 2 1 1 1 1 1 1 1 2 1 1 1 1 1 1 0 1 1 1 1 1 1 1 1 1 1 1 0 1 1 1 2 2 1 1 1 0 0 1 1 1 1 0 0 1 1 1 1 1 1 1 1 1 1 1 0 0 1 1 0 1 1 0 0 1 2 1 1 1 1 2 1 1 1 2 2 1 1 1 0 0 1 1 1 1 0 0 1 0 0 1 1 1 1 1 1 0 1 1 0 1 0 0 0 1 1 0 -1 0 1 1 1 0 1 1 1 1 1 1 0 0 1 1 1 1 0 0 0 1 1 2 1 1 0 1 1 1 0 1 1 2 1 0 1 1 1 0 1 1 1 1 1 0 0 1 0 0 1 2 1 1 1 1 0 0 1 1 0 0 1 0 -1 2 1 1 0 1 2 1 -1 1 -1 4 -5 4 
0 1 1 1 0 1 1 1 0 1 1 0 1 1 0 1 0 1 2 0 0 1 1 1 1 0 0 1 0 1 1 1 1 1 1 1 0 0 1 1 0 0 1 1 1 1 1 1 1 0 0 1 1 1 0 0 0 0 1 1 1 1 1 0 0 1 1 1 1 1 1 1 1 1 1 1 1 0 1 1 1 1 1 1 1 1 1 1 0 -1 1 1 0 0 1 1 1 1 0 -1 1 1 0 1 1 1 1 1 1 0 0 0 1 1 1 1 1 1 0 0 0 1 1 1 2 1 0 1 1 1 1 1 1 1 1 2 2 1 1 1 1 0 0 1 1 1 1 1 1 1 1 1 0 0 1 1 1 0 0 1 1 0 0 0 1 1 1 1 1 1 0 1 1 1 1 1 2 2 1 0 0 1 1 2 2 1 1 2 2 2 1 0 0 1 1 1 0 1 1 1 1 2 1 1 1 0 1 1 2 1 1 1 1 1 1 1 1 1 1 1 1 1 1 0 0 1 1 1 2 1 1 1 1 1 1 2 1 1 1 1 2 2 1 1 1 1 1 0 1 1 1 1 1 2 2 1 1 1 1 1 1 1 2 2 1 0 1 1 1 2 2 2 2 1 1 1 0 0 0 1 1 1 1 1 1 0 0 0 1 2 2 2 2 2 2 2 2 2 1 1 1 1 2 1 1 1 0 0 1 1 1 0 1 2 1 1 2 2 2 1 1 1 1 1 1 1 2 2 2 1 0 0 0 1 1 2 2 2 1 1 1 1 1 1 1 1 1 0 0 1 1 2 2 2 1 1 2 2 1 1 2 2 1 1 2 1 1 0 0 1 1 1 1 2 2 2 2 1 1 1 1 1 1 1 1 2 2 1 1 1 1 1 1 1 1 1 1 1 1 1 1 1 2 2 2 2 1 1 1 1 1 1 1 1 1 1 1 1 1 1 1 1 1 1 1 1 1 1 1 1 0 0 1 1 0 0 0 0 1 1 1 2 2 1 1 0 1 1 2 1 0 0 0 0 0 1 1 1 2 1 1 1 1 1 1 1 0 1 0 1 1 1 1 0 0 0 1 2 2 0 0 0 0 1 1 1 1 0 0 1 1 1 0 1 1 1 1 0 -1 1 1 1 1 1 1 1 1 1 1 1 1 1 1 0 1 1 0 1 1 0 0 1 1 1 1 2 1 1 0 1 1 1 1 1 1 1 1 0 0 1 0 1 1 0 0 1 1 1 1 1 0 1 2 0 0 1 1 0 1 1 0 0 0 1 0 0 1 1 1 1 1 1 1 1 1 1 1 1 0 0 1 1 1 1 1 1 1 1 1 1 0 0 1 1 1 0 1 1 1 0 0 1 0 0 1 1 1 1 0 1 1 1 1 1 1 1 -1 0 2 1 0 1 1 0 0 0 0 1 0 1 2 0 0 1 0 0 0 1 -1 0 
3 -5 4 0 0 -1 0 0 0 0 1 1 0 0 0 1 1 1 0 1 1 1 0 -1 1 0 0 0 0 1 2 0 0 1 0 0 1 1 1 0 0 1 0 0 1 1 1 1 1 1 1 0 -1 0 0 0 0 1 1 1 1 1 1 0 0 1 0 1 1 1 1 1 0 1 0 0 0 0 1 1 1 1 1 0 0 1 1 1 1 0 0 1 0 1 1 2 1 1 1 1 1 0 1 1 1 1 1 1 1 1 1 0 0 1 0 1 0 0 0 0 0 0 1 1 1 1 0 0 1 1 1 1 0 1 1 1 1 1 1 2 1 1 1 1 1 1 2 2 1 1 1 1 1 1 1 1 1 1 1 1 0 0 1 2 1 1 1 1 1 0 0 1 1 1 1 1 0 0 1 1 1 1 1 0 1 1 0 0 1 1 0 1 2 1 0 1 1 1 1 0 1 1 1 1 1 1 1 1 1 1 1 1 0 0 1 1 1 1 1 1 1 1 1 1 1 1 1 1 1 1 2 2 2 1 1 1 1 1 2 1 1 1 1 1 1 2 1 1 1 1 0 1 1 1 2 1 1 1 1 1 0 0 1 1 1 1 1 1 1 1 1 2 2 2 1 1 1 1 1 1 1 1 1 1 1 0 0 1 1 1 1 1 1 1 2 2 2 2 2 2 2 1 1 1 2 1 1 1 1 1 0 0 1 1 1 2 2 2 1 1 1 2 2 2 2 2 2 1 0 0 0 1 2 2 3 2 2 2 1 1 0 1 2 2 2 1 2 2 2 2 2 2 1 1 1 2 2 2 2 2 2 2 2 1 1 2 1 0 0 1 1 1 2 2 2 2 2 2 1 1 1 1 2 2 2 2 1 2 2 1 1 2 2 2 1 2 2 2 2 1 1 1 1 1 1 2 2 2 2 2 1 0 1 1 1 1 1 2 1 1 2 2 1 1 1 2 2 2 2 2 2 2 1 1 1 2 2 1 1 1 0 1 1 2 2 1 1 1 2 2 1 1 1 1 1 1 1 1 1 1 1 1 1 1 1 1 1 2 1 0 0 1 1 1 0 0 0 1 1 1 1 1 0 0 1 1 1 1 1 1 0 1 1 1 1 1 1 1 1 1 1 1 1 0 1 2 1 0 1 1 1 1 1 0 0 1 0 0 1 1 1 1 1 0 2 2 2 1 1 1 1 1 1 0 1 1 1 0 0 0 1 1 1 1 2 2 1 1 1 0 1 2 1 0 1 0 0 0 0 1 1 2 0 1 1 0 0 0 1 2 1 0 0 0 1 0 0 1 1 1 1 1 1 1 1 1 1 1 0 1 1 1 1 0 1 1 0 0 1 1 0 1 1 1 1 0 0 0 0 1 1 0 0 0 0 2 1 0 1 1 1 0 1 1 1 0 0 1 1 1 0 0 1 1 1 1 1 -3 5 -2 
-1 5 -2 0 1 1 -1 1 1 1 0 0 0 1 1 0 1 1 1 1 0 1 2 0 0 1 1 0 0 1 2 1 0 0 0 1 0 0 1 0 0 0 1 1 1 0 1 2 1 0 0 0 0 0 0 1 1 1 1 1 0 1 1 0 0 0 1 1 0 1 1 0 1 1 0 0 0 0 1 1 0 1 2 1 0 1 1 0 0 1 1 1 1 0 1 1 1 0 0 1 1 0 1 1 1 1 1 1 1 1 0 0 1 1 0 1 1 0 0 1 1 0 0 0 1 1 1 1 1 0 1 2 1 1 1 1 0 0 1 1 1 1 1 1 1 1 1 1 1 1 1 1 1 1 1 1 1 1 1 2 1 2 2 2 1 1 1 1 1 1 1 2 2 1 0 1 1 2 1 0 1 1 2 1 1 0 1 0 1 2 2 1 1 1 1 1 0 0 1 1 1 1 1 1 1 1 1 2 2 2 2 1 1 1 1 1 2 2 2 1 1 1 1 1 2 2 2 1 1 1 1 1 2 2 1 1 1 0 1 1 1 1 1 2 1 1 1 1 1 1 1 1 1 1 1 1 1 2 2 2 2 1 1 1 1 1 1 1 2 1 1 1 1 1 2 2 2 2 3 2 2 2 2 1 1 1 1 1 1 2 2 2 2 2 3 2 2 2 1 1 2 2 3 3 1 0 1 1 1 1 1 1 2 2 2 2 2 2 2 2 2 3 2 1 1 1 1 1 1 1 1 1 2 2 2 1 2 2 1 1 1 1 1 1 1 1 1 2 3 2 2 3 3 2 1 1 1 2 2 2 1 1 1 1 1 1 1 1 1 1 2 2 2 2 1 1 2 2 1 1 1 1 1 1 0 0 0 1 1 1 1 1 1 1 1 1 1 1 1 1 1 1 1 1 1 1 2 2 2 2 2 2 2 2 1 1 1 2 1 2 2 2 1 1 1 1 1 0 0 0 1 1 2 1 1 1 0 0 1 1 1 1 1 2 2 1 1 1 1 1 1 0 0 -1 -1 0 1 1 2 1 1 1 1 1 1 1 1 1 1 1 1 1 1 1 0 0 1 1 1 1 0 0 1 2 2 1 1 0 1 1 1 1 2 1 1 1 1 1 1 1 1 1 1 1 1 1 1 1 1 1 1 1 1 1 1 0 1 1 1 1 2 1 1 1 2 1 1 1 0 1 1 1 1 1 1 1 2 1 0 0 1 1 1 2 1 1 2 1 0 1 1 1 0 0 1 0 1 1 1 1 1 0 0 1 1 0 1 1 1 1 1 0 1 0 0 1 0 0 0 0 1 1 1 1 1 0 0 0 0 1 0 0 1 1 1 0 1 1 1 1 0 0 -1 1 1 0 1 1 1 1 1 1 0 0 0 -1 0 1 0 0 1 1 1 1 0 0 0 0 1 1 1 2 0 2 -1 1 0 3 -3 1 
2 0 3 -1 2 -1 0 -1 0 0 1 1 0 0 1 0 1 0 0 0 1 0 1 0 0 1 1 0 2 1 1 0 0 0 1 1 1 0 1 0 1 1 1 0 0 1 1 0 0 0 0 -1 0 1 1 0 1 1 2 0 0 1 1 1 2 0 1 1 0 0 1 0 0 0 0 1 1 1 1 1 1 0 0 1 1 0 0 1 1 1 1 1 0 1 2 1 0 1 1 1 1 1 1 1 1 1 2 0 0 1 1 0 0 0 1 1 1 0 1 1 0 -1 1 1 1 1 1 0 0 1 1 1 2 1 1 1 1 0 1 1 1 1 1 1 2 1 1 1 1 1 0 0 1 0 0 1 1 1 1 1 1 1 1 1 1 1 1 1 1 1 1 1 1 2 1 1 1 1 1 1 1 0 1 1 1 1 1 0 0 1 1 1 1 1 0 0 1 1 1 0 0 1 2 2 1 1 2 2 2 2 1 1 1 1 1 0 1 2 1 1 1 0 1 2 2 0 0 1 1 1 1 1 1 1 0 0 1 1 1 1 1 0 1 2 2 2 2 1 1 2 1 1 1 1 1 1 2 2 1 1 1 1 2 2 2 1 1 1 1 1 1 1 2 2 2 1 1 1 1 1 2 2 2 2 2 1 1 1 1 2 2 2 1 1 2 1 1 1 1 1 1 1 1 1 1 1 1 1 2 2 1 1 1 2 2 2 2 2 1 1 1 2 3 2 2 1 1 1 0 0 1 2 2 2 2 2 2 1 1 1 1 1 1 1 1 2 2 3 3 3 2 2 2 2 2 1 2 2 3 2 2 2 2 1 1 1 1 1 2 2 2 1 2 2 2 1 2 2 2 1 1 1 2 1 1 1 1 1 1 1 1 1 1 1 1 1 1 1 1 0 0 1 1 1 1 1 2 1 1 1 1 1 2 2 1 2 2 1 1 1 1 1 1 1 1 1 2 1 1 1 1 2 2 1 2 2 1 1 1 1 1 0 0 1 2 2 2 1 1 2 2 2 2 1 0 0 0 0 1 1 1 1 1 1 1 2 2 2 1 1 1 1 1 1 1 1 1 0 1 1 1 1 1 1 1 1 1 0 0 0 0 0 1 1 1 0 1 2 2 1 1 1 0 0 1 1 1 1 0 1 1 1 1 1 1 0 1 1 1 1 1 1 1 2 1 0 2 1 0 1 2 1 0 1 0 1 1 1 2 2 1 1 2 1 1 2 1 1 1 0 0 1 1 -1 0 2 1 -1 1 2 1 0 1 1 1 1 1 1 1 1 1 0 1 0 0 1 0 0 1 1 2 2 1 1 1 1 0 0 0 1 0 0 0 0 1 0 0 0 1 0 0 1 1 0 1 1 1 1 1 0 1 0 0 0 1 0 1 0 0 1 1 0 1 0 0 1 1 0 2 0 1 0 1 1 1 -1 2 -1 3 -1 
1 1 0 1 0 1 1 1 1 0 0 0 0 0 1 0 0 0 0 1 1 1 1 1 0 1 2 1 1 0 1 1 0 1 1 1 1 1 1 1 1 0 1 1 1 0 0 0 1 0 0 0 0 0 0 1 2 1 1 1 0 1 1 1 1 0 1 1 0 0 0 1 1 1 1 1 0 1 2 1 0 1 1 0 1 1 1 1 0 0 1 2 1 0 1 1 0 1 1 1 1 1 1 2 1 0 1 1 1 1 1 0 0 0 1 0 1 1 0 1 2 0 0 1 1 1 1 1 1 1 1 1 1 1 1 0 0 0 1 1 0 1 1 1 1 1 1 1 1 1 2 1 0 1 1 1 0 1 1 1 1 1 1 1 1 1 2 1 1 0 1 2 1 1 1 1 1 1 1 0 1 1 1 1 1 0 1 1 2 2 1 0 0 1 2 1 1 0 1 1 1 0 1 1 1 2 2 1 1 1 1 1 1 1 2 1 1 2 1 1 1 1 0 1 1 2 1 1 1 1 1 1 1 1 1 1 0 1 2 2 1 1 1 1 1 1 1 1 1 1 1 1 1 0 1 1 1 2 2 1 1 0 1 1 2 2 2 1 1 1 1 1 1 1 2 2 2 1 1 1 1 1 1 2 2 1 1 1 1 2 2 2 2 2 1 1 2 2 2 2 2 1 1 1 1 1 0 1 2 2 2 2 2 2 2 2 2 2 1 1 1 1 2 2 2 1 1 1 1 1 2 1 1 1 1 1 1 2 2 2 2 1 1 1 0 0 0 2 2 3 3 3 3 3 2 2 1 1 2 2 2 2 1 1 1 1 1 1 2 2 1 1 1 1 2 2 1 1 2 1 1 2 2 2 1 1 1 1 1 1 1 1 2 2 1 1 1 1 1 1 2 2 2 1 1 1 1 1 1 2 2 1 1 1 1 1 1 0 1 1 1 1 1 1 1 1 1 1 0 0 1 2 1 1 1 2 1 1 1 1 2 0 0 0 1 1 1 1 1 1 1 1 1 1 1 1 1 1 1 1 1 0 0 1 1 2 2 1 1 1 1 1 1 1 1 1 1 1 1 1 1 1 1 1 2 2 1 0 0 0 1 1 1 1 1 1 1 1 1 0 0 1 1 1 1 1 1 1 1 1 0 0 1 1 1 1 1 1 1 2 1 0 1 0 0 1 0 0 1 0 1 1 1 1 0 2 2 1 1 1 1 1 1 1 1 1 0 0 2 1 0 0 0 0 0 1 1 1 1 0 1 1 1 0 1 1 1 1 1 0 0 1 1 1 0 1 0 0 1 1 1 0 1 1 1 0 1 1 0 0 0 1 1 1 1 1 0 1 1 1 0 -1 0 0 0 1 1 0 1 1 1 1 1 1 1 -1 1 0 1 1 1 1 1 0 0 0 1 1 0 0 1 1 1 0 1 1 -1 1 1 0 
0 2 0 1 -1 2 -1 0 0 2 0 1 -1 0 0 1 0 1 -1 0 0 1 -1 1 0 1 1 1 1 1 0 1 0 1 0 0 1 1 1 2 1 0 1 1 1 1 1 1 0 0 0 1 1 0 0 0 0 1 0 0 1 1 0 1 1 1 1 0 1 1 0 1 1 1 1 1 1 0 0 1 0 0 1 1 0 0 1 0 0 1 0 0 1 2 1 0 1 1 1 1 2 1 0 2 1 1 1 1 1 1 0 1 0 0 1 1 0 1 1 1 1 1 0 1 1 1 0 0 0 0 1 1 1 1 1 1 0 0 1 1 1 0 0 1 1 1 1 1 1 1 2 2 1 1 0 1 2 1 0 1 1 0 0 1 1 2 1 1 1 1 1 1 1 1 2 1 0 1 1 1 0 1 1 1 1 1 1 2 1 1 1 1 1 1 1 1 1 1 1 1 0 0 1 2 2 2 2 2 1 1 1 1 1 1 1 1 1 1 1 1 1 0 1 2 2 2 1 1 1 1 1 1 2 2 1 1 1 2 1 1 1 1 1 1 1 1 1 1 1 2 1 1 0 0 0 1 1 1 1 1 1 1 1 1 1 1 1 1 2 2 2 2 2 2 2 2 1 1 1 1 1 2 2 2 1 1 1 1 0 1 2 2 2 2 2 2 2 2 2 2 1 1 1 1 1 1 1 1 2 2 2 2 2 2 1 1 2 1 1 1 1 1 2 2 1 2 2 2 1 2 2 2 1 1 1 2 2 2 2 2 1 2 2 1 1 2 2 2 2 2 2 2 2 2 2 2 1 1 1 1 0 0 1 1 1 1 1 2 2 2 2 1 1 1 2 2 1 1 2 2 1 1 1 1 1 1 1 2 1 1 1 1 1 1 1 1 1 1 2 1 1 1 2 2 1 1 1 1 0 1 2 1 1 1 1 1 1 1 0 0 1 1 1 1 2 2 1 1 1 1 1 1 1 2 2 2 2 1 0 1 2 1 1 1 1 2 1 1 1 1 1 2 2 1 1 1 1 0 0 1 1 1 0 0 1 2 2 2 1 1 1 1 1 1 1 1 1 0 0 1 1 1 1 1 1 1 1 1 0 1 1 1 1 2 1 1 1 1 1 1 1 2 1 0 1 1 1 0 0 1 0 1 1 1 1 1 1 1 1 1 0 1 2 1 1 1 0 0 0 0 1 1 0 0 0 0 1 1 1 1 1 1 1 1 0 0 1 1 0 1 1 0 -1 0 0 0 0 1 0 0 2 1 0 0 0 0 0 1 0 0 0 1 0 1 1 0 0 1 0 0 1 1 1 1 1 1 0 1 1 1 1 1 1 1 0 1 1 1 0 1 1 0 0 1 1 1 1 0 0 1 1 0 -1 1 0 0 0 1 1 0 1 2 0 0 -1 1 0 1 0 2 -1 1 1 2 -1 1 0 2 -1 2 
2 -2 2 1 -1 0 1 2 0 0 1 1 0 1 0 1 0 1 0 1 0 0 0 1 1 1 1 1 0 0 0 1 1 0 0 0 0 1 1 2 1 0 1 1 1 1 1 1 0 1 0 1 0 0 0 0 0 1 0 0 0 1 1 1 0 1 1 1 0 1 1 1 0 1 1 0 0 1 0 1 1 1 1 0 0 1 1 1 1 1 1 1 1 1 1 0 0 1 2 1 0 1 1 0 0 1 1 1 1 0 0 1 1 0 1 1 0 1 2 1 1 2 1 1 1 1 1 1 1 1 0 1 0 0 1 1 0 0 0 0 1 0 0 1 1 1 1 1 1 1 1 1 2 1 0 0 1 1 0 1 1 1 1 1 2 2 2 2 1 1 1 1 1 1 1 1 0 1 2 1 0 1 2 1 0 0 0 1 1 1 1 1 1 1 1 0 1 1 1 1 1 1 1 1 0 1 2 1 1 0 1 2 2 1 1 1 1 1 1 1 1 1 1 1 1 1 1 0 0 0 1 1 1 1 1 1 1 1 1 1 1 1 0 1 1 2 2 2 2 1 1 1 1 1 0 1 2 2 1 1 1 1 0 0 1 1 1 1 2 2 2 2 1 1 1 1 2 1 0 0 1 1 1 2 2 2 1 1 1 1 2 2 2 2 1 1 1 1 1 0 0 0 0 1 2 1 1 2 2 1 1 2 2 2 1 1 1 1 0 1 1 0 1 2 2 1 1 1 1 2 2 2 2 2 2 2 2 2 2 2 1 1 1 1 2 1 1 1 2 2 1 1 2 2 1 1 1 1 1 1 1 2 2 1 1 1 2 1 1 2 2 1 1 2 2 2 1 2 2 1 1 1 1 1 0 0 1 2 1 1 1 1 1 1 1 1 1 2 2 1 1 1 2 2 1 1 1 1 1 1 1 2 1 1 1 1 0 0 1 1 1 2 1 1 1 1 1 1 2 2 2 1 1 2 2 2 2 1 1 1 2 2 2 1 0 1 1 1 2 1 0 1 1 1 2 2 1 1 0 0 1 1 1 1 1 2 2 1 1 1 1 1 0 1 1 1 1 1 1 1 1 2 1 1 1 1 2 1 1 2 2 2 1 1 0 1 2 2 1 0 0 1 1 1 0 1 1 1 1 0 0 1 1 1 0 0 1 1 1 0 0 1 0 0 1 1 0 1 1 1 1 1 1 1 2 1 0 1 1 1 1 1 1 1 0 0 0 1 1 0 0 1 1 1 1 1 1 1 1 1 1 0 1 1 1 1 1 1 0 1 0 1 1 1 2 1 0 1 1 1 0 0 1 0 0 1 0 1 0 1 1 1 1 2 1 1 1 1 1 0 0 1 1 0 0 1 0 0 0 1 1 0 0 1 0 1 0 0 1 1 0 1 0 1 0 0 1 1 -1 1 1 1 0 0 1 1 0 1 3 0 
-1 4 0 -1 2 1 1 1 2 1 0 0 1 1 0 1 1 0 0 0 0 0 0 0 2 1 0 0 0 1 1 1 1 0 0 1 1 1 1 1 1 0 0 1 1 0 1 1 1 1 0 0 0 -1 0 0 0 1 0 0 1 0 0 1 1 0 -1 0 1 1 1 1 0 0 0 1 1 0 1 1 1 1 1 1 1 1 1 1 1 1 0 1 1 0 1 1 0 1 1 1 1 1 0 0 1 0 0 1 2 0 0 0 1 0 0 1 1 1 2 1 1 1 1 1 1 1 1 0 1 1 0 1 1 1 1 1 1 1 0 1 1 1 0 1 1 0 1 1 1 1 1 0 0 0 0 0 0 0 1 1 0 0 1 1 1 1 1 1 1 0 1 1 1 1 1 1 1 0 1 1 1 1 1 1 1 1 1 1 1 1 1 1 1 1 1 1 1 1 0 0 1 0 1 1 1 2 1 0 0 1 2 2 1 1 1 1 1 1 0 0 1 1 1 1 2 1 0 0 0 1 1 1 1 1 1 1 1 1 1 1 1 1 1 1 2 1 1 1 1 1 1 0 1 2 1 1 1 1 1 1 0 0 1 1 1 0 0 1 1 1 2 2 2 1 1 1 1 1 1 1 1 1 2 1 1 1 1 1 2 2 1 1 2 2 2 1 1 1 1 0 0 0 1 1 2 2 2 2 2 2 2 2 2 2 2 1 1 2 2 3 3 2 2 1 1 1 1 1 1 1 2 1 1 1 1 1 0 1 2 1 1 1 1 2 2 1 1 1 0 1 2 2 1 1 2 2 1 1 1 1 1 1 0 0 1 1 2 1 2 2 2 2 1 1 1 2 2 1 1 1 1 1 1 1 1 0 1 1 1 1 1 1 1 1 1 1 1 1 1 1 1 1 1 1 1 1 1 1 1 1 1 2 2 1 1 2 1 1 1 1 1 1 1 1 1 1 1 0 0 0 1 1 0 1 1 2 2 1 0 1 1 1 1 2 1 1 1 1 1 1 1 1 1 1 1 1 0 1 1 1 1 2 2 1 1 1 1 0 0 1 1 1 1 2 2 1 1 1 0 0 1 2 2 1 1 1 2 2 1 2 2 1 1 1 0 0 1 0 1 1 1 1 1 0 0 0 0 0 1 1 1 1 1 1 1 1 1 1 1 0 1 2 1 1 2 1 1 1 1 1 1 2 2 0 1 1 1 1 1 0 0 1 0 0 1 1 0 0 1 0 1 2 1 1 1 0 1 1 1 0 0 1 0 0 1 1 1 0 1 1 1 1 1 0 1 1 1 1 0 1 0 0 1 0 0 0 0 1 1 0 1 0 1 1 1 1 2 1 1 1 1 0 1 0 0 0 0 0 0 1 1 1 0 0 0 1 0 1 1 0 1 2 1 0 0 0 1 1 2 1 1 0 1 0 0 0 3 1 -2 2 
3 -1 0 1 0 -1 2 1 1 1 0 -1 0 1 0 1 1 1 1 0 0 0 1 1 2 1 0 1 1 0 1 1 1 0 1 2 1 1 0 0 0 0 0 0 0 0 0 1 1 0 0 0 0 0 0 1 2 1 0 0 1 1 1 0 0 0 0 0 0 1 1 0 0 1 1 0 1 1 2 1 1 1 1 2 1 1 1 1 1 1 1 1 1 1 1 0 0 1 1 0 0 1 1 1 1 2 1 0 0 1 1 0 1 2 0 1 1 0 1 1 1 0 1 1 1 1 1 1 1 1 1 1 0 1 2 1 0 0 1 1 0 0 1 2 1 1 1 1 1 1 0 1 2 1 0 0 1 1 0 1 1 1 0 0 0 0 1 1 1 1 1 1 1 1 1 1 1 1 1 1 1 1 1 1 0 0 0 0 1 1 1 1 1 1 1 1 1 1 1 0 1 1 1 1 1 1 1 0 0 1 1 1 1 1 1 1 1 1 1 1 1 2 2 1 1 1 1 1 1 1 1 1 1 1 0 1 1 1 1 1 1 1 1 1 1 0 0 1 1 1 1 1 1 1 1 1 1 0 1 0 1 1 1 1 1 1 1 1 1 0 1 1 1 1 1 1 2 1 1 1 2 1 1 1 2 2 1 1 1 1 1 1 1 0 0 1 2 2 2 2 1 1 1 2 2 2 2 2 1 1 1 1 1 1 1 2 2 2 2 2 2 2 1 1 1 2 2 2 1 2 1 1 1 1 1 2 1 1 0 0 1 1 1 1 2 2 1 1 1 1 2 2 1 1 2 1 2 2 2 2 2 2 2 1 1 2 2 1 1 1 1 1 1 2 2 2 2 2 2 1 1 2 2 2 1 1 1 1 1 2 1 1 1 1 1 1 1 1 1 1 1 1 2 1 1 0 1 1 1 1 0 1 1 1 1 1 1 1 0 1 2 1 1 2 2 2 1 1 1 1 2 1 1 1 1 0 1 2 2 1 1 1 1 1 2 1 1 1 1 2 2 2 1 1 2 1 1 1 1 1 1 1 1 2 2 1 0 1 1 1 1 0 1 2 2 1 1 1 1 1 1 1 1 0 0 0 1 2 1 2 2 1 0 0 0 0 0 1 1 1 1 1 1 1 1 1 1 1 1 1 1 0 1 1 1 1 1 0 1 2 2 0 0 2 2 0 1 1 1 2 1 1 1 1 1 0 0 1 0 0 1 1 1 1 1 1 1 1 0 0 0 1 1 2 1 1 1 0 1 1 1 1 0 1 1 1 1 1 1 1 1 0 0 1 1 1 1 1 0 1 0 0 0 0 0 0 1 1 1 1 0 0 1 1 2 1 1 1 1 1 0 0 0 0 1 1 0 0 0 0 0 0 1 1 2 1 0 0 0 1 1 1 1 1 0 1 1 0 0 0 1 1 0 0 1 1 -1 0 4 -2 
-1 3 -1 0 1 1 1 0 1 1 0 0 1 0 0 0 1 0 0 0 0 0 1 1 1 1 0 1 1 1 1 1 1 0 1 1 1 0 0 0 1 0 0 0 0 0 0 1 1 0 0 0 0 0 0 1 1 1 0 0 0 1 1 1 1 0 0 1 1 0 0 1 0 0 0 1 1 0 0 0 0 0 0 1 1 0 1 0 0 2 1 0 1 2 1 1 1 0 0 0 1 1 1 2 1 0 1 0 1 1 1 0 1 1 0 1 1 1 0 1 1 0 1 0 0 0 1 1 1 2 1 0 1 1 1 1 1 1 1 1 1 1 1 1 1 1 1 1 1 1 1 1 0 1 1 1 1 1 1 1 1 1 1 1 1 1 1 2 1 1 1 1 1 1 1 1 0 0 1 1 1 0 0 1 1 1 1 0 0 1 1 1 1 1 2 2 1 0 0 1 1 1 1 2 2 1 1 1 1 1 1 1 1 1 2 2 1 1 1 1 1 1 1 1 1 1 1 1 1 1 1 1 2 1 1 1 1 1 1 1 1 1 1 1 1 1 1 0 1 1 1 1 2 2 1 0 0 1 2 1 1 1 1 2 2 1 1 1 1 1 1 2 2 1 0 0 1 1 2 2 2 2 2 2 2 1 1 1 1 1 1 1 1 1 1 1 1 2 2 2 2 2 2 2 2 2 2 2 1 1 1 1 2 1 1 2 2 2 2 2 2 2 1 0 1 1 1 1 1 1 1 1 1 2 2 2 1 1 2 2 1 1 2 2 2 2 2 1 1 1 2 2 1 1 2 1 1 1 1 1 1 1 1 1 1 2 1 1 1 1 1 2 2 2 2 1 1 1 1 1 1 1 1 1 1 1 1 0 1 1 2 1 1 1 1 1 1 1 1 1 2 2 2 2 2 1 1 2 2 1 1 2 2 2 1 1 1 1 0 0 1 1 1 1 1 2 2 1 0 0 1 1 1 1 0 1 1 1 1 1 1 0 1 1 2 1 1 1 1 1 1 1 1 1 1 1 1 1 2 2 1 1 1 1 2 2 1 0 0 1 1 1 1 1 1 1 1 1 1 1 1 1 1 1 1 1 1 1 2 1 1 1 0 0 0 0 0 1 1 1 0 0 1 1 1 1 1 1 1 1 1 0 1 2 1 0 1 1 1 1 2 1 1 1 1 1 1 0 0 1 1 0 0 0 0 0 1 0 0 1 1 1 1 1 1 0 1 1 0 1 2 0 1 1 0 1 1 0 1 1 1 1 1 1 1 1 1 0 1 0 1 1 0 1 1 1 1 1 1 0 0 0 0 0 0 0 1 1 1 1 1 1 1 1 1 1 0 1 1 1 1 0 1 1 1 1 1 1 0 0 0 0 1 1 2 0 0 0 0 0 1 1 1 0 0 1 1 1 1 0 1 0 0 1 -1 1 2 1 -1 1 
2 -4 2 -1 2 0 2 0 2 0 1 0 2 0 1 0 1 0 0 0 1 0 1 1 1 0 0 1 2 1 1 0 1 0 1 0 1 1 0 0 1 0 1 0 1 1 0 0 1 1 1 1 0 1 0 1 1 1 1 0 0 1 1 0 0 0 1 0 1 1 0 0 1 0 1 0 0 1 0 1 1 1 1 0 1 0 1 1 0 1 1 0 1 1 1 0 1 1 1 0 1 1 0 1 1 1 0 0 1 1 0 0 0 0 1 1 0 0 0 1 1 0 0 0 1 0 1 2 1 0 0 0 0 0 1 1 1 1 1 1 1 1 1 1 1 1 1 1 2 1 1 1 2 1 0 0 1 1 1 1 1 1 1 1 1 1 1 2 2 1 0 1 1 1 1 1 0 0 1 1 2 1 1 0 1 1 0 0 1 1 2 1 1 1 2 1 1 1 1 1 2 2 2 2 2 1 1 1 2 2 2 1 1 1 1 1 2 2 1 1 2 3 2 1 0 0 1 0 1 1 1 1 2 1 1 1 1 1 2 1 1 1 1 1 1 1 0 0 1 1 1 1 1 1 1 0 1 1 1 1 1 1 1 1 1 2 2 1 2 2 1 1 1 1 1 1 1 1 1 2 1 1 1 1 1 1 1 1 2 1 1 2 1 1 0 1 1 1 2 2 3 2 2 2 3 3 2 1 0 1 1 1 1 2 1 1 1 1 2 1 1 1 1 1 1 1 2 2 2 2 1 1 1 1 1 2 2 1 1 1 2 3 2 2 1 2 2 2 2 2 1 2 2 2 2 2 2 1 2 2 2 1 1 1 1 2 2 1 1 0 1 1 1 1 2 2 2 2 2 1 1 1 1 2 1 1 1 1 2 2 2 2 1 0 1 1 1 1 1 1 1 2 1 1 1 0 1 2 1 1 1 1 1 1 1 1 0 0 1 1 1 1 1 1 1 1 2 2 2 1 1 1 2 1 1 0 0 0 1 2 1 0 0 1 2 2 1 1 0 1 1 1 1 1 2 1 1 1 1 1 1 1 1 1 2 2 2 1 2 2 2 2 1 1 1 1 0 0 1 1 1 0 1 1 1 0 0 1 1 1 1 1 1 1 1 1 1 1 1 1 1 1 1 1 2 1 1 1 1 2 1 0 1 1 1 1 0 0 1 1 1 0 1 1 1 1 1 0 1 0 1 1 1 0 0 0 1 0 1 1 1 1 1 1 1 1 1 1 1 2 1 0 1 1 0 1 1 1 1 2 1 0 1 0 1 1 0 1 1 0 1 1 0 0 0 1 1 0 1 0 1 0 0 0 1 0 1 0 1 1 1 0 1 1 1 0 0 1 1 1 1 0 1 1 1 1 1 1 1 0 1 0 1 0 2 1 1 0 0 0 1 1 1 0 1 1 1 0 1 0 2 1 1 -1 1 -1 3 -2 4 0 
0 1 0 1 2 1 0 -1 1 0 1 1 2 1 1 0 1 1 1 0 0 1 1 0 0 0 1 1 2 1 0 0 0 0 1 0 1 1 0 1 1 0 1 1 2 1 0 0 1 1 1 1 0 1 1 1 1 0 0 0 0 0 0 1 1 0 1 1 0 0 0 0 1 0 1 1 1 1 0 1 1 0 1 1 1 0 0 1 1 1 1 0 1 1 1 1 1 1 1 0 1 1 0 -1 1 0 0 0 1 0 0 1 1 0 1 0 0 1 1 0 0 0 0 0 1 0 1 2 2 1 1 0 1 1 1 1 0 1 1 1 1 1 1 1 1 0 1 1 1 1 1 0 0 1 1 0 1 1 1 1 1 1 1 1 1 1 1 1 1 1 0 0 0 1 2 2 1 0 1 1 1 0 0 1 2 1 0 0 1 1 1 1 1 1 1 1 1 1 1 1 2 1 1 1 1 1 1 2 2 1 1 1 1 1 1 1 1 1 1 2 2 2 1 1 2 1 1 0 1 1 1 2 2 2 2 2 1 1 1 1 1 1 1 0 1 1 0 0 1 0 0 1 1 2 1 1 1 1 1 1 1 1 1 2 2 2 2 2 2 2 1 1 1 2 1 1 1 1 1 1 1 1 1 2 2 1 1 1 2 1 1 1 2 1 1 1 1 1 1 1 2 2 1 1 1 2 2 2 1 0 1 1 2 3 2 2 1 1 1 1 1 1 1 1 1 1 1 1 1 1 1 1 1 1 1 1 1 1 2 1 2 2 2 2 2 2 2 2 1 1 1 2 1 1 2 1 1 1 2 2 1 1 1 1 2 1 1 1 1 1 1 1 1 1 1 1 1 1 1 2 1 0 1 1 1 1 2 2 2 2 2 2 1 1 1 2 2 2 1 1 1 1 2 2 2 1 2 2 2 1 1 1 1 1 1 1 1 0 0 1 1 1 1 1 1 1 1 1 1 2 1 1 1 2 2 1 0 0 1 2 1 1 1 1 1 1 1 1 0 0 0 1 1 1 2 2 1 1 1 1 2 1 1 1 1 1 1 1 1 1 1 1 1 1 1 1 1 1 0 1 1 1 1 1 1 1 1 0 1 1 2 1 1 0 1 2 2 1 1 1 1 0 0 0 1 1 1 1 1 1 0 0 0 0 1 2 1 0 1 1 1 1 1 0 1 1 0 0 1 0 1 1 1 0 1 2 1 0 1 1 1 1 1 0 1 1 1 1 1 1 1 1 1 1 1 1 1 1 1 1 1 0 1 0 0 1 0 1 0 1 2 1 0 1 1 1 1 1 1 0 1 0 0 0 0 1 1 0 1 1 1 1 0 0 1 1 1 0 1 1 1 0 1 1 0 1 0 0 1 0 0 0 0 1 1 1 1 1 1 -1 1 0 1 0 1 0 1 1 1 0 1 0 0 0 2 -1 1 2 -1 2 
-1 2 -1 3 -1 1 0 1 0 0 0 1 1 1 1 1 1 0 1 1 0 1 1 1 0 0 0 1 1 0 0 1 0 1 1 0 0 1 0 1 1 1 0 1 1 1 1 1 1 1 1 1 0 1 1 0 1 1 0 0 0 1 1 1 0 1 0 0 0 0 0 1 1 0 1 1 1 2 1 1 2 1 1 0 0 1 1 1 2 1 1 1 0 0 1 2 1 1 1 1 0 0 1 0 1 1 0 1 1 2 1 1 1 1 1 1 0 0 1 1 0 1 1 1 0 0 1 1 1 1 0 0 0 1 1 1 0 1 0 0 1 1 1 0 0 1 1 0 0 0 0 1 1 2 1 0 1 1 1 1 1 0 1 1 1 1 1 1 1 1 1 0 1 1 1 1 1 1 1 1 1 1 1 1 1 1 1 0 0 1 1 2 1 1 0 0 0 1 1 1 1 1 1 0 0 0 0 1 2 1 1 1 1 1 1 1 1 1 0 1 1 2 2 2 2 1 1 1 1 1 1 0 0 1 1 1 1 1 1 1 1 1 1 1 1 1 1 1 1 0 0 1 1 1 1 1 1 1 1 1 2 1 1 1 1 2 2 2 2 1 0 0 1 1 2 2 1 1 1 1 1 1 1 1 1 0 0 0 1 1 1 1 1 2 1 1 2 1 1 1 1 1 1 1 1 1 1 1 0 0 1 1 1 2 1 1 1 1 1 1 1 1 2 2 2 2 2 2 2 2 2 2 2 1 0 0 1 1 1 1 1 1 1 1 1 1 2 2 2 1 1 1 2 2 2 1 1 2 2 2 1 1 1 2 2 2 1 1 0 0 1 1 1 1 1 1 1 1 1 1 1 1 2 1 1 1 1 2 2 2 2 2 1 2 1 1 2 2 1 1 2 2 2 1 1 1 1 1 1 1 0 1 1 1 1 2 2 1 1 2 2 2 2 2 1 1 1 2 2 2 1 1 1 1 2 2 1 1 1 1 2 1 1 1 1 0 1 2 2 1 1 1 1 1 1 2 2 1 1 1 1 1 0 0 0 1 1 1 1 1 1 1 0 1 1 1 1 0 0 1 1 0 1 1 1 1 1 1 1 1 1 1 1 1 1 1 2 2 1 0 0 1 1 1 0 0 0 0 1 1 1 0 0 1 1 1 1 1 1 1 1 1 0 0 0 1 1 1 0 1 1 1 1 1 1 1 1 1 0 0 1 1 1 1 1 1 1 1 1 0 0 1 1 1 0 0 1 2 1 1 0 0 1 0 1 1 0 1 1 1 1 1 1 0 1 1 1 0 0 1 1 1 1 0 0 1 0 0 0 0 1 0 0 1 0 1 1 1 1 1 0 0 0 1 0 1 0 1 1 1 0 1 0 1 1 2 1 1 0 0 0 1 0 1 0 1 1 1 -1 1 0 1 0 0 1 2 -2 4 -2 2 
1 -1 2 1 0 1 0 0 0 1 0 0 1 2 0 0 1 1 1 1 1 0 -1 0 1 1 1 1 1 1 1 1 0 1 1 1 0 0 0 1 1 2 1 1 1 1 1 0 1 1 1 0 0 0 1 1 1 0 0 1 1 0 1 1 0 1 0 0 0 0 0 0 1 0 1 1 1 0 0 1 2 1 1 1 1 0 0 0 1 1 0 0 0 1 0 0 1 1 0 1 0 1 2 0 1 1 1 1 1 2 1 0 2 1 0 1 2 0 1 1 0 0 1 1 0 1 1 0 1 1 1 1 1 1 0 1 1 1 0 0 0 1 1 2 1 0 0 0 0 0 0 0 1 2 2 1 1 1 1 1 1 1 1 1 1 1 1 1 1 2 1 0 0 1 2 1 1 1 1 1 1 1 1 1 2 1 0 0 1 1 1 2 2 0 0 0 1 1 1 1 1 1 1 0 1 1 1 1 1 1 1 0 1 1 1 1 0 0 0 1 1 1 1 2 1 1 1 1 1 1 0 0 1 1 1 1 1 1 0 1 1 1 1 1 1 1 1 1 1 1 1 1 1 1 1 1 0 1 1 1 2 1 1 1 2 2 1 1 1 0 0 1 2 2 1 1 1 1 1 1 0 1 1 1 1 1 0 1 0 0 1 1 1 2 2 2 2 1 1 1 1 1 1 1 1 1 1 1 1 1 1 1 1 2 2 1 1 1 1 1 2 2 1 1 1 1 1 1 1 1 1 2 2 1 1 0 1 1 1 1 1 0 1 2 1 1 1 1 1 1 1 1 1 1 2 1 0 1 2 2 1 1 1 1 1 2 1 1 1 1 1 2 2 1 1 1 1 1 1 0 0 1 1 1 1 1 0 1 1 1 1 2 2 1 1 1 2 2 1 1 2 2 2 1 1 1 1 1 1 1 1 1 1 1 2 2 2 1 0 1 1 1 1 1 1 1 1 1 1 1 1 1 1 1 2 2 2 1 1 1 1 1 2 1 1 1 1 1 2 1 1 1 1 2 2 1 1 1 1 1 1 1 1 1 0 0 0 0 0 0 0 1 1 1 1 1 2 1 1 1 1 1 1 1 0 1 0 1 1 1 1 1 1 1 1 2 2 2 1 1 1 1 0 0 1 0 0 1 0 0 1 1 0 1 1 1 1 1 0 0 1 1 0 1 1 -1 1 2 0 1 1 0 0 1 1 0 0 2 1 0 1 1 1 1 1 0 1 1 1 1 0 1 0 1 1 1 1 0 0 1 1 0 0 0 0 1 1 1 1 1 1 1 0 0 1 1 1 1 1 1 1 1 1 0 0 0 0 0 0 1 1 0 0 1 1 1 1 0 1 1 0 0 0 0 0 0 1 1 1 1 0 0 0 0 0 1 0 1 1 1 0 1 1 2 0 1 0 1 0 2 0 0 1 2 1 1 1 0 2 1 
0 2 0 1 2 0 1 1 1 -1 0 0 1 0 0 1 1 0 1 1 1 0 1 0 1 0 1 1 1 1 1 0 1 1 0 1 0 0 1 1 1 1 0 0 1 1 1 1 0 1 0 -1 1 1 0 1 1 0 0 1 1 0 0 0 0 1 0 0 0 0 0 0 0 0 0 0 1 0 0 0 1 1 1 1 0 0 1 0 1 0 1 1 0 0 1 1 1 1 0 1 0 1 1 0 1 1 1 2 2 1 1 1 1 1 0 1 0 0 1 1 1 0 1 1 1 0 0 1 1 1 1 1 1 0 0 1 2 1 1 1 0 0 1 1 2 2 1 0 1 1 1 1 1 1 1 0 1 1 0 0 1 1 1 0 0 0 0 0 1 1 0 0 0 1 2 1 1 1 1 1 1 1 1 1 1 1 2 1 0 1 2 1 1 1 0 0 1 1 1 1 1 1 0 1 1 1 1 2 2 1 0 1 1 1 1 0 0 0 0 0 1 1 1 0 1 1 1 1 1 0 0 1 1 1 1 1 0 1 1 1 1 1 1 1 1 1 1 1 2 2 1 1 2 1 1 1 1 1 1 2 2 1 1 1 1 1 1 1 1 1 1 1 1 1 1 1 1 1 1 1 1 1 1 1 1 0 0 0 1 1 0 0 0 1 2 2 2 1 1 2 2 1 2 2 2 1 1 1 1 2 2 2 1 1 1 1 1 2 2 2 2 2 1 1 2 2 1 1 2 1 1 2 2 2 1 0 1 1 1 1 1 0 0 1 1 1 1 0 1 2 1 1 1 1 1 1 2 2 2 2 2 2 2 1 1 1 1 1 1 1 2 2 2 2 2 2 1 1 1 1 1 1 2 2 1 1 1 1 0 0 1 1 1 2 2 1 2 1 2 2 2 1 1 0 1 1 0 0 1 1 1 1 1 1 1 1 2 1 1 1 1 1 1 1 1 2 2 1 1 1 1 1 1 1 2 2 2 1 1 1 1 2 2 2 2 1 1 1 1 1 1 1 1 1 1 1 1 1 2 2 1 2 2 2 1 1 1 1 1 1 1 0 1 1 1 0 1 1 1 1 1 1 1 1 0 1 1 1 1 1 1 1 1 1 1 1 1 1 0 0 1 2 2 1 0 0 0 0 1 1 1 0 0 1 1 1 1 1 1 1 1 0 0 0 1 0 1 1 0 1 0 0 0 0 1 1 0 1 1 1 1 1 1 1 0 1 1 0 0 0 0 1 1 2 1 1 1 1 1 0 1 1 0 1 1 0 1 1 1 1 1 1 1 1 2 1 1 0 0 1 1 1 1 1 1 0 0 1 0 1 1 0 0 1 1 0 0 1 2 1 1 1 0 0 1 0 1 0 0 0 1 0 1 1 1 1 1 1 1 1 1 1 1 0 1 0 1 0 1 0 1 0 0 0 1 0 1 1 0 1 
2 -2 2 -1 2 0 3 0 1 0 1 0 0 -1 1 0 1 1 1 0 1 0 1 1 1 0 1 1 0 1 2 0 1 0 1 0 0 0 1 0 2 1 1 0 1 0 0 0 0 0 1 0 1 1 0 0 0 0 1 0 1 0 0 0 1 1 1 0 1 0 1 1 0 0 0 1 1 0 1 1 1 1 1 1 2 1 0 0 1 0 0 0 -1 1 2 -1 1 1 0 -1 1 2 0 0 1 0 0 2 2 1 1 1 0 0 1 0 0 2 1 0 2 1 1 0 2 1 1 1 0 1 1 1 0 1 1 0 1 2 1 0 0 0 2 1 1 2 1 1 1 1 1 0 0 0 1 0 1 1 1 1 1 1 1 0 1 1 1 0 1 1 2 1 1 1 2 2 2 1 1 1 1 1 1 1 2 2 2 1 2 1 1 1 1 0 0 1 2 1 1 1 1 1 1 1 1 1 1 1 1 1 1 0 1 1 1 1 1 1 1 1 1 0 0 0 1 1 1 1 1 1 1 2 1 1 0 0 1 1 1 0 1 1 1 1 1 2 1 1 1 2 1 1 1 1 1 0 0 1 1 1 2 2 2 1 0 0 0 1 1 1 2 2 2 2 1 0 1 1 2 2 2 1 1 1 1 1 1 1 1 1 1 1 1 2 3 2 2 2 2 2 2 1 1 1 1 2 2 2 2 2 2 2 1 1 2 2 1 1 1 0 1 1 1 1 2 2 1 1 1 1 1 1 1 1 2 1 0 1 1 1 1 1 1 2 1 1 1 1 1 1 1 1 1 1 1 1 0 1 2 2 2 1 1 1 1 1 1 1 2 2 1 1 2 2 2 1 2 1 1 1 1 1 1 1 1 1 1 1 1 1 1 1 1 1 1 1 1 1 2 2 2 1 1 1 1 1 1 1 1 1 2 1 0 0 1 1 1 1 1 1 1 1 1 1 1 1 1 1 1 1 1 1 1 1 1 1 1 1 0 0 1 1 1 2 2 2 1 1 1 1 1 1 1 1 1 1 1 1 1 1 1 1 2 2 2 1 1 1 1 1 1 1 1 0 0 1 2 1 1 0 1 1 2 2 1 0 1 1 1 1 1 1 1 1 1 0 0 1 1 1 1 0 1 1 0 1 1 0 0 1 0 0 1 0 1 2 1 0 0 1 0 0 2 0 0 1 0 0 2 2 0 1 2 0 0 2 1 0 2 1 1 1 2 1 0 1 1 0 1 1 1 1 0 0 1 1 1 1 1 0 1 1 0 1 1 0 1 0 1 0 1 1 0 1 1 0 0 1 1 1 0 1 1 0 0 0 1 1 1 1 1 1 1 0 0 1 1 0 1 1 1 1 1 0 1 0 1 1 1 0 1 0 1 0 1 0 0 1 1 1 1 1 1 0 2 0 1 1 2 0 2 0 1 0 2 0 3 -2 5 -2 
0 2 0 1 2 0 1 0 2 0 1 0 1 -1 1 0 1 1 1 1 2 1 1 1 1 0 0 1 1 1 1 0 1 1 1 1 1 0 1 0 1 0 1 0 1 0 0 0 0 0 1 1 1 1 1 1 1 0 0 0 1 1 1 0 0 0 1 0 0 1 1 1 1 1 0 0 1 1 1 0 0 1 1 0 1 1 1 1 1 1 0 0 0 -1 0 0 1 0 1 0 0 0 0 0 0 0 2 0 1 1 1 1 1 1 1 1 1 2 1 1 2 1 1 2 2 1 1 1 1 1 2 1 1 1 0 0 1 1 1 1 1 0 1 1 1 1 1 1 1 0 1 1 0 0 0 1 1 1 1 1 1 1 1 1 1 1 1 1 1 1 1 2 2 2 2 2 1 1 1 0 0 0 1 1 1 2 2 2 1 1 1 0 1 1 1 1 2 1 1 1 1 1 1 1 1 1 0 0 1 1 0 0 2 2 1 1 1 1 2 1 1 1 0 0 0 1 1 1 1 0 1 1 1 1 0 0 0 1 1 0 0 1 1 1 1 1 1 1 1 1 1 1 2 2 2 1 1 1 1 2 2 2 2 2 1 1 1 1 2 2 1 1 1 1 1 1 1 1 2 2 1 1 2 1 0 0 1 2 2 1 1 1 1 2 2 2 2 2 2 2 1 1 1 0 0 1 1 1 1 1 2 2 2 1 1 1 1 1 1 1 1 0 0 0 2 2 2 1 2 2 1 0 1 1 1 0 1 1 1 1 1 1 1 1 1 1 1 1 2 2 2 1 1 1 2 1 1 1 0 0 1 1 1 1 1 1 1 1 1 1 0 1 1 2 1 1 1 2 2 1 1 1 1 1 1 2 1 1 1 1 1 0 1 1 1 1 0 0 1 1 1 1 1 1 1 1 1 0 1 1 1 1 1 1 1 1 2 1 1 1 2 2 1 1 1 1 1 1 1 1 1 1 1 0 0 0 0 1 1 0 1 1 1 2 2 2 1 1 1 1 2 1 1 1 1 0 1 1 1 1 1 1 1 1 2 1 1 1 1 1 1 1 0 0 1 1 1 2 1 1 1 1 1 1 1 2 2 1 1 1 1 1 0 0 0 0 1 1 1 0 1 1 0 0 0 0 1 1 1 1 1 0 0 0 0 0 0 1 1 1 1 0 1 0 0 1 1 1 1 1 2 0 -1 1 1 0 1 0 1 0 0 0 1 1 1 1 0 0 1 1 0 0 1 0 1 1 1 1 1 1 2 1 1 0 0 0 1 0 1 1 2 1 1 1 0 0 0 0 1 1 1 0 1 1 1 1 2 1 1 0 0 0 1 0 1 0 1 1 1 1 1 1 1 0 1 1 1 1 1 0 1 0 2 0 2 2 1 0 1 1 1 0 1 0 1 0 1 0 1 0 1 0 0 1 0 0 2 1 -1 0 
2 -1 3 1 -1 2 -1 0 1 1 1 1 1 0 1 1 1 1 0 0 0 1 0 1 1 1 0 0 0 1 1 1 1 1 1 1 0 0 0 0 0 0 1 1 0 1 1 0 0 0 1 1 0 0 1 0 0 1 0 1 1 0 0 1 1 1 1 1 0 0 0 1 1 0 0 1 1 0 1 1 1 0 1 1 1 1 1 1 1 1 1 0 1 0 1 1 0 1 2 0 0 1 1 1 0 1 0 -1 1 1 0 1 2 0 0 1 1 1 2 2 0 1 2 1 0 1 1 1 1 1 1 1 1 1 1 1 1 1 1 1 1 1 1 1 1 1 1 1 1 0 1 1 0 0 1 1 2 1 0 0 0 1 1 1 1 1 1 0 0 1 2 1 0 1 1 1 0 0 1 0 0 1 1 1 1 1 1 1 1 1 0 0 1 1 1 1 1 1 1 1 1 1 1 1 1 1 1 1 1 1 0 0 0 1 1 0 1 1 1 1 1 1 1 1 1 1 0 0 0 1 2 1 0 1 1 2 1 0 1 2 2 1 1 1 2 2 1 1 1 1 1 1 1 1 1 2 2 1 1 1 2 2 2 2 1 1 1 2 1 1 0 0 1 2 2 1 0 1 1 1 1 1 1 1 1 1 2 2 2 1 1 1 2 2 2 2 2 2 1 1 0 0 1 1 1 1 1 1 1 1 1 1 1 1 2 2 1 0 0 0 0 0 1 1 1 1 1 1 1 0 1 1 1 1 1 1 0 0 1 1 2 2 1 1 1 2 2 2 1 1 1 1 2 2 1 1 1 1 1 0 0 1 1 0 0 1 1 1 1 1 1 0 1 1 1 1 1 1 2 1 2 1 1 1 1 2 2 2 1 1 1 1 1 1 1 1 0 1 1 1 1 1 1 1 1 1 2 1 1 1 1 2 2 2 2 2 2 1 1 1 0 0 0 1 1 1 1 1 1 1 1 1 1 1 1 0 0 0 0 1 1 0 0 1 1 1 1 1 1 2 2 1 1 1 1 0 0 0 1 1 0 0 0 1 1 0 0 0 0 0 0 1 1 1 1 2 2 1 0 1 1 1 2 1 1 2 1 1 1 1 0 0 1 1 1 1 1 1 1 1 0 0 0 0 0 1 1 1 1 1 1 1 1 1 1 0 0 1 1 0 1 1 0 1 2 1 1 2 1 0 2 2 0 0 1 0 1 1 1 0 0 1 0 1 1 0 0 1 1 1 1 0 1 0 1 0 0 1 0 1 1 1 1 1 1 1 1 1 1 1 1 1 1 0 0 0 0 0 0 1 1 1 1 0 0 1 1 1 1 0 1 1 0 0 0 0 0 0 0 1 1 1 0 1 1 0 1 1 1 1 1 0 0 1 1 1 0 1 1 1 1 1 0 0 1 1 1 0 0 1 0 0 1 1 0 2 1 0 2 -2 
0 3 -2 2 0 1 -2 2 0 1 0 1 0 2 1 1 0 1 1 1 0 1 0 2 0 0 0 0 0 1 1 2 1 1 1 1 0 0 1 1 0 1 1 1 0 1 1 0 1 1 0 1 0 1 1 0 0 1 0 0 1 1 1 1 1 1 1 0 -1 0 0 1 1 1 1 0 1 2 1 0 0 1 0 1 1 1 1 1 1 1 1 1 1 1 0 1 0 1 0 0 2 1 0 1 2 0 0 1 0 0 1 0 0 1 0 0 0 2 2 0 1 1 0 -1 0 2 0 0 1 1 0 1 2 2 1 1 1 1 1 1 0 0 1 1 1 1 1 2 1 0 0 1 1 1 2 2 1 1 1 1 1 1 2 1 1 1 1 1 1 1 1 1 1 0 -1 0 0 0 0 0 1 1 1 2 2 2 1 2 1 2 1 1 1 2 2 2 1 1 1 1 1 1 2 1 1 1 0 1 2 2 0 0 1 2 1 0 0 1 1 1 1 1 1 1 1 1 0 1 1 2 2 1 1 1 1 1 0 1 2 2 1 1 1 1 1 1 0 1 1 1 1 1 1 1 1 2 2 1 1 2 1 2 1 1 1 1 1 2 1 1 0 1 1 1 1 1 1 1 1 1 1 1 0 0 0 1 2 2 2 2 1 1 1 1 1 0 0 0 0 0 1 1 1 2 2 1 0 1 1 1 1 1 1 1 1 1 1 1 1 2 1 1 0 1 1 1 1 1 1 1 1 1 1 1 1 1 1 2 2 2 1 1 1 1 1 1 1 2 2 2 2 2 2 2 2 2 1 1 1 2 2 2 2 2 1 1 1 1 1 1 1 1 1 1 0 0 1 2 1 1 1 1 1 2 2 2 2 1 1 2 2 1 2 2 1 1 1 1 1 1 1 1 1 1 1 1 1 1 1 1 1 1 1 2 2 2 2 1 1 1 1 1 1 0 1 1 1 1 2 2 1 2 1 2 1 1 1 2 1 0 0 1 1 1 1 1 1 2 2 1 0 1 1 1 1 2 1 0 0 1 1 0 0 0 1 1 0 0 0 0 1 0 0 1 1 1 0 1 0 1 1 1 1 1 1 1 1 1 0 1 1 1 1 1 1 1 1 1 0 1 1 1 1 1 1 1 2 1 1 1 1 1 0 1 1 0 0 1 1 0 0 1 0 0 1 2 2 1 1 2 1 1 1 0 -1 1 1 0 0 2 0 0 1 1 1 0 1 1 1 2 1 0 1 1 1 1 1 1 0 1 0 1 2 1 1 1 2 1 0 0 1 1 1 1 0 1 0 0 1 1 1 1 1 0 0 1 1 0 1 0 0 1 1 1 0 0 0 0 0 0 0 0 0 1 0 1 1 2 1 1 0 1 0 1 0 1 0 0 0 1 1 1 0 1 0 1 0 1 -1 1 -1 1 0 1 1 1 -2 4 -2 1 
1 1 2 -1 2 1 -1 0 0 1 1 0 1 2 1 1 1 0 0 0 0 1 0 1 1 1 1 0 1 0 0 1 0 0 1 1 1 1 0 0 0 1 1 1 1 1 1 1 0 0 1 1 0 1 1 1 0 0 1 1 1 0 0 1 0 0 0 1 0 0 0 0 1 1 1 2 1 0 1 1 1 0 0 2 0 -1 1 1 0 0 1 2 1 0 0 1 1 1 1 0 0 1 1 0 1 1 0 1 1 1 0 0 1 1 -1 1 2 1 1 1 0 0 0 2 0 0 1 2 1 0 1 2 1 1 1 1 0 0 0 1 1 0 1 2 1 1 1 1 1 1 1 2 2 1 1 2 1 1 1 1 1 1 1 1 0 1 1 0 0 1 1 0 0 0 1 1 0 1 1 0 0 1 1 1 2 2 2 1 1 1 1 1 2 2 1 1 1 1 1 2 2 1 1 1 1 1 0 0 1 1 1 1 1 1 2 1 0 1 1 1 1 1 1 1 2 2 1 1 1 1 2 1 1 1 2 2 1 1 1 2 1 0 1 1 1 1 1 1 1 1 1 1 1 2 2 1 1 1 1 1 1 1 1 1 1 1 1 1 0 0 0 0 1 1 1 1 1 1 1 1 1 1 1 2 1 1 2 2 1 1 1 1 2 1 1 1 1 1 1 0 0 1 2 2 1 1 1 2 1 1 1 1 1 1 1 2 2 2 1 1 1 1 1 1 2 2 1 1 1 1 1 2 2 2 2 1 1 2 2 1 1 2 2 2 2 2 2 1 1 0 1 1 1 1 1 1 2 2 2 1 1 1 1 1 1 1 1 2 2 2 2 2 1 1 0 1 1 2 2 1 2 2 1 0 0 1 1 1 1 1 1 1 2 2 1 1 2 2 1 1 1 1 1 1 0 1 1 1 1 1 1 1 1 1 1 1 1 1 1 1 1 0 0 1 1 1 1 1 1 1 1 1 1 2 1 1 1 1 1 1 1 1 1 1 1 2 1 1 1 2 1 1 2 2 2 1 1 1 1 0 1 1 1 1 1 1 0 1 1 1 1 1 1 0 0 1 1 0 0 0 0 1 0 1 1 1 1 1 1 1 1 1 0 1 1 1 2 2 1 1 0 1 1 1 1 1 2 1 1 0 -1 0 1 2 1 1 1 0 0 0 1 2 2 2 1 0 1 1 0 0 1 1 1 0 1 1 1 1 1 1 1 0 0 0 1 0 0 1 2 1 0 1 2 2 1 1 1 0 0 1 1 1 1 1 2 1 1 1 0 0 0 1 1 1 1 0 0 0 1 1 1 1 1 1 0 1 1 0 1 1 1 1 -1 0 0 0 0 0 2 1 1 1 1 1 1 1 1 1 1 0 0 0 0 1 0 0 1 0 0 0 1 1 0 1 0 0 1 1 1 1 0 1 2 1 1 1 1 1 0 1 
2 -3 3 -1 1 -1 1 1 1 0 1 1 1 1 1 1 0 0 1 0 1 1 1 0 1 1 1 0 0 0 1 1 0 0 1 1 0 0 1 1 0 1 1 1 1 0 1 0 1 1 1 0 1 1 1 0 1 1 1 0 0 0 0 1 1 2 1 0 0 0 1 0 1 1 1 1 1 1 1 0 0 2 1 0 0 1 1 0 0 1 1 1 0 1 0 0 1 1 0 1 1 1 1 1 2 1 0 1 2 1 0 1 1 2 1 0 1 2 1 1 1 1 1 0 0 1 1 0 1 1 1 0 1 1 1 0 1 1 0 0 0 0 1 1 0 1 2 1 0 0 0 0 1 2 1 1 1 1 2 2 1 0 1 1 0 -1 0 1 1 0 0 1 1 1 1 1 1 1 0 1 2 1 1 1 2 1 1 1 2 2 2 1 1 2 2 2 1 1 1 1 1 1 1 1 0 1 0 0 0 1 1 1 1 1 1 2 2 1 1 1 1 1 1 1 1 2 1 1 1 1 1 1 1 1 1 1 1 1 1 1 1 1 1 1 0 0 1 1 1 1 1 1 1 1 1 1 2 1 1 1 0 0 0 1 1 1 1 2 2 1 1 1 1 1 1 2 1 1 1 1 1 1 1 1 1 2 2 1 1 1 1 1 2 2 1 2 2 2 1 1 1 1 2 2 1 1 0 0 1 1 2 2 1 1 1 1 1 2 2 1 1 1 1 2 2 2 1 1 2 2 2 1 1 1 1 1 2 2 2 2 2 1 1 1 1 1 0 1 1 1 1 1 2 2 1 1 1 1 1 1 1 1 2 1 2 1 1 1 1 1 1 1 2 1 1 1 1 2 1 1 1 2 1 1 1 1 0 0 1 1 1 1 1 1 1 1 1 1 1 0 1 2 2 2 1 1 1 1 1 0 1 1 1 1 1 1 1 1 1 1 2 2 1 1 1 1 1 1 1 1 1 1 1 1 1 0 1 1 1 1 1 0 0 1 1 1 1 2 2 1 1 1 2 1 2 3 2 1 0 1 1 1 0 0 1 1 1 1 2 2 1 0 1 1 1 0 0 0 1 1 0 0 0 0 0 0 1 1 1 1 2 1 1 1 1 1 1 1 1 1 1 1 1 1 1 1 1 0 0 1 2 1 0 1 1 1 1 1 1 1 2 2 1 0 1 1 1 0 1 1 0 1 1 0 1 1 1 1 1 1 1 0 1 1 0 1 2 1 0 0 1 1 1 2 1 1 1 1 2 1 0 1 1 1 1 1 1 1 0 1 1 1 0 0 1 1 1 0 0 0 1 1 0 1 0 0 1 1 0 1 0 0 1 1 0 0 0 1 1 0 0 0 1 1 1 0 0 1 1 0 0 1 1 1 1 1 1 0 0 1 1 0 1 1 1 1 1 1 0 1 1 0 2 0 1 1 1 -2 4 -1 
0 3 -2 0 1 2 1 0 -1 2 1 1 1 2 1 1 0 0 0 1 1 0 1 1 1 1 0 0 0 0 0 1 1 0 0 1 1 1 0 0 0 1 1 1 0 1 0 1 0 1 2 1 1 1 1 0 0 0 1 0 0 0 0 1 1 1 0 1 1 0 1 1 0 1 1 1 1 0 1 1 1 1 0 1 1 0 1 2 1 0 0 1 -1 0 0 0 1 1 0 1 1 0 0 1 1 1 1 1 1 1 1 1 0 0 1 1 1 1 0 1 1 0 1 2 1 0 0 0 0 1 0 1 1 0 1 1 1 0 0 1 1 0 0 1 0 1 1 2 1 0 0 1 0 0 1 2 2 1 1 1 1 1 0 0 0 1 1 0 0 1 1 1 1 2 2 1 1 1 2 2 1 1 1 0 1 2 1 0 0 1 1 1 0 0 0 1 1 1 1 2 2 1 0 0 1 1 1 0 1 2 2 1 1 2 2 1 1 1 2 1 0 0 1 1 1 1 1 1 1 1 1 0 1 1 1 1 1 2 1 1 0 0 1 1 1 1 1 1 1 1 0 0 1 2 2 1 1 1 1 2 1 1 0 0 1 1 1 1 1 1 2 2 2 1 1 0 1 1 1 1 1 1 2 2 2 2 2 1 1 2 2 2 2 2 1 1 2 2 2 2 1 1 1 2 1 0 0 1 2 2 1 1 1 1 2 2 1 1 1 2 2 2 2 2 1 1 2 1 1 1 1 1 1 2 2 2 1 1 1 2 2 1 1 1 1 2 2 1 1 1 1 2 2 2 1 1 1 1 1 0 0 1 1 1 1 1 2 1 1 1 1 1 1 1 2 2 1 1 1 2 2 2 1 1 1 1 2 1 1 1 1 1 1 1 1 2 1 1 0 0 0 1 2 2 2 1 1 1 1 1 1 1 1 1 1 1 0 1 1 0 0 1 1 1 1 0 1 0 0 1 1 1 2 2 2 2 1 1 1 1 2 1 1 1 1 2 1 1 1 1 1 1 2 1 0 0 2 2 1 1 1 1 1 1 1 1 1 1 2 2 2 2 1 1 1 2 1 1 1 1 1 1 0 1 1 1 1 1 1 1 1 1 0 0 1 1 1 1 2 2 1 0 0 1 1 1 1 1 0 0 0 1 2 2 1 1 2 2 0 1 1 2 3 1 -1 0 1 1 1 0 -1 0 0 1 1 1 2 1 0 0 1 1 1 1 0 1 1 1 1 1 1 1 0 0 0 1 1 0 0 0 1 1 0 1 0 0 1 1 1 1 0 1 1 1 1 0 0 1 1 1 1 1 0 1 1 1 1 0 -1 1 1 0 0 0 1 1 1 1 0 0 1 1 1 1 1 1 0 0 0 0 1 1 1 1 1 0 1 2 0 0 0 1 1 1 0 1 0 1 1 1 0 1 1 2 0 1 1 1 -1 1 
0 2 0 2 0 0 2 1 1 0 1 0 1 0 1 1 1 1 1 0 1 1 1 1 0 0 1 1 1 1 1 0 0 0 2 1 1 0 0 0 1 0 1 1 0 1 0 0 1 1 1 1 1 0 0 0 1 1 1 0 0 -1 1 0 1 1 1 1 2 1 0 0 0 1 1 0 0 0 1 1 1 1 1 0 1 1 0 1 1 1 0 1 1 -1 1 1 0 0 2 1 0 1 1 1 0 1 1 0 2 1 -1 0 1 0 1 1 1 2 1 1 1 1 2 1 1 1 0 0 1 1 0 0 1 1 1 1 1 1 1 0 1 1 0 0 1 1 1 1 1 0 0 1 1 1 1 1 0 1 1 0 0 0 1 1 1 1 1 1 1 1 1 1 1 1 0 0 1 1 1 1 1 1 1 1 1 1 1 1 1 1 1 1 1 0 0 0 0 1 1 0 1 1 1 1 0 1 2 1 1 1 2 2 2 1 0 1 2 1 0 0 1 2 1 0 1 1 2 1 0 1 2 2 1 0 1 2 2 2 2 1 1 2 2 0 0 1 2 2 1 0 1 1 2 1 0 1 2 2 1 0 0 1 2 2 2 1 1 1 2 3 2 1 0 1 2 2 2 1 0 1 2 2 2 1 1 0 1 1 2 2 1 0 0 1 2 2 2 2 1 1 1 3 3 2 0 0 0 1 1 2 2 2 1 1 0 0 0 1 2 2 1 1 1 1 1 0 1 2 2 1 1 1 1 1 0 0 1 1 1 1 1 1 1 0 0 0 0 1 3 3 2 2 2 1 1 1 1 1 1 1 1 1 1 2 2 2 2 2 1 0 0 1 1 1 1 1 1 1 1 1 1 1 1 1 1 1 2 1 1 1 1 1 1 1 1 1 2 2 2 1 1 2 2 2 2 2 1 1 1 1 1 1 1 1 1 1 1 1 1 1 1 1 1 1 1 1 1 1 2 2 2 1 1 1 1 1 1 0 0 1 1 1 1 1 2 2 1 0 1 1 0 0 0 0 1 1 2 2 1 1 1 1 1 1 1 1 1 1 1 1 1 1 0 1 1 1 1 1 2 2 2 2 2 1 1 1 1 1 1 1 1 1 1 1 1 1 1 0 1 1 1 1 1 1 1 1 0 0 0 1 2 2 1 1 1 1 1 1 1 1 1 0 0 0 0 1 1 1 1 0 1 1 0 1 1 0 1 1 1 1 2 1 0 1 1 1 0 1 1 0 0 1 1 0 1 0 0 1 2 1 0 -1 0 1 1 1 1 0 1 1 1 1 0 0 1 1 1 1 0 -1 0 1 1 1 0 0 1 1 0 -1 -1 0 1 1 2 0 0 0 1 2 0 0 1 1 1 0 0 0 1 1 1 0 1 1 1 0 1 1 1 2 1 0 1 1 1 0 0 0 1 0 1 0 0 1 2 1 0 1 0 0 
2 0 2 0 2 1 2 -1 1 0 2 1 1 0 1 -1 1 0 2 1 0 -1 0 1 2 1 1 0 1 0 1 1 1 0 1 1 1 0 0 0 2 0 1 0 0 0 0 0 1 1 2 1 1 1 1 0 1 1 1 0 1 0 1 0 1 1 1 1 1 0 1 1 1 1 2 1 0 0 0 1 1 0 1 0 0 1 1 1 0 0 0 -1 1 1 0 0 0 1 0 0 1 0 0 1 1 0 0 1 1 0 1 1 0 0 2 1 1 1 1 1 1 2 1 1 1 1 0 0 1 2 1 0 0 0 1 0 0 0 0 0 1 1 0 0 0 0 2 1 0 0 1 1 0 0 1 1 1 1 1 0 0 0 0 1 1 1 1 1 1 1 1 1 1 0 0 0 0 0 0 1 1 1 0 0 1 2 1 1 1 1 1 1 0 0 0 1 0 0 1 1 1 1 0 0 0 0 1 2 2 2 2 1 1 1 1 1 1 1 2 1 1 1 1 1 1 1 1 1 2 1 1 0 1 2 2 1 0 1 2 2 1 1 1 1 2 2 2 1 1 2 2 1 1 1 1 1 1 1 1 1 1 1 1 1 1 1 2 2 1 0 1 2 2 1 0 -1 0 1 2 2 2 1 1 1 2 2 1 0 1 1 1 1 2 1 0 0 1 2 2 2 2 1 1 1 1 1 2 2 3 2 2 1 1 2 2 2 2 1 0 0 1 2 2 1 1 1 2 1 1 1 1 1 2 2 1 1 0 0 0 1 1 1 2 2 2 2 2 2 2 1 2 2 2 2 1 1 1 2 2 1 1 1 2 1 1 1 2 2 2 1 1 2 2 1 0 0 0 0 1 2 2 2 2 1 2 2 2 2 1 1 1 2 2 2 2 1 1 2 2 1 1 1 1 1 1 1 2 1 1 2 2 1 2 2 1 1 1 2 2 1 0 1 1 2 2 2 2 1 0 1 1 2 2 2 2 1 1 0 1 1 1 1 1 1 2 2 1 1 1 0 0 1 1 1 1 0 1 2 1 1 2 1 2 2 2 1 1 1 1 1 1 1 1 0 1 1 1 1 2 2 2 1 1 1 2 2 1 1 1 1 1 1 1 1 1 2 1 0 1 0 0 1 1 0 1 1 1 1 1 0 0 1 2 2 2 0 0 0 1 -1 0 2 1 0 1 1 0 0 2 1 0 0 1 1 1 2 2 1 1 1 0 1 2 1 0 0 0 1 1 1 1 0 0 0 1 1 1 1 0 0 1 1 1 0 0 0 1 0 2 1 1 0 1 1 1 1 0 0 0 1 1 0 0 0 1 1 1 0 0 1 2 1 1 0 0 0 1 0 0 2 2 1 2 1 0 0 1 1 1 0 1 1 1 0 1 0 1 1 2 1 1 0 1 0 1 0 1 0 1 -1 0 1 2 0 1 1 3 -1 1 0 
0 1 0 1 0 0 1 1 1 0 1 0 1 0 0 0 1 0 1 0 1 1 1 0 1 0 0 0 2 1 0 0 0 1 1 1 1 1 0 0 1 2 1 0 1 1 1 0 0 1 1 1 1 0 1 1 1 1 1 1 1 0 1 1 1 0 0 1 1 0 1 1 1 1 0 1 0 1 1 1 0 0 1 1 1 1 1 1 0 0 0 0 1 1 1 1 0 0 1 1 0 1 1 1 1 1 1 1 1 1 1 1 1 0 0 2 1 1 1 1 1 1 0 2 2 1 1 1 1 0 0 1 1 0 0 0 0 0 0 1 1 1 1 2 1 1 1 1 1 1 1 1 1 1 1 0 0 1 1 0 1 0 1 1 1 1 1 1 1 1 1 1 1 1 0 0 1 1 1 0 0 1 1 1 1 1 1 1 2 1 1 1 1 1 1 1 1 1 1 0 1 2 1 1 1 0 1 1 1 1 1 1 1 1 1 1 1 1 1 1 1 1 1 0 1 2 2 1 0 0 1 1 1 1 1 0 0 1 1 1 1 1 1 1 1 1 1 1 0 0 1 1 2 1 1 1 1 2 1 0 0 1 1 1 1 1 1 0 0 1 2 1 0 0 1 2 2 1 0 1 2 2 2 1 0 0 0 1 2 1 1 1 0 1 2 3 2 2 2 1 1 2 2 1 1 1 1 2 2 2 2 2 2 1 1 1 1 1 2 2 1 0 1 1 1 1 2 3 2 2 1 2 2 1 0 1 2 2 1 0 1 2 1 1 0 0 0 1 1 1 2 2 2 2 2 2 2 2 1 1 1 0 1 1 1 1 1 1 1 0 1 1 1 1 1 0 0 0 1 1 1 1 2 1 2 2 1 0 1 1 1 1 2 2 1 1 1 2 2 2 1 1 0 0 1 1 2 1 1 1 1 1 1 1 1 2 2 2 2 1 1 1 1 1 1 1 1 2 2 1 1 0 0 0 0 1 1 1 1 0 0 1 1 1 1 1 1 1 1 1 0 0 1 1 1 0 1 2 2 2 2 1 1 1 1 1 1 1 1 1 2 2 1 1 0 0 1 1 1 2 2 2 1 1 1 1 1 1 1 0 0 0 1 2 2 1 0 0 1 1 1 1 1 1 1 1 1 0 1 1 1 2 1 1 1 0 0 0 1 0 0 0 -1 0 1 1 2 2 1 0 1 0 1 1 2 1 0 0 1 1 1 1 0 0 1 0 1 1 0 0 0 0 1 1 1 0 0 1 1 1 1 0 1 1 1 1 2 1 0 0 1 1 1 0 0 1 1 1 0 0 0 0 2 1 1 1 1 1 2 1 1 0 1 1 1 0 0 0 1 1 1 1 1 1 1 0 0 0 1 1 1 1 2 1 1 0 0 0 1 0 1 1 0 1 1 0 1 0 0 1 0 0 1 1 1 0 0 2 0 1 
0 2 -1 2 -1 1 0 3 1 2 1 1 0 1 0 1 0 1 0 1 -1 1 1 1 0 0 0 1 1 0 0 1 0 0 0 1 0 0 0 1 0 1 0 1 1 0 0 0 0 1 0 1 1 1 1 0 1 2 0 0 0 1 0 0 1 1 0 1 0 1 0 0 1 2 1 1 0 1 0 0 1 1 1 2 1 1 0 0 0 1 1 0 0 1 0 0 0 1 0 1 1 1 1 1 1 1 0 1 0 1 2 1 1 1 0 1 0 0 1 0 0 1 1 0 1 2 1 1 1 2 2 0 0 1 1 0 0 1 1 1 1 1 1 1 0 0 1 1 1 1 0 1 0 0 0 1 1 1 1 1 0 0 0 1 1 1 1 1 1 0 0 0 0 1 1 1 2 1 1 1 1 1 1 0 1 1 0 0 1 1 0 0 0 1 1 1 1 1 2 2 1 1 1 0 0 0 1 1 1 1 1 1 1 1 2 2 2 1 1 1 1 1 1 1 2 2 1 1 1 1 1 1 1 2 2 1 1 2 2 2 2 2 1 1 1 1 1 1 1 1 1 1 1 1 1 2 1 1 1 1 1 0 1 1 1 2 1 1 1 1 1 1 1 1 0 1 1 1 2 3 2 1 0 1 2 2 2 1 0 1 1 2 2 2 2 1 0 1 2 2 2 1 0 0 1 1 2 2 2 1 0 0 1 2 2 2 2 2 1 1 1 2 2 2 1 2 2 2 1 1 1 2 1 1 1 2 1 1 1 1 1 1 1 2 2 2 0 0 0 0 1 1 0 0 1 1 1 2 1 1 1 2 2 1 0 1 1 1 0 1 2 2 2 2 1 0 1 1 1 2 1 2 2 3 2 2 1 1 1 1 1 1 1 2 1 1 1 1 1 1 1 1 0 1 1 1 1 2 1 1 2 2 2 1 0 0 1 1 1 1 0 0 1 1 1 1 1 0 0 1 1 1 1 1 1 1 1 2 2 1 1 1 0 1 1 1 1 1 1 1 1 1 1 2 1 0 0 1 0 0 1 1 1 1 1 1 2 2 2 2 1 1 1 1 1 1 1 1 1 1 1 1 1 1 1 1 1 2 2 1 1 1 1 1 1 1 1 1 1 1 1 1 0 0 0 1 1 1 2 2 0 0 1 1 1 1 0 1 1 0 0 1 1 2 1 0 1 1 0 1 1 1 1 1 1 1 1 1 0 1 0 0 1 2 1 0 1 0 0 1 0 1 0 1 0 0 0 1 0 1 0 0 1 1 1 1 0 0 0 2 1 1 1 1 0 1 1 0 1 1 1 0 0 1 0 1 1 1 1 1 0 0 0 1 1 1 0 0 1 1 1 1 0 1 0 0 0 1 1 1 0 2 0 1 0 1 0 1 0 1 1 1 0 2 0 1 0 1 -1 1 0 1 0 1 0 2 -2 4 -1 1 
-1 4 -3 1 -1 2 0 3 1 1 0 2 0 1 0 1 1 1 0 1 0 1 0 0 1 2 0 0 1 2 1 1 0 1 -1 -1 1 2 1 1 0 2 1 0 0 1 1 0 0 1 1 0 1 1 1 1 1 0 1 1 -1 1 0 1 1 0 0 1 0 0 1 1 1 0 0 1 1 0 0 0 0 1 1 1 0 0 1 1 1 0 1 1 0 2 0 0 1 1 1 1 0 0 0 1 1 0 0 2 1 0 1 1 1 0 0 1 1 0 0 1 1 0 0 1 1 0 1 2 1 0 0 1 1 1 0 1 0 0 1 1 1 0 0 0 1 1 1 1 1 0 -1 0 1 0 0 0 -1 0 1 0 1 2 1 1 1 1 1 1 0 0 1 0 0 1 1 1 1 1 1 1 0 1 1 0 0 1 1 1 1 1 1 1 0 1 1 1 1 1 2 2 1 1 1 0 0 1 1 1 1 1 1 1 0 1 2 2 1 1 1 1 1 1 1 1 0 1 1 1 1 1 1 1 1 1 1 1 0 1 1 1 1 1 1 1 1 0 0 0 1 2 2 1 1 1 2 2 2 1 1 1 1 1 1 1 1 1 2 1 0 0 1 1 1 1 1 1 1 1 2 2 1 1 0 1 1 1 0 0 1 1 1 2 1 0 0 1 1 1 1 0 0 0 0 1 1 1 1 1 0 1 1 2 1 1 1 1 1 1 2 2 2 2 1 1 1 2 2 2 2 2 1 1 1 1 1 1 1 1 1 2 2 2 2 1 0 0 1 1 1 1 1 2 2 2 1 1 2 2 1 1 1 2 1 1 2 2 1 1 1 1 1 1 1 2 2 1 1 0 1 1 1 1 1 2 2 2 1 1 0 1 1 1 1 1 2 1 1 2 2 2 2 2 2 1 1 2 1 1 1 1 1 1 1 1 1 2 2 2 2 2 2 2 2 2 2 2 2 2 1 0 0 1 1 1 1 2 1 1 1 1 1 2 2 2 1 2 1 1 1 1 1 1 1 1 1 0 0 1 1 1 1 0 0 0 -1 0 0 0 0 0 0 1 2 1 0 0 0 0 1 1 1 1 1 1 2 1 1 1 1 0 0 0 1 1 1 0 0 0 0 0 1 1 1 2 1 1 1 1 0 1 1 1 1 1 0 0 0 0 1 2 1 0 0 0 0 1 2 1 1 0 0 1 2 1 1 2 1 0 0 1 1 1 1 1 -1 0 1 0 1 1 0 1 1 1 1 1 1 1 1 1 1 1 2 1 1 1 1 2 1 1 0 0 1 2 1 1 0 0 1 1 1 1 0 2 2 1 0 1 0 0 1 0 0 1 1 2 1 1 1 1 1 1 1 1 -1 0 1 1 1 0 0 2 1 1 -1 0 0 1 0 1 1 1 0 0 -1 1 1 2 0 1 0 2 0 1 -1 2 -2 3 -3 3 
2 -3 4 0 0 0 1 0 2 1 1 0 0 0 1 1 2 1 0 0 1 1 2 1 0 0 1 2 1 0 0 2 1 0 0 0 1 1 0 1 0 0 1 1 2 1 1 1 0 0 0 0 1 1 1 1 2 1 1 1 0 1 1 0 1 0 0 0 1 1 1 0 0 0 1 0 1 1 1 0 0 1 1 1 2 2 0 -1 1 1 0 1 1 1 1 1 1 0 0 1 1 1 0 0 0 1 1 0 0 1 1 1 0 1 1 0 0 1 0 0 1 1 0 0 1 2 2 0 0 2 1 0 1 1 1 0 0 1 2 1 0 0 1 1 1 1 1 1 0 0 1 1 1 1 0 1 1 1 2 1 1 1 1 1 2 1 1 1 1 1 1 0 1 2 1 0 1 1 0 1 1 1 1 0 0 1 1 1 1 1 0 1 1 1 0 0 1 1 1 1 1 1 1 1 0 1 1 1 1 2 2 2 1 1 1 1 1 2 1 0 0 1 1 1 1 0 1 1 1 1 1 1 1 0 0 0 1 1 1 0 0 1 1 0 0 1 1 1 1 1 1 1 1 2 2 1 0 1 1 1 0 0 1 1 1 1 0 0 0 1 2 1 1 1 1 2 1 1 1 1 2 2 1 1 1 1 2 2 2 2 1 1 1 1 1 1 0 0 1 2 2 3 2 1 1 1 1 1 2 2 2 2 2 1 1 1 1 2 2 2 2 1 1 1 1 1 2 2 1 1 1 1 0 1 2 2 1 1 1 1 1 1 1 1 1 1 1 1 1 1 1 0 0 0 0 1 1 1 1 1 1 1 2 2 1 1 1 1 1 1 2 2 1 1 1 1 2 1 1 1 1 1 1 1 2 2 2 1 1 2 2 1 1 1 1 1 1 2 1 0 1 1 1 1 1 1 1 1 1 1 1 2 1 0 0 0 1 1 1 1 0 1 1 1 0 0 0 1 1 1 1 1 1 1 1 1 1 1 0 1 0 0 0 0 0 1 1 1 1 1 1 1 1 2 1 1 2 1 0 1 1 1 1 1 1 1 1 1 0 0 0 0 1 1 1 1 1 0 1 1 1 2 1 1 1 1 1 2 2 1 1 1 1 1 1 0 0 1 1 1 1 1 0 0 1 1 1 1 1 1 1 0 0 0 0 1 2 2 1 1 0 0 2 1 1 1 1 0 0 0 1 2 1 1 0 0 0 1 1 0 2 1 0 1 1 1 1 1 1 0 0 1 0 0 1 1 0 1 2 1 1 1 0 0 1 1 0 -1 0 0 1 1 1 0 0 0 1 1 1 -1 0 1 1 1 1 0 1 1 1 0 0 0 1 1 1 1 1 0 1 1 1 0 1 1 1 1 0 0 0 0 0 0 0 0 1 1 0 1 0 1 1 1 1 0 1 1 0 0 1 1 0 0 1 1 0 0 2 -3 4 -1 
1 0 2 0 0 0 1 0 1 0 0 1 1 0 1 0 1 1 1 0 2 0 0 0 2 2 1 0 0 0 1 1 1 0 0 0 1 1 1 0 0 0 1 1 1 1 1 0 0 0 1 1 1 1 0 1 1 0 1 1 1 0 1 0 0 0 0 0 1 1 1 1 0 1 1 1 1 0 1 1 1 1 1 1 0 0 0 1 0 0 0 0 1 0 1 1 1 1 1 0 0 1 1 1 1 1 0 1 2 0 0 1 0 0 1 0 0 0 0 0 1 1 1 1 0 1 1 1 1 0 0 0 1 0 1 1 1 1 1 1 0 0 0 1 1 1 0 0 0 0 1 1 1 1 0 1 1 1 1 0 0 0 0 1 1 1 2 2 1 1 1 1 1 1 0 0 1 1 1 1 1 1 1 1 0 1 2 2 2 1 1 1 1 1 1 1 1 1 1 1 0 0 1 0 1 1 1 2 2 1 1 1 1 1 2 2 1 2 2 2 1 1 1 0 0 0 0 0 1 2 1 1 0 1 2 1 1 0 0 0 0 1 2 2 2 0 0 1 1 2 2 1 1 1 1 1 1 1 1 1 2 1 1 1 1 1 1 1 0 0 0 1 2 2 2 1 1 1 1 1 1 1 0 0 1 1 0 0 0 0 1 2 2 2 1 1 1 1 2 2 2 1 1 2 2 2 2 1 1 1 1 0 1 1 1 1 2 1 1 1 1 1 2 2 2 2 2 1 2 2 2 1 2 2 1 1 1 1 1 2 2 2 1 1 1 2 2 2 1 1 1 2 2 2 1 2 2 2 1 2 2 2 1 1 1 1 1 1 1 2 2 2 2 1 2 2 1 1 1 2 1 1 1 1 1 2 1 1 1 1 1 1 2 1 0 1 1 2 2 1 2 1 1 1 1 1 0 0 0 0 1 1 2 1 2 2 1 1 2 2 2 2 2 2 2 3 2 1 1 1 1 1 1 1 1 1 1 0 1 1 1 1 1 1 2 2 1 1 2 1 1 1 1 1 1 1 2 2 1 1 1 1 1 1 0 0 0 0 0 1 0 0 1 1 1 0 0 1 1 0 0 0 0 0 1 1 1 1 1 1 0 0 0 0 1 1 2 1 1 0 1 1 1 1 1 1 1 1 0 0 1 1 1 1 1 1 1 0 0 1 1 1 2 1 1 1 0 1 2 0 0 1 1 0 1 1 1 1 1 0 1 1 1 1 1 1 0 1 1 1 0 0 0 0 1 1 2 2 2 1 1 0 0 1 1 1 0 0 1 1 0 0 1 1 1 0 -1 0 0 1 1 1 1 1 1 1 1 0 0 1 1 1 1 0 0 0 1 1 0 0 0 0 0 -1 0 1 1 1 1 0 0 0 1 0 1 1 1 1 1 1 1 1 2 0 0 0 1 1 1 -1 1 0 0 1 2 0 1 -1 2 0 
0 0 1 0 1 0 0 -1 1 1 0 0 1 0 1 1 1 1 0 0 0 0 1 1 1 1 1 0 -1 0 1 0 0 0 0 1 1 1 0 0 1 0 1 1 1 1 1 1 1 0 1 1 1 1 0 0 1 2 1 0 1 0 1 1 1 1 0 1 1 0 1 1 0 0 1 0 1 1 1 1 0 0 0 0 1 2 1 1 0 1 0 0 2 1 1 1 1 1 0 1 1 0 0 0 1 0 1 1 1 1 1 0 0 0 0 1 1 0 0 1 1 1 1 1 1 2 1 -1 0 1 1 1 1 1 1 0 0 1 1 1 1 1 0 0 1 1 1 0 0 0 1 1 1 1 1 1 1 1 1 1 0 0 1 1 1 1 0 1 1 1 1 1 1 1 1 1 1 1 1 1 1 1 1 1 1 1 1 0 0 0 0 1 1 0 0 1 1 1 1 1 0 0 1 1 2 2 2 1 1 0 1 1 1 1 1 1 1 2 1 1 0 0 1 1 1 1 0 0 1 1 1 1 1 2 1 1 2 1 1 0 0 0 1 0 0 0 0 1 1 1 1 2 2 2 1 1 1 1 1 1 1 1 0 1 1 1 1 0 1 2 2 1 1 2 2 2 2 1 1 1 1 1 1 1 1 1 1 2 2 2 1 0 0 1 2 2 1 1 1 1 2 2 2 2 1 0 1 1 2 2 2 1 1 1 0 1 2 2 2 2 1 1 0 0 0 1 1 1 1 2 2 1 1 1 1 1 1 2 2 1 1 1 1 1 1 1 1 1 1 1 1 1 0 0 1 1 1 1 2 2 1 1 2 2 2 2 2 1 2 1 1 1 2 1 1 1 1 1 1 1 1 1 1 1 1 1 1 1 0 1 1 1 1 1 1 1 1 1 1 1 1 1 1 3 2 2 2 2 2 2 2 1 1 1 1 1 2 2 1 1 1 1 1 1 1 1 1 1 1 1 1 2 1 1 2 2 1 0 0 1 1 1 0 0 1 1 1 1 1 1 1 1 1 1 1 1 2 2 1 0 1 1 1 1 1 1 1 1 1 1 0 0 1 1 0 0 0 0 0 1 1 1 1 1 1 0 1 1 1 1 1 2 2 1 1 1 0 0 1 1 2 2 1 0 0 0 0 0 0 1 1 1 1 0 0 1 2 2 2 1 0 0 1 1 1 1 1 1 1 0 0 1 1 1 1 1 0 0 1 2 1 0 1 0 1 1 0 1 0 0 0 0 1 0 1 0 0 1 1 2 2 1 0 0 0 1 1 0 1 0 0 1 1 0 0 0 1 2 0 0 0 1 1 0 1 0 0 0 1 1 1 1 1 1 1 0 1 0 0 0 1 1 1 1 1 1 1 1 0 1 0 0 1 2 1 0 1 0 0 1 1 1 1 0 1 0 0 0 1 1 1 1 0 1 0 0 2 -1 1 1 
0 1 0 0 0 0 2 0 0 0 1 1 1 0 1 0 0 0 1 1 1 0 -1 0 1 1 1 -1 0 0 1 0 1 0 0 1 1 1 1 1 1 0 0 1 1 1 1 0 0 1 1 1 1 1 1 0 0 0 0 0 1 0 1 1 0 1 1 1 1 1 0 1 1 2 1 1 1 1 1 0 1 0 0 1 1 0 0 1 0 1 0 0 1 0 0 1 1 1 0 0 1 0 0 0 1 1 1 1 0 0 1 1 1 1 0 1 1 0 1 1 1 1 0 1 1 1 1 0 1 0 1 1 1 1 1 0 1 1 1 1 0 0 0 1 1 1 0 0 1 0 0 0 0 1 0 1 1 1 1 1 1 1 1 1 1 1 0 0 0 1 1 0 0 0 1 0 1 2 2 1 0 1 2 2 1 1 2 2 1 1 1 1 1 1 1 1 1 1 1 1 1 1 1 0 1 2 2 2 2 1 1 0 0 1 1 1 1 1 1 1 2 1 1 0 0 1 1 1 1 1 1 1 1 1 2 2 2 1 1 1 0 1 2 1 1 0 0 1 2 2 1 1 2 1 1 0 1 1 1 1 1 1 1 1 2 1 1 2 1 1 2 2 2 1 1 1 1 2 2 2 1 0 1 1 1 1 1 1 0 0 1 2 2 1 1 1 0 1 2 2 2 1 1 2 2 2 2 3 2 1 0 0 1 1 1 1 1 1 1 1 1 1 1 2 2 2 2 1 1 1 1 1 1 1 1 1 1 1 1 0 0 1 2 2 2 2 2 2 1 1 1 2 2 2 1 1 2 1 1 1 2 1 0 1 1 1 1 2 1 0 0 1 2 1 1 2 1 2 2 1 1 2 2 2 2 1 1 1 1 1 1 1 1 2 2 2 1 1 1 1 1 1 0 1 1 1 1 1 1 1 1 2 2 1 2 1 1 1 1 2 2 1 1 1 1 1 1 1 1 1 0 0 1 1 2 2 1 1 1 1 1 1 1 1 2 1 1 2 2 2 2 1 1 1 1 1 1 1 1 0 1 1 1 1 2 1 0 0 1 1 1 1 1 1 1 1 1 2 1 0 0 0 0 0 1 1 1 1 1 1 0 1 1 1 1 1 1 2 1 1 1 1 0 0 1 1 1 1 1 1 1 1 1 1 1 1 1 0 0 0 1 1 0 2 2 0 0 0 0 1 1 0 1 0 0 1 1 1 0 1 0 0 1 1 1 0 0 1 0 1 1 -1 0 0 1 1 2 1 1 1 0 1 1 1 0 0 1 0 1 1 1 1 0 1 1 1 1 0 0 1 0 0 1 0 1 1 1 1 0 0 1 1 1 0 0 1 2 1 1 1 0 1 0 0 1 0 1 1 0 1 1 0 1 1 1 1 1 0 1 0 0 1 1 0 1 0 1 0 0 0 0 0 0 0 1 0 1 1 1 0 
0 -1 1 1 2 1 1 1 1 0 0 0 1 0 1 1 1 0 0 0 0 0 0 1 1 0 0 0 0 0 1 0 0 0 0 1 0 1 1 0 1 1 1 1 0 0 1 1 1 1 1 0 0 0 1 1 1 1 0 0 0 0 0 1 1 1 1 0 0 1 0 0 1 1 1 0 -1 0 1 0 0 0 0 0 1 2 1 0 1 1 0 0 1 1 0 0 1 1 0 1 2 1 1 1 0 0 1 1 0 1 1 0 0 1 0 1 2 1 1 1 1 1 0 0 1 1 1 1 1 1 2 2 1 1 0 0 1 1 1 1 2 1 1 0 1 1 2 1 0 0 1 1 1 1 1 1 1 0 0 1 1 1 1 0 0 0 0 1 0 0 1 1 -1 -1 0 1 1 1 1 1 2 1 0 1 2 2 1 0 0 1 1 1 1 1 1 2 1 0 1 1 0 0 0 1 1 1 0 1 1 1 1 1 1 1 1 1 2 2 2 1 0 0 0 1 1 1 1 1 1 2 2 1 1 2 1 1 1 1 2 1 0 1 1 1 0 0 1 2 2 1 1 1 2 2 1 1 1 1 1 0 0 1 1 1 1 1 0 1 1 2 2 1 0 1 1 1 1 2 1 1 0 0 2 2 1 0 1 2 2 1 1 0 0 0 1 2 2 2 2 1 0 1 2 1 1 1 1 2 2 2 2 2 2 1 1 2 2 1 2 1 1 1 0 0 1 2 2 2 2 2 2 1 1 1 2 1 1 2 3 2 2 2 2 2 2 1 2 2 2 2 3 2 2 2 2 2 2 1 1 1 1 1 2 2 2 1 2 2 2 1 1 2 2 1 1 1 1 2 2 1 1 1 1 1 0 1 1 1 1 1 1 1 1 2 2 2 2 1 1 1 1 2 2 2 3 2 1 1 2 2 2 1 1 2 2 2 2 1 1 1 1 1 2 2 2 2 2 2 2 2 1 1 1 1 2 2 1 1 1 1 1 2 1 1 1 1 1 1 1 2 1 0 1 1 0 1 2 1 1 0 0 1 1 1 1 1 1 0 1 0 1 1 1 1 1 1 1 1 1 1 2 1 1 1 1 0 0 0 0 0 0 1 1 1 1 1 0 0 1 0 1 1 1 1 1 1 0 0 1 1 1 1 1 0 0 0 1 1 1 1 1 1 0 0 1 1 1 1 0 1 1 1 1 1 1 1 1 0 1 2 1 1 1 1 1 0 0 0 1 1 1 1 1 1 1 1 1 1 1 1 1 1 1 0 1 1 1 1 1 1 1 1 1 1 0 1 1 1 1 0 0 1 1 0 0 0 0 0 1 1 0 0 1 2 2 1 1 0 1 0 1 2 1 0 2 1 1 0 0 1 1 0 1 0 1 1 0 0 1 0 1 1 1 1 0 0 1 1 1 1 1 1 1 0 0 0 1 -1 1 0 
-1 0 1 0 1 1 1 1 1 0 1 0 1 1 1 0 1 0 1 1 1 0 0 0 2 0 0 -1 0 1 1 1 1 0 1 1 1 1 2 0 1 0 0 0 1 1 1 0 1 1 1 0 1 0 1 1 1 0 0 1 1 1 1 1 1 0 1 1 0 1 1 0 2 1 1 1 1 1 0 0 0 0 0 1 1 1 1 1 2 0 0 1 0 1 0 0 1 1 1 1 1 1 0 0 0 1 1 0 1 0 0 1 1 0 0 1 1 1 0 1 1 1 0 0 1 1 2 2 2 1 1 1 1 1 0 0 1 1 1 1 1 1 1 1 1 1 1 1 1 1 1 1 2 2 1 1 1 1 1 1 1 0 0 -1 0 0 0 1 1 1 1 1 1 0 1 1 1 1 1 1 0 1 1 2 1 0 1 1 1 1 1 1 1 1 1 1 0 0 1 1 1 1 1 1 1 1 0 0 1 1 1 1 1 1 1 1 1 1 1 0 1 1 1 1 1 1 1 1 1 1 1 1 1 0 1 2 1 1 1 0 0 0 1 1 1 1 1 2 1 1 1 2 1 1 1 1 2 2 2 1 1 1 1 2 2 1 1 2 2 2 2 1 1 1 1 1 1 2 2 1 1 1 1 2 2 2 2 2 1 1 2 2 2 1 1 1 1 1 2 2 2 1 1 1 1 1 1 2 2 1 1 1 1 1 1 2 1 1 1 1 1 2 1 1 1 1 1 0 1 1 1 1 1 2 2 1 1 1 1 0 1 1 1 1 1 2 2 2 1 0 1 1 1 1 1 1 1 0 1 1 1 1 1 2 1 1 1 2 2 2 1 1 1 1 1 1 1 1 2 2 1 1 2 2 1 1 1 1 1 1 1 1 1 1 1 2 1 0 0 0 0 0 0 0 1 1 1 1 1 1 2 1 1 1 1 1 1 0 0 1 2 1 1 1 1 1 1 1 2 1 0 0 1 1 1 1 1 1 1 1 1 1 1 1 1 1 1 2 2 2 1 0 1 1 1 1 0 0 0 1 1 1 1 1 2 2 1 1 1 0 1 1 2 2 2 2 2 3 2 1 1 0 1 1 1 1 1 1 1 0 0 1 1 1 0 0 1 1 1 1 1 0 0 1 1 1 1 0 0 1 1 1 0 1 1 1 1 1 1 1 1 1 0 0 1 1 0 0 1 1 2 1 0 1 1 0 2 1 1 0 0 1 1 2 1 0 1 0 1 1 0 1 0 0 1 1 1 0 0 0 1 1 1 0 0 0 1 1 0 1 1 0 0 1 1 1 1 0 1 0 1 0 0 0 0 0 0 1 0 -1 1 0 1 0 0 1 1 0 0 0 1 1 1 0 1 0 0 1 2 1 1 1 1 0 1 1 0 0 0 -1 1 0 1 1 1 0 1 1 1 0 1 0 1 -1 0 0 1 0 0 0 
-1 1 1 0 1 0 0 0 2 0 2 0 0 0 1 0 1 0 1 1 1 1 1 0 1 1 1 0 1 1 1 0 0 0 1 0 1 0 0 0 0 0 1 1 1 0 1 1 1 1 1 0 1 1 1 1 1 0 0 0 0 1 0 0 1 0 0 0 0 0 1 1 1 0 0 0 0 0 1 1 1 0 0 0 1 1 1 1 2 1 1 0 1 2 0 0 1 0 1 1 1 1 1 0 0 1 1 0 1 0 0 1 0 0 2 1 1 1 1 0 1 0 1 0 1 2 1 0 0 1 2 1 2 1 1 0 1 1 1 1 1 1 1 0 0 0 1 1 1 0 0 1 2 1 1 0 1 0 1 1 1 0 0 0 1 1 1 1 1 1 1 1 1 1 1 1 1 1 1 1 2 2 1 0 1 1 1 0 0 1 1 1 1 1 0 1 1 1 1 1 0 0 1 1 1 1 0 0 0 0 1 1 1 1 2 2 2 2 2 1 0 0 1 1 1 1 1 1 1 0 0 1 2 1 1 1 1 1 1 1 1 0 0 1 1 2 2 1 1 1 1 1 2 1 0 0 1 1 1 1 0 0 2 2 1 0 0 1 2 1 1 0 1 1 1 1 1 1 1 0 0 1 2 2 1 0 1 2 2 2 1 0 0 0 1 2 2 2 2 2 1 1 1 1 1 1 1 1 1 1 1 1 2 2 2 2 2 1 1 1 1 1 1 1 1 1 2 2 1 1 1 1 1 1 1 1 1 2 2 2 2 1 1 2 2 2 2 1 1 2 2 2 2 2 2 2 1 2 2 2 1 1 2 2 2 2 2 2 2 2 2 2 1 1 1 0 1 2 2 1 1 0 1 1 1 1 1 1 0 0 1 1 0 0 1 1 1 1 1 1 1 1 1 1 2 1 2 1 1 1 2 2 2 3 3 2 2 2 2 1 1 2 2 2 1 1 1 1 1 1 2 1 1 0 1 0 0 1 1 1 2 1 1 1 1 1 1 2 2 2 1 1 1 1 1 1 2 2 1 1 1 1 1 0 0 1 2 2 1 1 1 0 1 1 1 1 0 0 0 1 2 1 1 1 1 0 0 1 1 1 1 0 1 0 0 0 1 1 1 1 1 1 0 0 1 1 1 0 0 1 1 0 1 1 1 1 1 1 1 1 1 0 0 0 0 1 1 1 2 0 1 1 1 1 1 1 1 1 1 1 1 1 0 1 1 0 2 1 0 0 1 2 2 1 1 0 0 0 1 1 1 1 1 0 1 1 1 0 0 1 1 0 1 1 1 1 1 1 1 0 1 0 0 1 0 0 0 0 0 1 1 0 2 1 1 0 0 0 0 0 2 1 1 1 1 1 1 0 1 1 2 1 0 0 1 1 1 1 1 0 1 1 1 0 0 0 1 1 2 0 1 0 1 0 2 1 1 1 -2 2 
1 -1 0 2 0 0 1 2 1 0 1 0 1 1 1 0 0 0 1 0 1 1 1 0 1 0 0 0 1 1 1 0 0 0 1 0 1 1 1 1 0 0 1 0 1 0 0 0 1 1 1 0 1 0 0 0 1 0 1 1 1 0 1 0 1 1 0 1 1 1 1 1 1 0 1 1 2 1 1 1 1 1 0 0 0 0 0 1 1 1 1 1 1 1 0 0 0 1 1 0 0 1 1 1 1 1 0 0 1 0 0 2 1 0 1 0 1 1 0 0 1 0 0 1 1 1 1 1 2 1 1 1 1 0 0 1 1 1 1 0 1 1 1 0 1 0 0 1 1 1 1 1 2 1 0 0 1 1 1 1 1 0 0 1 1 1 1 1 1 1 1 1 1 1 1 1 2 2 1 1 1 1 1 1 0 0 1 1 1 1 1 1 1 1 2 1 1 0 1 1 1 1 1 1 1 1 1 1 1 1 1 1 1 1 1 1 1 1 1 1 1 1 1 1 2 1 1 1 1 1 1 1 1 1 1 2 1 1 1 2 2 1 1 1 1 1 2 1 1 1 2 2 1 0 1 2 2 1 1 1 1 1 1 1 1 1 0 1 3 2 0 0 1 1 1 1 1 1 2 2 1 2 2 2 2 2 2 2 1 1 1 2 2 1 1 1 1 1 1 1 1 1 2 1 1 2 3 2 2 2 2 2 2 2 2 2 2 1 1 1 1 2 2 2 1 1 1 1 1 2 2 1 1 1 1 1 1 1 1 0 1 2 2 1 2 2 2 1 1 1 1 0 1 1 1 1 1 1 1 1 1 1 2 2 2 1 1 2 2 2 2 1 0 1 2 1 1 1 1 1 2 2 1 1 1 1 1 1 1 1 1 2 2 1 0 0 1 1 1 1 1 1 1 1 1 2 2 2 2 1 1 1 1 1 1 1 1 0 1 1 1 1 1 0 1 0 0 0 1 0 0 1 1 1 1 1 1 1 1 0 0 1 1 0 0 0 1 1 2 2 1 1 1 2 2 1 1 1 1 1 1 1 1 0 1 1 1 1 0 0 0 0 0 1 1 1 0 0 0 0 1 0 0 1 1 1 1 1 2 2 1 1 1 0 0 1 1 1 1 1 1 1 0 0 1 0 0 1 1 1 1 1 1 1 2 2 1 0 0 1 1 0 0 0 1 1 0 -1 1 1 1 1 0 0 1 1 0 1 1 0 0 0 0 0 1 2 1 1 1 1 1 1 1 0 1 1 1 0 0 1 1 0 1 1 0 0 1 1 1 0 -1 0 1 1 1 0 0 1 1 0 0 0 1 1 1 0 1 1 1 0 1 1 1 0 1 1 1 1 1 0 1 1 1 1 0 0 0 0 2 0 1 1 1 0 1 1 1 0 0 1 1 0 1 1 1 0 1 1 1 0 0 0 0 0 2 2 -1 2 0 0 
0 -1 2 -1 1 0 1 0 1 1 1 0 1 0 1 2 1 0 1 0 1 0 1 1 1 0 1 1 1 0 1 0 0 0 2 1 1 0 1 1 0 0 0 0 1 0 1 1 1 1 1 0 0 1 1 0 1 1 0 0 1 1 1 1 1 1 0 0 1 0 0 1 0 1 1 1 1 0 1 2 1 1 1 1 0 0 0 1 1 1 1 0 1 1 1 0 0 1 1 0 0 1 2 1 1 1 1 1 1 1 1 0 0 1 1 0 1 1 0 0 1 1 1 1 0 1 1 0 0 1 1 0 0 0 1 1 0 1 1 1 0 1 1 1 1 1 1 1 1 1 1 1 1 1 1 1 0 0 1 1 1 1 1 1 1 1 1 1 1 0 0 1 1 1 1 1 1 0 1 1 1 2 1 0 1 1 0 0 1 1 1 2 1 1 1 1 1 1 1 1 1 0 1 1 2 2 1 1 1 1 1 1 2 2 1 1 0 1 1 1 1 0 1 1 1 0 1 1 1 0 0 1 2 1 1 1 2 2 1 1 1 1 1 1 1 2 2 1 1 1 1 0 0 1 1 1 1 1 1 0 0 1 2 1 0 0 1 2 2 1 1 1 1 1 1 1 1 1 2 2 2 2 2 1 1 1 1 2 2 2 2 1 2 1 2 2 2 1 2 2 2 2 2 1 1 1 1 2 2 2 2 2 2 2 2 2 1 1 1 1 1 1 1 1 1 2 2 2 2 2 1 1 1 1 1 1 1 1 2 2 1 1 1 1 1 0 1 1 1 2 2 1 1 1 2 1 0 1 1 1 0 1 1 1 1 1 1 1 1 1 2 2 1 1 1 1 1 1 1 1 2 1 1 1 0 0 1 1 1 1 2 1 1 2 1 1 1 1 1 2 2 1 1 1 0 1 1 1 1 1 1 0 1 2 2 2 2 2 1 1 1 1 2 1 1 1 1 1 1 1 2 2 1 1 1 1 1 1 0 0 1 1 1 1 0 1 1 0 1 2 2 1 1 1 1 1 2 2 1 1 1 1 1 1 1 1 2 1 1 1 1 0 1 1 0 0 0 0 0 1 1 2 1 1 1 1 0 1 2 2 2 2 1 0 0 2 1 1 2 1 1 1 1 0 1 1 0 0 1 1 1 1 1 1 1 0 1 1 0 0 0 1 1 1 1 1 1 1 1 1 0 0 1 0 1 1 1 1 0 0 0 0 1 1 1 1 0 1 0 1 1 0 1 1 1 0 1 1 0 0 1 1 0 0 0 1 0 0 1 1 1 1 0 0 1 0 1 1 0 1 0 0 1 1 1 0 1 0 1 1 0 1 1 1 1 0 0 1 1 1 1 0 1 1 0 0 0 0 0 0 1 1 0 0 1 0 1 1 1 1 0 0 0 0 1 0 1 1 1 0 0 0 1 1 2 0 3 -1 1 1 
1 -1 2 -2 1 0 1 0 1 0 1 0 1 0 1 1 1 1 1 0 1 1 1 0 -1 0 1 1 1 1 1 0 1 1 1 0 0 1 1 0 1 1 1 0 1 1 1 0 1 1 1 0 1 1 1 0 1 1 1 1 2 0 1 1 0 1 1 0 1 0 0 1 1 1 1 1 1 1 1 1 1 1 1 1 1 0 1 1 0 1 1 1 1 -1 0 0 0 1 1 1 0 1 1 1 1 1 1 1 1 1 1 0 1 1 0 1 2 1 1 1 0 0 0 1 1 1 1 1 1 1 0 0 0 0 1 1 2 1 1 1 1 1 1 1 1 1 0 1 1 1 1 1 1 0 0 1 1 0 0 0 1 1 1 1 1 1 1 1 1 1 1 0 0 1 0 0 1 1 1 0 0 0 0 0 0 0 0 0 1 1 1 1 1 1 1 0 0 1 1 1 1 1 1 1 1 1 1 1 2 2 2 2 1 1 2 1 1 1 1 1 1 1 0 0 1 1 1 1 1 1 1 1 1 1 2 2 1 1 1 2 2 2 1 1 1 1 1 1 1 1 1 1 1 1 2 2 2 1 0 0 2 2 2 1 2 2 2 1 1 1 1 1 2 1 0 0 0 1 1 1 1 1 1 1 2 2 1 1 1 2 2 1 1 2 2 1 1 1 1 1 2 2 2 2 2 1 1 1 1 1 2 2 1 1 2 2 1 1 1 2 2 1 1 1 1 2 2 1 2 2 2 1 1 1 1 2 2 1 0 1 1 1 1 0 1 1 1 2 2 1 1 0 1 1 1 1 0 0 1 2 2 2 2 1 1 1 2 1 1 1 1 1 1 1 1 1 1 1 1 1 1 2 2 1 1 1 2 1 1 1 1 1 1 1 1 1 1 1 1 1 1 1 1 1 1 1 1 2 2 2 1 1 1 1 1 2 1 1 1 1 1 1 1 1 1 2 1 1 1 1 1 1 1 2 2 2 2 2 2 2 1 1 2 1 1 0 1 1 1 2 1 1 0 0 0 0 1 1 1 1 1 1 1 2 1 1 1 0 1 2 1 0 0 0 0 1 1 0 0 1 1 1 1 1 1 0 0 1 1 1 1 1 0 0 1 1 1 1 1 1 1 0 0 1 1 1 1 1 1 1 1 0 0 0 1 1 0 0 1 1 1 0 0 1 1 1 1 0 0 1 1 0 0 1 1 1 1 1 0 0 0 0 1 1 1 1 0 0 1 1 1 0 0 1 0 0 1 1 1 1 0 1 1 0 0 0 1 2 2 0 0 0 0 1 1 0 1 1 1 1 1 0 1 1 1 0 0 0 1 1 0 1 1 0 1 1 1 1 2 1 1 0 1 0 1 0 1 0 0 0 0 1 1 0 1 1 1 0 1 1 1 0 0 0 2 0 1 0 1 0 0 0 1 0 2 0 3 -2 2 1 
2 -1 0 1 0 1 1 1 0 0 1 1 -1 1 1 1 0 1 1 1 1 0 0 1 0 0 1 1 0 0 0 0 0 1 1 1 0 1 0 0 1 0 0 1 0 1 1 1 1 1 0 1 0 0 1 1 0 1 0 1 1 1 0 1 0 1 0 0 1 1 0 0 0 1 1 1 0 0 0 1 1 0 0 1 0 0 1 1 1 1 1 1 1 1 1 1 1 0 0 0 1 1 1 1 0 1 1 1 0 2 1 0 0 0 0 0 1 2 1 1 1 2 2 0 0 0 1 1 1 2 1 0 0 1 1 1 1 0 0 1 1 2 2 2 1 1 1 1 1 2 1 1 0 0 1 1 1 1 1 1 1 1 1 1 1 1 0 1 1 0 1 1 1 0 0 1 1 0 0 1 1 1 0 0 1 2 1 0 0 0 0 1 1 1 1 1 1 0 0 1 1 1 1 1 1 0 0 0 1 1 2 2 1 1 1 1 0 0 0 1 1 0 0 1 1 1 1 1 1 1 1 1 1 1 1 2 2 1 0 1 1 1 1 1 0 1 1 1 1 1 1 1 1 2 2 1 0 1 1 0 1 2 1 1 1 1 1 2 2 2 1 0 1 1 1 1 1 2 2 1 0 1 1 1 0 0 1 1 1 1 1 1 1 1 1 1 1 1 2 2 1 2 1 1 1 1 1 1 1 1 1 1 1 1 2 1 1 1 1 1 1 1 0 0 1 2 2 1 1 1 1 1 1 1 2 2 2 1 1 1 1 1 0 0 1 1 1 1 1 2 2 2 1 1 1 1 0 1 1 1 2 2 1 1 0 1 1 1 1 1 1 1 1 1 1 2 1 0 0 1 2 2 1 1 1 2 2 2 2 1 1 1 2 2 2 1 1 1 1 1 1 1 1 1 1 1 1 1 1 1 1 0 0 2 2 2 1 1 1 1 1 1 1 1 1 1 0 0 0 1 1 1 0 0 1 1 1 1 1 1 1 1 1 1 1 2 1 0 1 1 1 1 1 1 0 0 1 2 1 1 1 1 0 1 1 1 2 1 2 2 1 1 1 0 1 1 1 1 0 0 1 2 2 2 1 1 0 1 1 1 1 1 0 0 1 1 1 1 1 1 1 0 1 2 1 1 2 1 1 0 0 0 0 1 1 1 1 1 0 0 1 1 1 1 1 1 1 1 0 1 0 0 1 1 1 2 2 1 1 1 1 0 1 1 1 0 -1 0 1 1 1 1 1 1 0 1 1 0 1 1 1 1 0 -1 1 1 0 1 1 1 0 1 1 1 0 0 1 1 0 1 0 0 1 1 0 0 0 1 0 1 0 1 0 1 1 1 1 0 1 2 1 1 0 0 1 1 1 1 0 2 1 1 0 0 0 1 0 1 0 1 1 1 0 1 0 0 0 0 0 1 1 1 0 1 1 2 1 0 2 0 
-1 6 -5 4 -1 1 -1 2 0 0 1 3 0 1 0 0 0 1 0 2 1 2 0 0 0 1 0 1 0 1 0 1 0 1 0 1 0 1 1 1 1 1 0 0 -1 1 0 -1 0 1 1 1 1 1 1 0 0 0 0 1 1 1 0 1 0 0 1 1 1 1 1 1 1 1 0 0 0 1 0 1 1 1 1 1 0 1 1 1 1 1 1 2 0 0 0 1 0 0 1 1 0 1 0 1 0 1 1 1 1 2 1 0 0 0 1 1 1 1 1 1 1 1 1 1 0 0 1 2 1 0 0 1 1 1 1 1 1 1 1 0 0 1 2 1 0 0 0 1 1 1 1 1 0 0 1 1 1 1 0 1 2 2 1 0 1 1 1 1 1 0 0 1 1 1 1 1 2 2 1 1 0 0 1 1 1 1 1 1 1 1 1 1 1 1 0 1 1 1 1 0 0 1 1 1 0 1 0 0 1 1 1 1 1 1 1 1 1 1 1 1 1 1 1 0 1 1 1 1 1 1 0 1 1 1 1 2 1 1 0 1 1 1 1 1 1 1 0 1 1 1 1 2 2 2 2 2 1 1 0 1 2 2 1 1 2 2 1 1 1 1 1 1 1 1 1 1 1 2 1 0 0 1 1 1 0 1 0 0 0 0 0 1 1 1 1 1 1 2 1 1 0 0 1 2 2 2 2 1 0 1 2 2 1 1 1 1 1 1 1 2 2 1 1 1 1 1 1 0 1 2 1 2 2 2 2 2 2 1 0 1 1 1 1 1 1 1 1 2 2 1 1 1 1 1 0 0 0 0 1 1 1 1 1 1 1 1 1 2 2 1 1 0 1 1 1 2 1 1 1 1 1 2 2 1 1 2 1 1 1 2 2 2 1 1 1 1 1 1 1 1 1 1 1 2 2 1 1 2 2 1 1 1 0 0 1 2 1 1 1 1 1 1 1 1 2 1 0 1 1 1 0 1 1 1 1 1 1 2 2 2 1 1 1 1 0 0 0 1 1 0 1 1 1 1 1 1 1 1 1 1 1 1 0 1 1 1 1 1 2 2 2 1 0 0 1 1 1 2 0 0 0 0 1 2 1 1 0 1 1 1 1 1 0 1 1 1 1 1 1 1 1 0 0 1 1 1 1 2 1 1 0 0 0 1 1 1 0 1 1 2 1 1 0 0 0 1 0 1 0 1 1 1 1 1 1 1 1 1 0 0 0 1 0 1 1 1 1 0 1 1 1 1 1 1 0 0 0 1 0 1 0 1 1 1 0 0 1 2 0 1 0 0 1 2 1 1 0 1 0 1 1 0 1 1 0 1 1 2 1 1 1 1 0 1 1 0 0 1 1 2 0 1 1 0 1 1 1 2 1 1 0 1 0 1 0 1 0 1 0 2 1 0 0 2 0 1 1 1 0 2 0 1 -1 1 0 2 -3 6 -3 3 
0 0 1 0 0 1 0 1 0 1 0 2 -1 1 0 0 1 1 0 1 0 1 0 0 0 1 0 0 0 0 0 1 0 0 1 1 1 1 0 1 1 0 0 0 0 1 1 1 0 0 1 1 0 1 1 1 1 1 0 1 1 2 0 1 1 0 0 1 0 0 1 0 0 0 0 0 0 0 0 1 1 0 0 0 0 0 1 1 1 1 1 1 0 1 0 0 0 0 1 1 1 1 0 0 0 1 1 1 1 1 1 1 0 0 1 1 0 1 1 1 1 1 1 0 0 0 0 0 1 1 1 1 1 2 1 1 1 1 0 0 1 1 1 1 1 0 0 1 1 1 1 1 0 1 1 2 1 1 0 1 1 1 1 1 1 1 0 1 1 1 1 1 0 1 1 2 2 2 1 1 1 1 0 0 1 2 1 1 1 1 1 1 1 1 0 1 1 1 1 1 0 0 1 1 1 0 1 1 1 1 1 1 0 1 0 0 1 1 1 1 1 1 0 1 1 1 1 1 1 1 1 1 1 1 1 2 2 1 1 1 1 0 1 1 1 1 1 1 1 1 1 1 1 2 1 0 0 1 1 1 1 1 1 2 2 1 1 1 1 3 2 1 0 1 1 1 1 2 2 2 1 1 1 0 0 1 1 1 1 1 1 1 1 1 1 2 2 1 1 1 1 1 1 1 2 3 2 1 1 1 1 1 1 1 1 1 1 1 0 1 1 1 1 0 1 2 2 2 1 2 2 1 1 1 2 2 1 1 1 2 2 2 2 2 2 1 1 1 1 1 2 2 1 1 1 1 1 1 1 0 0 1 1 1 0 1 2 1 1 1 1 1 2 1 1 1 2 1 1 1 1 1 1 1 1 1 1 2 2 2 2 2 1 1 1 1 2 2 1 1 1 1 1 1 1 1 1 1 0 1 1 1 1 1 1 1 1 1 1 1 1 1 1 1 1 1 2 1 1 1 2 1 0 0 0 0 0 1 1 1 1 1 1 1 1 1 1 1 1 1 1 2 2 1 0 0 1 1 1 1 0 1 1 0 0 1 1 1 1 1 1 1 1 1 0 1 1 1 0 0 0 0 1 2 1 1 0 0 1 1 1 1 0 1 1 2 1 1 1 1 1 1 1 0 0 1 1 2 1 1 0 0 0 1 1 1 1 1 1 1 0 1 2 1 0 0 0 1 1 0 1 2 1 1 1 1 1 1 1 1 0 1 1 1 1 0 0 0 0 1 0 1 1 1 1 0 0 1 0 1 1 1 1 0 1 1 0 1 1 1 0 1 2 1 1 1 0 1 1 0 0 1 0 1 1 1 0 1 0 1 0 1 1 2 1 1 0 0 0 1 0 1 0 0 0 1 1 2 1 1 1 1 -1 0 0 1 0 1 0 1 1 1 0 0 0 1 0 0 1 1 0 2 1 0 0 2 1 0 1 1 
1 0 2 -2 2 -1 1 0 1 0 0 1 1 0 1 0 1 0 1 1 1 1 1 1 1 1 1 0 0 0 0 0 1 1 1 0 1 0 1 1 0 1 1 -1 0 2 1 1 1 1 1 0 1 1 0 1 0 -1 1 1 0 1 1 0 1 1 1 1 0 0 0 1 1 0 0 1 1 1 0 1 1 1 1 0 -1 0 1 1 1 1 2 1 1 1 1 1 0 0 1 1 1 1 0 0 1 1 0 1 1 1 1 1 1 1 1 1 1 0 0 0 1 1 1 1 1 0 0 1 1 0 1 1 1 1 1 1 1 1 1 1 1 0 0 1 1 1 0 1 1 1 1 1 1 1 1 1 1 1 0 0 1 1 1 1 0 1 2 1 2 2 1 0 1 1 1 2 2 1 1 0 0 1 1 1 1 1 1 1 0 0 1 1 0 1 1 1 1 1 0 0 1 2 1 1 1 1 1 1 1 1 0 1 1 1 1 1 1 1 2 1 1 1 1 0 1 1 2 2 1 0 1 1 1 1 1 1 1 1 1 1 0 1 1 2 1 1 0 1 1 1 1 1 1 1 1 2 2 1 1 1 2 1 1 1 2 2 1 1 2 2 2 1 1 0 1 1 1 1 1 2 1 1 1 1 1 1 1 0 1 1 2 2 1 1 1 1 2 1 1 1 1 1 1 1 2 2 2 2 1 1 1 1 1 1 1 1 2 2 2 2 1 1 1 1 2 2 1 1 1 2 1 1 1 1 1 1 2 1 0 1 2 2 2 2 2 1 1 2 2 1 0 1 2 1 0 1 1 1 0 0 1 1 0 1 2 1 1 1 1 1 1 1 1 1 1 2 2 1 2 2 1 1 2 2 2 1 1 1 1 1 1 1 1 1 1 1 1 1 1 0 1 1 1 1 1 1 0 1 1 1 1 1 1 1 1 2 1 0 1 1 1 1 1 1 1 1 1 1 2 1 1 0 1 1 1 1 1 1 1 1 1 1 1 1 0 1 2 1 1 1 2 2 1 1 1 1 0 0 1 1 1 1 1 1 1 0 0 0 0 0 1 1 0 0 1 0 1 1 1 1 1 0 0 1 1 1 0 1 1 1 1 1 1 0 0 1 2 1 1 1 1 1 1 0 0 0 0 1 1 1 1 1 1 1 2 1 1 0 1 1 1 1 1 1 1 1 0 1 1 1 1 1 1 1 1 1 1 1 0 0 1 0 0 0 1 1 1 0 0 0 0 0 1 1 0 1 1 1 1 1 1 0 1 1 0 0 1 1 0 0 0 1 2 1 1 1 0 1 1 0 0 0 0 1 1 0 1 1 0 0 1 1 1 0 1 1 0 1 1 0 0 0 1 0 0 1 1 1 2 0 1 0 1 1 1 1 1 0 1 0 1 1 1 0 0 1 1 0 1 0 1 0 1 0 2 -1 1 0 2 1 
2 -3 2 1 1 1 1 0 0 1 0 0 1 0 0 0 1 1 1 1 0 0 0 0 0 0 0 0 0 1 1 1 0 1 2 1 1 1 0 0 0 1 1 1 1 0 1 2 1 0 0 0 0 1 1 1 1 1 1 0 1 1 0 1 1 0 0 1 1 0 1 1 0 1 1 0 1 0 1 1 1 1 0 0 0 0 1 1 0 1 1 0 1 1 1 1 1 1 0 1 1 1 1 -1 -1 0 1 1 1 1 2 1 0 1 1 1 1 0 0 1 1 1 1 0 0 0 0 0 0 1 1 0 1 2 2 1 0 0 1 1 0 0 0 1 1 1 1 1 1 1 1 1 0 0 1 1 1 1 1 1 2 1 1 1 1 1 1 1 2 1 1 1 1 1 2 2 1 1 1 1 1 1 0 1 2 2 1 1 1 0 0 0 1 1 1 1 1 0 1 1 1 1 1 2 1 0 1 1 1 1 1 1 1 1 1 1 1 1 1 1 0 1 2 2 1 1 1 2 1 1 1 1 1 0 0 1 2 1 1 2 1 1 1 2 1 1 1 1 1 1 0 0 1 1 1 1 1 1 1 1 1 1 1 2 1 1 1 1 1 2 2 1 1 1 1 1 1 1 1 2 1 1 1 1 1 1 1 1 1 2 2 1 0 1 1 1 1 2 1 2 2 2 1 1 1 2 2 1 1 1 2 2 1 2 2 2 2 2 2 1 1 2 2 1 1 2 2 1 1 1 1 1 1 1 2 1 1 2 2 2 2 2 2 2 1 2 2 1 1 1 2 1 0 1 2 2 1 2 1 1 0 1 1 1 1 1 1 1 0 1 1 1 1 1 1 2 2 1 0 1 2 1 1 1 1 1 1 2 2 2 2 1 1 1 1 1 1 2 1 1 0 1 1 1 0 0 1 1 1 1 1 1 1 1 1 1 1 1 0 0 0 0 1 1 1 0 1 1 1 1 1 1 1 1 0 0 0 1 1 1 0 1 1 1 1 1 1 1 1 1 1 1 1 1 1 2 2 1 1 1 1 0 0 0 1 1 1 1 1 0 0 1 1 1 1 1 1 1 1 2 1 0 1 2 2 2 1 1 1 1 1 1 1 1 1 1 1 1 2 2 1 1 1 0 0 1 1 1 0 1 0 1 1 1 1 1 1 1 1 1 0 1 1 2 1 0 1 1 1 1 1 1 0 0 1 1 1 1 1 1 1 0 1 1 1 1 0 1 0 0 0 1 1 0 -1 0 0 1 1 0 1 1 0 1 0 1 0 0 1 1 0 1 0 0 1 1 1 1 1 0 0 1 1 1 0 0 1 0 0 1 1 1 1 1 1 1 0 1 1 0 1 1 0 1 0 1 1 1 1 0 1 0 0 1 0 1 1 1 1 1 1 1 0 0 1 1 0 0 0 0 1 0 1 0 0 2 1 -1 3 -1 
-2 7 -4 3 -1 3 0 3 -1 1 0 1 0 1 0 0 -1 1 1 1 0 2 1 1 1 1 0 0 0 0 0 1 1 2 1 1 0 1 0 1 0 2 1 1 1 1 1 1 0 1 1 1 1 1 0 1 0 0 0 1 1 1 1 1 0 0 0 1 1 1 0 2 1 1 0 0 1 1 1 1 0 1 1 0 0 0 0 1 0 0 0 1 1 1 1 1 0 0 0 1 1 1 1 0 0 1 1 2 1 1 0 1 2 1 0 0 0 0 0 0 0 1 1 1 2 1 0 1 1 1 0 1 1 1 0 1 0 0 0 1 0 0 0 1 1 2 1 1 1 1 1 1 1 1 0 0 0 1 0 0 1 0 0 1 0 0 0 1 1 1 0 1 2 2 2 1 1 2 1 1 0 1 1 1 1 1 1 1 0 0 0 0 0 1 1 1 1 1 1 1 1 2 1 1 1 1 1 1 1 1 0 0 1 1 1 1 1 1 1 1 1 2 1 1 0 1 1 2 2 2 1 1 1 1 1 1 1 1 1 1 1 1 1 1 1 0 1 1 2 2 2 1 1 1 2 2 1 1 1 1 1 1 1 1 1 1 1 1 1 1 1 1 1 1 1 1 1 1 1 1 1 1 1 1 1 1 1 1 1 1 1 1 1 1 1 2 2 1 1 1 1 1 1 1 0 1 1 1 1 1 1 1 1 1 1 1 1 1 1 1 1 1 0 1 1 1 0 0 1 1 1 1 1 2 2 1 1 1 1 1 2 2 1 1 1 2 1 1 1 0 0 1 2 1 0 1 1 2 1 1 2 2 1 1 1 2 1 1 1 2 2 2 1 2 2 2 1 1 2 2 1 1 1 1 1 1 1 2 1 1 1 1 1 2 1 1 1 1 1 2 1 1 1 2 1 1 1 1 1 1 1 1 1 1 1 1 1 1 0 1 1 1 1 1 1 1 1 2 1 1 1 1 1 1 1 2 1 1 1 1 0 1 1 1 1 1 1 1 0 1 1 1 1 1 1 1 1 1 1 2 1 0 0 1 1 1 1 2 1 1 1 1 0 1 1 1 0 1 1 2 1 1 1 1 0 1 2 1 1 1 1 1 1 1 1 1 1 1 0 1 1 1 0 1 1 1 2 2 1 1 1 1 1 1 1 2 1 1 1 0 1 1 0 1 1 1 0 0 0 1 1 0 0 0 1 1 1 1 0 1 2 0 0 1 2 2 0 1 0 0 1 1 1 1 0 0 -1 1 1 1 0 0 1 2 0 1 1 1 0 -1 0 1 0 1 1 1 1 1 0 1 0 0 0 1 1 0 0 0 -1 0 1 1 0 0 0 1 1 1 0 0 0 1 1 1 0 1 0 1 2 1 0 0 0 1 0 2 1 1 0 1 0 2 0 1 0 2 0 2 -1 1 0 1 0 3 -2 3 -2 5 -5 4 
2 -2 2 1 1 1 2 0 0 1 1 -1 0 1 0 0 0 1 0 0 0 1 0 1 1 0 0 1 1 0 0 1 1 1 0 1 0 1 0 0 0 1 0 1 1 1 0 1 1 1 1 1 1 1 1 1 0 1 0 0 0 0 0 1 0 0 0 0 0 0 0 1 1 1 1 1 0 0 1 1 1 0 1 0 0 1 1 1 1 1 0 0 0 1 1 0 1 1 0 1 1 2 1 0 0 0 1 1 0 1 1 0 0 0 1 1 0 0 0 0 0 1 2 0 0 0 1 1 0 1 1 1 1 1 1 0 0 1 1 1 1 0 0 1 1 1 0 1 1 1 1 1 1 1 1 1 0 1 1 1 1 0 0 0 1 1 0 0 0 0 0 1 1 2 1 0 0 1 1 1 1 1 1 1 1 1 1 0 1 1 0 0 1 1 1 1 1 1 1 2 2 1 1 1 1 1 1 1 1 1 1 0 0 1 1 1 0 1 1 1 1 1 2 2 1 1 1 2 2 1 1 2 2 1 1 1 2 2 2 2 1 1 1 1 1 2 2 2 2 1 1 1 1 1 1 1 1 1 1 1 1 1 1 1 1 0 1 1 1 1 1 1 1 1 1 1 1 1 1 1 1 1 1 1 0 1 2 2 1 1 1 0 1 1 2 2 2 1 1 1 1 1 1 0 1 1 0 1 2 2 2 2 1 1 2 2 1 1 1 1 1 2 2 1 1 1 1 1 1 1 1 2 1 1 1 1 0 1 2 1 1 1 1 1 1 1 1 1 0 1 2 1 1 1 2 2 2 2 1 1 1 1 1 1 1 1 1 1 2 2 1 1 2 1 1 1 2 1 1 1 2 1 0 0 0 1 2 2 2 1 1 1 1 1 1 1 2 2 2 1 1 1 2 2 1 1 2 1 0 1 2 1 1 2 1 1 2 1 1 1 0 0 1 1 1 0 1 1 1 1 1 1 1 1 1 1 1 1 1 1 1 1 1 1 2 2 2 1 1 1 1 0 1 1 1 1 1 1 1 1 1 0 1 1 1 2 2 1 0 0 1 1 1 1 1 1 1 1 1 2 1 1 1 1 1 1 1 1 1 1 1 1 1 1 1 1 0 1 1 2 1 0 1 1 1 2 1 1 0 0 0 1 1 0 0 1 1 1 2 1 1 1 1 0 0 0 0 0 0 1 1 0 0 0 0 0 1 1 1 1 1 1 1 1 1 1 0 1 1 0 0 1 1 0 0 0 0 1 0 1 1 1 1 1 1 1 1 0 0 1 1 2 1 1 1 1 1 0 0 1 0 1 1 1 1 2 0 0 0 1 1 0 0 1 1 1 0 0 0 1 1 1 0 1 2 1 0 1 1 1 1 0 0 1 1 1 0 0 0 1 1 1 0 1 0 0 1 1 0 0 1 1 1 0 1 1 1 -1 3 0 
0 0 1 -1 1 0 0 0 1 0 1 0 0 1 0 0 1 1 1 1 1 0 1 1 0 1 1 0 0 0 1 1 2 1 0 0 0 1 0 0 1 0 0 1 1 1 1 0 0 1 1 1 1 0 0 -1 0 1 0 1 1 0 1 1 0 1 1 1 1 1 1 0 1 1 1 1 1 2 1 0 0 1 2 1 0 1 0 1 1 0 0 1 1 1 1 1 1 0 1 0 0 1 0 1 1 1 1 1 1 1 0 1 2 0 0 0 1 1 0 0 0 0 0 1 1 1 1 1 1 0 0 1 1 1 1 1 2 2 1 0 1 1 1 1 1 1 1 1 1 0 0 1 1 1 1 1 0 0 0 0 0 1 1 1 0 0 1 1 1 1 0 1 0 0 0 1 1 1 0 1 1 1 1 1 1 0 1 1 1 1 1 1 1 1 1 1 1 1 1 1 2 1 1 1 1 1 1 1 1 1 1 1 1 1 0 0 0 0 0 1 2 2 1 1 1 1 1 2 2 2 1 1 1 1 2 1 1 1 2 2 2 1 1 1 1 0 0 1 2 2 1 1 1 1 1 1 1 1 1 1 1 1 1 1 1 1 1 1 1 1 1 1 1 1 1 1 1 2 2 1 1 2 2 1 0 1 1 1 1 1 1 2 2 2 2 1 1 1 1 1 1 1 1 2 1 0 1 2 2 2 2 1 0 1 1 1 1 1 1 2 2 2 1 1 0 1 2 1 2 2 1 1 2 1 1 1 2 1 1 2 2 3 2 1 1 1 1 2 2 1 1 1 1 1 1 1 1 2 1 1 1 1 1 1 1 0 0 1 1 2 1 1 1 1 1 1 1 1 1 1 1 0 1 1 1 1 1 1 1 1 1 1 1 1 1 1 1 2 2 2 2 2 1 1 1 1 1 1 2 1 2 2 1 1 1 1 1 0 1 1 1 1 1 1 1 1 1 1 1 1 1 0 0 1 2 2 2 1 1 1 1 2 2 2 2 1 1 2 2 2 1 1 1 1 1 1 1 1 1 1 1 1 1 2 2 2 2 1 1 1 1 1 0 0 1 1 1 2 2 1 1 1 1 1 0 0 1 2 1 1 1 1 1 1 1 0 1 1 1 1 1 1 0 0 1 2 1 1 0 1 2 1 0 1 1 1 1 1 1 1 1 0 0 0 1 1 0 1 0 0 0 0 0 0 0 1 1 0 0 0 0 1 1 1 1 1 0 0 1 1 0 1 1 0 1 0 1 1 0 1 0 1 2 1 1 0 2 2 0 0 1 1 1 1 1 1 1 0 1 1 1 1 2 1 2 2 1 1 0 0 0 1 1 1 1 0 1 0 1 1 0 0 1 1 1 0 0 1 2 1 0 0 1 1 1 0 1 0 0 1 1 0 1 1 0 0 2 0 0 1 1 0 0 0 1 0 1 0 1 0 
1 -1 2 0 2 1 1 0 0 1 1 0 -1 1 0 1 1 1 1 0 0 0 1 1 0 0 0 1 1 0 0 1 2 0 0 1 0 0 0 0 1 1 0 0 1 2 1 1 1 1 1 1 0 0 0 -1 1 2 0 0 0 0 0 1 1 0 1 1 0 0 0 0 1 1 1 2 0 0 0 0 1 0 1 1 1 2 0 0 0 0 1 0 0 1 1 1 1 1 1 0 1 1 0 1 1 0 1 1 0 1 1 1 0 0 1 1 1 1 1 0 1 0 0 1 0 1 1 0 0 1 1 1 1 1 1 1 1 1 1 1 1 1 2 1 1 1 0 0 0 1 1 0 1 1 2 1 1 1 1 1 1 1 1 1 1 1 0 0 1 1 1 1 1 1 0 0 0 1 1 0 1 1 0 0 1 2 1 0 1 1 0 1 1 1 1 1 1 1 1 2 2 1 0 1 1 1 1 1 1 1 1 1 0 1 1 1 0 1 2 1 0 0 1 2 2 1 1 1 1 1 1 1 1 1 1 0 1 1 1 1 1 1 1 1 1 2 1 1 1 2 2 1 0 1 2 1 1 2 1 1 0 1 1 1 2 2 1 1 1 2 2 1 1 2 2 1 2 2 1 1 2 2 2 1 1 1 2 1 2 1 1 1 1 1 1 1 0 1 1 2 2 2 2 1 1 0 0 1 2 2 2 2 1 2 2 2 1 1 1 1 1 1 2 1 0 1 2 2 1 1 1 1 1 1 1 1 1 1 2 2 1 1 1 1 2 2 2 1 1 1 2 1 0 1 2 1 2 2 1 1 0 1 1 1 0 0 1 1 1 1 1 2 2 1 1 1 1 1 1 1 2 1 0 0 1 2 2 1 1 1 2 2 1 1 1 1 1 2 2 1 1 1 2 1 1 1 1 0 1 1 2 1 1 2 1 0 1 1 1 1 1 1 1 2 1 0 1 1 1 1 2 1 1 1 1 1 1 1 1 1 1 1 1 1 1 2 1 1 1 1 1 1 1 1 0 1 1 1 1 1 1 1 1 1 1 1 1 1 1 0 1 1 1 0 1 1 1 1 1 0 1 1 2 1 1 1 1 1 1 2 2 1 1 1 1 1 0 0 1 1 1 1 1 1 1 1 1 0 0 1 0 1 1 1 1 0 1 1 1 1 0 0 1 1 0 0 0 1 1 0 0 0 1 1 1 1 1 1 2 1 0 1 1 1 1 0 1 1 1 1 1 2 1 1 2 1 0 0 0 0 0 1 1 0 2 1 0 0 1 1 1 1 2 0 -1 0 1 1 1 1 1 1 1 1 1 2 1 1 1 1 1 0 0 1 1 0 1 1 0 1 1 0 0 1 2 1 0 1 0 1 1 2 0 1 1 0 0 1 0 1 0 1 1 0 0 0 1 0 1 1 0 1 1 0 0 1 2 -2 2 0 
-3 5 -2 1 1 1 0 1 1 1 0 1 0 1 1 0 0 1 1 1 2 1 1 0 -1 0 0 0 1 0 0 1 1 1 1 1 1 1 1 1 1 0 1 0 1 1 0 0 1 1 0 1 1 0 0 0 1 1 1 2 1 0 1 0 0 0 1 1 0 0 0 0 1 1 1 0 1 1 1 0 0 1 1 1 0 1 1 0 1 0 0 0 1 0 1 1 0 1 1 0 0 1 1 1 1 1 1 1 1 0 1 1 1 1 1 1 1 1 1 0 1 1 0 1 1 0 1 1 1 0 0 1 1 0 1 1 1 1 1 1 1 1 1 1 1 1 0 1 1 1 1 1 1 0 0 1 1 1 1 1 1 1 1 0 0 0 0 1 1 1 1 0 1 1 0 1 1 1 1 1 0 0 1 2 1 1 1 1 2 2 2 1 0 1 2 1 1 1 1 0 1 0 0 0 0 1 1 1 2 1 1 1 2 1 0 1 1 0 1 1 1 1 1 1 1 0 0 0 1 1 1 0 0 1 2 1 0 1 1 1 1 1 1 0 0 0 0 0 2 1 1 1 1 1 1 2 1 1 1 1 1 1 1 1 2 2 2 2 2 2 1 1 2 1 1 1 1 1 1 1 2 1 1 1 1 2 1 1 1 1 1 1 2 1 1 1 1 1 1 1 1 1 1 1 0 0 1 2 2 1 1 1 2 2 1 0 1 1 1 2 2 1 1 2 1 1 1 0 1 2 1 1 1 1 1 0 1 2 1 1 1 1 1 1 1 1 2 2 3 1 0 1 1 1 1 1 1 1 0 1 2 1 1 2 2 1 1 1 1 1 1 1 1 1 1 2 2 1 2 2 1 1 1 1 1 2 2 1 1 1 2 2 1 0 1 0 0 0 1 1 1 1 1 1 1 1 1 1 1 1 1 1 1 1 1 1 0 1 1 1 1 1 1 1 2 2 1 1 1 1 2 1 0 0 1 2 1 1 1 1 1 2 1 1 1 1 1 1 1 1 1 1 0 1 1 1 1 1 1 1 2 2 1 1 1 1 1 1 1 1 1 1 0 0 1 1 2 2 1 0 0 0 1 1 1 1 1 1 1 2 2 1 1 1 0 0 1 1 1 1 2 1 0 1 1 1 1 0 1 1 1 1 0 1 1 1 2 1 1 1 1 1 1 1 1 1 1 0 1 1 1 1 1 0 1 1 1 1 1 1 0 0 1 1 1 1 1 1 1 1 1 2 1 1 1 0 1 1 0 1 1 1 1 1 0 0 1 2 1 0 1 0 1 0 0 0 0 0 1 1 2 1 1 2 1 1 1 1 1 0 1 1 1 0 0 -1 0 1 1 0 0 0 1 0 0 1 0 1 1 1 0 1 2 1 1 0 0 0 1 0 0 1 1 0 0 1 1 1 1 0 1 2 0 1 1 0 -1 4 -3 3 
2 -4 3 0 2 -1 3 -1 1 0 1 0 1 -1 1 0 1 0 1 0 1 0 0 0 0 -1 1 1 1 0 0 1 1 0 1 0 1 0 0 0 1 1 1 0 1 0 1 1 1 0 1 1 1 1 1 1 2 1 1 0 1 1 1 1 1 0 1 0 0 0 1 1 0 0 1 0 1 0 0 1 1 1 0 1 1 1 1 1 1 1 0 0 1 1 1 1 1 1 0 1 2 1 1 0 0 1 1 1 0 0 1 0 0 0 0 1 2 1 1 0 1 1 1 0 0 1 1 0 1 1 2 1 1 1 1 2 1 0 0 1 1 2 2 1 1 0 0 0 1 1 1 0 1 1 1 1 1 1 1 1 1 1 1 1 1 1 0 0 0 1 3 2 1 1 1 1 0 0 1 1 1 1 0 0 1 2 1 0 1 1 1 2 2 1 2 1 1 0 1 2 1 0 0 1 1 0 1 1 0 1 1 1 0 1 1 1 1 1 2 2 1 1 1 2 2 0 0 0 1 1 1 1 1 1 1 1 1 1 1 1 1 0 1 1 1 1 1 0 1 1 1 1 1 1 2 1 1 1 1 0 0 1 2 2 1 1 1 1 1 1 1 1 1 2 1 1 1 1 0 0 1 1 1 1 2 2 2 2 1 1 1 1 1 1 1 1 1 1 2 2 2 1 1 0 1 1 1 1 2 2 2 2 2 2 2 1 1 1 2 2 2 1 2 1 0 1 2 2 1 1 2 2 1 1 1 0 0 1 1 1 1 1 1 1 1 1 1 1 1 1 2 2 1 1 2 2 1 1 2 2 1 1 2 1 1 1 2 1 1 1 2 1 1 1 1 1 1 1 1 2 2 1 1 0 1 1 2 2 2 1 1 1 1 1 1 0 0 0 0 1 2 1 2 2 1 0 0 1 1 1 1 1 1 2 1 1 2 2 2 1 1 0 1 2 1 1 1 2 1 1 1 1 1 1 1 1 1 1 1 1 1 0 1 1 1 1 0 0 1 1 1 1 1 1 1 1 1 1 1 1 2 2 1 0 1 1 1 1 1 1 1 1 1 1 1 2 2 0 1 1 1 0 1 2 2 1 1 0 0 1 2 2 1 0 1 1 1 1 2 1 1 1 1 0 1 1 1 0 0 0 0 0 1 0 0 0 1 1 2 1 0 0 1 0 0 0 1 1 1 0 0 0 1 1 1 0 1 1 1 1 1 0 1 0 1 0 1 1 0 0 1 1 1 1 1 1 1 0 1 0 1 1 1 1 1 1 0 0 1 1 0 0 1 0 0 0 1 1 1 1 1 1 0 0 0 0 1 0 1 1 2 1 0 0 1 1 1 0 0 0 1 0 1 1 1 1 1 0 1 0 1 1 3 0 1 0 1 0 1 0 2 0 0 -1 1 1 1 -1 2 0 2 0 2 -1 2 -1 2 -1 5 -2 
0 0 2 -1 1 0 2 1 2 -1 0 0 2 -1 2 0 1 0 1 0 0 0 1 0 1 -1 1 1 1 0 0 0 1 1 0 -1 1 0 1 1 1 1 1 1 1 1 1 0 1 0 0 1 1 1 1 1 1 0 1 1 1 1 1 1 1 1 2 1 1 0 0 1 1 1 1 0 2 1 1 0 0 1 1 1 1 0 1 0 1 1 0 0 1 0 2 1 1 1 1 1 0 0 1 1 1 1 1 1 1 0 0 1 1 0 1 1 1 0 0 1 1 0 1 1 1 0 0 0 1 1 1 0 1 1 1 1 2 1 1 0 1 1 1 0 0 0 1 1 1 1 1 0 0 0 0 0 1 0 0 1 1 1 0 0 0 1 1 0 1 1 1 1 1 1 0 1 1 0 1 1 1 0 2 2 1 0 1 1 1 1 1 1 1 1 2 1 1 1 1 0 1 1 0 0 1 1 1 1 2 1 0 1 2 1 1 0 1 1 1 1 2 2 1 1 1 1 1 0 1 1 2 1 1 1 1 1 1 1 1 1 2 2 2 1 0 0 0 0 1 1 1 1 1 1 2 2 2 1 0 0 1 1 1 2 2 1 1 1 2 1 1 1 2 1 1 1 1 1 1 1 2 2 1 1 2 1 1 2 1 0 1 2 1 1 2 1 1 1 1 1 1 0 1 1 1 0 1 2 1 0 1 2 2 2 1 0 0 1 2 2 1 1 1 1 1 1 1 0 2 2 1 1 2 1 0 1 2 2 1 1 1 2 2 0 0 1 1 1 2 1 0 1 1 1 1 1 1 1 1 2 2 2 1 1 2 1 1 1 1 0 1 1 1 1 1 1 1 1 2 2 2 1 1 1 2 1 1 1 1 1 2 1 0 0 1 0 0 1 1 1 1 1 1 1 2 1 1 1 2 1 1 2 1 0 1 1 0 1 2 1 1 1 1 1 2 2 1 1 1 1 1 1 0 1 1 1 1 1 1 1 1 1 1 1 1 1 1 1 1 0 0 1 1 1 1 1 1 0 0 1 2 1 0 1 1 1 1 0 1 1 1 0 0 1 1 1 1 2 2 1 1 0 1 1 2 2 1 -1 0 1 2 1 2 1 0 0 1 1 0 0 1 1 1 1 1 1 1 2 1 0 1 1 0 0 1 1 1 2 1 0 1 1 0 1 2 1 1 0 0 1 1 1 1 1 1 1 1 1 0 1 1 0 1 0 0 1 1 1 1 0 1 0 0 1 1 1 1 1 2 1 1 0 1 1 0 1 1 1 1 0 1 0 0 1 1 1 1 0 0 1 1 1 1 1 1 0 1 0 0 0 1 1 1 1 0 0 1 1 1 0 0 0 1 0 0 0 1 0 1 0 1 1 2 0 1 1 1 0 2 0 1 -1 1 1 1 1 2 1 1 0 2 0 1 0 2 0 1 0 1 1 
0 0 2 -2 1 0 1 1 1 0 1 -1 2 1 1 0 1 0 0 1 0 0 1 0 1 0 0 1 1 0 1 1 1 1 0 0 0 0 0 1 1 1 0 1 1 1 2 1 0 0 1 1 1 1 2 1 0 1 0 0 0 0 0 0 1 1 0 1 1 0 1 1 0 0 1 1 1 1 1 1 1 1 1 1 1 0 1 1 0 1 0 0 0 1 1 0 1 0 0 1 1 1 0 1 1 1 1 1 0 1 1 1 0 0 1 1 1 1 1 1 0 0 1 0 0 1 1 1 1 1 1 0 0 1 1 1 0 0 1 1 1 1 0 0 0 0 1 1 1 0 1 1 1 1 1 0 0 1 1 0 1 2 2 0 0 1 0 0 0 2 2 1 0 0 1 1 0 0 1 1 1 1 0 0 0 1 0 0 1 0 0 1 1 1 1 1 1 0 1 1 1 0 1 2 1 1 1 1 1 1 1 1 0 1 2 1 1 1 2 1 1 0 1 2 2 1 2 2 1 1 2 2 1 1 0 0 1 1 1 1 2 1 1 1 1 2 1 0 1 1 1 1 1 1 1 0 0 1 1 1 1 1 2 2 2 0 0 1 1 1 1 2 2 1 1 2 2 1 0 0 1 2 2 1 1 2 2 2 1 1 1 1 1 2 2 1 1 1 2 2 1 1 0 1 2 2 2 1 1 1 1 1 1 0 1 2 2 1 1 1 1 1 1 1 1 2 2 1 1 1 2 2 1 2 3 2 1 2 3 2 2 1 1 2 2 2 2 1 1 2 2 1 0 1 2 1 0 1 2 2 1 1 2 1 1 2 1 0 0 1 2 1 2 2 1 0 1 1 1 1 1 1 1 1 1 1 1 2 1 0 1 1 1 1 1 1 1 1 1 2 1 2 2 2 1 1 1 1 1 2 1 0 1 1 0 0 1 1 1 2 1 1 2 2 1 1 1 1 1 2 2 2 2 2 1 1 1 1 1 1 1 1 1 1 1 1 1 1 1 1 1 0 0 0 0 1 1 1 1 1 0 0 1 1 1 1 1 2 2 1 1 1 2 1 1 1 1 1 1 1 1 1 2 1 1 1 0 0 0 1 2 3 1 0 0 1 1 1 2 1 0 0 2 1 1 1 0 0 0 0 0 0 0 1 1 0 1 1 1 1 1 0 0 1 1 1 1 1 0 0 0 1 1 1 1 1 2 0 1 1 0 0 1 1 0 0 0 0 0 0 1 1 1 1 1 1 0 1 1 0 0 0 0 0 1 2 0 0 1 1 0 1 0 0 0 0 0 1 1 1 1 1 0 -1 1 1 0 0 0 1 1 1 0 1 1 0 1 0 0 1 1 1 0 1 1 0 1 1 0 0 1 1 1 0 1 0 1 1 1 0 2 1 0 -1 1 1 1 -1 1 1 1 -1 1 0 0 0 3 -1 1 0 
0 2 -2 3 0 0 -1 3 0 0 1 0 0 0 0 1 0 0 1 1 0 0 1 1 0 0 1 1 1 0 0 1 1 0 0 0 -1 1 2 1 1 1 1 1 1 2 1 0 0 1 0 0 2 1 1 1 1 1 0 1 0 1 2 0 0 1 0 0 1 2 1 1 1 1 0 2 2 2 1 0 0 0 1 0 1 1 1 1 1 1 1 2 1 0 1 1 0 0 1 0 0 0 0 1 2 1 1 0 1 1 0 1 2 1 1 1 1 0 0 1 1 1 1 1 1 0 0 1 1 0 0 0 0 1 1 1 1 1 1 0 1 1 0 0 1 1 1 2 1 0 0 1 1 1 0 0 1 1 0 -1 0 1 0 0 1 1 1 1 1 1 1 1 1 1 1 2 1 0 0 0 0 0 1 2 1 0 1 1 0 1 1 1 1 1 1 1 1 1 1 0 1 2 1 0 0 1 1 2 2 2 1 1 2 1 1 1 1 1 0 0 1 1 1 1 1 1 1 1 0 1 2 2 1 1 1 1 1 1 1 0 1 1 1 1 0 0 1 1 1 2 2 2 2 1 1 2 2 2 1 1 1 1 2 2 2 2 2 2 2 2 2 2 2 1 1 2 1 0 1 1 1 1 1 1 1 1 1 1 1 1 1 1 2 1 1 1 1 2 2 2 1 1 1 2 1 1 1 1 0 1 1 1 1 2 1 2 2 1 1 1 1 1 1 1 2 2 2 1 1 2 1 1 1 1 1 1 1 2 1 1 2 2 1 1 1 1 1 1 2 1 0 1 2 1 0 1 1 1 1 2 2 1 0 2 2 1 1 1 2 1 1 2 2 2 1 1 2 2 2 1 1 1 2 2 1 1 0 1 1 1 0 1 1 1 1 1 2 1 1 1 1 1 1 1 1 1 1 1 1 1 0 1 1 0 0 1 1 0 1 1 1 2 2 1 1 1 1 1 1 1 1 1 1 1 1 1 1 1 1 1 2 2 2 2 2 1 1 1 1 0 0 0 0 1 1 1 1 1 1 1 1 1 1 2 2 1 0 1 1 2 2 1 0 1 1 0 1 2 2 1 1 1 1 1 1 1 0 0 0 1 1 1 1 2 1 1 1 1 0 0 1 1 1 2 1 1 0 1 1 1 2 2 1 1 1 1 2 1 1 1 1 1 1 1 1 1 0 0 0 1 1 1 1 1 0 1 1 0 0 0 0 1 0 0 1 1 0 0 0 1 1 0 1 1 1 1 1 1 0 1 0 0 0 1 1 0 1 1 0 0 1 1 1 1 1 1 0 0 0 2 2 0 1 0 1 0 0 1 0 0 1 2 1 0 0 1 1 1 1 1 0 1 1 0 1 2 1 1 1 1 0 1 0 0 1 1 0 0 1 1 0 0 1 1 1 0 0 1 -1 1 1 1 0 1 0 2 -2 4 0 0 
2 -3 3 0 1 0 1 -1 1 1 1 -2 1 0 0 1 1 0 1 0 1 0 1 1 0 0 1 0 1 0 1 1 1 0 0 1 0 1 0 0 1 1 -1 0 1 0 1 1 0 0 2 1 1 1 0 0 1 1 -1 0 1 0 0 0 1 1 0 1 0 0 1 1 1 0 0 1 0 0 0 0 0 0 1 1 1 0 0 1 0 1 1 0 1 1 0 0 1 0 0 0 1 1 0 0 0 0 1 1 1 1 2 1 0 1 1 0 0 1 1 1 2 1 0 1 0 1 1 1 0 1 1 0 0 1 1 0 0 0 2 2 1 0 1 1 0 1 2 1 0 0 2 2 1 1 1 1 0 1 2 1 0 1 2 2 1 1 1 1 1 1 1 1 1 0 1 1 0 1 2 1 1 1 -1 -1 0 1 1 0 1 1 0 0 2 1 1 2 1 0 1 1 1 0 1 1 1 1 1 1 1 1 2 1 0 1 2 2 2 2 2 1 1 1 1 2 1 1 2 1 1 2 2 1 2 2 1 2 2 0 1 1 1 0 0 1 1 1 2 1 1 1 1 1 1 1 1 0 1 1 1 1 1 1 1 2 1 0 1 1 1 1 1 1 2 2 1 1 2 1 1 1 1 1 1 1 1 2 2 1 1 1 1 1 2 2 1 1 1 2 3 2 1 2 1 0 2 2 1 1 2 2 1 1 1 0 1 2 2 1 1 1 1 2 2 2 2 2 1 1 0 1 2 2 2 1 2 2 1 2 2 1 1 1 1 1 2 2 2 1 0 1 3 1 0 2 3 2 0 1 2 2 1 1 2 1 1 2 1 0 0 1 2 2 2 2 1 0 1 1 1 1 2 2 1 0 0 1 1 2 1 1 1 1 1 1 1 1 2 2 1 1 1 1 1 2 1 1 2 2 1 1 1 0 1 2 1 0 1 1 1 2 2 1 2 2 1 0 1 1 1 1 2 1 1 1 1 1 1 1 1 1 1 1 1 1 1 1 1 1 1 1 1 1 2 1 0 -1 1 2 2 1 0 1 1 1 0 1 1 1 1 1 1 1 1 2 1 1 1 0 1 1 1 1 1 1 0 0 1 1 1 0 1 2 1 0 1 2 1 1 2 1 0 1 2 1 0 0 0 1 2 2 1 1 1 1 1 1 2 1 1 1 0 1 1 1 1 1 1 1 1 0 0 1 1 0 0 1 1 1 1 1 1 1 0 0 0 0 1 1 1 1 0 1 1 0 1 1 0 1 1 0 0 1 0 0 2 1 1 0 0 0 0 1 2 1 0 0 0 1 0 0 1 1 1 1 1 1 1 1 0 1 1 0 0 1 1 0 1 0 0 1 1 1 1 0 1 0 1 1 0 0 1 1 -1 0 1 -1 1 1 1 1 1 1 0 0 2 0 0 -1 1 1 0 -1 2 -1 1 2 2 -2 4 -2 
-2 7 -3 2 2 -1 0 1 1 0 1 0 0 0 0 1 -1 0 1 1 2 1 0 0 0 1 1 0 1 1 1 0 1 0 0 1 1 1 2 1 0 1 1 0 1 1 1 0 0 1 0 0 1 1 0 1 1 0 1 1 0 1 2 1 0 1 2 1 0 1 1 1 2 1 0 0 1 1 1 1 1 1 0 0 0 1 0 1 1 0 2 2 1 0 1 1 -1 0 1 1 0 0 1 0 1 1 0 1 2 0 0 1 1 1 1 1 0 0 0 -1 1 1 0 1 1 0 0 1 1 0 0 0 1 1 1 1 1 1 1 1 1 0 0 0 0 1 1 0 0 1 1 1 1 1 0 1 2 2 1 1 0 0 1 1 1 1 1 1 1 1 1 0 1 1 1 1 1 1 1 1 0 0 1 2 0 0 1 1 0 1 2 2 2 1 1 1 1 2 1 -1 0 2 1 0 1 1 1 1 2 1 1 2 2 1 1 1 2 1 0 0 1 2 1 1 0 1 2 2 1 1 1 1 1 1 2 2 1 1 1 0 0 1 1 1 1 1 0 0 1 2 1 1 1 2 2 2 2 1 0 0 1 1 1 1 2 1 1 1 1 1 2 2 1 1 1 1 1 1 0 1 1 1 1 1 1 0 0 1 1 1 1 1 1 1 1 1 1 1 1 1 2 2 2 1 1 0 1 2 1 1 1 1 0 1 1 1 2 2 1 1 1 1 2 2 2 2 1 1 1 2 1 0 2 2 1 0 1 1 1 1 1 1 0 -1 0 0 0 1 2 1 0 1 2 1 0 1 1 1 1 2 1 1 1 2 1 1 1 1 1 1 1 1 1 1 1 1 1 1 1 0 0 1 1 1 1 1 1 1 1 1 1 1 1 1 1 1 1 1 1 1 1 2 1 1 2 2 1 1 1 0 0 1 1 1 1 1 0 0 1 2 2 2 1 1 2 2 1 1 1 0 0 1 1 1 1 1 1 2 1 0 1 2 2 1 2 1 0 1 1 1 1 1 1 1 1 1 1 0 2 2 1 1 1 1 1 1 1 0 0 1 2 1 1 1 1 0 1 1 1 1 1 1 1 1 0 0 1 1 1 1 1 0 1 2 2 1 1 1 0 0 1 1 0 1 1 0 1 1 1 1 2 2 1 0 1 2 1 0 1 1 0 1 0 0 1 1 1 1 2 1 1 2 2 1 1 0 0 1 1 1 1 0 0 1 1 0 1 1 0 0 -1 0 1 0 1 1 2 2 2 1 1 0 1 1 1 1 1 1 0 1 1 0 1 1 1 1 0 0 0 2 2 1 0 1 1 0 1 1 1 0 1 1 1 -1 -1 1 2 2 0 -1 0 1 1 0 1 0 0 1 2 2 0 0 0 1 1 1 1 -1 1 2 0 0 2 1 1 0 0 1 1 1 1 0 0 1 1 -1 -1 5 -4 3 
3 -2 2 0 2 -1 1 -1 1 1 1 0 1 0 1 0 1 1 1 0 0 0 0 0 0 0 1 1 0 0 1 0 1 1 1 2 2 0 -1 1 1 1 0 1 1 0 1 2 1 0 1 2 1 1 1 0 1 1 0 -1 1 2 0 1 2 1 0 1 1 1 0 1 1 0 1 0 -1 0 0 1 0 1 1 2 1 1 0 0 1 0 0 0 0 1 0 0 1 1 -1 0 1 1 1 0 0 1 1 2 2 1 1 0 0 0 0 1 0 0 1 1 1 1 1 0 0 1 1 0 0 1 1 1 1 2 1 1 0 0 1 2 1 1 1 0 0 1 1 1 1 1 1 1 0 1 2 2 1 1 2 1 1 1 0 1 2 1 1 0 0 1 2 2 1 1 1 1 1 2 1 1 3 2 0 0 1 1 0 0 2 2 0 0 2 1 0 1 1 1 1 2 1 0 1 2 1 0 1 1 1 1 2 1 1 2 2 1 1 1 1 0 0 0 1 2 1 1 2 1 1 1 1 0 1 1 1 2 1 0 1 1 1 1 1 1 1 2 1 1 0 1 1 1 1 1 2 1 0 1 1 0 0 0 1 2 2 1 1 1 1 1 1 1 1 2 2 1 1 1 1 2 2 2 2 1 1 2 3 1 0 2 2 1 2 3 1 1 2 2 2 1 0 1 1 1 1 2 1 1 3 3 1 0 0 1 2 2 2 2 2 1 0 1 2 2 2 2 1 1 0 0 2 2 1 1 2 1 1 2 2 1 0 0 0 0 1 1 2 1 0 2 3 1 0 1 2 1 0 1 1 1 1 2 2 1 1 2 1 0 0 2 2 2 2 2 1 0 0 0 0 1 2 2 1 1 1 1 1 2 1 1 1 1 1 1 1 2 1 1 1 1 1 1 1 1 1 1 2 1 1 2 2 1 1 2 1 0 1 2 1 1 1 1 2 2 0 0 1 1 0 1 1 0 1 1 1 1 1 1 1 0 0 1 2 1 1 1 1 1 1 2 2 2 2 2 0 0 1 1 2 1 0 1 1 0 0 1 1 1 1 1 0 0 1 1 1 1 1 1 1 1 1 2 2 2 1 1 1 2 2 1 1 1 0 0 1 2 0 -1 0 2 1 1 1 1 0 0 0 0 1 1 1 0 1 1 0 1 1 1 1 0 0 0 1 1 0 0 1 1 0 1 0 0 0 0 0 1 1 2 1 1 1 0 1 1 0 0 0 1 1 2 1 1 -1 0 1 1 1 0 0 0 0 0 1 0 0 1 0 1 1 0 0 1 2 1 0 0 1 0 1 0 -1 1 1 1 1 1 1 0 1 1 0 -1 1 1 0 1 0 1 1 1 1 1 1 1 0 0 1 1 0 1 1 0 1 1 1 0 1 1 1 0 1 1 0 0 1 0 0 0 2 0 1 0 0 0 2 0 3 -2 2 -1 
1 1 -1 2 -1 1 -1 1 1 1 -1 3 0 0 0 0 -1 1 0 1 1 2 0 1 1 1 0 1 0 1 1 1 0 1 0 0 1 1 2 1 0 1 1 1 1 1 0 0 1 2 0 1 0 1 1 2 1 0 1 2 1 1 1 1 -1 0 2 1 1 1 0 0 2 1 0 0 1 1 1 1 1 0 0 1 0 0 1 0 1 1 1 2 1 0 1 1 0 0 1 1 -1 0 1 1 0 2 1 0 0 1 0 1 2 1 0 1 2 1 1 1 0 1 1 1 1 0 0 1 1 0 0 1 1 0 0 1 1 0 0 0 1 1 1 1 1 1 0 1 1 1 1 1 1 1 0 1 1 1 1 1 0 1 1 1 1 1 1 0 1 0 -1 0 1 1 1 1 1 1 2 1 0 1 3 3 0 0 2 1 0 1 2 2 1 0 1 1 1 2 2 0 0 1 1 0 1 1 0 1 2 1 0 2 2 1 0 2 2 1 0 0 1 2 1 0 1 1 1 1 1 1 1 1 1 1 2 1 0 1 1 0 1 2 2 1 1 1 0 1 1 1 1 1 1 1 1 2 1 1 0 1 1 2 1 0 1 2 1 2 2 1 1 2 1 0 1 1 0 0 0 0 1 2 2 1 2 1 0 1 2 2 1 1 1 1 1 2 1 0 0 1 1 2 2 1 0 0 2 3 2 1 0 0 1 2 1 0 1 2 2 2 1 0 1 3 2 1 0 0 1 2 0 0 2 2 1 1 1 1 0 1 2 1 0 1 0 0 0 1 2 1 1 1 2 1 0 1 2 1 1 1 1 2 1 1 2 1 1 2 2 1 1 2 1 0 1 2 1 1 1 1 1 2 2 1 1 2 2 1 2 2 1 1 1 1 1 1 1 1 1 1 0 1 1 1 1 1 1 1 2 1 0 2 2 1 1 2 1 0 1 2 2 2 1 1 2 2 1 0 1 1 1 1 1 1 1 1 1 1 0 0 1 2 2 2 2 1 1 2 1 0 2 1 0 1 1 1 1 2 2 2 2 1 -1 0 1 1 0 0 1 1 1 0 0 1 2 1 1 1 1 0 1 1 1 1 1 1 1 1 1 1 1 0 1 2 2 0 0 0 0 0 1 1 1 1 1 1 1 1 0 0 1 1 1 1 1 1 1 1 0 0 2 1 1 2 2 1 0 1 1 1 2 1 0 1 1 1 0 0 1 2 2 0 0 1 1 1 1 1 0 0 0 0 0 1 0 0 2 2 0 1 1 1 1 2 0 0 0 1 0 1 2 0 0 1 1 1 1 0 0 0 0 2 1 1 1 1 0 0 1 0 1 1 0 0 0 1 1 2 1 0 -1 1 0 1 0 1 0 1 1 2 0 0 1 1 0 1 0 1 1 1 -1 0 1 1 -1 2 1 1 0 1 1 2 -1 3 0 1 -1 2 1 1 
4 -6 7 -2 -2 2 1 -2 0 3 1 1 0 1 0 0 1 1 0 0 -1 0 0 0 0 1 0 1 0 1 1 1 -1 1 2 1 1 0 0 0 1 0 0 1 1 0 0 2 1 -1 1 2 0 1 2 0 0 2 0 -1 1 1 -1 0 1 0 0 2 1 1 2 1 0 0 1 0 0 0 0 1 1 0 1 2 1 0 0 0 -1 2 0 -1 1 2 0 -1 3 2 -2 0 2 1 -1 1 0 0 2 1 0 1 1 0 0 1 1 0 0 1 0 1 0 1 2 1 0 1 1 -1 -1 1 1 0 1 1 1 1 0 1 1 1 1 1 1 1 0 0 1 2 1 1 1 1 0 1 1 1 1 1 1 1 1 1 0 0 1 2 1 0 0 1 1 1 1 1 1 1 1 1 1 1 1 3 1 -1 1 2 -1 -1 2 2 -1 0 2 1 0 1 1 1 0 2 1 0 1 2 1 0 1 1 1 2 2 1 -1 1 2 1 0 2 2 1 0 1 1 2 1 1 1 2 1 1 0 1 2 2 0 1 2 1 1 2 1 1 1 1 1 2 2 1 1 2 1 0 0 2 2 1 1 2 2 2 1 1 1 2 2 1 0 1 0 1 2 1 0 2 2 1 0 1 1 1 1 1 1 2 1 1 2 2 0 1 2 1 1 2 1 1 1 1 2 1 0 2 1 0 1 2 0 1 3 2 0 1 1 0 2 3 1 1 2 1 0 1 1 1 1 1 2 2 0 0 2 3 1 1 3 2 0 2 2 1 1 2 1 2 2 2 2 1 0 2 3 1 -1 2 2 1 1 1 1 1 0 1 2 1 1 2 2 0 0 2 1 1 2 2 0 0 1 2 2 1 1 2 2 1 1 1 2 3 2 1 1 1 1 0 1 2 2 2 1 1 1 0 0 1 1 1 2 0 0 2 3 2 2 3 1 1 2 2 1 1 1 1 1 2 1 0 1 2 1 2 2 1 1 2 1 1 1 1 1 1 0 1 2 1 0 2 1 -1 0 1 2 2 2 2 1 1 1 2 1 1 0 1 2 1 -1 0 1 1 1 1 0 1 2 1 1 2 1 1 1 1 1 1 2 1 0 1 1 2 2 2 1 2 1 -1 1 3 0 -1 2 3 0 1 2 1 1 1 -1 0 1 1 1 0 1 1 1 0 0 2 2 1 0 1 2 1 0 1 1 1 1 1 0 -1 0 0 -1 1 1 2 1 0 0 1 1 1 0 1 0 0 0 1 2 1 0 1 1 2 0 0 0 0 1 2 1 0 1 1 -1 0 1 1 0 1 1 1 0 0 1 1 1 1 0 1 1 0 0 2 0 0 1 1 0 0 1 2 1 0 1 1 0 1 1 0 -1 2 1 0 0 1 0 0 1 1 0 1 1 0 1 2 0 1 2 0 -1 1 1 1 0 1 2 0 -1 1 2 1 -1 3 3 -6 7 -1 
-7 18 -15 7 1 1 -5 7 -2 1 -1 4 -2 2 -1 2 -1 1 -1 2 -1 2 0 1 -1 3 0 1 1 2 -2 1 1 1 -1 1 0 1 1 2 -1 0 1 1 -2 2 -1 -1 2 3 -1 1 2 0 0 3 0 -1 0 4 0 -1 2 1 -1 1 1 1 0 2 0 -1 1 2 0 1 1 1 1 1 0 1 1 0 1 1 0 2 1 0 1 3 0 -2 1 3 -2 -1 3 1 -2 1 1 0 1 2 0 0 1 1 -1 2 2 0 0 1 0 1 1 1 1 1 0 1 2 1 -1 1 2 0 -1 2 0 -1 0 2 1 2 1 0 1 1 0 1 1 1 0 1 0 1 2 2 1 1 0 0 1 1 0 1 1 0 0 1 1 1 2 1 0 1 0 -1 1 2 0 0 1 0 0 2 1 -1 1 3 0 0 3 3 0 0 3 1 -2 1 2 0 1 2 1 0 1 2 1 1 2 2 0 1 2 0 0 2 3 0 0 3 3 1 0 1 1 1 1 0 0 0 1 2 2 2 2 1 0 1 2 1 0 1 2 1 0 2 3 1 0 2 1 1 1 1 2 2 1 1 2 2 1 1 1 1 1 2 2 1 2 2 1 2 2 2 1 2 2 1 1 1 1 1 1 1 1 1 1 2 2 2 1 0 1 2 2 1 2 1 1 1 2 1 0 1 2 2 1 2 1 0 2 3 0 0 1 0 1 3 2 0 1 1 0 1 3 2 0 1 2 1 0 1 2 2 0 0 2 2 1 2 2 1 1 1 1 2 1 1 1 1 0 1 2 1 -1 1 4 2 -1 1 3 1 0 2 2 0 1 2 1 0 2 3 2 1 1 1 0 0 1 2 1 1 2 1 1 1 1 1 0 1 2 2 1 1 1 1 1 1 2 1 0 2 2 0 0 1 1 1 2 2 0 1 2 0 0 3 2 0 2 4 1 1 2 1 1 2 1 0 2 2 0 1 2 0 1 2 1 -1 1 2 1 0 0 1 1 1 1 1 1 1 0 1 1 0 0 1 0 0 1 0 0 1 1 2 3 2 0 1 1 0 0 1 1 2 1 0 0 3 2 1 2 1 -1 0 1 0 0 2 1 1 2 1 -1 2 2 0 1 4 1 -2 1 3 1 1 2 2 0 1 2 1 0 2 1 0 1 1 0 0 0 1 1 0 -1 1 2 1 0 2 1 0 0 2 1 1 1 1 -1 0 0 1 0 0 0 2 1 0 0 2 1 1 0 1 1 1 0 0 2 1 -1 1 2 1 -1 2 1 0 1 2 -1 -1 2 1 -1 2 2 1 0 1 0 1 1 1 -1 2 1 0 0 2 1 0 -1 1 1 0 0 3 0 1 1 1 -1 1 2 2 -1 1 0 0 0 3 0 0 2 2 -2 1 0 1 0 2 -1 1 0 2 -2 1 0 3 -1 2 -1 3 -3 2 1 4 -4 5 0 1 -8 16 -16 8 
11 -21 19 -7 3 -2 7 -5 2 1 4 -4 3 -1 1 -1 3 0 1 -1 1 -1 2 0 2 -1 1 0 2 0 2 1 0 0 3 0 1 1 1 -1 2 0 0 1 1 -1 1 2 1 -1 2 1 -1 1 3 -1 0 3 0 -2 2 1 -2 -1 3 0 -1 2 2 -2 2 2 -1 0 2 1 0 0 1 0 2 0 0 2 2 0 0 0 -1 1 2 -2 0 3 0 -2 3 2 -3 -1 3 0 -1 1 1 -1 2 1 -1 0 3 -1 -1 1 0 -1 2 1 0 1 1 -1 1 2 0 0 2 0 -1 1 2 -1 0 1 1 0 1 1 1 1 1 1 0 0 0 0 1 1 1 1 1 1 0 1 1 0 1 2 1 0 1 1 1 2 2 0 2 3 0 -1 2 2 0 0 2 0 0 1 1 -1 1 3 0 -2 2 3 0 1 3 1 -1 0 2 1 0 1 3 0 -1 2 2 0 2 3 1 0 3 1 0 2 4 0 0 3 2 0 2 2 1 2 1 -1 1 2 0 0 2 2 1 2 1 0 2 2 0 1 2 1 0 2 2 1 1 1 1 1 0 0 2 1 0 1 3 2 1 1 1 1 1 1 1 0 1 3 2 0 2 2 -1 1 3 1 0 3 3 0 1 2 0 1 2 1 1 2 -1 0 2 0 1 2 1 1 2 0 0 3 1 -1 3 3 -1 1 3 0 0 3 0 -1 3 2 0 2 3 0 2 4 0 0 2 1 1 4 3 0 1 1 1 3 2 0 3 3 0 1 4 1 1 3 1 0 2 2 0 2 3 0 2 3 -1 0 4 1 -2 2 3 1 1 2 2 1 0 1 2 1 0 3 3 0 1 3 1 0 3 2 0 1 2 1 1 2 2 1 1 1 1 0 1 3 2 1 2 2 1 1 2 1 2 1 0 1 2 1 1 3 1 0 3 1 0 3 4 0 2 4 0 -1 4 3 -1 2 3 -1 1 3 0 -1 3 1 -1 2 2 -1 1 3 1 0 2 1 0 2 1 0 1 1 0 1 2 0 1 2 1 1 2 1 0 1 1 0 2 1 -1 1 3 1 0 2 2 0 1 1 0 0 3 0 0 2 1 -1 1 2 1 1 2 0 0 1 1 0 2 1 0 2 1 -2 0 3 1 -1 4 3 0 0 2 0 0 2 2 0 1 2 1 0 1 1 1 0 1 1 1 1 0 0 2 1 0 1 2 1 2 1 -1 -1 1 0 -1 0 1 1 1 0 0 1 2 0 0 1 2 0 1 1 1 0 1 0 2 1 0 1 2 0 0 2 0 -1 2 1 -1 -1 3 1 -1 1 1 -2 0 1 0 1 2 0 0 1 2 -1 0 1 1 -1 1 2 1 -1 1 2 2 -2 2 1 0 0 2 0 0 1 2 -1 2 2 1 -2 2 1 0 0 2 -1 1 0 1 -1 3 -1 1 0 3 -1 2 -2 3 0 2 -4 7 -3 3 -1 11 -18 20 -8 
-4 11 -8 4 0 3 -2 3 0 0 -1 2 0 1 1 2 0 2 0 1 0 1 -1 1 1 0 0 1 -1 2 1 0 0 1 -1 1 1 1 0 2 0 0 0 1 0 1 1 1 1 2 0 0 1 0 0 2 1 -1 1 2 -1 0 1 0 -2 1 1 0 1 3 0 0 1 1 1 1 2 1 1 1 0 0 0 1 0 2 1 0 2 1 -1 1 1 -1 0 2 -1 0 2 1 -1 1 1 -1 1 2 -1 0 1 0 0 2 1 0 1 1 0 1 2 1 1 1 0 0 1 1 0 1 1 0 0 1 0 0 -1 0 1 1 0 1 1 1 1 1 1 2 1 0 0 1 0 1 1 1 0 2 1 0 1 1 0 1 2 1 1 3 2 1 2 1 -1 0 2 1 1 2 1 0 0 1 0 0 1 1 1 1 2 2 0 0 1 0 0 1 1 2 1 1 1 1 1 2 2 1 2 2 0 1 2 1 0 2 2 0 2 2 1 1 2 0 0 2 1 0 1 1 0 2 3 1 1 2 0 1 3 1 0 1 1 1 2 1 0 2 1 -1 1 1 0 1 3 2 2 2 1 1 1 1 1 2 1 1 2 1 0 2 0 0 2 2 0 2 2 0 1 3 1 0 3 1 0 2 1 -1 1 1 0 2 3 1 2 3 0 0 2 0 0 4 1 0 3 1 -1 2 2 0 2 3 -1 1 4 1 0 3 1 0 3 1 -2 2 4 1 2 3 0 0 2 0 1 4 1 0 3 2 0 3 2 0 2 3 -1 2 4 -1 -1 2 0 0 2 1 -1 2 3 1 1 2 2 2 2 2 3 3 0 1 2 1 1 3 2 0 2 3 0 1 2 2 1 2 1 1 2 1 0 1 1 2 2 1 1 2 1 1 2 2 1 2 1 0 1 2 0 2 2 1 1 1 0 1 4 1 0 3 2 -1 2 3 0 1 3 1 0 3 1 -1 1 1 -1 1 2 -1 -1 2 1 0 2 1 0 1 1 1 1 1 0 1 2 1 1 1 1 1 1 0 1 1 1 1 0 0 0 1 2 2 0 1 2 2 0 2 0 0 1 1 0 1 3 1 0 2 0 -1 1 1 0 2 1 0 0 1 -1 0 2 1 0 2 1 -1 1 3 1 1 2 1 0 1 1 1 2 1 1 1 1 1 1 1 1 2 1 1 0 0 0 1 1 1 1 0 0 2 2 0 0 2 0 -1 1 0 0 1 1 0 1 1 1 2 2 0 0 2 1 1 0 1 0 2 1 0 1 0 0 1 1 1 1 2 0 -1 0 1 0 1 2 1 -1 1 1 0 1 2 1 1 2 0 -1 1 1 0 -1 1 0 1 0 0 1 1 0 1 0 1 1 2 0 0 1 0 0 2 0 0 0 2 0 0 1 2 -2 2 0 0 0 1 -2 0 1 1 0 1 -2 2 0 1 0 3 -1 2 1 2 -4 8 -8 4 
