P2
640 480
255
1 -1 0 2 2 1 1 4 0 1 1 -1 -3 0 1 1 0 0 0 1 2 1 5 1 1 0 -2 0 0 0 -5 0 0 4 1 4 3 0 -1 1 0 0 0 0 0 0 1 0 0 0 1 0 1 0 0 -4 0 -1 1 1 0 5 1 0 1 -1 0 -2 1 -1 0 0 -2 -1 -1 1 0 1 0 0 1 1 0 0 -1 0 0 2 0 0 1 0 0 1 6 1 3 1 0 0 1 1 0 -1 1 1 6 1 2 2 2 1 0 0 4 0 1 2 0 0 1 0 -2 1 -2 1 0 -1 0 0 -1 0 -4 -1 1 1 -1 -1 -1 1 -4 0 1 5 1 0 1 1 1 -5 -6 1 2 1 2 1 0 4 0 2 0 0 2 1 0 1 2 0 -3 -1 0 -3 1 0 1 2 1 3 2 0 0 0 1 1 1 0 0 0 0 0 5 0 -7 1 2 0 0 1 1 1 -1 3 1 -2 1 0 -1 -1 1 -3 -2 1 0 3 0 2 1 0 6 2 1 1 1 2 0 0 0 1 -5 0 1 1 1 1 -4 0 0 0 1 1 -1 3 6 5 1 -1 -3 0 4 0 0 -2 1 1 0 0 2 0 4 0 -1 1 0 -1 1 1 0 0 1 1 0 0 1 1 0 0 0 0 0 0 1 0 0 0 1 0 1 0 0 1 -2 -3 0 -1 1 -4 0 1 0 -4 0 0 2 1 3 0 1 1 1 0 1 1 7 0 1 2 2 4 0 1 1 2 0 1 0 2 1 -2 0 1 1 0 0 1 0 1 0 0 0 1 0 -4 1 -2 1 -3 -1 -6 -3 0 0 5 1 1 0 0 1 1 0 2 1 1 0 2 0 4 7 6 2 2 0 1 1 0 0 0 2 1 -1 0 0 2 1 0 1 1 -3 0 3 1 0 1 -1 0 1 0 1 8 2 0 -1 1 0 2 0 0 1 0 1 1 0 0 1 3 5 1 1 1 -1 0 0 0 1 1 -1 0 -1 1 0 1 0 -1 -3 1 0 0 0 0 1 0 1 0 0 1 1 0 1 5 2 1 0 2 -1 -1 -1 1 4 1 1 1 0 0 -3 0 0 1 1 1 0 1 -1 0 0 1 1 1 1 1 1 0 -4 1 -3 0 -1 1 1 1 1 0 0 1 0 0 5 2 1 1 1 0 2 -1 1 1 0 1 0 0 1 0 0 -1 0 1 0 2 1 1 1 0 0 2 -3 -4 0 -7 -6 0 -1 0 1 0 0 0 1 1 0 2 0 2 0 0 -3 1 1 0 0 0 0 0 -5 -5 0 1 1 1 1 -1 0 1 1 1 4 1 1 0 -1 1 0 -4 0 0 0 0 1 1 -1 1 0 -4 -1 -1 1 1 0 2 2 0 1 4 2 0 0 -2 -1 -1 1 1 1 -1 0 -2 0 -1 4 1 0 -3 0 1 0 1 1 2 3 0 0 0 0 0 -1 -5 -1 1 0 -1 1 0 0 1 1 1 -4 0 1 -2 0 1 1 0 
-1 0 2 3 0 0 2 2 0 4 0 0 -1 4 0 -1 0 0 0 0 1 4 0 0 1 -1 -3 -3 0 0 0 1 1 0 1 1 0 1 1 0 1 4 1 1 0 -3 -1 1 0 1 1 5 2 0 0 1 -1 -1 2 1 1 0 1 0 1 1 1 1 -1 1 1 1 0 -2 1 2 2 3 1 0 1 1 1 -3 0 0 0 0 2 -1 0 0 0 1 1 0 1 0 -1 2 1 0 0 0 0 1 0 1 1 1 0 0 2 -1 -1 1 0 0 0 1 0 0 1 2 -1 0 1 1 0 2 0 -1 0 1 1 0 1 1 -1 2 0 0 1 1 0 0 0 1 2 0 -5 -1 0 1 0 1 1 0 0 1 0 0 0 0 0 -4 1 0 1 0 -4 0 1 1 -1 1 -1 1 1 1 1 1 0 0 0 -1 -6 -1 1 1 -1 2 -1 1 -3 1 0 0 0 2 2 0 0 0 0 0 0 0 1 1 2 0 1 0 1 1 2 1 0 2 0 1 1 0 0 0 1 0 1 1 0 1 0 1 1 0 1 -1 0 2 1 1 1 1 0 0 2 1 -1 1 -2 0 0 3 2 0 1 1 0 2 0 2 2 1 1 2 1 1 1 1 2 1 1 1 1 0 1 1 1 1 0 0 -5 -1 0 -2 -1 1 1 0 -6 0 0 1 -1 -3 1 1 0 0 1 0 0 0 2 0 0 0 -2 -5 0 -1 2 -1 0 0 0 1 1 2 1 -2 2 -1 1 1 0 0 0 -1 1 0 -7 -6 0 3 3 1 -1 0 0 1 0 1 1 0 1 -1 0 0 0 0 5 1 1 1 0 1 0 1 0 0 0 0 0 1 -2 0 1 -1 1 0 -1 1 -3 1 0 -3 0 -1 1 1 1 -2 1 1 0 1 4 1 3 1 -1 0 0 1 0 2 0 0 1 -1 0 2 1 0 -1 1 -1 0 0 1 0 0 -1 -1 2 0 1 1 -5 1 -1 -4 -1 1 0 -1 1 0 -1 1 5 1 -3 0 1 2 0 0 0 1 -1 1 1 0 0 -1 1 0 -1 1 2 0 0 0 1 -1 0 -1 2 1 0 3 1 3 0 1 0 0 0 0 0 0 1 1 0 1 0 1 0 -1 0 0 -1 -1 2 0 0 0 1 1 0 1 2 1 4 1 -1 -1 1 0 0 0 2 0 0 1 -1 0 0 1 0 1 1 6 0 2 2 2 0 -1 0 0 1 1 -1 1 1 -1 -3 1 0 1 1 1 1 4 0 1 1 0 -1 1 0 2 1 2 1 0 0 -3 0 0 0 0 0 0 0 0 1 0 2 1 -1 0 -1 -1 1 0 2 1 0 -1 0 1 1 -1 0 1 1 0 0 0 0 1 0 0 -2 1 1 1 1 0 1 0 0 1 2 2 1 0 1 2 0 4 1 1 0 4 1 1 1 1 1 1 6 0 1 0 1 1 0 1 -3 -4 -1 0 -1 1 0 1 -2 -1 1 0 1 1 1 0 
0 1 0 1 2 1 1 1 1 0 0 0 2 1 -2 0 1 0 1 1 1 0 1 -2 0 0 -1 -3 -1 1 0 -1 0 -5 1 1 0 2 2 0 1 4 -1 0 1 2 0 1 0 0 4 4 1 1 0 0 0 2 0 1 3 1 -1 -2 1 1 1 1 1 1 1 -1 -2 0 1 0 0 0 1 -1 1 1 1 -1 0 -1 1 4 0 1 -1 1 0 0 0 -1 1 1 1 0 2 0 0 1 5 1 1 3 0 1 1 1 1 1 5 0 0 0 -1 1 0 1 -1 1 1 0 1 0 1 1 1 1 -3 -1 1 1 -1 1 1 0 0 1 1 4 3 0 0 0 1 0 1 -1 1 0 1 0 2 0 0 1 1 0 0 0 0 -1 -1 1 0 1 0 2 0 2 1 0 0 1 1 0 0 0 0 1 0 0 0 -2 2 0 1 1 1 0 1 -3 -1 0 4 -1 1 3 1 1 0 0 0 -1 -1 0 6 1 0 0 0 1 0 0 1 0 1 0 -5 -1 1 0 0 1 0 0 0 1 -1 0 1 0 -1 -1 1 1 0 0 1 0 0 0 0 1 0 0 -5 -1 1 0 0 1 0 0 0 -1 1 1 1 2 1 0 1 1 0 1 1 0 0 0 -2 1 0 -1 0 -1 0 1 0 1 1 0 1 0 -1 0 0 0 -2 2 0 0 0 1 0 2 1 0 -1 1 1 0 0 0 0 0 0 1 0 1 0 2 0 2 2 -1 1 -1 0 0 1 1 1 0 1 0 0 -5 -5 1 1 1 0 2 0 -3 0 0 1 1 0 1 0 0 1 0 0 0 2 0 0 1 0 1 0 0 1 2 0 0 -3 0 -5 -1 0 1 1 0 0 1 -1 1 -1 0 3 1 1 0 0 0 2 1 0 1 1 0 1 0 1 0 0 1 0 0 0 0 0 1 1 0 1 1 0 -1 0 1 0 0 -1 1 0 1 -1 0 1 1 1 1 -1 -1 -1 1 3 -1 0 -5 1 3 2 1 1 4 0 0 0 0 0 1 0 -1 -2 0 -1 2 1 -6 0 1 0 0 0 1 -1 0 1 0 1 0 0 1 -1 -2 -2 0 0 0 -2 0 0 1 1 -1 1 0 -1 -5 -1 0 0 0 0 1 1 1 1 2 0 1 1 2 0 0 -1 0 0 0 0 1 0 -1 2 0 0 1 2 -2 0 0 0 0 0 -2 0 -3 5 1 3 1 -1 -3 0 -1 1 0 0 1 -1 0 -1 -1 -1 0 1 2 -1 0 2 0 0 0 1 0 0 1 0 -5 -1 0 -5 0 0 2 0 4 0 0 0 0 0 0 0 1 2 0 1 0 1 0 -1 1 -2 -2 0 4 2 1 2 1 1 0 -1 0 1 0 1 -2 1 0 1 0 1 0 0 1 1 1 1 1 1 2 -1 0 1 0 1 0 0 1 1 2 0 1 0 1 1 1 0 2 1 0 -1 1 0 -3 0 0 1 1 1 0 2 -1 1 0 3 2 
0 0 1 3 1 1 0 0 3 2 0 1 0 0 0 1 0 0 -1 0 1 0 1 -1 -1 0 -2 0 0 0 1 0 0 1 0 1 0 1 -1 2 0 0 1 1 0 0 0 0 0 1 0 4 1 2 1 1 0 0 0 1 0 1 1 0 -4 0 3 0 -4 0 0 0 0 1 0 0 1 1 1 -4 0 1 1 -1 0 3 1 1 0 0 1 -1 0 0 0 1 1 0 1 0 1 8 2 1 0 2 2 3 0 0 1 0 0 1 6 1 0 -1 -3 -2 1 0 0 1 1 1 -1 -2 0 0 0 0 -2 1 2 2 0 -1 1 0 -2 0 -5 2 0 0 -1 -1 2 0 0 3 5 1 -1 0 -1 1 0 -3 0 1 2 1 0 -1 1 1 1 0 0 1 1 0 0 0 1 3 0 2 0 -3 2 1 -1 1 2 -1 -1 2 1 0 1 1 1 1 0 4 0 1 -2 1 3 0 1 0 0 1 1 1 1 0 1 -2 1 2 0 -3 0 1 0 1 0 1 0 1 0 1 1 1 1 1 -1 0 1 0 -1 2 1 1 0 -2 -1 0 0 1 0 0 1 1 0 1 1 2 1 1 0 1 0 -1 0 1 0 1 1 -1 2 1 0 0 1 1 -1 0 0 2 2 3 1 1 2 0 1 0 0 1 1 -1 -1 0 -2 1 2 1 0 1 0 -1 -2 -4 1 0 1 1 1 1 0 1 0 1 0 0 1 2 1 -1 -2 1 1 0 1 0 -6 0 0 4 1 1 0 1 -1 -1 -1 -1 1 2 0 0 -1 3 1 1 0 1 0 0 -1 0 -1 0 -2 2 3 0 0 2 1 0 -2 0 1 1 1 1 0 -1 -1 -1 0 0 0 -5 0 -1 0 6 1 -2 2 0 1 0 1 0 1 3 1 -1 0 0 0 2 0 0 1 1 0 2 1 0 0 -1 3 1 0 0 0 1 0 1 1 -1 0 0 0 2 1 0 0 2 1 1 1 1 1 0 0 1 0 1 1 0 1 2 1 0 0 0 1 -1 0 0 1 0 -1 1 2 0 1 0 1 0 1 0 0 0 -2 0 -1 1 0 1 1 0 0 0 1 0 0 -5 1 1 0 1 1 0 1 -1 1 -1 -1 1 1 1 1 0 0 0 0 4 0 1 0 -2 0 0 1 0 0 1 1 0 1 0 1 0 0 0 6 2 0 -1 0 1 1 0 3 0 0 5 1 1 0 2 0 0 0 1 -4 -2 -1 1 0 1 1 2 0 0 -1 0 1 0 0 2 0 -1 1 -1 1 -1 -1 -1 -3 0 0 -1 0 2 0 0 0 0 1 1 0 0 0 0 0 -1 1 1 1 -1 0 1 2 0 2 0 2 0 1 1 0 0 1 0 0 0 2 0 2 2 5 1 0 1 0 -2 -1 0 2 0 0 1 1 -1 -2 0 2 0 1 0 0 0 1 0 -1 1 0 1 -1 1 0 0 1 1 -4 0 0 2 0 0 2 1 1 1 0 1 
0 3 1 -1 0 0 0 1 0 -1 1 0 0 0 0 1 0 0 0 1 2 1 0 1 1 1 1 4 0 0 0 -1 2 0 2 1 0 0 1 -3 -1 1 0 1 0 1 0 4 1 2 0 1 2 0 0 0 0 1 0 0 -1 2 1 1 0 5 2 1 1 1 2 1 3 1 1 1 0 1 1 1 0 0 1 0 0 0 1 0 1 0 0 1 -1 -1 3 3 1 0 0 0 1 2 5 4 0 1 1 1 -2 -1 1 1 1 1 1 2 0 1 1 0 1 1 1 0 1 3 0 1 -2 -1 2 2 2 2 0 0 1 -4 -2 -2 1 -1 0 0 1 1 0 1 1 -1 0 1 0 -1 0 -6 0 -1 0 0 0 0 0 1 1 1 1 -1 3 0 1 2 1 0 1 1 -1 1 -1 1 0 3 1 0 -5 -4 1 0 1 0 0 1 0 1 2 1 1 0 0 0 0 6 1 2 0 1 0 0 0 1 2 1 1 0 -2 1 0 -2 -1 0 0 0 -1 2 1 1 0 -1 1 0 1 0 1 2 0 5 4 1 0 0 1 1 1 0 1 0 1 0 -1 1 0 1 2 1 1 0 1 0 2 2 1 1 0 0 -2 1 0 1 -1 0 -1 0 1 1 2 -1 1 2 1 1 4 1 1 0 0 1 -1 1 1 1 2 1 -1 1 1 0 0 0 0 -1 -2 0 0 -1 0 0 -1 1 1 1 1 1 0 1 0 0 1 -1 -1 0 -1 1 -2 1 2 1 1 0 0 2 0 1 -1 -6 -8 0 1 0 0 -1 0 1 0 0 1 1 0 1 2 1 2 1 0 0 -2 2 1 0 1 -1 2 1 0 1 0 1 2 1 0 1 1 -1 -2 -1 4 1 2 0 -2 0 0 1 1 0 0 0 0 1 0 0 -1 1 0 0 0 -1 0 0 1 0 1 1 -1 1 0 -1 1 3 1 0 0 0 1 1 1 1 0 1 1 1 0 0 5 -1 0 -2 0 1 -1 1 1 0 -1 1 0 2 2 1 0 1 1 0 -1 -6 0 0 0 1 1 0 0 0 -1 0 0 -1 1 0 1 0 5 -3 1 1 1 -2 1 1 1 -2 0 0 1 -1 1 0 1 1 0 1 1 0 -1 0 -1 1 -1 -1 1 1 0 0 -1 -2 -2 2 0 2 -1 0 0 0 2 -1 -3 -1 1 -1 1 4 1 1 1 1 1 0 1 1 1 -1 0 1 2 0 0 1 0 1 -3 0 1 0 1 0 3 0 0 0 0 1 -1 0 -1 2 0 0 0 0 1 0 1 1 0 2 1 1 -2 -3 0 0 3 1 0 1 0 0 2 2 0 0 1 -1 -3 0 0 0 0 0 0 0 1 2 1 0 0 -1 -1 -1 1 1 0 4 2 0 1 1 -1 1 0 -5 0 2 0 1 0 0 -1 1 1 1 4 1 1 -1 -3 -1 2 0 -5 -1 1 1 1 0 0 2 0 0 -1 2 0 0 0 1 1 1 1 1 1 1 
-1 1 0 0 1 -1 -3 1 0 1 3 1 1 1 1 2 1 0 0 -1 0 0 0 -1 0 0 1 4 1 1 2 0 0 -1 0 0 0 1 1 0 0 0 -3 1 0 0 0 5 1 1 1 2 3 0 0 -1 0 1 -1 0 1 1 2 0 0 0 2 -1 2 -1 0 0 -1 0 1 -1 0 0 0 0 0 -2 1 1 -1 1 1 0 -1 1 0 1 0 1 0 -1 0 1 1 0 0 0 2 1 0 0 0 0 -1 -1 0 0 -1 0 1 0 1 -1 2 1 0 1 0 4 0 1 1 1 1 0 1 5 1 -1 0 -1 1 2 -1 0 5 1 0 1 5 2 1 0 -1 0 1 0 0 0 0 0 2 1 1 -1 0 3 1 0 1 1 1 1 0 0 0 1 0 1 1 0 -2 0 1 0 3 0 0 0 0 0 0 2 0 1 0 0 -5 0 2 7 1 1 3 1 0 -1 1 0 0 0 0 1 0 -1 3 0 0 -4 0 5 -1 -2 0 0 -1 0 1 0 -1 2 1 2 -1 -1 -2 1 0 2 -1 4 -1 1 -1 0 0 2 0 1 1 -6 0 -2 1 0 1 -1 -1 0 0 0 -3 1 1 1 1 -1 -1 0 0 5 2 0 0 0 2 1 3 1 1 -1 3 0 1 0 1 2 1 1 0 0 1 0 -1 4 0 0 0 0 3 -1 0 1 -1 0 -2 -2 -1 -4 -1 0 1 0 0 1 0 1 1 0 0 0 0 1 0 2 0 0 0 1 1 -3 1 2 2 5 0 1 2 0 1 -4 -2 -1 1 3 0 1 0 -1 -1 0 1 0 0 1 1 1 1 0 2 0 1 1 -1 0 1 0 1 1 2 0 0 0 1 0 0 -1 0 0 3 1 1 1 1 -3 -3 1 1 1 -2 -1 0 1 0 0 0 1 1 1 0 0 -1 0 0 -1 0 1 1 1 3 1 1 1 -1 2 1 0 -1 0 2 4 0 -1 -2 -6 0 1 5 1 1 -1 0 -1 0 0 0 1 0 0 1 4 2 1 0 1 0 -2 0 1 1 1 1 2 1 4 0 1 0 1 0 1 0 1 1 0 -1 1 1 0 1 1 1 1 0 -4 -3 -1 1 -1 1 0 -2 0 0 1 1 1 0 0 1 0 0 1 1 1 1 1 1 0 1 2 0 -1 -3 0 1 1 1 0 1 0 1 0 -2 1 -1 0 0 0 1 1 0 1 0 -4 0 1 1 0 0 0 0 1 0 -1 1 4 1 0 0 0 0 0 1 0 -1 0 1 2 -1 1 0 2 0 0 1 0 2 0 0 3 6 0 -2 0 1 1 0 3 0 1 0 0 2 0 1 0 -1 1 0 1 1 0 1 1 0 0 1 0 2 0 -3 1 0 1 0 -1 0 0 1 1 -1 0 0 1 0 3 2 -1 0 0 1 5 2 0 1 2 2 -1 1 1 -1 0 1 0 2 1 1 1 -1 2 -1 1 -2 -3 0 1 0 1 -1 0 0 0 0 5 
0 1 1 1 -3 1 0 0 0 1 0 1 -1 1 1 1 0 -5 0 1 0 1 0 1 -1 1 0 1 0 2 2 3 1 1 1 -1 1 -1 -1 -3 -1 0 0 0 0 1 5 1 1 2 1 1 0 0 0 0 -2 1 0 0 0 0 1 -1 0 0 3 1 0 0 1 1 0 -2 0 0 0 1 2 0 0 -2 1 1 1 1 0 -6 2 1 1 -1 0 0 0 0 1 -2 1 1 0 4 1 0 1 2 0 0 1 3 0 0 0 2 1 0 1 0 0 1 6 1 0 1 1 -1 1 -1 -1 0 1 0 0 0 0 1 1 0 0 -1 0 1 1 0 0 1 1 1 0 1 0 3 0 -1 0 0 -1 1 1 -1 2 1 0 0 0 -1 1 -4 0 1 1 0 0 0 1 0 -5 -2 -1 -1 0 1 -1 1 -2 0 0 -1 0 0 2 1 -2 0 4 3 1 1 2 0 0 1 0 1 0 1 2 1 1 -1 1 2 1 -1 -1 1 1 2 0 1 -1 -2 0 1 0 1 0 -1 1 -1 -1 0 -1 0 1 5 0 4 0 6 2 -1 1 1 1 1 0 -1 0 0 1 1 2 -2 0 -1 -1 -1 1 1 1 1 1 2 2 2 0 0 1 1 0 0 1 1 -2 1 1 0 4 3 1 1 1 1 1 3 0 3 2 0 1 2 2 0 0 1 1 1 1 2 1 4 2 1 0 1 0 0 0 -2 2 -2 0 0 0 1 -2 -1 1 1 1 1 0 1 2 -1 0 1 1 0 1 1 2 0 1 0 0 0 1 0 0 0 1 0 0 0 0 1 0 1 0 3 1 4 2 0 0 2 1 0 0 1 1 0 1 -1 2 1 -2 0 0 0 -4 -4 0 0 1 0 1 0 -1 0 0 1 0 0 -1 0 0 2 2 0 0 -1 0 0 0 2 -1 1 1 0 0 3 -1 0 1 -2 3 -1 1 0 1 0 1 0 -1 1 1 0 -1 -1 -4 0 0 0 -1 0 0 2 1 -1 2 0 0 0 0 0 1 0 0 0 0 0 0 0 1 0 0 1 1 2 0 1 0 -1 0 0 1 1 -1 0 0 -1 0 1 1 1 1 0 1 0 0 0 0 0 -4 0 0 -2 2 1 0 1 1 -1 0 1 0 -1 1 1 0 0 0 1 -1 -2 0 2 1 1 1 0 1 -1 0 0 3 0 1 0 1 1 0 0 0 0 -1 0 1 0 2 0 1 1 1 2 1 0 1 3 0 0 2 0 1 0 2 1 0 0 2 3 0 0 1 3 0 5 1 1 1 -2 0 2 7 1 7 0 0 0 1 0 1 -1 0 0 0 2 0 -1 1 0 1 1 0 1 1 1 2 1 1 1 -1 0 1 1 1 0 -1 1 0 1 1 0 0 2 1 1 2 2 0 1 1 4 0 1 1 1 1 0 1 1 1 0 0 1 0 1 0 2 1 -1 0 0 0 0 2 1 1 0 0 0 0 0 1 -1 1 1 
1 1 2 2 0 0 1 2 0 1 -1 0 0 0 2 5 3 1 1 1 -1 0 -1 1 -4 -1 1 0 1 3 -1 -1 0 0 -1 2 1 0 -1 1 0 0 1 0 0 0 1 1 2 5 2 0 0 2 1 0 -3 0 0 1 0 -1 0 0 0 0 1 3 -1 1 -1 0 0 1 2 1 -2 0 0 1 -1 1 0 1 -1 1 -1 1 1 1 3 -1 3 1 1 -1 0 0 1 0 0 0 6 0 1 1 0 0 -4 -4 0 1 0 0 0 0 -1 -1 1 1 0 0 0 -1 0 0 0 0 -1 -3 -1 0 1 0 1 0 -1 1 -5 1 0 2 3 1 0 0 0 1 1 1 -3 0 1 0 -1 0 0 1 -1 0 -1 0 1 1 1 -1 -5 0 1 1 0 0 -5 0 0 1 0 0 2 1 0 0 2 1 1 -1 1 0 0 1 1 1 -2 -1 1 0 1 1 0 1 0 0 0 0 1 2 3 1 1 1 1 0 5 0 1 1 -1 1 0 1 1 0 1 0 1 -4 1 0 0 -2 1 -1 0 1 0 2 0 1 1 4 2 3 2 1 0 1 1 0 0 0 2 1 5 1 0 0 1 0 -1 1 0 0 0 0 0 0 2 -1 0 1 6 3 0 0 0 -1 1 0 -1 1 2 -4 0 1 0 0 3 1 1 1 0 -1 0 0 0 2 0 1 0 0 2 1 2 1 2 0 1 1 0 1 1 -4 0 0 1 0 0 1 0 0 0 -5 -1 1 0 1 -1 1 1 -6 -1 0 1 0 0 -2 0 0 0 0 0 1 0 1 2 1 -1 -2 1 2 4 2 1 3 1 1 1 0 0 0 0 0 3 1 0 -1 1 -1 0 0 -4 -1 0 -1 -4 -3 0 0 0 1 -1 -1 -1 0 0 1 2 -5 -6 0 1 5 1 1 0 -4 0 1 1 1 1 4 -2 1 -3 -1 0 1 0 -4 0 1 1 1 -2 0 0 0 0 2 0 0 0 0 1 0 1 -1 1 0 1 1 0 0 0 -1 -1 -6 0 0 1 0 0 -1 1 1 5 -1 1 -1 1 1 0 0 -1 -1 1 0 1 0 1 -1 0 1 1 -4 1 0 0 0 1 1 3 0 0 2 0 0 -2 0 1 0 2 0 -1 1 0 1 -3 -8 -1 -1 4 1 -1 0 -5 1 1 0 1 -1 0 -1 0 1 1 2 0 -1 2 1 0 -1 0 0 0 0 0 1 1 1 0 1 2 0 2 2 0 -1 0 2 3 0 0 0 0 0 0 -1 -1 1 1 -1 1 1 1 2 1 0 0 1 0 1 1 0 1 1 6 0 -1 1 -2 0 -1 1 0 1 0 1 -1 -3 0 1 1 2 -2 2 0 -1 1 1 -1 -1 1 2 2 0 0 1 0 -1 -1 0 0 0 0 -1 1 2 4 0 0 1 2 2 0 -4 -1 0 0 0 3 1 0 0 0 0 -2 -4 0 1 2 1 1 0 0 2 3 1 0 1 0 -1 0 1 2 1 1 -3 
5 2 2 0 0 1 2 0 0 -1 0 -1 1 0 1 1 1 6 0 0 2 -2 0 1 1 0 2 2 0 -1 1 0 0 2 2 1 1 0 0 0 -1 1 0 -1 1 0 2 -2 -1 2 1 1 1 -1 1 0 1 1 2 1 0 -6 -2 -5 -1 1 2 -1 1 0 1 0 0 1 1 0 0 4 1 2 0 1 1 0 0 0 1 2 0 2 0 3 2 1 1 1 -2 -5 1 0 1 -1 2 0 1 0 0 0 0 0 1 0 0 -1 0 0 0 0 2 0 0 0 0 1 -1 -5 1 1 1 1 1 1 0 1 2 0 0 1 0 0 1 1 -1 0 0 0 0 0 1 -1 -1 0 2 0 0 0 0 0 0 0 -2 1 -2 0 1 -1 -2 1 1 0 0 0 0 1 1 0 0 1 1 4 2 1 0 1 4 1 0 0 2 0 0 0 -1 1 5 1 1 1 1 2 1 0 0 2 1 0 0 1 0 1 1 0 1 1 1 0 2 0 0 1 1 0 0 1 1 1 0 1 1 0 -1 1 1 -1 3 0 1 0 1 0 1 0 0 0 0 0 0 2 1 3 0 0 0 3 5 1 1 -1 -1 1 1 0 -1 0 1 0 1 0 -2 1 1 1 1 -1 2 2 1 0 1 0 0 -1 -1 3 1 1 -1 0 -2 1 4 1 1 -1 -1 0 0 3 0 2 1 1 1 2 1 0 2 1 0 0 0 0 -1 1 0 2 1 2 2 -1 0 -4 0 0 2 0 1 0 0 0 1 0 0 0 0 1 1 0 1 0 1 1 0 1 0 3 1 0 1 1 0 1 0 -1 -1 0 1 0 -1 1 0 -1 6 1 1 0 0 0 1 1 1 -1 0 0 -1 -7 -2 -1 -1 1 0 -2 0 0 0 0 1 2 1 -1 0 -1 0 2 1 0 2 1 0 0 0 1 1 -1 1 0 -2 -4 0 0 0 0 0 0 -1 -3 0 1 0 2 -1 2 1 0 -2 0 6 2 2 1 -1 1 6 7 4 0 1 0 0 1 0 1 0 1 1 0 3 1 2 0 1 1 1 1 0 1 3 1 0 0 -5 -6 0 0 1 0 -2 -1 1 -1 1 1 2 3 1 0 0 2 -1 0 0 0 0 -1 1 -1 1 1 0 1 -5 1 0 0 0 0 2 -1 1 1 0 1 2 0 1 1 -1 -3 1 0 -1 0 1 -1 0 -1 1 5 3 1 1 -1 -1 -1 1 0 1 2 0 0 0 1 0 1 1 0 0 -1 0 0 1 0 1 -1 1 1 0 1 1 -1 1 0 1 1 2 1 0 0 1 0 1 1 0 0 2 0 0 0 0 0 0 0 1 1 1 0 1 1 1 3 -2 0 0 -1 1 1 0 1 -3 -2 2 0 -1 2 0 -1 0 -1 1 4 3 1 2 0 0 0 2 0 0 0 0 -1 -1 1 0 -1 -1 0 0 1 0 -1 -1 0 0 0 1 1 1 -3 -2 0 -1 1 0 1 -1 0 1 -1 
2 0 0 0 0 1 0 0 1 0 0 0 1 2 5 1 5 0 0 0 0 0 0 0 0 2 1 2 0 1 0 1 1 1 4 0 0 -1 -3 0 -1 -6 0 0 2 1 3 1 -1 0 0 0 3 2 1 -1 0 0 0 1 0 -1 -1 -1 -1 -1 0 0 0 -3 0 1 2 1 4 0 0 0 1 0 1 -1 0 0 1 0 1 0 1 0 0 0 -1 0 1 1 1 -1 0 1 3 1 0 1 -1 -1 0 1 0 2 0 -3 0 0 1 1 0 1 1 0 0 0 0 3 2 -4 0 1 0 0 0 0 2 -1 -3 -1 0 0 0 1 0 1 2 0 0 0 0 0 0 1 0 0 1 1 -1 0 0 -1 1 1 0 1 1 -1 0 1 -1 1 1 0 1 1 1 0 1 0 1 2 1 -1 0 1 2 5 0 -1 0 0 -1 2 -1 0 -5 -4 1 0 -1 0 1 4 1 3 0 0 0 -1 0 -3 0 0 0 0 0 0 1 0 1 0 1 0 0 0 0 1 1 2 0 0 1 1 0 1 0 1 0 1 1 0 0 1 1 0 -1 0 1 1 1 5 2 0 1 -1 1 1 2 0 -2 1 7 1 0 1 1 0 1 4 3 1 0 0 0 0 1 0 0 1 0 0 2 0 0 0 0 0 1 0 -2 0 0 0 -1 1 1 2 1 -1 0 1 1 4 -2 0 -1 1 0 0 0 0 0 -1 -1 2 2 0 -2 0 1 0 1 1 0 0 0 0 1 0 0 0 0 1 0 1 -1 1 0 0 0 0 1 2 3 0 -1 2 0 -1 0 2 -1 1 1 -2 1 -2 0 1 1 2 1 2 0 0 2 -1 0 0 1 1 0 0 -2 -1 -1 1 0 0 1 0 -4 -2 -1 2 0 1 0 -5 0 6 0 0 0 0 1 1 1 6 -1 1 0 1 -1 -1 1 1 0 1 0 -2 -6 0 1 0 0 2 0 2 0 -1 1 1 0 1 0 2 1 2 0 1 1 0 0 1 0 1 2 1 0 0 0 0 1 1 2 1 1 2 1 6 2 1 1 1 1 1 1 1 1 0 0 2 1 1 0 -1 -1 1 0 0 2 1 0 1 0 -1 1 0 1 2 1 3 -2 -1 0 1 2 1 0 1 0 -3 -1 0 2 1 1 1 1 1 0 1 4 -3 -1 0 1 1 1 0 0 0 0 0 1 1 1 -1 1 0 1 1 1 0 0 0 -1 0 -3 1 1 0 -1 1 1 1 1 -1 1 1 0 0 1 -1 -3 1 1 0 1 0 1 0 2 0 1 0 1 -1 3 1 -1 1 1 0 0 1 1 -1 0 1 2 1 1 2 0 0 1 1 1 1 0 1 0 -1 -1 0 0 -1 0 0 0 0 1 1 1 1 0 0 1 0 1 0 0 2 2 0 1 1 0 0 1 0 0 1 0 0 1 0 1 -2 1 0 1 1 1 -1 0 1 1 1 0 -1 1 1 -3 -3 -3 1 1 0 2 2 
1 0 0 0 1 1 -1 -3 2 1 2 3 0 1 7 2 1 2 1 0 1 1 0 1 6 1 0 -2 1 0 0 2 -1 1 -1 0 0 -4 1 3 1 0 2 0 0 0 2 -1 1 1 0 0 0 -1 0 1 0 0 1 -1 -1 1 -2 0 -1 -2 0 1 1 -1 -1 1 0 2 0 1 0 1 1 -1 -2 1 1 0 1 0 0 2 0 0 0 1 2 2 2 1 1 -2 0 0 0 -1 0 -1 -3 1 -1 0 0 0 0 1 4 1 -2 -1 0 4 -2 1 0 0 0 1 0 0 1 -1 1 4 1 2 1 0 0 0 2 0 0 1 -1 1 2 -1 1 -4 1 2 2 1 -1 1 0 -1 0 2 1 0 1 1 1 0 1 -1 1 3 0 -2 0 -2 0 1 1 0 1 1 1 0 2 -1 1 0 0 1 -2 -5 -1 0 0 1 -1 0 -1 1 0 0 1 0 -3 0 0 1 -1 1 1 0 2 1 1 1 1 1 2 0 1 0 0 0 0 -3 1 0 2 0 0 4 1 0 0 -3 0 1 4 2 -1 1 -1 1 0 1 0 -1 0 0 0 0 0 1 2 0 2 0 -1 0 0 1 0 1 0 1 1 1 4 1 3 1 -1 -3 1 1 0 0 0 1 2 0 1 0 0 -1 1 0 1 -1 -1 0 -1 0 -1 1 1 1 0 2 0 1 1 2 1 0 0 3 1 1 1 1 -1 0 1 0 1 0 0 0 1 1 0 0 2 0 0 1 -1 1 1 0 1 -2 -1 0 0 -2 -3 4 2 0 0 1 0 0 0 1 1 0 1 1 0 0 1 0 0 2 1 1 1 1 0 1 1 1 1 1 0 0 1 2 2 0 0 -1 -1 1 0 1 2 1 3 1 1 0 3 0 1 0 -1 0 0 0 1 0 0 4 4 0 -1 1 0 1 0 1 2 0 -1 0 0 0 0 1 -7 0 1 1 0 1 5 4 0 1 1 0 0 -1 0 1 -1 0 1 0 1 1 1 1 0 -1 -1 0 1 0 0 1 1 0 0 2 1 0 1 6 1 -1 1 1 2 9 7 1 1 2 1 0 -1 0 1 -1 -1 0 2 0 2 0 0 -1 0 0 1 1 1 0 0 1 -1 1 1 0 -2 2 -1 -1 1 1 0 2 2 -1 1 0 1 1 0 1 0 -1 -1 -1 3 1 2 0 -1 1 -1 3 0 0 -1 -3 0 1 0 3 0 1 1 2 0 1 1 1 1 0 0 0 -1 1 1 1 1 -2 0 0 1 0 3 -1 0 -1 -1 2 1 1 0 1 4 1 2 0 -1 0 1 2 0 0 -1 1 -1 0 1 0 1 0 -1 1 1 0 2 0 -1 -2 -1 -1 -2 1 1 1 2 1 0 1 -1 0 0 0 0 0 0 1 0 0 0 1 -1 1 0 1 -1 1 2 0 0 -1 1 3 1 1 1 1 1 1 -3 1 0 0 0 0 0 -1 0 0 -1 0 5 0 0 0 0 -1 -2 1 0 0 
0 0 0 2 0 1 0 0 0 0 1 1 1 1 1 0 1 -1 1 0 -1 -1 1 0 1 5 4 -1 -1 0 0 0 0 0 -3 0 -1 1 0 1 0 0 7 1 0 1 0 1 4 1 1 1 0 1 -2 1 1 -2 0 1 0 -1 0 1 0 -6 -3 -1 0 1 1 0 -2 1 0 0 0 0 0 0 0 0 1 1 1 1 -2 1 5 0 -1 0 5 0 0 -2 -1 0 1 2 -4 2 0 -1 -1 0 1 1 0 0 0 0 0 -2 -1 0 1 1 -1 -1 1 2 1 -1 0 1 0 -1 -1 -1 1 0 1 0 0 0 0 0 1 -3 0 -1 1 0 0 0 4 1 0 1 0 2 1 0 0 0 0 2 1 1 0 -2 2 2 0 0 1 0 -3 -1 0 2 0 1 0 1 0 0 0 1 0 -1 0 1 -1 1 1 1 2 1 0 1 0 1 -1 -3 1 0 4 0 0 1 1 1 0 1 7 4 -1 0 0 2 0 1 1 1 0 -4 0 0 2 1 1 1 1 4 1 0 -1 1 2 1 -1 0 0 1 1 0 0 0 0 0 2 0 0 0 6 3 1 0 3 0 0 2 1 0 0 1 1 0 1 1 0 1 0 0 0 0 1 1 0 2 0 2 0 -1 0 1 1 -1 0 0 -4 0 1 0 0 -1 0 0 -1 1 0 -1 1 1 0 1 0 1 1 0 0 1 0 0 0 0 1 0 1 -1 1 -1 1 0 0 0 2 3 0 1 1 0 1 1 1 -5 -1 0 3 -1 0 0 1 1 1 0 1 2 2 0 0 1 0 1 1 2 0 -3 -1 -3 1 3 1 4 1 -1 1 1 2 1 2 2 2 0 1 1 0 1 1 -4 1 0 4 1 0 1 1 1 2 1 0 1 0 -1 -1 -1 0 0 0 1 0 1 1 2 -1 2 1 2 1 2 0 0 1 1 0 1 1 2 0 0 0 3 5 1 1 2 0 0 -2 0 0 -1 -1 -2 0 1 1 1 -1 1 1 1 -6 0 1 3 0 0 -3 0 1 1 0 0 1 5 1 2 1 1 6 1 1 1 1 3 0 0 0 1 0 2 1 2 0 0 0 -3 -1 2 0 3 0 1 1 4 2 1 0 1 -1 1 1 1 1 1 0 1 0 0 -1 1 0 1 1 1 1 0 0 1 1 -2 -1 1 -1 0 0 0 1 0 0 -1 2 1 -1 0 -1 1 0 1 0 1 0 1 0 5 1 0 1 1 1 -3 0 0 0 0 1 0 1 0 2 -1 7 1 0 0 3 0 -1 0 2 0 1 2 1 2 0 1 2 0 -2 3 1 0 2 0 -1 1 1 1 0 1 -1 0 1 0 1 1 2 1 1 1 0 -2 2 1 -1 -1 1 0 1 1 1 1 0 1 0 -1 1 0 0 -1 1 4 1 2 0 0 0 0 0 1 0 -1 1 5 0 0 0 -1 0 1 0 0 -4 -2 2 1 1 0 1 0 -1 0 2 2 -1 0 
1 1 3 -1 0 1 0 2 0 2 1 1 1 0 1 0 1 1 1 1 1 0 1 1 3 1 1 0 -1 -4 0 0 0 -1 0 0 0 0 0 0 1 0 0 0 2 0 -1 1 0 0 2 1 1 0 -1 0 2 1 2 0 1 0 1 1 1 -2 0 0 0 -1 1 1 0 0 1 -1 1 0 2 1 -1 0 -1 2 3 4 -1 0 1 1 0 0 0 2 1 1 0 1 1 1 1 0 1 1 1 2 -1 -1 -3 0 0 -2 -1 -1 1 1 1 0 1 2 1 1 1 0 0 1 0 3 0 2 4 7 0 0 0 0 -1 1 0 1 0 0 -1 0 1 0 2 0 1 0 0 -1 0 0 1 0 0 0 2 0 1 1 -1 1 1 5 0 1 0 -7 -1 1 0 0 1 2 1 2 -1 1 0 0 1 0 2 1 1 -1 1 -1 -3 1 0 1 0 1 0 1 0 1 1 1 2 1 0 1 4 2 0 0 -1 2 0 2 0 0 0 0 1 1 3 1 1 1 4 1 0 1 -1 1 1 1 0 -3 0 1 2 0 0 -1 0 1 1 -1 0 -5 0 2 0 -2 1 1 -1 0 1 -3 1 1 0 0 1 3 0 0 0 0 0 0 1 0 -1 -1 0 4 1 1 1 0 1 0 0 0 1 1 0 0 1 0 1 -1 1 0 1 -1 -1 1 1 -1 2 0 1 -1 -1 -1 1 2 0 0 -1 0 1 1 1 0 -1 1 0 -1 0 0 1 0 0 0 1 0 0 0 5 1 0 -1 0 -1 0 2 0 -3 0 0 1 -2 0 1 0 -9 0 1 0 1 0 -1 0 0 1 0 0 1 0 0 -1 0 0 0 1 1 -2 1 0 1 0 0 1 1 4 1 1 0 1 -1 1 0 -3 0 1 1 1 -1 -2 1 1 0 1 1 1 2 1 -1 0 0 -4 -4 0 4 1 1 2 0 0 1 1 2 1 1 2 2 0 1 -1 0 1 1 0 -1 0 0 -2 0 0 0 -1 2 0 0 0 1 -4 0 0 0 1 -2 0 1 2 0 5 4 1 1 -3 1 1 1 0 1 1 1 1 0 0 0 0 0 0 1 2 1 1 1 1 1 1 0 0 2 3 2 0 0 0 0 1 0 1 1 1 1 1 0 0 1 0 1 1 1 0 0 -1 0 0 0 1 0 -1 -1 1 -1 1 0 0 1 0 0 0 3 3 1 1 0 0 1 -2 0 1 0 1 8 0 0 3 0 0 0 0 1 0 0 0 2 0 0 0 1 3 0 1 0 0 1 0 0 -1 0 0 1 0 1 0 0 0 0 0 1 1 1 0 1 1 0 2 1 -1 1 1 0 1 -1 1 0 3 1 2 0 -1 2 0 0 0 1 3 0 0 0 1 -2 0 -1 1 5 6 1 -1 1 -2 1 1 -4 1 2 1 0 1 0 0 0 1 1 1 0 1 1 1 1 0 1 -1 0 1 1 -1 1 0 1 1 0 1 1 0 0 
2 1 0 0 0 0 -2 1 1 2 1 1 4 0 1 1 0 0 0 1 0 2 1 -3 1 -1 0 -1 -2 0 -2 0 0 1 1 0 0 1 1 -5 0 6 -1 0 0 -2 1 0 6 1 0 0 0 1 1 0 1 0 0 0 -1 0 0 0 1 1 1 1 2 -3 1 0 0 2 1 0 0 0 2 2 1 1 0 0 0 1 1 1 0 1 0 2 -1 1 0 0 2 1 0 1 0 0 1 0 0 2 0 1 -1 -2 0 1 0 2 0 0 0 1 0 0 0 -1 0 0 1 1 0 -1 1 1 2 0 0 0 -1 -1 0 1 1 0 0 2 0 0 1 0 -1 0 3 0 1 0 1 2 0 0 1 0 0 -5 -1 -2 1 0 0 0 1 1 0 0 1 1 1 0 0 1 0 1 2 1 0 1 2 1 1 1 -1 2 1 0 2 1 1 1 0 0 0 1 -1 -2 1 0 2 0 1 1 0 0 1 0 0 0 2 0 1 0 2 1 0 1 2 1 0 2 6 0 0 5 2 1 2 1 -1 -2 0 0 0 0 1 0 3 1 1 0 1 -1 -1 -2 0 -1 -1 -2 1 -2 -2 0 1 2 1 5 3 2 1 0 1 1 1 2 1 0 0 -3 0 0 1 0 0 1 0 1 3 2 -1 1 0 1 1 2 0 0 -1 1 0 -1 0 1 1 0 1 0 0 1 2 0 0 1 1 1 1 1 -2 0 0 1 0 0 0 -1 0 0 0 0 1 4 2 0 2 2 2 1 0 1 1 1 0 0 0 1 0 0 0 -1 0 -1 -9 -8 0 0 1 0 1 0 0 1 0 0 1 1 0 1 0 -1 1 0 1 1 2 0 1 1 1 2 -1 0 -1 0 1 0 0 -1 0 1 -1 0 1 1 -1 0 0 1 1 1 1 -1 -1 0 0 1 0 1 0 -3 0 4 1 0 1 -1 1 1 1 2 1 1 1 1 5 1 1 1 2 1 1 0 1 0 0 0 -3 0 0 1 0 0 1 0 5 -1 -5 -1 0 1 1 2 0 0 2 3 0 0 -1 0 0 0 1 2 1 0 0 -3 -2 -4 1 0 -3 0 2 0 0 -1 1 5 1 0 4 1 5 0 0 -1 -1 0 1 1 0 1 0 1 2 0 1 0 0 2 0 1 1 0 0 2 1 0 -5 0 0 1 0 -1 0 0 0 1 2 4 3 3 1 1 0 0 2 0 0 0 0 1 1 0 2 1 0 1 -1 1 0 0 2 0 0 0 0 -2 0 0 -2 0 -1 1 -1 1 1 1 -2 0 2 0 1 1 1 0 1 0 -1 0 0 1 0 0 0 0 0 0 2 1 1 0 2 0 0 1 2 -1 1 -3 -1 0 1 0 1 1 2 1 -2 0 -3 1 3 0 1 1 1 -1 -4 2 0 0 1 0 0 0 0 4 1 0 -2 -1 1 0 0 0 0 -1 0 1 0 -1 0 0 1 0 0 1 3 -1 0 1 0 2 0 0 
0 2 0 0 0 0 0 0 0 1 1 2 0 -1 0 0 0 0 0 0 1 0 0 1 0 0 -1 1 1 0 1 1 0 -3 0 1 0 0 0 1 1 -1 0 2 4 1 1 1 0 -3 0 0 2 -1 2 0 1 1 3 1 1 1 -1 -1 1 1 1 1 1 1 1 1 0 1 0 0 0 1 1 0 3 1 1 2 1 2 0 0 0 1 9 0 1 5 1 -4 -1 1 1 0 0 1 0 1 0 0 0 0 0 0 1 1 0 1 1 2 1 0 2 1 1 1 1 -1 0 0 3 0 0 3 1 0 0 1 -1 0 0 1 0 0 1 0 1 2 1 2 0 1 1 -2 0 0 0 0 1 0 0 0 0 1 0 1 0 1 0 -1 1 0 0 0 0 0 -1 -1 0 1 0 2 0 -1 0 0 1 0 2 1 2 2 1 1 1 1 1 1 0 0 -1 0 1 0 0 2 3 1 1 2 -1 0 1 2 1 1 0 5 1 0 -2 0 1 1 0 0 1 -1 1 1 1 2 1 0 -2 0 1 0 1 0 -4 0 0 0 1 6 2 1 1 1 -1 1 1 0 0 2 2 0 0 1 1 0 -1 0 0 0 1 0 1 2 0 0 2 0 -1 1 0 -1 0 -2 0 1 3 0 1 0 -1 0 0 2 1 0 0 1 1 1 0 -1 0 0 0 -1 0 1 0 1 3 0 0 0 -1 1 0 -1 1 0 0 -4 1 -1 -1 0 0 0 0 0 2 1 0 0 0 0 1 0 1 0 4 1 0 0 -3 0 1 -1 1 0 1 -1 1 -1 -3 1 -1 4 -1 -1 0 -1 0 1 -1 2 1 0 0 1 1 2 0 1 0 1 0 0 1 0 -1 1 0 1 3 -1 1 0 1 1 0 0 2 2 1 1 0 1 0 -5 -5 0 1 1 0 0 -1 2 0 2 2 1 1 1 2 1 0 0 0 0 3 0 -1 1 1 1 0 0 5 1 0 -1 0 2 0 0 0 -1 0 -1 0 0 0 0 2 0 -1 0 2 7 1 0 1 1 -1 1 0 4 1 1 -1 1 1 0 2 1 0 1 0 1 -3 1 -1 1 1 1 1 1 0 1 1 0 0 3 1 -1 1 1 2 0 0 1 0 -1 1 0 1 1 0 0 1 1 0 0 1 0 0 2 1 1 0 1 0 1 1 0 1 -1 0 -1 4 1 3 1 0 1 1 2 2 -1 1 0 0 2 -1 1 2 -1 2 0 1 0 0 1 0 0 -3 0 1 0 0 0 0 -1 0 0 0 0 1 0 1 1 1 0 0 -1 1 1 1 1 0 -1 0 -4 0 1 1 1 -1 0 -1 1 0 0 0 5 1 1 0 -1 0 1 0 1 2 0 1 2 0 0 1 0 -1 1 1 1 0 1 1 1 0 1 -4 0 0 0 0 1 2 1 0 -1 -1 0 1 1 0 0 -1 -1 1 0 3 -1 2 2 0 1 -1 1 0 0 0 1 1 0 2 0 
4 2 0 0 -1 1 1 1 0 0 0 -1 -6 1 0 1 1 1 -1 0 0 0 0 1 0 1 0 0 0 -4 0 1 3 0 1 1 2 1 0 1 0 2 0 1 -1 1 -1 0 -1 1 1 1 0 0 0 0 0 0 0 0 2 5 4 1 2 -1 0 0 1 -1 2 0 0 1 1 2 1 0 1 1 1 1 2 1 0 -1 3 0 0 0 0 0 1 0 0 -1 0 1 -1 1 1 2 7 1 1 1 0 0 0 1 2 0 2 3 1 0 0 0 1 1 2 5 1 -4 1 1 1 0 -1 0 -1 -6 1 0 0 0 1 -1 -3 -1 0 0 5 0 2 1 0 0 -1 1 0 1 -1 2 0 1 0 0 -1 1 0 0 0 1 1 0 0 1 1 1 0 1 0 1 1 0 0 1 -2 3 4 -1 -1 0 0 0 0 -1 1 1 0 0 0 3 1 0 1 -3 -1 0 1 0 1 0 1 -1 1 0 -1 -2 -4 -1 0 1 1 0 2 2 0 -1 1 2 0 -1 1 0 -1 0 -1 3 -1 0 0 0 1 1 0 0 0 -1 0 0 -1 -2 -1 0 0 0 3 0 0 0 1 -2 -4 1 0 0 0 0 -6 -1 0 1 0 -1 0 0 0 1 3 -1 1 1 1 0 -1 -1 1 0 1 0 1 1 0 3 1 0 0 0 0 -1 -1 -4 -1 0 4 0 0 0 0 0 0 4 1 1 0 0 1 1 0 0 0 0 3 0 0 1 0 1 1 1 3 3 2 -1 1 1 1 1 0 1 1 1 1 1 -3 -1 0 1 -1 1 1 1 -1 0 1 3 1 -4 1 2 2 0 2 1 3 1 0 1 2 0 0 0 0 2 0 -1 1 1 2 1 1 0 2 0 -1 1 0 2 0 0 2 0 1 0 4 2 1 2 -1 0 1 1 0 1 0 0 0 1 4 1 0 -1 1 1 1 -1 -1 0 0 0 0 2 -1 1 0 -1 1 1 1 0 1 -1 1 1 1 1 0 0 0 -2 1 1 2 1 -1 0 2 0 2 0 1 1 1 1 -3 1 0 0 -1 -1 -1 1 -1 -2 0 -1 1 2 1 1 1 1 0 1 0 1 0 0 1 2 0 0 1 1 0 -1 0 0 1 0 1 0 -1 1 -1 1 1 -1 0 1 -1 2 1 1 -5 -2 0 0 1 0 1 0 1 0 0 -1 0 1 1 0 3 1 0 0 0 1 0 0 2 -1 0 1 1 1 1 0 1 0 1 1 1 0 0 0 -1 1 2 0 1 0 0 0 0 1 1 0 -1 0 0 -1 -1 2 1 -1 2 0 0 1 1 4 1 0 1 0 -1 0 0 3 1 -3 0 0 0 1 1 0 2 1 1 1 1 0 1 1 0 0 2 -1 0 0 1 1 2 1 1 0 1 1 0 4 1 0 0 -3 1 0 1 0 1 1 1 3 1 1 1 1 1 1 0 0 1 1 1 1 0 0 0 0 0 0 0 1 -1 0 -1 0 1 0 
1 6 1 0 1 1 1 1 0 1 0 1 -1 0 1 1 0 0 1 0 0 1 1 1 -5 -1 0 0 0 0 0 0 1 0 0 1 0 0 -1 3 1 0 1 0 -4 0 -2 0 1 0 0 0 0 1 -2 0 0 1 1 1 1 1 1 1 0 0 0 0 2 2 1 0 0 -3 0 0 1 -3 -3 1 3 1 0 2 -4 0 4 0 0 1 0 0 1 0 0 0 1 1 1 0 1 0 0 2 0 1 1 1 0 0 -1 0 0 0 0 0 1 -1 1 0 1 2 0 2 0 1 0 0 0 4 0 -1 0 0 1 0 1 1 -2 1 1 4 2 1 0 0 1 1 1 0 1 0 1 0 -1 -1 0 -1 0 2 2 3 0 0 1 -1 0 0 0 1 -1 0 1 0 -1 1 4 1 -1 1 1 1 -1 0 -1 1 0 1 0 0 0 -3 4 0 1 0 0 2 0 1 0 0 1 1 -2 1 2 1 1 0 0 0 1 -3 1 0 0 0 1 -3 0 1 0 1 1 1 0 1 0 1 -1 1 1 1 0 -1 -2 0 1 0 1 -5 -3 -1 2 2 2 0 0 -2 1 4 1 0 -1 0 0 2 -3 -5 0 1 1 1 2 0 0 2 0 -1 1 1 1 1 1 0 -1 1 6 1 0 0 -1 1 0 -1 -2 0 0 -1 0 0 1 4 1 -1 1 0 0 1 1 0 0 2 1 0 1 -5 -1 -1 0 1 1 4 0 0 1 1 0 1 1 0 1 0 -3 0 1 0 1 0 1 0 2 0 -1 0 1 0 0 1 1 -1 1 0 1 1 0 0 1 0 2 1 2 1 -2 -1 1 1 0 0 0 1 1 0 0 1 1 0 1 1 1 0 4 1 0 1 2 0 0 0 1 -1 0 1 0 0 3 1 0 -1 0 0 0 0 1 1 2 0 1 1 0 1 0 1 0 1 -2 1 0 0 1 0 0 1 0 -1 1 0 0 0 -5 0 1 0 1 1 0 2 1 1 0 1 5 5 0 0 -1 1 1 1 1 -1 0 2 4 0 2 0 1 -3 -2 -3 0 0 1 2 1 0 2 -1 -1 2 2 -1 0 -1 3 -1 1 1 0 0 1 0 0 0 1 1 3 3 1 0 1 0 1 0 -1 2 1 2 -1 2 -1 -1 0 0 0 -2 0 0 0 1 1 1 1 1 1 1 1 0 1 0 1 2 0 4 2 1 1 2 1 0 2 -1 -1 1 -4 0 1 0 -1 1 0 -1 -1 1 0 1 -1 1 1 2 1 1 1 0 1 0 1 1 1 1 2 0 1 0 0 0 1 -1 1 2 2 0 1 -1 1 0 -1 0 0 -3 0 0 0 0 1 0 0 0 1 0 4 1 0 1 0 1 0 1 0 1 2 -1 1 1 0 1 1 0 1 2 1 0 1 0 1 1 0 -6 0 0 2 1 2 0 1 5 1 1 1 1 0 3 -4 0 0 0 1 0 0 0 1 0 4 0 0 1 1 1 
1 0 2 1 1 0 0 0 0 1 4 1 1 0 1 0 0 -1 2 2 0 0 1 0 1 0 2 -1 1 0 0 0 0 0 0 -1 1 1 0 1 1 0 1 0 1 0 -3 1 0 0 1 2 1 0 -1 2 1 0 3 -1 1 0 0 0 0 0 1 1 0 0 1 0 0 0 1 0 1 1 -3 0 2 1 0 0 0 4 2 1 0 1 0 -1 0 1 -1 0 1 1 0 0 1 0 2 1 1 0 4 0 2 0 0 1 1 0 -1 1 1 0 1 1 0 1 -2 0 0 0 1 0 0 0 1 0 1 1 0 -1 1 1 2 1 2 3 0 1 0 2 1 -5 0 4 1 1 0 -1 0 0 1 0 1 0 1 0 -1 0 0 1 0 1 1 0 2 1 -1 0 2 1 2 0 -2 1 0 2 0 1 0 1 0 4 1 0 0 -4 0 2 0 2 0 -4 -4 -1 1 2 5 1 0 -1 0 0 0 0 0 3 0 0 1 0 0 0 1 0 0 -5 0 0 1 0 1 0 1 1 0 0 2 -2 1 1 2 0 1 0 -2 -1 1 0 -1 5 -1 0 0 1 2 2 1 0 1 -1 1 0 0 -1 0 1 1 -2 0 -1 0 -2 1 2 1 0 0 1 1 1 1 1 2 4 0 0 2 0 1 0 -1 -1 1 -1 4 2 1 2 11 1 0 0 0 1 1 1 1 0 1 0 -1 -1 0 1 0 1 1 0 0 -1 -3 1 0 0 1 0 1 2 0 1 -6 0 1 0 2 1 1 1 0 1 0 0 1 1 5 0 1 0 1 -1 0 1 -2 1 1 0 -1 1 1 0 0 -1 -1 1 2 2 0 0 -1 0 0 0 3 0 -2 1 0 -1 0 1 5 1 1 1 1 2 3 0 1 -3 -3 1 -4 1 0 0 1 1 0 1 0 -1 1 0 1 -1 -1 -3 0 -1 -3 -1 0 0 0 1 1 1 1 1 0 -4 -2 2 7 1 3 1 0 1 0 1 0 0 0 0 0 1 0 1 1 -1 0 0 1 -1 1 1 2 0 2 4 1 -1 1 -6 -1 -4 -1 0 -1 1 1 1 1 1 0 2 1 0 0 1 1 -1 0 -1 1 0 0 0 -1 0 0 1 0 1 1 1 0 1 0 -1 0 1 0 0 0 2 0 1 1 1 0 1 0 0 1 4 1 3 0 1 0 1 2 0 1 1 1 2 1 2 1 0 1 0 -1 -2 -1 2 0 0 1 1 0 -1 -3 1 2 -1 1 0 0 0 -3 0 0 -1 0 1 1 0 -1 1 3 1 0 1 0 0 0 2 1 -1 0 1 1 0 0 1 1 1 1 -1 -1 -4 0 0 1 0 0 4 0 1 0 1 2 2 1 0 -4 1 3 0 0 1 -1 4 1 0 1 2 1 0 0 1 0 4 1 -1 0 0 1 1 1 1 1 1 1 1 1 1 0 1 1 3 1 0 1 0 -2 0 1 0 1 7 1 0 1 0 -4 1 0 0 
1 0 -1 1 1 1 0 2 0 1 1 0 -1 1 0 0 1 1 0 1 1 1 0 -1 0 0 0 0 1 0 1 1 -3 0 0 0 0 0 0 1 -1 0 1 -1 0 -2 1 0 1 3 5 2 0 0 0 -1 1 1 0 0 0 -1 0 0 0 -1 0 0 0 1 1 1 0 0 -1 -1 0 -2 -1 1 1 1 1 0 1 0 1 2 1 -2 -1 1 0 0 0 2 -1 1 0 1 0 0 1 0 1 1 0 1 -1 0 0 1 0 1 0 0 1 0 0 0 0 0 0 1 1 1 1 1 0 0 0 2 0 0 -1 -1 0 1 0 2 0 0 -1 1 0 0 -1 0 1 0 0 0 0 1 0 1 1 -1 -1 2 0 0 -4 1 1 0 1 2 0 0 0 -3 -1 2 1 2 3 2 4 1 -1 0 0 0 0 -1 1 1 3 1 -1 0 1 -1 0 0 1 2 0 -1 1 0 1 1 -1 -3 -3 -1 -1 -1 1 2 1 4 1 1 2 0 0 3 1 2 0 0 0 0 1 2 1 1 0 1 1 1 1 2 1 0 0 1 -1 1 0 -1 0 2 1 2 1 1 0 0 1 -4 -1 0 0 0 0 0 0 1 1 0 1 -1 0 1 1 0 0 1 0 -1 1 1 1 1 1 0 1 0 0 0 0 0 0 1 5 2 1 0 1 1 0 1 1 0 -1 -1 1 1 -1 0 1 7 2 1 1 0 3 1 2 0 -1 0 0 1 1 -1 -1 -1 -1 0 1 -1 1 1 2 2 2 0 1 0 1 0 0 -1 2 0 2 1 1 0 0 -1 0 3 2 2 0 1 2 0 -1 0 -1 1 2 0 1 1 1 1 0 -1 1 1 0 1 0 2 1 0 0 2 0 0 1 0 0 -1 1 3 0 0 0 -2 -1 0 0 4 1 -1 0 0 2 1 0 -1 1 0 0 -1 -1 -3 -1 4 0 1 0 0 0 1 0 -3 0 0 -6 0 1 1 3 2 5 1 0 3 0 1 0 0 1 0 2 6 -1 2 0 0 1 0 -1 0 1 0 0 0 5 0 0 -4 0 1 1 2 1 0 1 1 -1 0 0 0 1 1 1 0 -1 2 0 0 0 1 0 1 0 1 2 -1 2 3 0 2 1 1 2 -3 -3 1 1 -1 0 1 0 2 0 0 0 1 1 1 -2 1 -1 0 0 1 -1 -1 -1 1 1 1 1 0 1 0 2 0 1 -1 0 0 0 2 0 0 1 2 0 0 1 0 0 0 1 0 0 1 0 -4 0 0 2 1 0 0 1 2 1 1 -1 0 -2 0 0 0 -2 1 0 1 -1 0 0 1 0 1 0 -1 1 1 0 1 0 0 -1 0 0 0 0 3 0 -1 1 -4 -5 -2 0 0 0 0 -1 1 4 1 1 1 2 2 -1 0 0 -2 0 0 0 0 0 1 3 -1 0 1 1 -1 -2 1 1 6 0 0 0 1 0 1 1 1 0 -3 1 1 0 0 0 0 0 0 0 2 
1 0 -3 -1 1 0 0 1 1 0 1 1 1 2 0 1 0 0 1 0 2 1 1 1 1 1 1 1 2 1 0 -2 -3 1 1 3 0 0 1 0 0 0 -9 -5 1 -1 0 2 1 0 0 1 0 0 1 1 0 0 0 0 1 1 2 1 0 1 3 0 -1 0 0 0 3 0 -6 -6 0 0 0 1 0 0 0 1 -2 1 0 1 2 0 0 0 1 0 -2 0 -1 0 1 0 1 0 0 -2 1 0 1 1 1 0 0 -1 2 0 0 0 0 0 -1 0 -1 1 1 0 1 1 2 1 2 1 1 1 0 -2 -1 5 1 0 -1 0 1 1 0 -1 1 -2 1 0 1 0 1 0 -3 -1 0 0 1 -1 -1 0 1 2 -1 -1 0 0 1 3 0 1 1 2 -1 0 0 2 0 1 -1 1 1 1 2 -1 0 -2 2 6 0 -1 1 0 0 1 0 1 -1 1 1 2 -3 -2 -1 1 0 0 0 2 1 0 1 2 1 2 2 6 -1 2 0 2 0 1 1 0 0 1 0 -1 1 0 0 0 1 0 -1 0 1 -3 1 1 0 -1 0 1 0 0 0 7 1 0 0 -1 -1 0 1 -1 0 1 0 1 1 1 0 1 1 -1 1 -1 0 0 0 -1 1 0 0 0 0 1 1 0 1 0 1 0 -1 0 1 0 0 1 1 1 6 4 1 0 1 1 0 1 1 0 4 2 2 1 -1 0 4 1 1 1 0 0 1 1 1 0 0 2 0 -1 0 1 1 -1 0 0 0 1 2 -1 0 0 -1 0 0 1 2 1 0 2 1 1 1 -1 2 1 0 0 1 -1 0 -1 1 1 1 0 0 0 0 0 2 0 1 1 1 1 2 1 0 1 1 0 -3 0 1 0 -1 0 1 1 0 0 1 2 1 0 0 1 0 0 2 1 1 2 0 1 2 0 0 0 1 1 0 -4 -1 -1 1 1 2 1 1 0 0 1 0 2 1 2 1 2 0 1 1 3 0 1 1 1 0 1 -1 -5 -1 1 0 1 -2 0 2 0 1 0 1 0 -2 0 0 1 0 0 1 0 1 0 2 -1 0 2 -3 0 0 0 4 0 0 0 -2 0 -1 0 0 1 0 1 0 1 1 1 1 1 3 2 0 1 0 2 -1 0 0 0 0 0 0 1 1 1 -1 1 -1 1 0 0 2 0 1 1 1 0 1 0 0 0 0 2 0 0 0 -1 1 1 1 1 0 0 0 -1 4 0 0 -3 0 0 -3 -3 1 1 1 4 0 0 1 1 1 2 0 -1 0 1 0 -2 0 1 2 1 1 1 -1 -1 0 -2 -3 1 0 0 0 1 0 -2 0 0 2 -1 1 2 0 1 0 0 0 1 0 0 0 0 1 0 0 1 -1 0 1 1 1 2 0 0 1 1 3 2 1 -2 0 0 0 0 2 2 0 0 0 0 0 0 2 2 1 1 1 -1 1 1 1 -1 1 -1 0 0 0 -3 -1 -1 -1 1 1 1 2 -2 
2 0 0 0 -1 1 -1 4 0 1 3 -3 1 9 0 0 1 0 0 0 1 1 1 3 0 -1 0 0 -1 0 -1 0 1 3 3 4 1 0 2 1 -1 -5 -1 0 0 0 0 0 0 0 0 1 0 0 -1 2 1 0 -1 0 -2 -2 0 -1 0 2 5 1 2 7 0 1 1 1 -1 -1 1 1 0 1 1 0 0 -1 -2 -1 1 0 1 2 0 1 -1 1 0 -2 -2 1 0 0 0 1 0 -1 0 0 1 -1 1 1 0 1 3 5 2 0 -1 0 0 1 0 1 -1 2 0 0 1 1 1 0 1 0 3 1 1 3 0 2 0 0 0 3 2 0 1 1 2 0 0 0 -1 1 -4 -1 3 1 0 1 0 -1 1 0 0 3 1 0 1 2 1 1 1 2 0 -2 1 1 0 1 -4 2 0 0 1 -2 1 -1 -1 0 1 2 -1 0 1 -1 0 0 -4 -1 -1 2 2 1 0 0 1 1 3 -1 0 0 1 -4 -3 0 1 0 0 1 1 0 -1 1 1 2 1 3 0 1 -1 1 -1 1 3 1 0 -4 1 0 0 0 3 0 0 0 0 -1 1 1 1 1 0 0 1 -2 -1 1 1 0 0 0 0 0 0 1 1 2 -1 2 1 0 1 1 1 -4 1 1 -3 1 -2 1 1 1 1 1 0 0 2 0 0 -2 1 0 5 0 1 1 -1 0 -2 -1 2 2 1 0 1 0 0 0 2 0 1 8 4 0 0 0 1 1 2 0 -1 0 1 2 1 -3 1 0 0 1 1 0 -2 0 0 0 1 1 0 2 1 0 1 -1 1 1 0 0 0 0 0 0 1 0 1 -1 1 1 0 -2 -3 -1 -1 0 4 0 0 -2 -5 1 -1 0 1 1 1 -1 -3 0 1 0 1 -3 -2 0 0 1 0 0 0 1 4 2 -1 3 2 0 1 0 0 0 0 1 1 0 0 0 2 2 2 1 1 0 -1 1 3 2 1 1 1 0 0 0 1 2 1 2 -1 0 -1 1 2 0 1 1 2 1 1 1 0 0 0 0 1 0 0 0 0 -1 0 0 1 0 0 -2 -1 1 0 0 0 5 0 0 1 0 1 0 1 1 0 1 1 1 1 1 0 0 0 0 4 0 -1 0 0 0 1 0 1 0 1 0 1 0 0 -1 1 1 1 0 -1 1 2 3 0 1 1 1 1 0 1 3 1 1 0 0 1 0 1 1 0 1 1 0 1 1 1 0 1 -1 1 0 1 -1 -1 -1 0 -1 0 0 1 0 1 2 8 1 0 -1 1 -1 0 0 1 1 0 1 3 2 1 0 1 -1 0 1 0 -1 0 -1 1 -1 0 0 2 0 1 0 1 0 0 2 0 3 1 0 0 0 1 0 -1 0 2 0 1 0 0 1 1 1 0 -1 0 0 0 0 1 1 0 -2 -1 0 0 1 3 0 1 -1 0 0 0 1 1 1 0 0 0 1 0 1 0 -5 -1 0 0 0 0 1 0 0 1 1 4 1 
0 2 0 0 0 1 1 1 2 1 0 0 2 7 1 0 1 1 -1 2 5 1 1 -1 0 0 -2 0 1 0 1 1 2 1 0 0 -1 1 2 1 1 0 0 -1 0 1 -1 1 0 2 0 1 -4 -4 0 0 0 0 1 1 0 1 0 1 0 -4 0 1 1 0 -1 -2 0 0 1 0 1 0 0 1 1 1 1 0 0 1 0 -1 4 -1 -1 1 2 -3 -1 -1 -1 1 0 1 0 -4 0 0 1 0 1 -1 1 0 0 1 0 0 0 1 1 1 0 2 1 0 0 0 2 0 0 1 -2 1 0 1 1 0 1 1 1 -1 0 1 1 5 9 0 -1 0 1 2 -1 0 0 -1 1 0 0 3 2 0 0 -1 0 2 1 0 2 -1 0 0 1 -1 -3 0 0 0 1 0 2 1 1 3 0 0 1 -4 -3 1 0 -1 -1 0 1 1 1 0 1 0 0 -5 -2 -1 1 3 0 2 0 0 0 0 1 1 1 1 0 -3 1 2 1 1 0 -2 2 1 -3 0 0 0 1 1 0 0 0 1 0 1 0 1 -1 0 1 0 4 0 0 1 0 0 -1 0 0 1 0 -1 0 0 -1 1 0 0 1 1 2 1 0 0 0 1 0 1 1 0 0 1 1 0 -2 0 -1 -6 -1 1 0 -1 0 -1 0 0 1 0 2 0 -1 0 0 -2 -1 -1 1 2 1 5 0 0 1 -1 1 1 -2 0 0 -1 2 1 1 1 1 1 -1 1 0 1 0 0 0 1 1 1 4 0 4 1 3 1 2 -1 0 0 -1 1 1 -1 1 0 0 0 0 0 0 1 -5 -1 1 2 -1 -1 2 0 0 -1 -1 -4 -1 0 0 -1 0 2 0 1 0 0 2 2 0 0 0 -1 -1 0 1 0 -1 1 2 -1 0 1 1 1 -1 0 1 0 1 3 2 0 1 0 -1 1 0 1 0 -1 0 -2 1 6 1 0 1 1 2 -1 1 1 2 1 0 2 1 1 -2 2 1 4 0 0 0 0 0 0 3 -2 0 1 -1 2 2 2 0 1 4 6 2 0 1 1 0 -2 1 1 0 0 0 0 -1 -5 0 0 2 1 2 4 2 0 1 2 2 1 1 -2 0 1 1 1 -3 0 0 2 2 0 -3 -1 -1 1 1 1 0 2 0 2 0 0 0 1 0 0 1 2 4 0 -1 0 0 0 1 2 1 0 0 0 0 1 1 0 -1 -1 -1 1 -1 1 0 0 0 0 2 1 0 1 0 -1 1 0 -2 2 1 1 -4 1 0 -1 0 2 1 0 1 0 -3 0 1 1 1 1 1 1 -1 0 1 1 0 1 1 4 2 1 2 1 -1 0 2 0 -2 1 -1 1 1 1 0 0 1 4 3 -5 -7 -1 1 0 0 1 0 -2 1 1 0 1 0 -3 2 0 1 -2 0 0 1 1 0 -1 1 -1 0 -1 0 0 2 2 0 0 0 0 1 0 0 1 0 0 1 1 0 1 1 1 0 1 1 1 1 2 1 -3 
0 0 -3 -4 1 1 0 1 0 0 -4 1 3 1 -1 2 0 2 0 2 0 1 2 1 0 2 0 0 1 1 0 0 0 1 0 1 0 0 -1 -1 1 0 1 3 0 1 1 0 2 1 2 0 -2 0 3 -1 0 1 1 0 1 0 0 2 -1 2 1 -1 1 1 0 0 2 0 1 2 0 -1 0 0 1 1 0 1 6 6 0 0 2 -1 2 6 0 1 1 2 1 0 -1 3 1 1 1 0 0 1 0 0 2 1 0 0 0 0 1 2 0 0 1 -1 0 2 1 1 1 -2 0 1 0 -1 2 5 0 1 3 1 0 -1 2 0 1 0 1 -3 1 1 1 -1 0 0 0 1 -1 0 0 0 -1 0 1 0 0 0 -1 0 1 0 1 -3 -1 1 -1 -1 1 1 2 3 1 2 0 1 1 0 2 1 -1 1 1 1 1 1 -3 0 0 1 -1 1 0 1 1 0 0 -3 1 5 3 0 -3 -1 -1 -4 -1 1 0 -1 1 1 0 2 0 -2 -1 1 0 -4 0 0 1 1 0 -1 1 2 0 2 0 3 -3 1 0 0 1 2 1 1 -1 0 -5 1 0 1 0 0 1 0 0 1 0 0 -1 0 2 1 0 -1 0 2 1 -3 1 1 1 0 1 0 1 0 2 -1 -1 1 1 -1 1 1 0 1 2 0 -1 0 3 2 0 1 0 0 0 0 0 -1 -3 1 1 2 0 1 0 0 1 0 1 4 -1 0 1 1 2 0 1 2 2 0 0 -1 2 0 1 -3 0 1 0 1 1 -1 1 -1 2 1 1 1 0 2 -1 1 1 2 -1 1 -6 0 1 0 -1 0 -1 -6 -3 1 0 1 0 1 1 -1 0 1 0 0 0 0 0 0 2 0 1 1 0 1 0 2 0 2 1 0 0 2 3 0 0 1 2 1 1 2 0 1 0 1 1 1 4 0 2 2 1 6 1 1 1 0 1 3 3 1 1 3 -1 1 1 0 0 0 -2 1 1 1 2 -5 0 0 1 2 0 0 1 0 0 0 1 1 1 1 1 1 1 1 0 0 2 0 1 1 1 0 0 -1 1 0 0 1 8 3 0 3 0 0 2 3 1 0 0 -1 0 0 0 1 -1 -4 2 5 4 0 0 0 2 -1 0 0 1 0 1 0 0 1 0 1 -1 0 0 1 2 -2 -1 -1 2 1 0 -1 0 1 0 0 1 1 1 1 1 0 1 1 1 1 0 -1 2 0 -1 1 1 -1 1 1 -1 1 0 1 2 1 -3 0 1 -1 -2 0 1 0 1 0 1 0 -1 1 1 0 0 0 1 1 1 1 1 0 0 1 1 1 2 4 1 1 1 1 1 1 1 1 0 -1 -3 1 -1 0 1 0 -3 1 1 0 0 0 1 1 1 0 0 1 1 0 -1 0 1 -2 1 0 1 -1 0 -2 -3 -5 1 2 1 0 0 -1 -3 -1 0 0 4 1 1 0 1 0 4 1 0 2 1 0 1 1 1 0 1 0 0 0 
1 -1 0 0 0 0 1 1 1 -1 0 1 2 0 1 1 1 3 0 2 0 0 1 2 0 3 1 1 -1 1 1 1 0 1 1 1 -1 1 0 0 -1 0 1 8 2 1 1 0 0 0 -3 -1 0 1 1 -1 0 1 0 2 -3 0 1 0 0 1 0 0 -1 1 0 0 0 1 2 1 -1 0 0 1 1 1 0 0 3 4 2 -1 -1 1 1 2 1 0 0 0 0 2 1 1 0 0 0 0 0 -1 3 1 0 1 -2 0 -3 0 -2 1 -2 0 0 1 1 0 1 0 0 -1 -1 -5 0 0 1 0 1 1 0 -1 1 1 1 1 0 1 0 1 0 0 0 0 2 1 -1 1 0 -3 1 0 -1 2 0 -1 0 0 1 -1 0 -1 -1 0 1 3 1 1 0 -4 1 2 -2 -4 0 5 0 0 1 0 0 -1 5 0 2 1 2 0 0 -2 1 0 1 3 1 4 0 0 -1 0 -1 2 0 1 1 -1 -1 -1 -2 -1 0 2 2 0 2 1 -1 -4 -4 -4 0 1 0 0 2 1 -1 0 0 -1 -1 -1 2 0 0 0 1 4 1 0 1 0 1 1 1 0 1 1 0 0 1 0 0 1 0 0 0 0 0 -1 1 -1 1 0 -1 -1 0 0 1 1 0 3 1 0 1 0 1 0 1 0 0 -1 0 0 1 1 1 1 0 0 1 1 -1 0 2 -1 0 -1 1 1 1 0 0 1 -1 0 -1 0 2 1 0 2 1 1 0 0 0 5 -3 -1 1 2 1 2 0 -2 -1 0 -4 0 1 0 0 0 1 0 -1 0 -1 0 1 0 0 1 -7 0 0 1 1 0 0 1 0 0 1 3 3 1 0 -1 1 0 0 0 -3 5 1 0 1 0 0 1 0 5 0 1 0 1 2 -1 2 0 0 1 1 1 1 0 1 0 0 0 1 0 -4 -1 1 1 5 3 1 0 1 -1 1 1 3 1 1 1 0 1 -1 1 0 0 2 2 1 0 -1 0 0 1 -4 1 1 2 0 -1 0 -1 1 2 2 1 2 1 0 1 1 5 2 0 0 1 0 1 0 1 1 0 0 0 1 3 6 1 2 -1 1 1 -1 4 1 0 1 1 1 0 0 0 -1 0 0 1 3 2 1 -3 -1 -2 1 0 0 1 1 1 1 0 0 0 0 0 0 0 -1 -1 0 1 1 2 1 0 1 1 0 -1 -1 0 0 -1 1 1 1 0 0 -1 1 0 0 0 1 0 0 0 0 0 -2 0 2 1 5 1 2 2 6 2 1 1 -1 0 1 0 2 0 2 1 -1 -1 -1 0 0 0 1 -1 0 0 1 0 1 0 0 1 0 1 0 0 -1 1 2 1 0 1 1 1 1 1 -1 1 0 0 1 2 1 2 1 1 1 -2 0 0 -1 1 0 0 1 1 1 1 0 1 1 1 1 0 -1 1 1 0 1 1 1 0 0 -1 0 1 0 0 0 0 0 -1 1 3 1 1 2 1 1 0 0 0 0 0 
0 0 -2 0 0 1 -3 0 0 0 0 0 1 2 -1 1 0 2 2 5 1 2 2 0 0 0 0 0 0 -2 2 3 2 2 0 0 -2 0 -1 1 1 0 0 2 1 1 -1 5 1 1 0 0 0 0 -4 0 1 0 1 0 1 1 -1 0 0 0 0 1 1 2 2 0 0 1 -1 -3 -4 0 1 3 -1 0 0 1 6 5 0 -1 0 0 2 1 0 1 1 1 0 1 1 0 2 1 1 1 0 1 1 1 -1 0 1 -1 1 0 2 0 -4 -1 0 0 -1 0 -1 2 0 0 -1 0 2 0 1 0 1 0 -3 0 1 1 0 0 1 1 0 3 1 -2 -1 1 0 1 1 0 0 0 0 0 2 0 1 0 -1 0 2 1 0 2 0 0 0 1 1 1 0 0 1 0 -3 -6 0 1 0 0 0 0 -5 -1 3 4 0 1 3 0 0 0 0 0 1 1 3 3 1 1 0 -1 5 0 0 2 2 -1 1 2 0 1 1 1 -1 0 0 0 0 -1 1 1 0 0 -2 0 1 0 5 0 1 1 0 0 1 1 0 0 0 1 2 0 1 0 6 0 -1 1 2 0 0 1 1 1 0 1 0 0 1 -1 0 1 0 0 1 1 1 0 1 0 2 0 1 1 1 1 1 0 1 0 0 1 0 0 0 0 1 -1 0 2 1 1 -1 1 1 0 -1 2 1 0 2 0 0 0 0 1 1 1 2 2 0 0 0 0 1 0 0 -1 0 -1 0 1 1 0 0 1 2 1 -2 -1 1 0 1 0 4 2 5 1 1 0 0 0 4 2 0 -1 -1 -6 -1 0 0 0 2 1 0 1 1 0 0 -1 2 0 0 -2 1 0 0 3 1 1 0 0 0 0 0 0 1 0 1 -1 0 0 0 0 1 0 -1 1 1 -1 3 1 1 1 0 1 0 1 1 1 0 1 -1 0 0 2 1 2 0 0 1 0 0 1 0 0 0 2 0 -1 1 0 -4 1 0 0 0 1 -1 1 -1 2 2 1 1 0 0 1 0 0 0 1 1 -1 1 -1 0 0 1 1 0 0 1 0 0 1 1 0 1 0 0 1 1 1 1 2 1 1 0 1 0 0 0 0 0 0 2 0 0 0 2 0 -1 -1 -1 0 0 1 2 0 1 0 0 0 0 1 1 1 0 -1 1 1 0 -1 1 0 -1 1 0 0 0 -4 0 1 1 0 2 -1 1 1 -1 0 -3 0 1 -1 0 0 1 1 0 -1 1 0 -1 1 0 0 2 2 0 0 -1 0 0 0 0 1 1 1 -1 0 -1 2 1 1 -4 -3 0 0 0 1 0 2 0 1 1 0 1 0 0 2 0 0 0 0 -1 1 1 0 1 2 1 2 0 1 1 0 1 0 2 1 0 0 0 2 0 -5 -2 -2 0 1 2 6 2 0 1 0 2 0 1 0 2 3 1 0 0 0 1 0 1 -1 1 1 -1 0 -3 0 1 -2 1 2 1 0 1 1 1 0 
1 0 0 1 0 0 0 2 3 -1 0 1 0 0 1 0 0 -5 0 1 1 -1 -1 1 2 0 1 1 1 0 1 2 5 2 0 1 0 0 -1 2 1 1 1 0 0 1 2 2 -1 4 1 1 0 0 1 0 0 1 0 -1 0 0 0 -2 0 0 0 -1 1 0 0 1 1 2 1 -1 0 1 0 2 1 1 0 0 1 4 0 1 0 -1 -1 0 -1 1 -1 0 0 1 0 2 1 0 5 0 0 0 0 0 1 0 2 0 1 1 0 0 1 1 1 1 1 3 1 -1 1 0 0 0 0 -3 0 1 -2 -2 1 2 1 0 -1 2 5 2 1 2 1 0 0 1 -1 -1 2 1 1 -1 0 2 0 -1 0 1 0 -2 0 1 2 4 0 1 0 2 0 0 0 0 0 0 1 0 1 1 0 0 1 0 0 1 0 1 1 -1 -1 1 1 -2 1 0 1 4 1 1 0 2 1 -1 1 0 2 0 1 0 0 1 1 0 -1 -1 0 0 0 1 2 0 0 1 -1 -6 0 -1 0 0 3 0 -1 1 0 0 1 0 -3 0 -1 2 1 1 2 0 2 0 -1 1 1 0 1 1 1 0 -1 1 -4 0 0 0 0 1 1 0 2 0 4 2 1 1 -1 1 -1 1 0 -1 0 1 1 1 -1 0 0 1 -1 1 0 0 0 0 1 1 0 1 0 -1 0 0 1 -2 -1 1 0 -1 1 0 0 -1 1 0 0 2 1 1 1 -2 1 0 1 1 -3 -1 0 1 -1 0 0 1 2 1 0 0 1 1 1 1 1 0 -4 0 0 0 0 1 0 0 -1 -4 0 1 0 0 0 1 1 1 1 1 1 1 1 0 0 -1 0 0 0 1 -1 0 -1 0 1 0 0 0 5 1 0 0 0 0 0 0 -1 -5 -5 -6 -1 0 1 -3 0 0 0 -1 0 0 0 0 2 2 0 -1 -1 2 0 1 0 1 0 0 0 2 1 1 0 1 1 0 1 5 2 1 1 1 1 -2 0 -1 1 -1 -1 0 0 1 0 0 0 1 2 2 1 1 1 -1 2 -1 0 1 0 0 -1 1 1 1 1 0 0 -1 2 0 0 1 0 0 0 0 1 1 0 1 1 -2 -1 1 0 1 1 1 0 -1 0 -2 0 0 -4 0 0 0 0 0 1 1 -1 0 1 1 0 2 0 1 -4 -6 0 2 2 3 0 1 0 1 0 0 1 2 1 1 1 0 2 -1 1 0 1 0 0 1 0 0 1 -3 1 0 0 0 0 0 0 2 0 1 2 0 3 0 0 0 0 0 -2 2 1 1 1 1 0 1 0 2 0 -3 0 3 1 0 1 2 1 0 1 1 1 1 1 1 0 1 -1 0 1 1 1 3 2 1 1 5 0 1 0 0 1 1 1 -1 1 0 1 3 -3 1 1 4 1 0 -1 1 0 2 2 1 0 -1 1 1 -2 0 1 2 1 -1 -1 0 0 0 0 0 -2 1 1 1 3 0 0 4 1 3 
1 0 1 0 0 0 1 1 1 0 0 0 2 -1 1 2 2 1 1 -1 1 2 3 0 1 1 0 -4 0 2 0 0 5 2 0 2 0 0 -1 1 0 0 -1 -1 1 1 0 2 -3 -1 0 0 2 0 2 0 -1 -3 -3 1 1 1 1 1 1 0 0 0 1 0 2 2 1 2 3 1 1 1 -1 1 0 0 1 1 1 -2 1 1 1 -1 -1 0 0 0 0 1 0 2 1 0 1 -2 3 0 -2 0 1 1 0 1 1 2 0 1 1 3 -3 1 0 0 1 1 0 0 0 0 2 -1 1 1 -1 1 1 -2 1 0 1 1 0 1 0 0 1 3 1 1 0 1 -2 0 0 0 0 3 2 -5 0 -7 -2 2 1 0 1 -1 1 3 0 0 1 0 1 -1 1 2 -3 1 0 0 2 0 1 -1 0 1 2 1 0 1 -1 0 0 -1 -1 -3 0 0 2 0 1 0 0 2 2 0 0 1 1 0 1 0 2 0 1 1 0 -2 0 1 0 -1 2 1 0 4 0 1 0 1 0 0 0 0 0 0 0 1 1 1 -1 -1 0 0 3 -3 0 0 2 -2 1 0 0 1 4 0 0 0 0 -1 2 1 0 1 -2 1 1 0 1 1 1 4 0 -2 0 1 1 1 0 1 0 0 -1 0 -3 1 0 0 1 0 2 1 1 1 0 6 1 0 1 2 1 2 0 1 0 0 1 0 1 -2 0 -2 1 -1 0 0 1 0 -3 0 0 1 1 1 0 0 1 0 1 0 2 5 1 1 2 1 -3 1 1 1 0 -2 0 0 0 1 3 0 1 0 1 1 1 1 -4 0 1 0 -1 -4 1 1 2 -1 0 0 -1 0 -2 0 2 0 2 2 1 0 1 1 1 0 0 -3 0 -2 6 0 0 0 1 -1 -1 3 -3 1 -3 -1 1 1 3 0 -1 -5 -1 0 -2 -4 -1 -3 -2 -1 0 1 0 1 2 1 0 1 1 0 0 0 0 0 0 1 0 1 1 0 1 0 0 1 0 1 1 0 1 0 0 1 0 1 2 1 1 0 1 1 1 0 0 3 2 -1 0 0 1 0 1 0 1 0 0 0 1 0 0 -1 0 0 1 1 -1 0 0 1 0 2 0 0 0 -1 -2 1 -2 0 -5 1 0 0 -1 1 1 0 -1 2 2 0 5 -1 5 1 1 -1 -1 0 0 1 0 1 0 3 2 1 2 1 0 0 1 1 0 1 0 2 1 0 0 0 1 1 0 0 0 1 0 1 2 1 1 2 0 0 0 0 -1 0 2 0 0 1 1 0 1 1 0 1 0 0 2 1 -2 0 -1 0 0 0 1 0 -1 1 0 1 0 0 0 0 0 1 2 0 -2 0 0 1 0 1 0 -1 1 1 1 2 2 3 1 -1 0 0 0 0 1 -2 1 4 1 -1 1 0 1 0 1 1 1 0 1 0 1 0 1 0 1 1 0 -1 0 1 2 1 1 0 1 0 -2 1 0 -2 1 1 4 0 
5 2 0 2 1 0 -1 1 1 1 2 1 2 1 -1 0 2 0 -1 0 1 0 2 -1 1 0 0 -4 0 2 1 3 1 2 1 2 0 0 0 0 0 2 1 1 0 0 1 1 2 2 1 3 3 1 0 1 1 1 0 0 0 1 1 -1 0 2 1 -1 0 1 1 1 -1 -1 1 0 0 -1 -2 1 0 1 1 1 2 0 -2 2 1 -1 1 1 1 1 -1 0 0 1 -1 1 -1 0 0 0 3 0 0 1 0 3 2 1 1 0 1 -1 0 0 -1 0 -4 -1 0 0 1 0 1 1 1 0 0 0 1 -1 0 -2 1 -1 1 1 3 0 0 0 1 -2 0 -1 1 2 0 5 0 3 2 -1 -2 -4 0 3 0 0 -1 0 0 -2 1 3 0 -1 -1 0 1 0 0 1 1 2 0 0 0 0 0 2 0 -1 -1 0 1 0 0 0 0 -2 0 1 0 -1 2 0 0 1 0 1 0 0 1 1 0 1 -1 0 0 0 -1 1 1 0 0 1 1 1 1 2 3 0 0 0 0 2 1 0 0 -1 -1 -1 3 1 0 0 -1 1 0 1 1 1 0 0 -3 1 -3 0 1 0 0 0 0 1 0 1 0 -2 1 0 1 1 0 5 1 3 1 1 4 0 0 -1 -6 1 4 0 1 0 1 0 -1 1 1 2 1 1 0 0 0 1 1 1 0 1 0 2 0 1 1 1 0 1 0 1 2 1 0 -1 0 1 0 -1 1 1 1 0 1 0 1 4 3 1 1 0 1 -1 1 1 -1 0 1 -1 -1 0 0 1 1 -1 0 -1 0 -1 -1 -1 1 1 0 0 0 0 1 1 0 0 0 1 1 2 0 -1 -6 -5 0 0 1 0 0 1 2 5 1 1 -1 -1 0 -2 0 0 3 0 0 0 0 0 0 1 1 0 3 1 1 0 0 0 0 -2 -2 0 1 0 0 -1 1 0 1 3 0 0 0 1 0 1 0 0 0 0 -4 0 0 0 0 0 1 1 -1 1 1 0 2 0 1 0 1 0 1 -1 0 1 1 1 -1 1 1 -1 -1 0 2 1 -2 0 1 0 0 1 2 0 0 0 1 -1 0 -1 0 1 4 0 -2 0 1 1 0 1 2 0 0 1 0 -3 0 1 0 0 -1 0 0 0 -1 2 1 0 -1 1 1 0 0 1 0 1 1 -1 0 -1 0 0 1 0 -1 1 1 -1 0 1 0 -3 0 0 2 -2 1 1 0 1 0 0 0 -1 1 -2 0 0 0 0 0 1 0 0 -1 0 0 0 1 1 1 0 1 0 1 4 2 1 1 0 0 1 2 2 1 0 0 0 1 0 1 2 -1 0 1 0 1 1 3 0 0 0 -1 0 1 -2 0 1 0 -1 1 0 2 0 1 0 0 1 0 1 1 0 0 1 0 0 1 3 1 0 0 1 2 1 0 0 0 1 0 0 0 1 0 0 1 1 1 0 0 0 0 0 1 1 0 2 2 -2 -1 -1 -1 1 -1 -1 
2 -1 -1 -1 1 0 0 0 1 1 1 0 0 1 0 0 0 1 1 1 0 -1 0 -3 0 -4 0 0 -1 -1 0 1 0 1 5 1 1 1 0 1 -1 2 -1 0 1 1 1 1 1 1 0 0 0 0 4 1 0 1 0 0 1 0 -1 0 -2 0 0 0 1 0 -1 0 2 0 1 1 0 -1 -3 -1 0 0 0 1 1 1 -1 1 1 1 1 2 2 2 0 0 -1 4 1 2 0 1 5 1 1 -1 -3 0 1 0 0 0 0 0 1 -1 -3 1 -1 2 0 2 1 0 1 1 -1 0 1 0 0 0 2 1 0 2 -1 1 1 0 1 0 0 0 2 0 2 0 0 -1 -2 -3 0 1 0 0 0 -4 1 0 0 0 1 0 1 0 1 1 0 2 0 0 1 -2 -1 0 0 -4 0 0 4 2 0 1 0 0 0 0 2 2 1 3 1 -1 0 0 -1 1 0 0 -1 2 0 0 1 0 0 0 -1 3 1 0 0 -1 -2 1 0 0 0 0 1 2 0 0 1 0 0 1 -1 1 0 0 1 1 0 1 1 0 1 2 1 3 1 0 -1 0 0 -2 2 0 0 2 1 0 1 -1 2 -1 0 -1 2 0 0 6 1 1 -3 4 0 0 0 0 0 1 0 -1 0 1 1 1 0 1 2 1 -6 1 1 1 0 0 0 2 0 -2 0 -5 -1 0 0 0 2 -1 0 1 4 4 0 3 0 2 1 -1 -4 -1 1 0 0 0 -1 0 1 1 -2 1 6 0 0 -1 -1 1 0 0 0 -4 -3 -1 0 1 0 0 0 -2 0 -1 0 2 1 2 1 0 2 -1 0 1 -5 0 0 2 0 0 0 0 0 0 -6 -2 0 0 -3 -4 0 0 0 1 -1 -1 -2 0 1 0 1 -3 0 -1 0 1 0 0 1 0 2 1 1 1 -4 2 0 0 1 2 0 2 1 0 0 0 0 0 0 1 2 0 0 1 -2 0 0 0 0 2 0 1 0 2 0 1 1 1 1 1 1 -1 1 -1 0 0 2 1 1 -2 0 0 0 1 3 2 1 1 0 2 0 1 0 1 0 0 1 -1 1 1 1 1 1 1 -1 0 4 2 -2 1 2 -1 1 1 -1 0 0 1 1 0 0 1 2 0 2 1 0 0 1 1 1 0 0 1 -3 -4 1 1 1 4 -1 0 2 0 1 0 2 0 -1 2 0 -4 -1 0 2 0 2 -1 1 0 0 0 1 2 2 1 -1 -1 1 0 0 1 0 0 0 0 0 2 0 0 -2 3 1 1 0 0 0 1 1 0 0 1 0 0 0 1 0 1 3 -1 0 0 1 1 0 0 1 1 1 1 -1 2 6 2 3 -3 1 4 2 1 -1 1 0 0 0 1 1 1 1 0 1 1 0 0 0 0 1 0 -2 -4 -7 1 -1 3 1 0 1 0 0 0 0 0 1 1 3 1 0 0 1 1 1 1 1 1 0 0 -1 1 0 2 -1 1 3 4 0 0 0 1 0 1 
0 0 1 0 0 0 -1 0 0 -2 0 0 0 2 1 -2 0 0 1 2 -1 1 0 1 0 0 1 0 1 1 0 0 1 0 1 1 4 1 -1 1 2 0 -5 -2 0 0 0 1 2 1 0 1 0 -2 0 0 1 4 -1 1 2 0 0 2 1 0 1 0 -1 1 0 0 1 2 1 0 1 0 0 0 0 1 0 1 1 0 0 0 2 1 2 0 -1 0 -1 0 0 1 0 -1 -1 0 -1 1 0 -1 2 0 0 -1 0 0 3 -1 1 0 0 0 0 1 0 -1 2 0 1 0 1 0 -1 1 1 0 0 -1 -1 1 0 0 0 -1 0 1 0 0 1 1 2 -1 -1 -1 1 0 1 1 0 -4 -1 1 0 1 0 0 0 -5 0 -1 0 -1 0 0 1 0 1 0 0 1 1 1 -3 -2 1 3 1 0 1 0 1 1 4 0 0 0 0 0 0 1 1 2 2 1 0 0 2 1 1 1 2 -3 1 0 4 2 1 0 1 1 1 1 0 0 0 1 0 -3 0 1 2 0 1 1 -1 1 1 1 0 1 0 0 -1 0 -2 -3 -1 1 0 2 -1 0 0 0 1 0 -2 0 0 -4 -2 1 1 1 0 0 0 0 2 1 0 0 -1 0 0 0 0 0 0 0 1 0 0 0 1 0 1 0 -1 1 0 1 5 2 3 0 1 0 0 -1 1 -1 -5 -6 -2 -1 1 1 -2 1 4 0 1 0 0 0 0 0 1 0 1 1 -2 2 0 -2 0 1 1 -1 1 0 1 0 -10 0 3 0 -2 1 3 1 1 0 0 0 0 0 0 1 2 5 1 0 -1 1 2 2 1 1 0 0 3 2 1 -3 -1 0 1 1 0 2 1 1 -1 -1 0 1 0 1 1 0 1 0 0 0 0 0 0 -1 2 1 1 1 1 0 0 0 -4 0 -6 0 1 1 0 2 0 0 1 1 -1 0 1 0 1 1 0 0 0 0 1 0 2 1 1 3 0 -3 0 2 -1 0 1 0 1 0 1 1 1 0 0 0 1 -1 0 0 0 1 1 1 1 1 0 1 0 4 3 1 1 0 0 1 2 -1 -1 0 2 2 0 1 2 0 -3 1 3 2 4 2 0 -1 0 1 0 0 4 2 2 0 1 0 0 1 0 0 1 1 0 1 1 0 1 0 1 1 1 1 -1 1 1 1 0 2 1 1 0 1 0 -1 0 1 2 2 0 0 2 3 1 2 0 0 -1 -4 1 0 -1 0 -1 1 1 1 5 3 3 2 0 0 0 1 5 0 0 1 2 2 0 -1 1 0 0 -4 2 7 1 0 -1 0 2 0 0 -3 -1 0 0 0 0 -1 2 0 0 1 0 0 1 2 1 0 0 1 -2 0 1 1 2 0 -1 2 0 0 -1 -1 0 2 1 -3 -1 0 0 1 0 1 1 2 0 1 -2 2 4 2 1 1 1 1 0 1 0 1 1 0 1 1 0 1 1 1 1 2 1 4 1 3 0 1 1 0 
2 0 0 0 1 1 2 0 0 1 -1 0 0 -1 0 -2 0 0 0 2 0 1 -1 2 2 0 0 2 1 0 1 1 1 2 0 0 0 -1 0 1 1 0 0 -6 -1 1 0 5 4 0 1 1 1 1 1 0 1 1 0 1 1 0 1 0 3 0 -1 -2 1 2 0 1 0 -1 1 1 0 0 0 0 0 0 0 0 1 0 0 0 1 -2 1 3 2 1 -1 -1 1 1 0 0 0 2 1 1 1 0 2 1 -2 0 0 0 0 -2 -1 0 0 1 0 1 0 1 1 -3 1 3 1 0 1 0 1 0 -1 -4 0 0 -1 0 2 1 0 -2 1 0 1 -1 1 -1 0 0 0 -1 0 -1 -1 -1 0 0 0 0 0 0 0 0 1 2 1 1 0 -1 1 1 -1 0 1 0 1 0 0 1 1 1 4 -1 0 0 -1 1 0 1 0 0 1 1 2 7 1 -1 0 1 0 -1 -1 1 -1 -1 1 1 0 -1 2 0 1 -1 1 1 2 0 1 1 0 1 0 -1 -2 0 -1 1 1 0 1 1 0 -1 0 5 1 1 0 1 0 1 1 -1 -1 1 0 -3 -1 2 0 2 0 0 1 0 -1 0 -2 -1 1 0 2 1 2 1 1 0 1 0 0 1 1 0 0 1 0 -3 -1 -3 0 0 1 1 1 1 0 1 2 1 2 0 1 0 0 -1 0 1 0 0 -1 0 0 0 1 0 0 1 2 1 0 1 1 0 1 0 1 1 0 0 2 0 0 -1 1 0 1 -1 -1 0 0 1 6 4 0 1 1 1 1 1 -1 -1 -1 2 0 2 6 1 5 0 0 1 2 0 0 2 -1 1 -2 1 0 0 -1 0 1 3 2 1 4 2 0 1 1 1 0 1 0 -1 0 1 0 0 1 1 1 0 -1 0 -1 1 0 -1 0 1 0 1 1 0 0 0 1 1 1 0 1 0 0 0 4 1 1 3 0 1 1 1 0 2 1 1 1 -4 0 -1 0 0 0 0 0 0 1 0 0 1 1 -1 1 -1 0 -1 0 0 1 0 0 1 5 0 1 1 1 3 1 -1 0 -2 -1 1 0 0 0 -1 0 1 2 1 -4 -4 1 1 0 1 1 0 1 0 4 0 0 1 0 1 2 1 1 1 0 3 0 0 3 0 0 0 0 1 1 1 1 2 0 0 2 1 1 -1 0 3 2 0 1 0 1 -1 1 1 -1 5 1 2 1 0 4 3 -1 0 0 -1 1 0 0 1 0 0 0 0 1 1 5 2 1 0 1 4 1 1 0 1 -1 1 1 1 3 0 -2 1 1 0 -2 1 0 2 2 2 0 -1 -1 0 1 -1 0 -1 0 0 -3 0 0 1 1 1 0 1 1 0 2 0 4 1 0 1 2 -1 0 -1 -1 -2 1 1 0 0 1 0 0 -1 0 1 1 -1 -2 0 2 1 1 1 0 5 0 1 0 1 1 0 -1 0 2 0 0 -1 -3 1 0 0 0 1 -1 1 0 1 0 0 
0 0 1 0 1 -1 0 -2 -1 2 1 0 1 3 1 0 1 2 1 -1 0 0 1 1 1 0 -7 0 1 1 0 1 -1 3 1 1 0 0 1 2 1 0 -1 -7 -4 0 1 0 2 0 3 -1 1 2 1 2 2 1 1 0 0 1 0 2 1 -1 -2 0 0 1 2 1 -1 1 0 1 1 -1 0 0 -4 -1 -1 1 -1 0 1 0 0 -1 1 6 1 1 0 3 7 2 2 0 0 0 0 1 -1 1 0 0 0 1 0 2 0 -3 0 1 0 0 -1 -1 0 1 0 1 0 0 0 4 0 -2 1 1 0 1 0 -2 -1 1 4 2 1 1 3 1 1 1 1 0 0 1 0 0 1 1 -1 1 1 1 3 1 1 0 -1 -1 0 0 1 1 -2 0 0 0 1 1 0 1 1 1 1 0 0 2 1 1 0 1 1 1 0 -1 0 1 0 2 1 9 0 2 0 0 4 1 1 1 -4 1 0 1 1 1 1 -1 1 1 1 3 0 -1 0 0 0 0 0 0 1 1 0 2 -1 -1 -1 1 1 2 4 1 0 0 0 1 4 1 0 -4 -1 0 1 -1 1 1 0 0 0 0 1 0 2 1 0 -2 1 0 0 1 0 0 -1 0 1 0 1 -1 -1 1 0 0 0 0 0 1 0 0 0 0 1 0 1 0 -1 2 1 -1 1 0 -1 0 0 1 1 0 1 1 -1 -5 -1 1 1 0 1 1 0 1 0 1 0 0 0 1 1 0 1 1 1 -1 0 -5 -5 -3 -2 0 1 1 1 0 -1 1 1 0 2 -1 -2 0 -1 0 1 0 1 -1 0 1 0 1 -1 0 0 1 -2 1 0 1 2 1 3 -1 0 1 1 0 1 1 -1 2 4 0 0 -1 0 1 1 -4 -5 -3 -1 1 0 0 -1 1 3 0 0 -3 1 0 1 0 0 1 0 0 7 0 1 1 1 1 0 1 1 3 0 0 -1 0 1 1 1 0 0 0 0 0 0 1 -1 2 2 -1 0 0 0 1 2 2 9 1 0 1 1 1 3 0 1 0 1 0 1 4 5 -1 0 0 -1 1 1 1 1 0 0 -1 -1 0 0 1 0 1 0 0 1 -1 2 0 0 -4 0 1 0 0 1 0 0 2 0 2 1 2 6 0 -2 0 1 0 -1 0 1 1 0 1 3 -1 0 0 1 0 1 1 0 0 0 2 1 1 2 1 0 1 1 3 1 0 1 0 1 0 0 0 -1 2 0 0 -1 0 1 1 1 0 -1 1 1 0 -6 0 -1 1 -1 0 0 -1 0 0 0 0 1 -1 -2 0 1 -1 0 1 1 0 0 1 1 1 1 -3 1 1 1 0 0 -1 0 1 0 1 0 1 1 -1 3 0 -1 0 0 0 0 0 0 1 1 -1 1 -1 0 1 0 1 2 0 1 -3 -6 0 0 -1 2 6 2 0 1 2 2 1 4 1 1 0 0 -1 -1 0 0 1 3 0 1 0 0 0 1 1 1 1 -1 1 0 0 
0 0 -2 1 -2 0 2 1 1 1 0 1 0 1 -1 1 1 1 2 2 0 1 0 0 0 -1 1 2 0 0 1 0 1 -1 1 2 -1 -1 0 1 1 -1 -1 0 0 1 0 0 0 0 2 0 -1 1 0 1 1 3 0 0 1 -3 0 2 0 1 1 0 -1 1 0 1 1 -3 -1 0 -1 -1 1 1 -2 1 3 0 0 1 1 0 -1 -4 0 2 1 -1 0 1 2 0 1 0 2 2 -1 -1 1 0 0 1 0 1 0 1 -1 1 1 0 1 0 0 0 1 1 1 1 0 1 1 1 -2 0 -1 2 0 0 0 1 0 0 2 0 -1 1 0 1 0 0 -5 -7 0 0 -1 0 3 -1 1 2 2 5 2 0 -1 1 1 -1 0 1 1 1 1 0 0 1 2 1 -2 0 1 1 1 0 -3 0 1 1 2 1 1 1 0 1 0 -2 0 1 1 1 0 0 -5 0 1 0 0 -1 0 1 4 0 1 0 0 1 -1 -2 0 -2 1 0 1 1 0 1 -5 1 0 1 0 0 -1 1 1 1 2 1 0 0 0 1 0 1 1 1 0 0 0 1 0 -1 -1 -2 0 0 0 0 2 1 9 2 0 1 1 1 1 0 1 1 0 0 0 1 -1 0 -2 1 0 1 1 0 0 1 -1 1 -1 0 1 1 0 0 0 -1 0 -1 -1 1 1 1 6 2 2 0 2 0 0 -3 -3 0 0 -1 1 0 0 1 0 0 0 0 1 0 0 -1 -1 1 -1 0 -1 0 0 1 2 0 1 1 0 0 1 1 -1 1 0 0 -1 1 -1 -2 2 1 0 -1 4 1 -1 1 0 1 0 -1 -1 -4 1 1 2 1 1 0 2 0 -2 1 0 1 0 1 1 0 0 1 0 1 0 0 0 -1 -1 1 1 1 1 -1 0 0 0 0 0 1 1 0 0 1 1 4 2 3 1 0 0 -1 0 1 0 0 -1 1 1 2 1 2 1 1 -1 0 1 0 1 0 -1 -1 1 0 2 1 1 0 0 1 1 1 -2 0 0 -1 0 0 1 1 1 2 1 0 1 -1 1 0 1 0 1 -1 1 1 0 2 -1 0 0 0 -3 0 -2 0 0 0 -1 0 -1 0 0 -1 0 2 0 2 1 0 0 2 1 1 0 0 0 0 0 -5 1 0 -2 1 0 1 0 0 1 1 -3 -1 0 1 0 2 1 1 2 0 1 0 4 1 5 1 -1 1 1 1 0 0 1 0 2 0 -1 -1 1 0 0 1 1 0 0 -1 0 0 2 0 0 1 0 0 0 1 0 -1 0 0 0 3 0 1 0 0 1 0 1 2 5 2 0 0 0 1 0 -1 0 0 -1 1 2 2 0 1 1 0 2 0 0 1 0 -2 0 4 0 0 0 -1 0 1 0 -1 1 1 0 -1 1 1 1 -1 0 1 -1 1 8 9 7 1 0 1 1 1 0 0 -3 -2 0 1 0 -4 -1 1 0 0 1 0 2 0 1 0 1 1 0 1 0 0 
2 1 0 1 1 1 0 0 0 2 1 1 0 0 -1 1 4 1 1 0 0 0 2 0 2 0 4 1 0 0 0 -1 0 0 -3 0 2 1 1 0 0 0 0 1 0 0 1 0 0 4 0 -1 0 0 0 0 2 1 0 0 0 1 2 3 1 0 0 -5 -9 -1 -3 0 1 -1 -4 -1 1 1 -1 0 -4 0 0 0 4 0 1 2 0 0 1 1 0 1 0 0 -1 0 -1 3 0 1 1 0 1 -3 0 1 0 1 2 0 0 2 -1 0 -1 1 1 3 0 3 1 0 1 1 1 0 0 1 4 0 1 -1 1 -1 1 0 0 0 -1 -2 1 0 0 1 -1 -1 0 1 0 1 1 2 2 0 1 2 1 1 0 1 1 0 0 0 -5 0 0 1 -2 2 1 0 0 0 3 2 1 0 -1 1 5 3 1 0 0 -1 0 0 1 1 2 -1 0 0 2 1 1 0 -1 -2 0 2 3 0 0 -1 1 0 1 6 6 1 1 1 -4 1 -2 0 -2 0 0 1 0 3 0 1 0 0 6 2 1 0 -1 1 0 1 1 1 0 1 0 0 0 0 0 -1 -2 -1 1 2 2 1 0 0 1 0 0 0 0 1 1 -2 0 0 2 0 0 1 1 0 2 -1 0 0 1 -1 0 1 -2 0 0 1 -1 -3 0 -1 0 0 0 0 1 0 0 1 1 0 0 1 -1 0 2 1 1 0 1 0 1 2 2 2 1 0 1 1 1 2 0 -4 -1 1 -4 1 1 1 0 2 0 1 1 0 -1 1 0 0 1 0 0 1 0 0 1 1 -2 0 1 0 1 -1 1 3 1 0 0 0 1 1 -1 1 2 0 -2 1 0 0 0 1 0 0 0 0 0 0 0 1 1 0 1 0 1 0 0 0 -1 1 1 0 0 2 1 1 -1 -1 -1 -1 0 4 1 1 0 2 1 1 0 1 3 2 0 1 0 0 1 0 2 1 1 1 0 0 0 0 2 5 0 -2 -1 2 -2 2 5 0 1 1 0 0 1 1 1 0 0 0 0 0 -2 0 1 3 1 1 0 1 1 1 1 1 0 0 1 2 0 2 1 2 0 2 2 1 0 -3 1 1 0 1 1 0 1 0 2 1 6 1 0 1 0 0 2 4 1 1 -1 1 0 0 0 0 -1 -1 0 0 -3 1 1 0 -4 2 0 0 1 1 -1 0 0 1 1 1 2 2 -1 1 0 0 2 0 1 0 1 0 0 0 2 0 -5 -1 1 4 0 -5 -8 0 1 0 1 1 1 3 0 1 0 0 0 1 -1 0 1 2 2 0 0 1 0 0 1 1 1 1 0 0 0 2 1 0 -1 2 0 1 0 1 0 -2 1 1 0 -3 0 0 -3 0 2 0 1 -1 2 0 2 0 0 0 2 1 1 4 4 3 0 0 0 -1 1 0 0 0 1 1 0 0 1 1 1 -1 1 0 -1 1 -1 0 1 -1 1 2 -1 -3 0 -1 1 0 1 1 4 1 
1 2 0 2 0 1 0 1 0 0 0 -1 1 0 -1 1 1 1 0 0 -1 1 0 1 0 1 0 0 0 0 0 0 0 0 0 1 0 -2 -1 0 1 1 1 0 0 1 -1 6 1 1 1 0 0 0 0 0 0 1 -3 -1 0 -1 0 0 1 -1 -1 -1 -1 0 1 3 0 0 1 1 1 1 4 1 -1 1 0 1 1 -1 -2 -1 -1 2 0 1 1 1 1 -3 -3 -1 1 -1 0 0 0 0 1 -1 -1 0 -1 -2 -1 0 1 1 -1 -1 2 1 1 1 2 0 0 1 1 0 0 -1 1 0 0 0 1 2 0 0 0 1 0 0 1 0 0 -2 0 0 1 1 -2 1 0 0 1 2 -1 1 1 2 1 1 0 0 0 -3 1 -1 1 0 1 3 1 1 0 -2 0 1 0 1 0 -3 0 -2 1 1 0 1 5 2 -1 1 -4 -1 0 -2 0 1 2 1 2 1 1 0 1 0 1 0 1 0 0 1 0 5 1 1 1 0 0 0 0 0 0 1 1 5 0 0 2 -1 3 1 2 0 1 0 1 0 1 1 1 2 0 0 1 6 0 0 2 1 0 0 3 2 4 0 0 0 0 -1 0 0 -1 0 1 0 1 1 -1 0 1 1 0 1 1 0 0 1 0 1 1 1 0 0 1 -1 1 1 -1 0 0 2 0 0 0 0 0 1 -1 -1 -3 0 1 0 0 0 1 0 0 -1 1 0 -1 2 0 0 2 1 2 1 1 0 4 0 0 1 0 3 0 2 0 0 -1 1 2 0 1 0 1 2 -1 -1 1 2 2 2 0 3 1 1 2 1 1 -1 1 2 2 2 0 0 0 0 -1 1 0 1 3 0 1 0 0 -1 0 2 0 0 0 2 0 1 -1 -5 1 0 1 0 1 0 1 1 3 1 1 0 2 1 2 1 1 0 0 1 0 1 0 0 4 2 5 3 1 -1 -1 1 1 1 1 0 0 1 1 1 4 -2 -3 1 1 0 0 1 0 0 1 5 0 1 0 0 0 0 0 3 0 1 0 0 1 2 1 1 0 0 2 0 1 -1 1 0 0 0 -1 1 0 1 1 0 0 -1 1 1 1 -1 0 1 0 0 0 0 0 6 2 1 1 0 0 0 0 0 2 1 1 1 -1 0 0 3 1 1 1 0 0 0 -1 0 -1 1 0 0 0 0 0 -1 1 0 1 1 0 1 0 -1 0 1 0 1 0 -1 -1 1 0 1 4 6 1 1 0 2 1 0 0 2 0 1 1 -1 0 1 -1 0 0 -1 0 -1 0 0 1 0 1 -1 -3 -7 -1 -1 0 0 1 1 0 0 0 0 2 2 -2 -1 1 1 1 -1 -5 -1 1 0 0 1 0 -4 -2 1 -1 2 1 0 0 1 0 1 0 0 1 1 -1 0 0 0 2 0 0 0 2 1 0 -1 0 1 0 1 0 1 1 1 -1 1 2 1 0 -1 1 -1 1 1 1 0 0 0 0 1 0 0 1 3 1 -1 
-1 -1 0 0 -1 -2 1 0 0 1 -1 0 -1 -2 1 0 0 0 0 2 1 -1 0 1 1 1 0 1 -1 1 0 1 0 -1 1 0 0 1 1 1 2 0 1 0 1 -1 0 1 0 2 1 0 0 0 -1 0 1 1 0 -2 1 -1 -1 1 -1 0 2 1 2 1 0 0 0 0 0 0 -1 0 2 0 2 1 -1 0 1 -1 1 1 -4 0 0 0 3 1 -1 0 1 0 -1 -6 -5 -1 0 0 3 1 1 1 1 1 1 0 1 0 1 0 2 0 -1 1 1 1 3 1 0 1 -4 1 1 0 0 0 0 1 0 0 0 -2 1 1 0 0 0 -1 0 0 0 0 0 1 0 0 -1 0 0 1 3 0 1 2 1 0 0 -3 0 1 1 1 2 4 0 1 0 -2 1 -1 1 0 0 0 -1 -5 1 1 1 0 -1 0 1 1 0 0 -1 0 0 0 0 0 -1 0 1 1 -1 1 0 3 0 0 -2 -2 1 0 -6 0 0 0 1 -2 1 3 0 0 2 0 -3 1 1 0 1 0 0 1 0 1 1 1 0 1 0 1 0 -1 1 2 0 0 0 1 2 -1 1 -2 0 -4 -5 2 0 1 0 0 4 3 0 3 0 1 1 0 -2 2 0 2 0 0 0 0 0 1 2 1 0 1 -1 0 2 1 0 2 1 0 1 1 1 0 -1 0 2 1 0 -1 2 0 1 2 1 -1 0 -1 -1 0 -6 -1 0 -1 0 0 1 1 1 2 2 0 1 0 -3 0 1 -1 0 1 1 1 1 4 2 2 0 1 0 0 1 0 0 1 1 0 -1 -1 0 -1 -1 -1 1 -1 1 -1 1 0 0 1 0 0 1 6 1 1 0 1 0 0 1 0 4 0 -2 2 1 0 0 0 -1 0 0 1 -2 0 3 1 1 0 1 1 5 7 0 0 -1 3 0 -1 1 0 0 1 1 1 1 0 1 1 1 1 1 -1 1 -1 1 0 1 2 1 0 1 1 0 0 1 0 1 0 1 0 1 1 1 0 1 1 0 1 3 1 0 -3 1 0 1 0 1 0 0 1 2 1 0 0 0 1 1 0 3 5 1 1 1 -3 -2 1 1 0 -1 0 0 1 1 1 1 -1 0 1 4 0 0 0 0 0 0 0 -1 -1 0 3 2 1 1 -1 0 -1 0 0 0 0 0 1 1 0 0 -1 -1 1 0 3 1 3 0 0 0 0 0 2 0 0 0 0 2 -4 0 0 2 2 2 1 1 1 1 0 -2 0 0 -1 1 1 0 -1 1 1 0 0 1 2 1 1 2 1 0 1 0 0 1 1 0 1 1 1 0 3 1 0 1 -1 1 0 0 0 -1 1 0 -1 0 1 1 0 1 1 0 2 0 0 1 -1 0 1 0 0 0 1 2 2 1 1 1 -1 0 0 -1 1 0 1 2 1 1 1 1 1 0 2 1 0 2 0 2 1 0 0 1 0 4 0 0 0 0 1 -1 0 0 -3 1 1 0 0 
0 1 0 -1 -1 1 -2 0 3 0 2 1 0 1 1 -1 -2 0 -1 0 1 1 0 -1 1 1 0 0 0 0 1 4 1 1 0 1 -3 1 0 0 1 1 0 1 1 -1 -4 0 0 -1 0 0 0 0 1 1 1 0 1 0 2 1 2 0 1 0 1 -1 1 1 0 1 1 -1 0 0 1 1 0 0 1 1 0 1 -1 0 2 0 0 -4 0 0 0 -1 0 0 0 2 0 0 1 2 -1 1 0 2 0 0 0 4 4 5 -1 0 0 -1 0 0 1 -1 0 0 0 1 -1 0 0 1 0 0 1 0 -1 0 -2 0 -1 1 1 1 1 1 0 0 0 0 0 0 0 1 1 0 0 0 4 4 1 0 1 0 0 1 0 -1 0 0 0 1 -1 -1 0 0 3 0 1 1 7 0 1 1 0 -1 1 1 0 0 0 -1 1 -1 0 -1 1 -3 0 0 1 1 -1 0 -1 1 1 1 0 1 1 1 1 0 -1 1 0 1 1 0 1 0 1 1 1 2 1 1 -1 0 0 0 2 1 0 2 1 2 0 1 0 0 0 0 1 0 0 1 3 0 0 0 0 1 -1 -1 1 1 0 1 -4 -1 -2 0 1 3 0 0 0 0 0 2 0 0 -1 1 0 0 1 1 0 0 0 1 0 1 1 0 0 1 -1 1 1 1 2 1 1 1 1 0 0 1 1 3 4 0 1 2 1 -2 1 0 0 0 0 -2 -1 1 1 0 0 0 0 -1 -5 1 0 2 1 0 0 1 1 -1 1 1 -1 0 0 0 1 1 1 0 0 0 0 0 0 2 2 1 -1 -1 1 0 3 0 3 0 0 0 1 -2 1 0 0 1 2 0 0 0 2 6 1 0 1 0 -2 0 4 1 -1 1 1 -1 0 0 1 1 0 4 1 0 1 0 2 1 0 0 0 0 -1 -1 2 5 1 0 0 0 0 0 0 0 0 0 1 1 0 -1 0 0 3 2 0 1 -1 2 0 1 0 1 1 1 0 0 1 -4 0 0 0 0 -1 0 0 0 1 1 0 0 1 0 0 0 0 0 0 0 0 1 0 0 1 0 1 1 2 0 0 0 0 0 0 1 0 -1 1 0 1 1 3 -2 0 -1 1 1 2 1 2 0 1 0 0 1 0 0 1 2 1 0 -1 0 0 1 0 1 1 0 2 -1 0 0 2 -1 0 1 0 3 1 0 1 0 0 0 0 0 -1 0 4 1 0 4 3 0 1 -1 4 4 -1 1 0 1 0 -2 -1 0 1 1 -1 -1 -1 2 1 0 1 -1 -1 2 0 -1 3 0 -1 1 0 0 0 2 2 1 0 0 0 1 0 0 1 0 1 3 -1 0 -1 -1 -2 -1 0 1 2 0 2 0 0 0 1 0 -3 -1 -1 0 0 4 1 1 0 -1 0 0 -1 1 0 0 0 0 0 0 2 1 0 1 1 4 0 1 2 1 1 1 1 0 0 1 -1 1 1 0 0 -5 0 0 1 -2 1 0 
0 3 1 0 1 0 0 0 0 0 0 -2 1 0 0 0 1 0 0 0 0 0 1 1 0 -1 7 1 0 0 1 0 0 1 0 0 0 1 1 0 1 1 1 0 -1 0 0 0 -1 0 0 1 -3 0 2 0 2 1 0 1 0 0 0 2 1 2 0 2 1 1 -1 -2 -2 -1 1 0 0 1 2 -1 0 1 1 -2 1 0 1 1 0 2 -2 0 0 0 -3 0 2 3 1 2 0 0 -1 1 1 0 1 0 0 0 1 1 0 1 -1 0 0 1 -1 1 -1 0 0 2 1 1 1 0 -1 0 0 -1 0 0 1 1 1 2 1 -1 1 1 0 1 0 1 0 1 1 1 0 3 1 1 1 2 1 -1 0 0 1 1 -1 0 1 2 0 0 2 0 0 2 1 3 2 0 0 0 0 1 1 1 1 0 -4 0 1 1 1 1 1 -2 0 0 1 1 0 0 -2 2 0 1 2 1 0 0 0 0 0 0 1 -1 0 -1 0 1 1 0 1 0 0 1 1 0 0 0 1 1 0 0 1 1 1 0 1 2 0 0 1 0 0 0 1 0 0 2 -1 1 3 3 1 -1 -5 0 -3 1 0 0 0 0 1 0 -1 -1 1 -1 0 1 0 1 1 1 1 0 3 0 0 -1 1 1 0 0 1 -1 1 0 1 1 2 0 4 1 0 1 1 1 0 0 4 0 1 0 1 0 1 0 0 0 1 0 1 1 0 -1 0 0 0 1 1 3 2 0 1 0 2 2 0 2 1 1 -2 0 1 1 0 0 3 5 0 1 0 1 0 1 -2 0 1 0 2 2 1 2 0 -1 0 0 0 0 1 0 1 1 1 0 0 2 0 0 -1 1 0 3 1 0 0 1 1 0 1 1 1 0 0 1 0 2 1 1 1 1 0 2 0 0 1 0 0 0 0 2 1 6 6 0 1 1 0 1 0 0 -1 0 0 0 0 2 1 -1 1 1 2 4 1 0 1 -1 1 0 -1 -1 0 0 1 1 0 0 -3 0 1 0 0 -3 1 1 0 1 0 1 -1 1 1 1 0 0 1 0 1 1 0 3 2 0 0 1 -1 2 -1 1 -2 0 1 0 1 0 0 1 1 4 1 0 -3 1 0 1 -1 1 0 1 1 1 0 1 1 0 1 2 1 0 1 0 0 0 0 -2 1 1 1 2 0 0 1 1 -1 0 -1 1 0 -1 2 0 1 1 1 -1 1 2 4 -2 1 4 -1 0 0 0 0 0 2 -2 0 0 1 -1 0 1 1 0 0 0 0 1 1 -1 -1 1 0 0 -1 1 -1 5 1 1 1 0 0 0 1 1 2 1 -1 1 4 1 -1 -1 0 1 1 0 0 1 2 1 5 1 1 1 0 0 -1 0 -1 0 1 0 -1 0 0 1 2 1 1 1 -1 0 0 1 1 1 1 1 1 0 1 1 0 -1 -1 1 0 1 0 0 1 1 0 1 0 0 1 1 1 -6 -1 0 0 1 1 1 
0 0 1 1 0 1 0 0 0 1 -1 2 0 1 1 1 1 3 1 1 0 1 0 2 0 -2 4 2 1 0 2 0 -1 1 0 -1 2 1 -2 0 0 0 1 1 1 1 1 1 0 -2 1 2 0 0 0 0 1 -1 1 -1 0 1 3 5 -1 0 -1 1 -2 0 0 1 0 1 1 0 0 1 0 1 1 1 0 0 0 2 1 0 0 0 1 0 -1 0 -2 0 1 0 0 1 1 1 -1 0 1 1 1 1 2 1 0 -5 0 0 0 0 1 -1 2 1 -1 2 -1 1 1 0 0 0 2 1 1 -1 0 -1 3 1 3 3 0 1 1 2 1 0 0 0 0 -5 0 1 0 -3 0 5 0 2 0 1 1 2 1 1 1 0 0 0 2 1 0 1 1 0 1 0 1 0 1 0 0 1 1 0 0 0 1 1 1 0 0 0 -1 1 0 -3 -1 1 2 1 2 0 1 0 1 0 -4 -1 -1 0 -1 1 1 0 0 1 0 1 -1 0 1 0 0 0 0 2 0 -1 1 0 0 0 1 -1 0 0 0 2 0 1 0 1 1 0 1 1 1 -4 0 5 0 0 0 0 -2 1 1 0 0 -1 -3 0 1 0 0 0 0 0 -1 1 1 2 1 -2 1 0 1 1 1 0 0 0 1 -1 -1 2 2 1 1 -1 0 -1 0 3 2 2 0 -3 1 0 0 1 2 0 2 2 1 3 1 0 0 0 0 0 -1 0 1 1 1 1 2 5 0 0 0 2 -1 -3 0 0 8 1 -1 0 2 2 0 0 0 1 1 1 1 0 -1 0 0 0 1 -1 1 -1 1 0 1 1 -1 1 2 1 0 0 1 1 -1 0 0 0 -1 0 0 0 0 0 1 0 0 0 0 -1 0 1 2 0 0 -1 -1 1 0 1 1 2 0 1 0 -4 1 1 0 2 1 0 1 0 2 0 1 1 -4 -1 1 2 2 0 -1 1 2 1 1 1 -1 -6 -1 2 1 1 2 1 -2 -1 -10 0 -1 2 -1 -1 1 1 0 0 2 0 -2 -6 0 -1 -2 0 2 1 1 -1 -1 -3 -1 1 -1 1 0 2 1 0 0 1 0 1 2 0 -1 1 -2 1 1 1 1 0 0 -1 -1 0 1 1 -3 -1 1 1 0 1 1 7 1 0 0 1 0 -1 4 -1 0 1 1 1 2 1 0 0 1 0 0 3 1 -1 0 -1 2 0 1 1 -1 1 1 1 1 0 -2 0 2 2 0 1 0 1 2 3 1 1 0 -1 1 2 0 -1 0 0 1 1 1 0 1 1 1 -1 2 0 1 0 2 0 -2 2 2 0 -2 1 0 0 1 0 0 0 -5 -2 0 -3 2 -1 0 0 1 2 3 1 1 0 1 1 2 1 0 0 0 1 1 0 0 1 1 1 1 0 0 1 0 0 0 -1 1 0 -2 0 -3 0 1 -1 0 1 0 1 0 0 1 0 1 0 1 2 1 0 -1 0 0 -2 -1 0 0 1 1 1 0 -1 0 0 
-1 0 1 1 0 1 0 -1 1 1 0 1 1 -1 0 -1 1 0 0 0 0 1 0 1 0 0 0 1 1 5 1 1 1 0 1 1 0 0 1 0 1 -1 2 1 -1 1 0 3 2 1 0 0 2 0 -1 1 1 1 1 0 0 0 1 1 1 2 1 -1 0 1 -1 0 0 1 0 0 1 1 1 -1 1 0 1 1 0 -1 1 1 1 -1 0 2 0 -1 1 1 1 1 -1 0 0 2 0 1 2 1 0 0 1 0 1 -1 0 0 0 1 2 0 0 1 1 1 1 2 3 2 1 1 1 2 -1 1 0 0 2 0 0 3 1 0 -1 1 5 1 7 0 1 1 1 -1 1 -1 0 1 1 0 -5 -1 1 0 0 1 2 0 0 -1 -2 0 -1 1 -1 1 0 1 0 -1 0 0 1 1 0 0 1 0 0 1 1 1 0 0 1 1 1 0 -3 -1 0 1 -1 -1 0 1 0 0 1 1 0 1 1 0 -2 0 2 0 1 0 1 3 1 0 -3 1 0 0 2 0 5 -2 1 2 1 -5 -1 0 0 0 0 1 0 2 0 0 0 -1 1 0 1 -1 0 1 5 0 0 0 0 1 1 1 0 1 0 0 1 1 1 2 1 1 -1 -1 1 0 0 0 0 1 1 0 0 1 1 1 2 0 1 -1 3 0 -4 -5 0 1 2 2 1 1 1 1 1 1 0 -1 1 0 1 1 0 2 0 0 1 -3 1 -3 -1 0 1 1 1 0 1 0 0 0 -4 0 6 7 9 3 -3 0 0 -1 1 0 1 -1 0 1 1 2 1 0 0 -1 -1 0 -4 0 2 2 1 0 -1 0 0 0 -1 1 1 0 0 0 2 1 -1 0 0 0 -2 -1 0 0 0 1 1 1 0 2 2 1 2 0 1 0 1 0 -1 0 -1 1 5 -1 1 -1 -1 1 1 0 0 -1 0 -5 0 2 0 -4 0 0 1 -1 1 0 1 0 2 10 1 1 0 3 0 1 1 1 -1 -4 -2 0 0 4 2 0 -2 0 0 -1 1 0 1 2 -4 0 0 3 1 1 1 1 0 -2 -1 -1 0 2 1 0 0 1 0 0 1 0 -1 0 0 1 1 0 -2 0 1 1 1 1 -1 0 0 0 0 1 2 1 1 0 1 -3 -1 -1 3 1 -1 0 1 0 -2 0 1 0 1 2 1 2 1 -1 0 0 -2 1 2 0 -2 1 2 1 0 0 1 0 1 1 -4 0 3 1 1 0 2 1 1 0 0 3 1 1 1 1 0 1 4 0 1 2 0 -3 1 0 2 0 0 0 3 0 1 1 0 1 -1 -1 1 -1 1 0 0 0 -1 1 0 1 1 1 -4 0 0 -3 2 -5 1 1 1 3 2 1 2 1 0 1 -1 -1 0 0 0 1 1 1 -1 1 0 0 -4 0 1 1 1 0 -1 1 0 -3 1 1 2 0 0 0 0 1 2 1 0 1 6 1 -1 0 1 -3 0 1 0 1 0 2 1 -2 2 2 -1 1 
0 0 0 0 1 0 0 0 0 0 -2 0 -3 0 -3 0 1 1 2 1 1 1 0 0 1 1 2 1 1 1 1 0 3 2 0 0 1 0 0 1 5 0 0 1 1 0 1 0 1 0 0 0 -3 0 1 2 0 -3 1 1 1 -1 1 2 0 0 1 5 0 1 5 1 1 2 1 0 0 1 1 0 1 -1 0 0 0 -3 1 2 0 0 0 5 1 1 1 1 1 1 1 6 0 1 -1 2 1 1 -6 -3 0 0 0 1 1 0 0 0 4 1 1 -2 -3 1 0 0 1 0 1 0 -1 0 0 3 0 -2 -1 1 0 -1 0 1 0 2 1 1 1 1 1 0 1 1 4 1 1 1 0 0 -5 0 1 0 4 -1 0 -1 0 0 1 1 0 0 1 0 -1 0 1 -1 -1 0 1 0 1 0 1 2 2 0 1 0 0 1 0 1 0 0 -1 -5 0 -1 -3 0 2 2 0 4 2 0 2 0 1 1 0 0 -6 -2 -1 -1 1 -2 1 0 0 -1 -1 -1 -1 0 1 -2 1 1 -1 0 1 3 6 0 0 1 0 0 3 0 1 1 1 1 -1 -2 -3 0 2 -3 1 1 0 1 0 0 1 0 0 -3 0 -1 0 0 4 0 1 0 2 0 0 0 0 -1 -3 2 1 -1 2 1 1 -2 1 -3 0 0 0 -1 1 -1 1 0 2 1 1 2 0 3 1 1 -1 -1 0 0 0 0 0 1 2 0 -1 1 0 1 -1 -1 -4 -1 1 0 0 0 0 2 5 2 1 0 2 2 0 0 3 1 -1 0 1 1 -4 -1 0 -2 -6 -6 -1 0 -1 -1 0 2 0 0 1 1 0 1 0 4 2 0 0 -2 -3 1 2 -1 -3 1 -4 0 1 1 -1 0 0 0 4 1 1 0 0 3 2 1 -1 2 0 0 1 0 1 1 1 1 1 1 0 0 2 1 1 1 1 -1 0 0 1 5 0 -1 2 2 2 2 1 1 1 3 2 1 0 0 -1 1 -1 2 1 1 1 0 0 2 1 1 0 2 -1 -2 1 1 0 0 1 0 1 1 0 1 1 0 0 -1 1 0 1 6 4 0 0 -1 1 0 1 1 1 1 0 1 -1 0 0 1 0 -1 2 0 -2 1 0 1 -1 0 2 3 1 0 0 -4 0 -2 1 1 0 1 2 1 1 0 1 1 0 1 1 1 0 0 0 4 2 1 0 0 1 0 0 2 2 0 0 0 -1 2 0 2 1 0 0 -1 0 1 -2 0 -1 0 1 1 0 1 1 1 0 1 0 -1 -3 1 1 3 -1 1 6 1 0 2 0 -3 0 2 0 -1 1 0 1 -1 1 0 -1 1 3 1 5 0 2 0 -1 -1 1 1 1 1 1 0 0 -1 0 1 1 2 1 0 1 3 -1 1 1 1 0 0 0 0 0 1 0 -2 0 0 -1 0 0 -1 0 -2 0 -1 0 0 -1 -1 0 0 1 1 0 1 0 1 0 1 1 -2 1 1 1 2 1 1 0 0 
1 0 1 -1 2 0 2 0 1 1 1 0 0 -6 -3 1 0 0 1 1 0 1 1 0 0 0 2 2 2 1 0 0 1 2 -1 0 0 1 0 0 1 1 0 1 2 1 1 1 1 0 0 0 -1 -1 0 2 0 -1 2 -1 0 -1 2 1 0 0 1 1 1 1 1 3 1 0 1 -1 0 3 2 1 -1 1 0 2 2 1 -1 0 0 -1 0 1 3 -1 -2 0 1 0 1 5 1 0 2 0 0 1 -1 0 1 1 1 1 1 0 0 0 -3 0 1 0 0 4 2 0 0 -1 0 2 0 0 0 2 1 1 0 0 0 0 1 0 0 0 0 -1 0 1 0 0 0 1 0 1 1 3 -1 -1 0 -3 -1 1 0 1 1 0 0 0 1 0 1 1 1 -1 1 -1 0 0 2 1 0 0 3 1 0 2 0 -3 1 1 -2 1 0 1 1 0 1 0 0 1 0 0 1 1 1 0 2 3 1 1 0 0 1 0 0 3 2 2 0 -1 0 0 -1 0 -1 0 2 -1 -1 0 0 -2 -1 0 0 1 2 1 0 0 0 0 2 2 1 1 0 0 -1 0 0 0 0 0 2 4 0 0 0 0 0 1 1 -1 0 1 1 0 0 0 -1 1 0 0 6 1 2 0 2 2 1 0 2 -2 1 2 -1 1 -1 0 2 0 1 0 1 1 1 0 0 4 -1 1 2 0 1 0 0 0 2 1 2 1 0 2 0 3 0 -1 1 1 1 1 3 0 1 5 0 1 0 1 0 0 0 2 0 1 0 1 0 0 0 -1 0 0 2 -2 -6 -5 1 1 0 1 1 -1 1 1 0 1 1 -1 -3 0 1 1 0 0 0 0 0 0 -1 1 -1 0 0 1 -1 0 1 1 1 0 0 2 1 0 0 -3 0 1 0 0 0 0 -3 1 2 1 0 0 1 1 3 0 0 1 0 1 1 1 1 0 0 1 1 1 0 0 -1 0 0 1 -1 1 0 0 -1 -1 1 0 2 -2 -1 -1 2 0 4 4 1 0 -1 3 1 1 1 0 0 2 0 0 1 1 0 2 1 0 1 0 2 0 0 -1 0 1 1 1 0 2 1 0 -3 1 -1 0 1 0 1 0 1 0 0 0 1 0 2 4 1 -2 -1 0 0 1 0 1 1 1 0 -1 2 2 -1 2 0 0 -1 1 0 -2 -1 0 2 2 4 -1 1 -1 0 1 1 0 2 0 0 1 1 1 1 -1 0 1 0 0 -1 -1 -2 -2 1 1 0 0 1 1 2 1 0 3 0 0 1 1 0 0 -2 -1 0 3 0 1 -1 1 0 0 0 0 1 0 0 1 1 1 0 0 2 1 -1 1 0 1 0 2 1 0 1 0 1 0 1 1 1 -1 1 1 1 1 0 2 0 0 1 0 0 0 1 0 0 -1 0 2 -1 -4 -4 0 0 1 1 -1 1 1 1 1 1 0 -2 1 0 -1 1 1 0 0 0 1 0 0 1 0 0 1 1 1 1 1 
1 -1 1 1 5 1 -1 1 1 0 1 1 1 1 1 0 0 -2 -1 0 0 0 1 0 -1 0 1 0 1 2 1 1 0 0 1 -1 0 7 1 0 0 1 1 0 0 1 0 1 -1 0 0 0 1 0 1 0 -3 0 -1 0 0 2 2 2 2 1 1 0 0 0 -1 0 -3 0 0 0 -3 0 -1 1 1 0 0 -1 0 2 2 0 0 0 1 0 4 2 -5 -4 -3 0 1 3 0 2 2 4 0 0 0 0 1 2 1 0 -1 0 0 0 -1 0 0 0 1 0 -2 1 1 1 0 -1 0 0 2 0 1 2 0 1 0 0 1 0 0 -1 -1 1 0 1 0 2 1 2 -2 2 1 -1 1 2 0 0 0 -1 0 -1 2 0 0 0 1 0 1 1 1 0 1 1 1 1 2 1 2 1 0 2 0 2 0 0 0 0 0 0 0 1 -1 -4 -4 0 1 1 0 1 0 1 0 -1 -1 -1 1 -1 0 -2 -2 1 3 1 1 3 1 1 1 0 2 1 -1 1 0 0 1 0 2 1 2 1 1 0 -2 -3 1 1 0 0 -3 1 0 0 -3 2 0 -1 2 0 1 1 0 1 0 1 1 -1 0 1 1 2 1 1 5 3 0 2 1 0 1 0 0 1 0 2 0 2 1 -1 -2 1 -1 1 0 1 -1 0 1 4 1 1 0 1 3 1 0 0 -1 0 0 1 1 1 1 0 0 0 -1 0 -1 -1 -1 -2 0 1 -1 0 0 0 0 0 0 0 1 -2 -1 0 1 1 1 1 0 0 2 0 2 5 0 0 0 2 1 1 0 1 1 1 1 1 0 2 6 4 0 -1 0 0 0 0 0 1 2 1 0 1 0 0 0 0 0 1 2 2 0 3 0 1 0 1 0 1 1 0 -1 1 1 0 0 0 1 0 0 1 0 0 -1 1 -2 1 2 0 1 1 0 1 -1 0 2 1 1 1 0 2 1 0 1 1 0 -1 0 2 2 0 -4 0 0 1 1 1 0 1 -1 0 2 1 1 0 0 -2 0 0 1 1 1 1 0 -1 0 0 -3 2 2 1 2 0 1 0 0 0 2 1 0 1 -1 1 -1 1 0 0 1 1 -1 1 1 1 3 1 1 0 0 1 -1 1 3 1 0 0 0 0 0 1 1 2 -1 0 0 0 0 0 1 0 0 0 1 3 1 1 0 0 1 1 -1 0 0 4 2 1 -1 0 1 2 2 3 0 2 1 1 0 0 1 -3 1 -1 0 10 1 1 1 0 0 1 4 0 0 0 0 2 0 0 0 0 1 0 1 1 1 0 1 1 0 0 0 -3 0 -2 0 1 0 1 -1 -1 0 1 1 2 1 1 -1 0 1 0 0 3 1 3 0 2 1 2 1 0 0 -1 0 0 1 1 0 1 1 2 0 0 0 0 -5 -2 0 1 1 1 1 0 0 3 1 0 0 -1 1 0 1 -2 5 -1 -1 0 0 0 1 0 -1 0 2 1 2 -1 0 1 
0 0 -3 0 4 6 0 1 0 1 0 -3 0 -1 1 1 1 0 0 -2 0 1 1 5 0 1 1 -1 0 0 1 0 0 0 -1 0 -4 2 1 4 3 0 1 0 0 0 1 1 0 0 1 1 0 1 0 0 0 0 -3 1 1 0 1 0 1 0 5 0 1 -1 0 1 0 0 1 0 1 0 0 0 -1 1 0 1 0 -2 0 0 2 1 2 -1 1 -1 0 -1 0 1 1 0 -2 1 2 2 0 -1 -1 1 0 -1 -1 0 0 3 1 0 1 2 1 -1 1 2 1 0 -1 1 -1 0 -1 0 2 1 3 1 0 0 0 1 0 0 1 0 0 1 1 0 1 0 0 -1 1 1 0 0 0 0 0 1 1 0 1 0 -2 -2 1 0 2 1 0 0 2 0 -1 0 1 0 0 1 0 0 0 0 0 3 0 1 1 1 3 2 1 0 5 1 0 -2 1 1 0 0 1 -2 1 0 2 0 -2 1 0 -1 0 0 1 1 -1 0 0 0 -1 0 0 2 0 1 1 1 -1 0 1 0 0 1 -3 0 -1 1 0 -1 -2 -1 1 1 0 1 1 0 1 0 1 0 3 0 0 0 -1 0 -1 1 0 -1 -2 0 0 0 6 1 0 0 0 1 0 0 2 1 2 0 -1 -1 0 0 2 0 1 1 0 1 0 -3 1 0 2 1 -1 1 2 1 0 2 3 0 1 0 3 0 0 1 0 0 0 3 -3 0 1 0 1 0 -1 1 0 1 1 0 0 1 2 0 0 1 0 2 1 1 1 0 1 0 0 0 0 -4 -1 0 0 -1 0 -1 3 1 3 1 -4 1 0 0 1 2 1 1 1 1 -1 0 -1 0 0 -1 0 0 2 1 0 3 0 0 1 1 -1 0 1 1 3 1 1 1 1 0 4 1 0 -1 1 6 1 0 -2 1 1 -1 0 0 1 1 0 0 -1 1 0 2 0 0 -1 -1 0 0 0 1 -2 -1 0 0 -1 0 0 5 2 -2 -1 -1 0 0 1 0 1 0 1 -1 1 0 1 0 0 0 0 0 1 1 0 -5 0 1 0 -1 1 -1 -4 3 0 2 -1 -2 0 2 -1 -2 -1 1 0 2 0 0 1 3 1 0 -1 1 2 0 0 0 0 1 0 3 1 0 3 2 2 0 1 1 1 1 0 0 0 1 0 0 0 0 0 1 1 3 0 0 2 1 3 6 -2 0 0 4 -1 1 0 0 0 1 2 3 0 0 0 -1 -1 0 0 0 1 0 5 0 1 0 1 0 1 3 0 2 0 1 3 0 0 0 0 0 3 0 0 -1 4 1 1 0 0 0 0 0 -1 0 2 0 1 0 0 0 1 1 1 2 1 1 2 -1 2 1 0 -3 -2 1 0 1 1 1 1 1 1 0 1 1 -1 -1 1 -5 3 0 1 0 0 -2 0 -1 1 1 1 2 0 1 0 0 1 1 1 -1 0 1 0 -1 1 -1 0 1 -1 1 2 0 0 2 0 1 5 0 2 1 
0 0 1 1 1 5 1 -2 1 0 -1 -4 -5 0 1 -5 -1 0 -1 0 0 2 2 0 1 1 1 1 2 1 -1 0 0 1 1 0 0 1 -3 1 -1 -2 2 1 0 -1 1 0 3 2 1 0 0 -1 0 1 0 -1 0 0 1 0 -1 0 1 -1 -1 1 2 0 0 1 0 2 1 4 0 0 0 -4 1 2 0 2 0 -5 0 1 1 1 4 0 -1 0 0 0 -1 2 0 1 0 0 0 0 1 1 -1 0 0 1 0 1 1 0 1 -3 1 1 6 1 1 0 0 1 0 1 0 2 0 1 1 2 0 0 0 0 1 1 -6 1 1 -1 3 1 1 1 0 1 -1 -3 -1 1 -1 2 -1 -1 0 0 0 0 0 -1 -1 0 0 2 1 1 1 1 -1 0 1 1 0 6 1 0 1 0 0 -1 1 1 -3 0 0 0 1 -1 1 2 1 0 1 0 1 1 0 1 -1 1 1 3 3 1 2 0 1 0 -6 -1 1 1 -3 0 0 1 0 1 0 1 1 0 0 0 1 0 0 1 -1 0 -1 1 0 1 1 1 0 -1 -7 -1 4 4 2 -3 -1 0 0 2 0 1 1 1 0 0 0 0 -1 0 -1 0 0 -1 -1 -2 0 2 1 0 2 4 6 7 0 1 1 0 0 0 2 -1 -2 0 0 -1 1 -1 -3 -1 1 3 1 0 0 1 0 0 0 -1 -1 1 1 0 -1 2 0 0 0 1 0 -2 1 0 1 1 0 2 0 0 1 0 0 1 1 -1 -5 -1 0 1 1 5 0 1 1 1 2 2 0 -3 2 1 1 0 0 1 1 0 0 0 0 2 1 1 1 0 1 0 0 0 0 0 1 0 -2 2 1 1 2 1 0 0 1 0 1 0 0 2 1 1 3 3 1 1 0 0 -1 0 1 0 1 0 2 1 0 0 -1 -3 1 0 1 0 -1 -1 -1 2 1 1 -2 -1 1 1 0 0 0 0 1 -1 -1 0 1 -1 0 0 -1 0 1 1 0 1 0 1 1 1 0 0 1 2 -1 -2 0 0 2 1 -1 1 1 0 0 0 -1 1 1 2 -3 0 0 2 1 1 0 0 0 1 0 1 -2 1 0 0 1 0 0 0 0 2 1 -1 0 1 3 0 0 1 0 1 1 0 0 2 1 0 0 0 0 1 0 0 0 1 1 4 1 -1 3 1 -1 1 5 1 -1 0 0 2 0 0 -3 0 1 1 1 1 1 1 3 1 0 0 1 0 0 1 1 0 2 1 0 2 0 -1 1 0 0 0 0 0 1 1 2 0 0 1 1 0 0 3 0 1 1 1 0 1 4 4 1 1 -1 1 1 0 0 0 0 -1 1 1 1 0 1 1 0 0 0 -1 0 1 0 -1 1 2 0 0 0 1 0 -1 1 1 -2 0 2 0 1 0 2 -1 1 0 -4 -1 1 1 0 1 -1 0 1 5 1 0 1 1 1 2 0 0 1 1 -1 1 3 0 0 0 0 1 1 2 1 0 
-5 0 0 0 0 1 0 0 2 1 1 -5 0 0 0 1 1 -2 2 1 0 1 0 -2 1 1 0 3 1 0 1 1 1 0 1 0 0 1 -1 0 0 0 0 1 -1 1 2 0 0 -1 0 1 0 0 1 0 1 1 0 3 0 -1 1 -4 0 1 0 0 -1 1 0 0 -2 -1 0 1 0 0 2 0 0 1 0 1 0 1 0 0 2 3 1 1 1 0 1 1 0 0 2 1 0 0 -1 -1 0 1 0 -1 0 -1 0 0 1 0 1 0 -1 0 0 0 0 1 1 -4 0 0 5 1 0 4 3 1 0 1 0 -1 1 1 0 0 0 1 1 0 -2 1 -3 0 1 0 0 1 0 1 0 2 2 1 0 -1 0 1 0 0 0 0 0 1 1 1 -3 0 2 0 0 1 1 0 4 0 0 -1 -1 2 1 0 1 1 -1 -1 0 1 0 0 0 2 1 2 1 0 0 2 1 0 0 1 1 0 1 1 0 2 1 -1 0 -1 1 -1 1 0 -1 0 0 -1 0 0 1 -1 0 -1 0 0 1 1 -1 4 1 -1 0 0 0 1 3 1 0 -3 1 -1 -1 0 2 -1 1 1 2 -1 0 0 2 2 0 0 0 1 2 1 1 0 1 1 1 1 1 2 1 1 3 0 0 0 0 0 1 1 -1 1 0 1 1 0 2 1 1 0 -1 0 -3 1 -3 2 1 0 1 0 -1 2 0 1 0 0 1 1 0 1 -1 1 -1 -2 1 1 1 1 0 1 0 1 0 1 1 1 -2 0 2 0 1 -3 2 1 1 0 1 2 1 1 -1 1 0 0 -1 2 1 1 1 0 1 -1 0 0 0 -4 -1 0 0 1 1 -2 1 0 1 0 -1 0 0 -3 0 1 0 -1 1 0 0 -1 -1 0 1 2 -1 0 0 1 2 0 -2 0 0 0 0 2 2 1 1 1 0 0 1 0 1 0 0 0 2 1 0 0 0 1 0 1 1 1 0 0 1 0 0 1 0 0 0 0 2 1 0 0 1 0 -1 0 1 0 0 0 1 0 -1 2 4 0 0 1 1 -3 0 1 0 -1 0 -3 3 1 0 0 1 0 0 1 0 0 3 0 -1 -1 3 1 0 -2 -1 0 0 0 0 0 -1 0 1 0 0 2 0 -1 1 1 1 0 0 -2 -1 -3 0 0 3 1 0 1 2 -1 0 -1 2 0 2 0 2 -1 -3 1 0 -2 1 1 0 1 1 2 6 0 1 0 1 -1 0 0 2 -1 2 1 1 0 0 -2 0 -1 0 0 0 0 1 1 1 0 1 4 0 2 0 1 0 -1 0 1 0 2 1 0 -1 1 0 1 1 0 1 2 0 2 1 1 0 1 0 0 -3 -5 -1 1 0 1 0 2 -1 -1 0 0 0 0 0 0 0 1 1 -1 1 1 0 1 2 0 1 -2 -1 -1 0 0 2 1 0 0 0 0 2 0 1 0 1 1 0 1 1 1 5 1 1 0 0 1 1 0 1 1 1 1 
0 2 -1 0 1 0 1 0 1 1 0 1 0 0 0 0 0 1 1 0 -1 0 0 1 1 4 1 1 -1 1 2 0 0 1 1 0 1 0 1 1 0 1 1 1 0 5 4 1 -2 0 0 0 0 1 6 1 1 4 3 -2 0 0 1 -5 1 0 0 0 0 1 1 2 0 1 0 0 2 1 0 1 0 0 -1 1 1 0 -3 0 1 0 0 -1 -1 0 1 -1 1 2 0 1 0 -2 -2 1 0 0 0 0 1 1 0 0 0 -1 1 -1 1 1 2 0 1 0 0 0 1 1 1 -1 -1 5 -1 -3 0 3 0 -4 1 -1 0 0 1 1 -1 2 1 0 0 1 0 -1 1 0 1 3 0 1 1 1 0 0 -2 1 3 0 2 0 1 0 1 0 0 0 -2 0 1 1 -1 0 0 1 1 1 1 0 1 1 0 0 0 -3 1 1 1 7 3 1 0 0 1 4 1 0 0 1 -1 0 1 0 1 0 1 1 -1 1 -2 -5 -1 1 0 1 -1 0 0 -1 0 -5 0 -2 0 1 2 1 -1 8 0 2 1 0 1 1 1 0 -2 0 0 -2 -1 0 0 1 1 0 0 -1 1 1 1 1 1 -2 0 -1 -4 0 0 0 0 -1 -2 -1 0 1 0 0 0 1 -2 0 2 0 1 -2 0 0 2 -1 1 0 1 2 0 1 1 0 -1 0 0 -1 1 -1 1 1 1 2 1 2 1 1 -1 1 0 2 0 1 0 1 0 2 1 -1 0 1 4 4 1 1 3 0 1 0 -1 0 0 0 0 0 0 0 -1 1 0 2 1 0 2 2 0 1 1 1 5 0 -1 0 0 7 1 -1 -1 -1 0 4 0 2 -1 4 1 -1 0 -4 1 1 4 0 0 -1 0 -1 0 0 0 2 1 0 -1 -1 1 1 3 0 -1 0 2 1 0 1 0 0 0 -1 1 0 1 1 1 -2 -1 0 3 1 1 1 0 -1 0 2 -1 0 1 1 0 0 -1 0 1 0 -2 3 5 0 1 -1 1 -1 1 -1 -4 -4 0 0 2 3 -1 1 2 1 1 0 1 0 0 -1 0 -1 0 3 1 0 0 0 0 1 0 0 1 0 2 0 1 0 0 0 1 3 1 0 0 -5 0 1 0 1 0 1 1 4 3 4 1 1 0 -1 0 1 0 0 -3 1 -1 0 2 1 0 0 0 -1 1 0 5 2 0 0 1 1 0 -1 0 0 1 1 0 1 0 1 0 0 2 2 0 0 2 1 1 0 0 -1 1 1 2 1 -1 1 0 0 0 1 1 0 1 2 -1 0 1 1 -1 0 2 -5 -1 1 1 0 -1 -1 0 4 1 2 -2 1 -1 0 1 2 2 0 1 1 -3 0 0 0 0 -1 -1 5 2 1 0 1 1 1 0 4 0 0 0 0 0 1 2 1 -1 0 1 0 0 0 -3 0 1 1 5 3 0 0 0 0 1 1 0 -3 0 1 0 0 0 2 1 2 0 1 0 -1 1 2 2 1 1 1 
3 1 1 1 2 2 0 -1 1 1 1 0 0 5 1 1 1 1 1 0 0 1 0 3 1 3 1 1 0 1 0 -3 1 0 -1 -1 0 -1 1 2 1 -1 1 0 0 4 1 0 1 0 0 -1 -1 0 1 0 2 0 -2 0 1 1 3 1 -1 -7 -1 -1 1 1 -1 -1 7 1 6 1 0 1 1 1 0 1 -1 0 0 0 -1 0 1 2 1 0 1 1 0 0 0 -1 -1 0 -1 -1 1 0 0 1 -1 -2 1 0 2 1 1 0 0 2 3 2 2 1 1 1 0 -1 1 0 0 0 1 1 1 0 0 0 0 -1 0 0 0 2 2 1 2 1 0 0 0 1 -1 0 1 0 0 2 0 0 0 0 -1 1 1 -1 2 0 0 0 1 0 2 1 1 0 -1 -1 0 0 0 -1 0 0 0 0 1 0 -1 0 0 -1 -1 1 2 1 0 0 0 2 0 1 2 2 1 1 0 -1 1 2 0 1 0 -5 1 1 1 1 1 0 0 0 -1 2 0 0 1 -1 1 -1 1 0 1 0 -1 1 0 0 1 1 1 1 -1 0 1 1 0 0 0 -2 1 1 0 0 2 1 -1 2 2 0 0 1 -1 0 0 0 0 1 0 4 1 0 0 0 1 0 0 0 0 1 1 1 -1 0 1 -1 0 1 2 2 1 1 0 -3 0 0 0 0 8 3 1 0 0 0 1 1 2 -1 1 -1 1 2 0 1 1 -1 2 0 2 5 1 2 0 0 0 0 -1 1 0 1 -1 2 1 1 1 1 5 1 1 0 1 1 0 1 0 0 5 2 2 0 0 1 1 1 1 1 0 0 -1 2 3 1 4 1 1 1 1 1 0 0 1 0 -6 0 1 0 2 1 1 0 0 0 0 0 -1 -1 0 -1 -4 -3 1 2 0 2 0 0 -1 1 0 1 -1 0 -1 0 -1 1 2 1 -3 0 1 0 2 2 2 1 3 -1 -1 0 1 -1 0 0 1 0 0 1 0 1 -6 -1 2 1 1 1 0 0 -2 2 1 1 4 1 0 1 0 1 0 1 1 0 1 -1 0 0 0 0 1 3 -1 0 0 1 0 1 -3 0 0 1 5 2 0 -4 0 0 1 4 1 0 1 1 0 2 1 0 1 1 0 1 1 1 2 6 0 -5 0 1 0 -1 3 1 3 1 0 0 0 1 0 0 1 0 0 -2 0 1 0 1 2 -2 -1 1 1 1 2 2 0 1 1 1 1 0 -1 0 0 1 0 0 0 0 2 0 -2 0 1 4 0 0 0 -1 1 1 1 3 1 1 0 1 1 0 -1 -1 2 2 0 0 -1 2 1 0 -1 1 2 1 1 0 2 2 1 0 1 -1 -1 1 0 0 -1 1 0 1 0 1 -1 -3 -1 0 0 3 1 1 1 0 0 -1 -1 1 0 -1 0 0 -1 1 -1 0 0 0 0 0 0 1 1 0 0 0 0 -1 0 0 1 0 0 2 1 0 0 1 -1 0 0 0 0 1 1 1 
2 6 0 1 1 1 0 -1 -2 2 0 0 1 1 1 0 0 3 3 0 1 -1 0 2 0 1 0 1 0 -1 1 0 1 1 1 0 0 0 1 0 1 1 1 0 1 2 1 -1 2 0 1 0 1 1 1 1 1 7 1 0 0 0 1 1 1 -1 1 0 0 4 1 1 2 -1 1 0 1 0 1 1 0 0 0 1 1 0 0 0 -1 0 -1 0 0 0 1 -1 1 0 0 1 0 1 1 1 0 0 0 0 0 1 1 -2 1 1 1 2 1 -2 0 1 1 1 -3 0 -1 -1 1 1 1 0 0 2 0 1 2 -1 0 1 -2 3 1 0 2 -1 1 -1 -1 2 2 1 0 -1 1 1 2 1 0 0 -1 0 -1 0 3 0 1 1 -2 0 1 0 1 0 1 3 1 4 0 -1 0 0 0 0 0 1 1 1 0 0 1 1 1 5 2 0 1 0 1 0 0 -1 1 5 0 1 1 0 -2 0 -1 -2 1 0 0 1 1 -1 1 1 1 1 0 1 0 -1 2 2 -1 1 -2 0 0 0 -1 -2 2 5 1 0 1 0 0 0 1 0 -1 1 1 -1 0 0 2 1 0 1 0 0 0 0 0 2 0 0 1 5 6 1 2 1 1 0 -3 -1 0 0 0 -1 -1 0 1 -1 1 1 -2 0 0 0 1 0 1 0 0 0 5 1 1 1 1 -1 0 0 -1 1 0 0 0 -1 -1 1 0 0 0 1 0 1 0 1 1 1 1 4 0 2 1 2 0 1 1 0 0 1 2 1 1 1 0 2 1 -1 -1 0 0 2 2 5 2 0 1 3 2 1 1 1 0 0 1 1 1 -1 0 0 1 0 1 0 -1 -4 2 2 1 0 0 1 0 0 -1 -1 1 -1 3 1 0 -1 1 1 2 0 -2 1 0 0 1 1 4 1 1 0 1 -4 1 0 2 1 0 1 1 4 1 1 2 1 0 0 0 1 1 0 1 0 1 0 1 1 1 1 -2 1 3 1 1 8 9 2 0 1 1 0 1 1 -2 -5 0 0 1 1 1 1 3 1 1 2 0 -1 -1 0 -1 1 -1 -1 -1 3 1 4 0 0 1 0 0 0 0 0 1 0 -2 1 0 -6 0 0 0 1 1 1 0 2 0 0 0 2 0 0 1 2 0 1 1 1 -1 2 1 0 1 1 0 1 1 0 1 0 0 0 0 1 0 0 1 0 3 0 -1 1 0 0 0 1 0 1 0 4 1 -1 -1 1 1 0 2 0 0 0 -1 0 0 0 -3 3 2 1 0 0 1 1 0 2 3 1 1 1 -1 1 1 0 0 0 0 1 3 0 1 1 1 0 1 1 0 0 0 1 0 4 0 1 1 0 0 0 1 -1 0 1 0 -1 1 1 1 2 1 1 1 1 1 1 1 5 0 0 -3 0 1 0 0 1 -1 -1 0 -2 2 0 0 -1 0 -3 0 1 -1 -2 0 0 1 0 2 1 0 1 1 -1 1 2 0 2 1 1 
0 2 4 0 0 1 1 -1 -3 0 1 0 1 0 -1 -1 0 1 0 1 -1 -1 1 1 1 0 2 1 -1 0 0 0 1 1 0 1 2 1 0 0 0 1 1 -1 0 0 1 1 0 0 0 0 0 0 1 1 0 1 1 0 1 0 0 1 0 0 0 -1 0 -1 1 1 1 -1 1 0 -1 0 -1 -2 0 0 1 1 -1 1 1 1 -4 0 -2 3 1 1 0 -3 0 1 1 1 2 3 1 0 0 0 0 1 1 0 1 -1 0 2 4 0 1 1 1 0 2 0 -1 0 0 1 0 1 0 1 1 1 1 1 2 0 -2 1 4 0 4 0 0 -1 1 0 0 0 -1 -3 -1 0 0 2 -1 -1 1 0 1 0 0 1 2 0 1 -1 0 1 0 0 1 -3 0 1 1 1 0 3 2 1 -1 2 1 1 2 1 0 4 2 2 1 3 9 4 1 2 3 1 0 1 0 1 -1 0 2 1 1 0 2 5 3 0 0 5 1 0 -2 1 -1 1 1 1 0 0 0 1 1 -1 0 0 -1 -1 0 1 0 0 0 -1 2 1 0 0 0 1 0 0 0 0 0 1 0 -1 1 1 1 2 1 0 0 0 0 1 1 -1 1 0 1 1 7 0 1 0 0 0 -1 0 2 0 1 0 0 0 1 1 1 4 0 1 2 1 2 -1 2 0 -5 0 0 1 0 0 -4 0 0 0 2 -1 0 1 0 0 1 2 1 1 1 0 0 1 2 -1 -1 0 0 0 0 -1 -2 1 0 0 2 0 1 -1 3 -1 0 1 1 0 1 0 2 1 0 1 3 1 1 0 2 1 0 -2 2 2 1 1 0 3 1 0 0 1 2 0 0 0 0 1 1 2 0 0 1 2 2 4 3 1 0 1 -1 0 1 5 3 1 2 1 0 0 1 0 1 5 5 2 4 2 3 0 2 0 1 0 0 0 1 1 0 0 0 4 0 1 0 -1 -1 -4 0 2 1 0 0 0 -1 1 0 2 -1 1 0 0 1 1 0 1 -1 0 0 1 0 1 1 -1 1 0 0 1 0 -5 0 -1 2 -1 -2 1 0 0 4 0 2 0 2 1 -1 1 0 0 1 0 0 0 1 0 -1 2 -2 -1 -1 -1 0 0 0 1 0 1 2 1 1 4 0 1 2 7 2 -1 0 1 -1 2 2 3 6 1 0 0 -1 -5 -1 0 0 1 1 0 -1 1 1 0 -1 0 -1 -3 -2 1 2 2 1 1 -1 0 0 -4 0 0 0 -1 0 1 1 1 1 2 0 0 1 0 0 4 -1 0 -4 0 1 4 2 1 0 1 0 0 1 0 1 1 0 -1 5 3 1 1 0 1 1 0 0 0 1 0 -1 -2 0 0 -3 0 1 2 2 0 4 1 0 1 0 -1 -1 1 3 1 1 0 -1 0 -3 1 6 4 6 0 1 0 1 -3 1 5 1 0 -2 -3 -1 0 0 0 -1 -3 0 2 0 1 -1 0 1 1 0 -1 1 1 2 0 
2 1 5 1 -1 0 0 1 0 1 0 0 0 1 -2 0 -5 -2 -1 1 1 0 2 0 -4 -1 0 2 0 -3 -1 1 2 0 -1 0 1 1 0 1 0 0 0 1 0 1 -1 1 0 1 0 1 2 2 0 0 2 -1 1 -2 0 1 3 0 0 1 0 1 0 0 1 0 0 1 -1 1 1 1 -1 -1 0 1 1 2 1 0 0 -6 3 1 4 1 -1 1 0 1 0 -1 1 1 1 0 0 3 2 1 1 1 2 0 0 0 1 0 0 2 1 0 -1 0 0 0 1 -1 0 1 0 1 0 -2 0 -1 -1 0 0 2 0 -2 1 0 2 1 1 0 1 1 0 0 5 2 -1 1 1 3 5 0 0 0 1 1 3 0 0 2 0 1 1 1 -1 1 1 0 0 0 -1 0 1 1 4 1 1 1 0 1 1 -1 -2 1 0 0 1 1 1 0 0 1 0 2 1 0 0 1 0 0 0 1 0 0 0 1 0 0 0 1 1 0 1 1 0 0 2 1 -1 0 4 1 3 0 1 1 0 -1 0 0 1 0 0 1 2 1 0 2 0 0 1 0 0 0 0 0 0 1 0 0 1 0 1 0 1 1 0 0 1 0 1 0 -1 -3 1 1 -1 0 0 0 0 0 2 3 3 0 0 0 1 0 1 0 0 1 0 0 1 -1 1 1 0 0 0 1 1 -2 0 1 1 -1 0 0 0 2 0 -2 0 1 -3 0 0 0 0 3 1 1 0 1 4 1 2 1 0 1 1 1 4 1 1 1 1 3 1 0 -3 -1 1 1 0 0 0 0 0 -1 1 -1 1 0 -2 1 6 0 1 1 2 0 0 0 2 4 2 1 1 0 4 0 0 2 1 0 0 -1 0 2 2 0 3 1 0 1 0 1 0 0 1 1 1 1 -1 1 -1 1 1 1 2 2 2 -6 0 0 0 2 1 0 0 0 1 0 0 1 1 0 -1 0 0 0 -1 3 0 0 0 0 1 0 1 -1 0 1 1 0 0 1 2 1 1 1 1 1 1 0 1 -1 0 -2 0 0 1 -1 -4 1 2 3 1 0 -2 0 1 0 -1 0 6 1 1 0 -1 0 1 0 1 0 0 -2 0 1 -1 1 -1 0 0 1 0 1 -2 1 0 0 2 2 1 0 0 3 2 3 0 0 0 2 0 -1 2 0 0 2 -1 2 1 1 1 1 1 -1 2 1 1 -1 1 -1 0 -1 1 0 1 1 2 4 1 3 1 -1 0 0 0 0 1 1 1 1 1 1 1 1 0 2 1 2 0 -1 2 0 0 1 1 0 0 0 0 0 -3 -3 0 0 0 1 8 3 0 -1 0 5 1 1 1 0 1 1 1 1 2 0 -1 0 0 0 0 0 0 0 -1 0 -1 0 -1 -1 0 -1 0 -1 -4 0 1 0 0 1 3 3 0 1 0 0 0 2 3 1 0 -2 0 1 0 4 1 1 0 0 0 1 1 1 1 1 0 0 1 1 1 -1 
2 1 1 0 0 2 3 5 2 1 0 0 0 1 1 -1 0 0 1 -1 0 1 0 -1 -1 -5 -6 -3 -1 -1 1 1 -1 1 -1 2 2 1 1 -1 -1 1 1 1 1 1 0 1 0 1 1 4 4 2 1 0 0 0 0 1 1 0 0 1 1 1 1 3 0 0 1 1 0 0 1 1 -1 3 3 0 1 0 0 1 -1 0 0 0 1 1 -1 0 -5 -1 1 1 0 3 0 0 0 1 1 1 1 0 -1 0 2 1 0 0 1 1 1 -1 1 2 1 1 0 0 0 1 1 0 0 1 -1 0 0 2 0 0 0 3 0 0 -1 0 -1 -6 0 1 1 2 -2 -3 1 1 6 5 2 1 0 1 1 0 1 0 1 1 0 1 2 0 0 0 -1 -2 0 1 0 1 0 0 1 0 -1 -4 0 1 -1 1 1 0 0 0 0 -1 0 2 0 0 1 0 1 2 2 4 4 2 0 -3 -1 1 0 -1 0 0 1 0 2 2 5 -1 0 -2 1 1 2 0 0 0 0 0 0 0 1 1 1 0 0 1 0 1 0 1 2 1 1 0 1 0 0 1 0 -2 1 -1 -2 1 -1 1 2 4 -3 0 -1 1 0 1 2 0 0 0 0 5 1 0 1 -1 1 -1 1 0 0 0 2 -1 1 0 0 0 1 0 1 -1 1 0 0 1 0 0 -3 0 3 2 1 0 0 -1 -1 1 0 0 1 0 1 -1 -2 1 1 1 1 0 2 0 1 1 2 1 0 0 4 2 0 0 0 1 1 -1 3 1 0 0 0 0 1 1 0 -1 0 0 1 1 1 1 0 2 1 0 0 0 0 0 1 3 -1 4 0 0 1 -1 0 -1 0 1 0 1 0 -3 1 -1 0 1 3 0 -1 -2 0 1 1 1 -1 0 -1 1 1 -1 0 0 3 0 1 0 3 6 1 0 0 0 1 1 1 -1 1 -1 1 3 1 4 1 0 0 1 0 1 1 2 0 -1 0 3 1 0 0 1 -4 -8 -1 0 0 0 1 1 0 -1 1 0 0 0 0 2 3 1 -3 0 -1 1 0 2 0 1 4 1 0 0 0 1 1 0 3 0 0 0 1 0 1 0 0 2 1 -1 0 0 -3 0 0 3 -1 0 0 -2 1 1 -1 1 1 1 1 0 0 1 1 2 1 4 0 2 2 0 3 0 -1 1 -1 1 -1 1 0 1 -1 0 0 0 1 2 0 0 0 1 0 0 -1 1 1 1 1 1 1 -1 1 0 0 1 0 1 -1 0 2 0 -1 -1 0 0 -5 0 4 -1 1 0 1 0 -2 0 0 0 0 1 -1 1 1 -1 1 3 3 1 1 1 1 1 0 0 1 1 1 4 6 4 -1 1 2 1 -1 1 -1 -4 0 0 0 4 1 1 -3 -1 -1 0 0 1 0 -3 0 0 0 1 0 0 0 1 1 0 -1 0 1 0 -1 0 1 0 0 -2 0 -1 0 1 1 0 0 1 0 1 1 3 1 -1 1 0 0 1 
-1 0 0 1 -1 0 1 1 4 0 1 0 1 0 0 0 2 -1 0 0 -1 0 0 1 2 0 -1 0 -1 2 -1 -5 0 1 1 0 0 1 0 0 0 -1 0 0 1 0 1 -1 -1 1 4 1 1 0 1 0 0 1 1 1 1 0 -4 0 0 0 1 0 1 0 3 2 0 1 2 -1 -2 0 1 1 1 2 2 1 1 0 0 0 1 -1 1 0 0 0 0 0 1 0 1 1 0 1 0 2 2 1 1 1 1 0 0 -1 1 1 2 0 1 4 0 0 1 1 2 1 -1 1 1 1 0 2 -1 -5 -1 0 1 0 1 1 2 0 -1 -6 1 2 6 0 1 0 0 0 1 2 0 -1 0 -2 1 0 0 0 1 -1 2 7 1 0 1 1 1 0 0 -1 0 0 0 3 0 2 1 1 0 0 1 1 1 0 1 1 1 -1 -4 -1 -1 0 2 4 -1 1 1 0 1 0 1 -7 0 0 1 2 0 1 1 1 0 0 0 1 0 1 1 2 1 3 2 2 1 -1 0 0 0 1 1 0 -3 1 1 1 2 0 1 0 1 0 4 -1 0 2 1 1 1 0 0 3 0 0 1 1 -3 -1 -1 2 0 1 1 1 6 -1 0 0 -1 0 0 0 -1 0 0 -1 2 1 1 2 1 0 -1 2 1 0 0 0 2 1 1 0 0 -2 1 -2 -2 0 1 0 0 1 2 0 0 1 0 1 -1 0 3 1 1 0 0 2 3 1 1 0 5 1 0 0 0 0 2 0 0 -1 -1 1 1 0 0 1 1 1 1 1 1 0 2 -1 2 3 1 1 1 1 0 1 2 2 -7 -1 1 0 1 1 -1 0 -5 1 -1 -3 -6 0 1 0 -1 0 1 2 2 3 2 -3 0 2 -2 1 1 1 0 0 0 0 0 1 0 0 2 0 1 0 5 1 3 0 1 1 1 4 3 2 2 1 1 2 0 2 0 1 0 0 2 -1 1 0 1 1 0 2 2 0 1 -2 1 0 1 0 1 -1 -1 1 -1 0 -1 0 1 0 1 1 0 6 0 0 -1 0 -1 1 2 0 0 0 2 2 1 0 1 0 -1 0 1 0 0 2 2 1 -4 -3 0 0 2 -1 1 2 1 1 1 1 0 1 0 1 1 -3 -2 0 0 0 0 1 2 0 0 1 0 0 0 3 0 -1 0 -1 0 2 0 1 0 0 -1 -3 1 1 0 -1 0 1 0 0 0 0 0 1 1 -1 1 0 0 -1 2 0 1 1 0 1 0 0 5 1 1 -5 -1 0 -1 1 0 1 -3 0 1 0 -1 0 0 2 0 1 1 0 1 0 -1 1 1 0 1 1 1 1 1 1 1 1 0 2 0 -1 1 -1 -1 0 2 1 0 1 1 0 -1 0 0 -1 0 1 0 1 2 0 0 -4 0 0 1 1 0 1 0 -2 -1 -1 1 0 -1 0 0 0 2 -1 1 -1 -3 1 1 0 0 1 2 1 1 1 2 4 1 1 1 0 1 1 
-1 0 0 1 -1 1 2 1 0 1 2 1 0 0 0 5 1 2 -1 0 1 1 0 0 1 2 0 0 -1 0 0 0 -1 -1 -1 1 -1 0 2 0 1 1 1 1 0 1 -1 0 0 1 0 1 0 0 0 1 1 1 1 -1 -1 2 -1 1 0 2 3 1 0 -1 0 0 1 1 3 1 3 0 2 6 2 4 1 1 1 1 -1 1 0 1 0 1 0 -2 1 1 1 0 -1 4 0 0 0 0 0 1 0 1 -3 0 -1 4 2 0 0 0 0 1 0 1 -2 0 1 0 0 -2 0 0 0 1 0 0 0 1 0 0 1 0 -1 1 0 0 2 0 0 1 1 1 0 -1 0 1 0 0 -1 1 0 -2 0 -1 -1 -1 2 1 2 -1 1 0 0 0 -1 0 0 1 0 1 0 0 -1 0 3 1 1 0 0 -1 1 0 4 2 1 -3 0 1 0 2 0 0 1 -2 0 1 1 -1 0 1 3 1 0 4 2 1 0 -1 0 1 0 0 0 0 4 1 1 0 0 0 0 -1 0 3 1 0 0 0 0 -1 0 0 1 0 -1 0 1 1 0 1 0 0 1 -2 1 1 1 0 1 0 1 0 2 2 0 1 0 1 1 1 1 0 2 1 1 0 2 1 1 1 1 0 1 0 0 0 0 2 0 1 0 0 0 3 0 2 -1 0 1 1 2 1 1 1 0 -2 0 2 0 -4 0 0 1 0 1 -1 1 -2 0 1 1 0 1 0 -1 -1 -1 -1 -4 1 3 0 0 -1 0 0 1 0 1 0 3 0 0 0 1 1 1 0 0 2 0 0 8 2 1 1 1 0 0 2 -1 1 1 -1 0 1 0 1 0 0 1 0 1 1 4 1 -1 1 3 1 -1 1 1 1 1 0 1 0 0 -1 0 1 -1 0 0 1 1 0 3 0 0 1 1 2 1 0 0 0 0 1 1 2 0 3 2 0 0 0 1 2 1 -1 1 0 0 1 1 1 1 2 1 0 5 2 1 -1 0 0 0 0 0 0 -1 1 1 0 -1 1 0 1 1 1 1 -1 0 1 4 1 2 0 0 0 2 -1 0 0 1 0 0 0 0 1 0 1 3 0 0 0 0 1 1 0 3 2 1 2 0 -1 1 1 0 0 -1 0 -1 2 0 1 2 3 1 -1 -1 -3 -1 1 -1 0 0 0 2 2 1 0 0 3 0 -2 -3 0 0 2 -1 0 -1 0 0 1 0 1 1 0 1 1 4 0 0 1 0 1 -1 1 1 0 3 1 1 0 2 0 1 0 0 1 0 0 -2 0 0 0 0 0 2 1 0 1 7 1 1 2 -1 1 1 1 0 1 1 1 0 0 -2 0 0 -1 2 -2 0 1 0 0 1 2 1 -1 -1 1 0 0 0 0 -4 -1 -1 1 4 1 -1 0 0 1 2 1 1 0 0 -1 2 4 -1 -2 1 1 1 0 1 1 1 1 3 0 -1 1 1 0 1 0 0 0 4 -1 0 -3 1 0 
-1 0 -3 -1 2 1 -1 0 0 0 1 0 0 1 -1 0 1 1 0 2 2 -3 -1 0 0 2 0 -1 1 0 0 0 0 2 1 2 1 0 1 0 1 4 1 0 1 0 -1 1 0 1 0 1 0 1 1 1 1 1 -1 0 1 0 1 1 0 1 1 1 1 1 1 1 -3 2 0 1 6 1 3 7 8 0 6 1 0 0 0 1 -1 0 0 1 1 0 1 1 0 0 0 0 -1 3 0 -2 -1 -1 4 1 0 0 0 2 6 0 1 0 0 0 1 0 0 -1 0 0 1 -2 -1 1 1 0 -1 -1 -1 2 0 0 0 0 0 4 1 1 0 0 0 -5 0 1 -1 3 0 -2 0 -3 -5 3 1 -2 -1 2 0 1 1 0 1 1 1 -1 0 1 0 0 1 0 1 0 1 0 0 -5 0 2 1 1 1 1 1 0 1 1 -1 0 0 0 0 6 7 0 1 0 1 1 0 2 2 0 2 5 3 1 2 0 0 0 0 0 2 0 0 0 0 1 0 0 0 1 -1 1 1 0 0 0 0 0 0 0 0 0 0 0 0 1 0 -1 4 1 2 1 0 0 1 0 0 1 0 0 0 3 2 1 1 2 0 2 1 0 -1 1 0 -1 0 0 -1 0 2 0 0 1 0 1 1 0 1 2 5 1 0 -1 -1 -1 1 0 0 2 1 0 0 -3 0 1 3 1 0 1 1 1 0 1 1 1 1 0 0 -1 0 -1 0 0 0 2 0 0 1 -3 0 4 1 -1 2 -1 -1 1 -2 0 0 1 -1 -1 1 1 -1 0 0 3 2 0 2 0 1 0 -1 0 0 1 0 1 1 -2 -1 1 0 0 2 2 0 0 1 0 -4 0 1 2 0 1 -1 1 0 3 0 1 6 3 0 -1 0 1 1 0 1 1 0 0 0 1 -1 1 0 0 1 -2 2 0 0 0 1 1 0 1 0 1 0 0 1 -1 0 0 0 0 2 1 -1 -1 1 0 0 0 -1 0 0 -1 0 1 -1 -1 -3 1 0 0 1 -3 -1 -1 2 1 -2 0 1 1 2 0 1 4 1 3 1 1 0 0 0 0 0 1 2 -1 0 -2 0 0 1 -1 0 1 1 0 0 -2 2 0 1 -1 0 1 1 1 0 0 2 1 -1 1 0 -1 1 3 0 0 0 1 3 0 1 0 1 2 -1 1 5 2 1 2 2 2 1 0 0 0 2 1 1 1 1 0 0 0 -1 1 1 6 0 0 1 1 1 1 0 0 -3 0 2 -1 1 2 4 2 0 2 1 1 1 1 0 0 0 -4 0 -1 0 3 -1 0 0 0 5 1 -4 1 1 0 -1 1 0 1 2 0 0 1 0 1 1 -1 -4 1 1 1 2 1 1 0 0 0 1 0 -1 -4 0 4 1 -1 -3 0 0 2 1 0 0 0 4 1 -1 -4 -4 0 0 2 1 -8 0 1 1 1 0 2 1 0 0 0 0 1 -1 -2 1 0 -2 -2 1 0 1 0 -1 1 
0 0 0 1 0 2 0 -1 0 1 0 0 2 0 1 0 2 1 1 0 0 1 -1 -1 0 0 1 2 -1 0 -1 0 2 0 1 0 -1 1 1 2 -1 -3 -4 1 -1 0 0 0 1 -1 0 1 -2 0 1 1 0 -1 1 0 1 0 0 1 0 0 1 0 -1 1 1 4 1 1 0 3 1 0 0 1 0 2 1 -1 -1 -1 1 0 1 0 -1 1 4 1 3 -1 -4 0 0 0 0 1 1 0 1 0 1 2 5 1 2 1 3 0 0 0 1 0 0 1 -1 1 2 1 0 0 -1 1 0 0 3 2 1 4 0 1 1 -1 0 1 0 1 -1 1 0 0 -1 0 0 0 0 -1 2 1 0 0 0 -4 1 0 -1 1 1 0 0 -3 0 0 0 0 0 4 1 1 0 1 0 1 2 1 0 0 -1 -2 1 1 1 1 1 1 0 2 0 1 -1 0 2 2 0 1 -1 1 1 0 0 0 1 -1 0 -1 2 0 0 0 0 -1 0 1 0 0 0 0 1 1 1 1 0 0 0 1 0 0 0 -1 -6 1 0 1 0 0 -1 0 2 0 0 0 0 1 0 1 1 0 0 2 2 -2 0 0 -1 -1 1 2 0 2 0 1 0 1 1 1 -1 -5 0 1 2 1 0 1 0 0 1 1 0 1 1 1 4 2 1 0 -1 0 0 1 -1 1 0 0 1 1 1 3 0 1 0 0 0 1 4 1 2 1 0 0 1 0 -1 1 0 0 1 -1 1 2 -1 1 0 0 1 -2 0 0 -3 0 1 0 1 2 1 1 1 -1 0 -1 1 1 1 1 -1 0 -1 0 0 -3 1 0 -1 0 0 1 0 -5 0 0 1 0 0 -1 0 2 0 0 4 0 -1 0 4 0 1 2 2 1 -1 1 1 1 -1 -1 1 0 -1 0 -4 -3 1 1 1 1 -1 1 0 1 1 0 4 0 0 1 1 0 -1 0 2 1 1 -1 0 0 1 1 0 1 0 -1 0 0 0 1 2 0 2 0 1 0 1 2 1 3 5 0 0 0 -1 1 0 1 -2 6 1 0 1 1 0 1 0 0 1 0 -1 1 -1 1 1 1 0 0 0 0 1 -1 -1 0 2 1 0 -1 1 0 1 0 1 1 1 0 0 0 0 1 0 1 -1 0 -1 1 0 0 3 1 1 0 3 2 3 0 0 2 -1 -1 0 -1 0 1 0 0 1 0 -1 0 -1 1 0 1 0 1 0 0 1 0 0 -2 2 3 1 1 0 0 1 0 -6 -1 0 0 2 1 0 0 1 2 1 0 -4 -1 1 0 0 1 0 0 1 0 0 1 1 -1 -2 5 4 0 0 0 0 0 1 1 0 -1 0 1 0 1 0 -1 1 4 -1 1 0 2 0 -2 0 -1 1 1 0 2 0 1 0 0 -1 1 0 1 2 0 4 1 -1 0 1 0 -3 0 0 -5 -1 0 1 -2 -1 -2 1 1 -1 0 0 -1 0 0 -1 0 0 0 0 1 0 0 1 1 
0 2 4 1 0 0 2 1 0 0 1 -1 1 1 0 1 1 2 -1 1 2 1 -1 1 1 0 -1 0 1 -1 1 -1 0 0 1 -4 1 2 0 0 0 1 1 -3 1 0 1 0 1 -1 0 0 1 0 -1 1 2 0 0 1 -1 0 0 1 2 1 0 0 0 1 2 2 0 1 0 1 1 0 0 -1 6 0 0 0 2 0 1 1 2 1 -1 1 0 1 0 0 -1 0 1 0 0 0 0 0 0 0 -5 0 2 0 -1 0 0 0 -1 1 1 1 1 0 2 0 1 5 0 -1 1 1 1 0 1 0 1 1 0 1 1 1 0 -2 0 1 0 0 1 0 1 1 2 0 1 1 0 1 1 4 2 1 2 0 0 2 0 1 0 0 0 2 0 1 2 1 0 0 1 1 0 0 0 0 0 1 -1 3 2 1 4 1 0 0 -6 0 1 1 0 -3 -3 1 -2 -3 0 1 0 3 1 1 -1 -1 0 1 0 0 -4 -3 0 -1 0 1 1 -1 0 0 1 0 1 1 3 0 0 0 1 0 1 0 0 0 1 1 1 1 0 1 1 2 1 -3 -1 1 1 1 0 -1 0 1 1 3 1 0 -1 -3 5 -1 1 1 4 -1 -6 1 0 -1 0 -3 2 0 1 1 1 -1 0 -2 -1 0 1 0 -1 -4 0 0 2 0 0 -1 1 1 0 0 1 0 -1 4 1 0 0 -2 0 0 1 0 0 2 1 0 0 1 2 0 0 1 2 1 -1 0 -1 -1 -3 0 -1 1 0 0 1 2 1 -1 1 0 1 0 1 0 1 -1 0 0 1 0 0 -1 1 0 0 1 -1 0 1 -2 1 1 0 -1 0 0 1 -1 -1 0 2 0 1 0 0 0 0 0 3 0 1 -1 1 0 1 -1 0 -1 -4 -1 0 3 0 1 -1 1 0 0 -1 -1 0 0 0 1 0 1 0 0 1 0 -2 -3 1 1 0 0 0 1 2 2 0 0 1 0 1 0 0 0 1 0 1 5 1 1 0 1 1 -6 1 1 5 5 1 1 0 1 3 4 4 0 0 1 2 0 0 0 3 1 0 2 2 0 1 0 0 0 1 0 0 1 0 0 0 0 0 0 1 1 1 0 1 1 -1 0 1 1 0 1 -2 0 0 1 0 1 0 0 1 -1 0 -1 1 0 1 1 0 -1 2 1 1 -1 0 1 0 0 0 0 0 0 0 1 1 0 6 1 0 1 0 0 1 0 0 0 1 0 0 1 0 0 4 -1 1 1 1 2 0 -1 -1 0 0 0 1 0 1 0 -2 -1 0 -1 0 1 1 0 2 1 -1 -1 1 0 1 1 0 1 1 1 1 0 1 1 -1 2 0 0 2 2 2 1 1 7 1 1 1 1 1 1 0 1 0 0 1 1 1 2 1 2 0 1 2 0 0 1 1 1 1 1 2 0 1 1 0 0 1 -1 -1 0 -1 -6 -1 1 0 0 0 1 0 0 1 -1 0 1 1 2 1 0 0 0 
1 1 0 -1 1 0 0 1 5 0 2 3 2 0 -1 1 1 1 0 1 0 0 -1 0 0 -4 0 1 -1 1 0 0 0 1 2 0 0 -1 0 0 1 0 0 0 2 1 -1 -1 0 2 1 1 2 1 0 0 1 0 1 -1 0 1 0 1 1 1 1 1 1 1 1 1 1 1 1 0 1 1 1 3 1 0 0 0 1 4 1 1 1 7 1 -1 2 1 1 1 0 1 1 1 0 1 0 1 0 -3 -1 0 2 0 0 -3 -1 0 2 1 2 2 0 0 0 0 2 1 0 1 0 0 3 1 0 0 1 2 0 1 1 0 1 -2 0 -1 0 0 1 2 2 0 1 0 2 0 -1 1 1 1 0 1 0 -1 1 1 0 1 1 0 1 1 2 4 1 -1 1 0 1 1 1 -1 0 0 0 -1 -2 2 2 1 2 0 1 1 2 0 -1 3 -1 1 -1 0 0 1 1 2 5 2 1 1 0 2 0 1 -4 -5 1 1 0 0 -1 1 0 1 -1 0 1 5 4 0 0 -1 -4 -1 2 5 1 2 -1 -2 1 0 0 6 6 2 2 1 3 -1 0 1 1 0 0 2 0 -2 -2 2 0 0 0 0 0 1 1 1 2 2 0 -1 1 0 0 2 -1 0 0 0 4 1 0 0 0 1 0 2 0 0 1 2 0 -1 1 1 1 0 0 1 2 1 1 0 0 0 -4 0 1 0 -1 2 0 -4 1 0 0 1 0 -1 -1 0 2 1 -1 -3 0 0 1 0 0 0 0 0 -1 0 0 0 0 0 -1 -1 0 -1 -2 0 1 1 1 1 -1 -1 0 1 0 0 0 0 -3 -1 5 3 0 1 0 -3 0 0 1 0 0 1 2 1 1 -2 1 -1 6 1 2 1 1 1 -1 -4 0 0 3 1 0 -1 1 -2 0 1 1 0 1 1 0 2 -1 0 1 0 0 0 -1 1 0 1 0 0 1 1 -1 1 1 1 0 0 -1 -1 0 -1 -6 -3 1 2 1 0 -5 -1 1 1 0 1 0 1 1 8 0 0 3 1 5 1 1 0 1 0 1 1 -1 0 0 0 1 1 1 1 0 -2 0 0 3 1 -1 -1 1 0 1 -1 2 1 0 7 4 2 1 1 0 0 1 -1 -1 1 3 1 2 2 1 1 1 1 1 -4 -3 0 0 0 -1 0 1 5 -2 -2 0 -2 1 1 1 4 -1 0 1 6 2 0 1 0 0 2 1 1 0 0 -6 0 0 1 0 0 -1 0 3 1 0 1 1 -1 -1 1 0 -1 0 0 1 1 0 -1 -1 0 1 0 1 0 2 1 1 0 0 4 1 0 1 0 0 1 -1 -3 1 0 1 1 0 1 1 0 0 1 5 4 1 0 1 0 1 1 0 -1 1 1 0 0 0 1 2 1 0 1 0 5 1 1 -2 0 -1 1 0 5 1 0 5 1 1 1 0 -2 0 2 0 0 0 0 0 2 1 1 0 0 0 0 0 0 -1 1 0 1 1 0 1 1 
0 3 0 1 -2 -5 -3 1 1 1 -1 2 1 1 1 1 -1 -1 2 1 1 1 1 1 -1 0 0 1 2 -1 0 1 3 1 0 0 -1 -2 -3 -1 1 0 -3 1 0 -2 -4 -3 0 2 -2 2 0 1 -2 -1 1 0 1 0 2 0 -1 1 1 0 -1 1 2 0 1 0 1 1 2 0 1 2 1 2 2 -2 1 1 1 2 0 2 1 0 0 0 1 2 0 3 0 0 3 1 0 -1 -1 1 0 2 1 1 1 -1 0 0 0 -3 0 0 -1 4 0 1 1 1 0 0 -1 1 3 -1 2 -1 0 1 0 1 2 2 0 3 1 1 0 -3 0 1 4 5 6 0 1 0 0 -1 -3 0 3 1 0 2 1 1 1 -1 0 0 0 0 0 0 0 1 1 1 1 0 1 1 0 0 0 1 0 0 1 7 6 2 0 0 -1 1 0 0 1 -1 0 -1 -2 0 0 1 0 0 -1 0 0 1 1 -1 1 1 0 -1 0 1 0 -7 -1 0 0 1 1 0 1 3 2 0 -1 1 1 1 0 0 1 2 0 -1 -3 1 0 1 1 0 1 0 0 -1 3 4 0 0 0 0 2 2 6 0 -1 -1 -6 -1 3 1 1 0 1 0 0 0 0 1 0 1 0 0 0 1 -1 0 0 1 1 1 0 0 0 0 1 1 1 0 3 2 0 -1 1 0 4 1 1 -3 1 1 2 1 -1 -1 1 0 -1 2 0 -1 1 2 1 -3 -2 0 2 2 1 0 1 1 0 0 0 1 0 1 0 -1 1 1 0 1 1 0 1 1 1 7 2 1 1 -1 0 0 1 0 -2 -1 0 2 1 0 0 1 3 2 1 -1 -1 1 1 1 1 0 -1 1 -1 0 1 0 0 -3 0 1 3 0 0 2 -1 0 2 0 1 1 1 1 0 2 2 -1 -2 0 0 1 1 0 1 0 0 2 0 0 0 2 1 1 -1 -1 -4 -4 0 1 1 0 -2 -2 1 -1 1 1 1 1 0 2 1 0 -1 1 1 1 -1 -1 0 0 -1 0 2 0 1 1 0 1 0 -1 1 0 0 1 -1 0 1 1 -1 -5 -1 0 0 0 0 0 1 1 0 2 -1 -1 0 1 -4 0 0 4 7 0 -1 1 0 0 0 1 0 0 0 1 0 0 1 1 0 -1 1 0 0 1 1 0 1 1 -1 0 -1 1 0 1 0 1 1 0 4 3 2 3 0 -1 1 -1 0 0 1 1 0 0 0 0 0 1 0 0 0 1 1 1 0 1 1 1 -1 2 2 0 3 4 0 0 0 3 1 -2 0 1 0 -1 -1 2 0 0 0 0 1 -2 0 1 1 1 2 1 -1 -1 1 -1 0 1 1 -1 1 1 2 0 2 1 1 2 0 0 0 0 0 -3 -1 1 2 1 1 2 0 0 0 2 4 2 2 0 0 1 -1 0 -1 2 0 0 1 1 2 0 0 1 1 -1 0 0 2 1 1 1 2 0 -1 -5 0 -4 1 1 0 0 1 3 
1 2 0 1 0 0 0 1 0 1 1 -1 0 0 4 0 -1 0 0 1 -1 1 0 -1 0 0 0 0 1 1 0 1 0 -3 0 0 1 1 1 -1 1 0 1 0 0 0 -1 0 0 1 2 4 1 1 4 1 2 0 -1 1 0 0 0 1 5 2 0 0 4 0 0 1 1 1 1 -1 0 0 1 4 0 1 0 0 0 0 0 1 2 1 0 2 1 1 0 -1 3 1 1 -5 0 0 1 2 0 2 0 0 1 3 2 2 6 1 0 1 1 1 1 1 0 -1 0 0 -5 -1 2 1 1 1 1 1 1 1 -1 0 2 0 0 0 -1 1 0 0 1 -1 1 0 -1 -1 -1 0 1 5 1 0 0 1 0 1 -1 -1 0 0 0 -1 0 1 1 0 1 1 1 1 1 1 0 3 2 1 -1 -8 -4 2 5 1 0 1 0 0 1 1 3 1 0 0 0 1 1 0 1 0 1 1 1 1 0 0 2 1 0 0 1 3 0 1 0 0 1 -1 1 1 1 1 0 0 1 1 0 1 1 1 3 4 1 0 0 1 -3 -2 -3 0 0 0 1 -1 1 5 0 0 0 1 1 3 0 -2 -1 0 1 1 1 0 1 0 -1 0 0 1 1 1 0 2 -1 -1 1 -1 -1 1 3 1 0 1 -4 1 -1 1 -1 0 0 1 2 1 6 5 0 1 0 0 0 0 1 -1 0 0 0 1 0 -1 0 1 -1 -1 0 0 1 0 0 -1 0 -4 0 -1 1 1 0 0 0 0 1 2 0 1 0 1 1 0 1 1 -3 1 -1 1 5 1 2 -1 -1 1 0 0 0 1 0 0 0 -1 -1 2 2 1 3 0 0 -1 1 3 2 1 1 1 -1 0 0 -1 1 -4 -4 1 0 1 0 3 1 0 2 0 -6 0 1 0 1 0 0 0 -2 1 0 2 0 1 -1 0 -1 4 1 1 1 0 0 1 0 1 1 0 2 3 2 1 1 1 -2 0 0 -1 1 0 0 0 4 0 1 -1 0 3 1 -3 1 1 1 1 1 1 1 1 0 0 1 1 1 1 0 1 0 0 1 1 0 0 -1 0 4 0 1 -4 -1 0 1 2 0 1 0 1 0 0 0 1 -1 1 5 1 -1 0 1 0 0 1 1 1 0 1 1 1 0 0 3 -1 2 0 1 0 5 0 -1 1 1 1 0 -1 0 5 0 1 2 3 2 1 1 1 0 0 2 1 2 -1 1 0 0 1 1 0 0 0 0 1 0 -1 -4 -2 -1 0 0 0 -1 0 0 1 0 0 0 1 2 0 1 0 1 1 2 1 2 0 0 0 0 0 0 0 1 1 0 2 1 0 1 1 -2 3 1 0 -3 0 1 1 0 -1 1 1 -1 -3 0 2 1 1 0 1 1 1 0 1 -1 1 0 1 4 1 0 -2 1 0 0 0 -4 0 0 -2 0 0 1 1 -2 0 1 1 1 2 0 0 1 1 2 -1 -1 1 -2 -2 1 1 1 2 -1 2 
0 1 0 0 0 0 -1 -1 1 2 1 1 0 1 0 1 -5 0 0 2 -1 1 -1 2 1 -2 0 0 0 1 0 0 1 0 0 0 -4 -1 2 1 2 1 1 0 -1 0 0 1 0 1 0 1 2 2 0 0 1 0 1 1 0 0 0 0 -1 2 0 1 0 0 -4 0 0 -2 1 -2 -1 0 1 0 0 -1 2 1 -1 1 -1 -1 1 1 0 0 0 1 0 0 0 0 0 1 0 0 -2 1 1 -1 0 -1 0 0 2 -1 1 0 2 -1 1 0 2 2 0 0 1 0 0 0 0 1 0 1 2 0 0 0 0 1 5 0 2 1 -1 1 0 -1 -5 1 -1 1 0 -1 0 1 3 0 0 2 1 1 0 1 -1 1 0 0 1 0 1 0 1 0 0 0 1 4 3 0 1 1 0 0 0 1 4 0 0 2 1 0 0 0 -1 1 0 -1 1 1 1 2 0 3 0 1 -1 1 0 -1 1 0 1 1 0 0 0 0 4 1 0 0 -1 -2 0 1 1 -5 -1 1 1 0 2 0 0 1 0 -1 0 -1 -3 0 0 -1 0 0 0 2 0 1 0 1 0 -1 2 2 0 -6 -2 1 1 -1 1 1 2 1 1 1 1 1 1 0 1 0 0 0 1 2 0 2 0 -2 1 0 5 0 -2 -2 1 1 1 0 1 0 0 1 6 6 1 0 0 0 2 -1 0 1 0 0 -2 0 -1 -1 2 1 -1 0 0 1 0 0 -1 -3 0 0 -2 2 -1 -2 0 1 2 1 1 2 0 2 0 0 2 0 1 -1 1 0 0 2 1 1 0 0 1 1 0 -1 0 1 -4 0 3 1 1 1 1 0 1 0 0 1 0 1 0 1 -1 -4 1 0 1 1 -2 -3 -8 -1 -1 1 0 1 -1 -1 0 1 0 0 0 0 1 1 0 1 0 1 1 0 -1 1 0 1 0 0 2 -1 -1 1 0 2 9 6 2 0 -5 -1 0 1 -2 0 -1 2 2 2 0 0 2 -1 0 -3 -1 2 1 0 0 1 1 1 0 1 -1 0 -1 1 1 0 1 1 1 1 1 1 0 1 0 1 3 1 1 0 1 1 -1 1 -2 1 0 2 0 0 2 0 0 0 2 0 0 0 1 2 0 -2 0 1 -1 -1 0 6 1 2 3 5 0 1 0 1 2 0 -1 1 0 0 1 1 -1 -1 1 1 1 2 3 1 6 4 2 0 0 0 1 1 5 4 -1 0 0 -1 1 0 0 0 0 1 1 0 1 0 0 1 0 -4 0 1 -1 -3 0 1 -1 0 0 1 1 0 1 1 0 0 0 0 -1 -1 1 -1 0 0 -1 2 1 2 0 0 0 1 1 2 1 2 0 1 -1 -2 0 0 1 1 0 1 0 0 0 2 1 0 -1 0 2 0 -1 1 0 1 1 1 1 0 1 0 1 1 -4 1 0 -1 2 1 -3 0 0 0 -1 2 1 1 -1 1 0 0 0 0 1 -7 -1 1 1 0 -1 0 1 1 -1 1 
0 -2 0 0 0 0 0 0 2 1 1 0 2 0 0 0 0 0 1 0 -1 -1 1 2 1 1 0 0 3 2 -1 0 0 1 1 1 0 0 0 1 1 5 3 2 1 0 -1 0 -1 0 1 -1 1 0 1 4 1 1 1 1 0 0 0 -1 1 1 0 1 -1 0 1 1 0 -1 -1 -1 0 1 0 1 1 0 1 1 1 0 -1 -4 0 4 0 -4 1 1 1 0 0 0 3 1 0 -2 -3 1 1 1 0 0 0 0 0 0 0 1 2 0 -1 1 2 -1 -6 0 1 0 0 -1 -1 0 0 -1 1 0 0 0 0 0 0 0 -1 0 0 2 1 2 0 1 1 0 0 1 2 -1 1 -1 1 6 3 3 0 1 1 2 1 1 1 1 1 0 1 1 0 2 1 1 0 0 -1 1 0 3 1 1 0 -5 0 1 8 2 0 2 0 -2 0 0 0 -1 1 -1 1 3 1 -2 0 2 0 0 0 -1 0 1 1 1 0 0 1 0 0 1 -2 -10 0 0 0 0 1 0 0 1 1 0 1 1 2 0 1 0 2 1 -1 -7 -1 0 1 1 -1 2 0 5 3 0 1 -1 -1 -1 0 1 2 0 2 1 1 0 -1 -1 0 1 0 -1 0 2 -1 1 0 0 2 0 0 -1 3 0 1 0 0 2 0 1 1 0 0 1 1 2 1 1 0 0 1 2 0 0 1 1 -3 -1 -3 0 -4 0 1 1 1 0 1 0 1 1 1 0 2 0 1 1 1 0 0 0 0 1 3 0 0 1 0 1 0 -1 0 1 1 0 0 0 2 0 0 2 1 0 0 2 1 2 1 1 0 1 0 1 0 0 0 1 1 1 0 2 1 1 0 -6 -1 1 0 -2 0 2 1 -1 1 0 0 0 -1 0 1 2 1 -1 0 1 1 1 -1 0 2 1 0 0 1 1 1 1 2 1 1 -2 2 0 0 1 1 1 1 0 -1 1 0 -3 -7 0 0 1 0 1 1 0 -1 1 -1 1 -1 1 0 1 0 0 1 -2 0 0 1 0 -3 0 0 0 0 2 -1 0 2 1 1 1 -2 0 1 1 -2 1 1 1 1 2 2 2 1 -3 0 4 1 3 0 -1 2 -1 0 -1 0 1 1 2 -1 0 -6 -3 1 1 3 4 0 0 2 2 1 0 0 2 0 0 1 -1 0 2 0 1 0 1 2 5 1 1 0 -1 1 4 1 0 -1 2 0 0 1 0 0 1 0 1 1 0 1 1 0 1 -1 0 0 1 -4 0 -2 1 1 0 1 0 0 1 0 0 2 -1 1 -1 0 -1 0 0 1 0 1 1 1 0 0 0 1 1 2 1 0 2 0 -1 -1 0 0 -1 -1 1 1 0 -1 0 -3 0 2 -1 1 -2 0 0 1 1 -1 -3 0 0 2 1 2 2 0 1 2 0 0 -2 0 1 1 1 -1 1 1 -1 0 -2 1 2 0 -1 2 1 1 3 2 1 2 1 0 -1 0 0 -4 0 1 2 1 0 
4 0 3 0 0 -2 0 1 1 1 0 2 0 1 -1 1 3 1 2 0 1 1 0 -1 0 0 0 0 1 0 -3 -1 -1 -1 1 0 0 -1 -2 0 0 0 3 2 0 0 1 0 -3 -1 0 2 1 1 2 1 0 -1 0 0 0 2 0 1 0 1 0 1 0 2 2 0 0 1 0 1 0 -1 0 0 5 -1 2 1 0 0 -1 1 0 1 0 0 0 3 1 0 -1 0 2 0 1 -1 0 0 5 4 0 0 2 0 2 2 1 2 0 1 3 2 1 -3 -1 0 0 1 -1 1 0 1 1 1 0 1 0 6 7 0 -2 -1 0 0 1 2 1 -3 -3 0 0 -1 0 1 1 2 -1 0 1 5 1 2 0 5 2 1 0 0 1 1 1 1 2 0 1 4 0 -1 1 -1 0 1 1 1 1 1 -1 1 2 1 1 -2 -1 0 1 1 1 0 -1 0 1 0 0 1 -1 0 1 0 0 -1 1 1 1 0 -1 0 0 1 -1 0 1 -1 0 0 1 1 1 1 1 0 0 0 -2 1 1 0 1 1 0 0 1 1 0 1 0 0 1 -1 1 4 1 0 1 0 1 0 1 1 1 1 1 -1 1 1 -1 1 1 0 4 1 0 -1 2 1 0 1 1 1 0 1 1 0 0 0 0 2 0 2 -1 -4 0 1 -1 0 2 0 0 2 -4 -3 0 0 0 1 0 -1 0 0 0 2 1 0 0 0 0 0 1 -1 1 0 -1 0 0 2 1 1 0 -2 1 2 1 1 1 1 -2 -1 -4 0 0 0 2 0 0 -4 -1 2 -1 1 1 0 1 -1 0 0 1 1 3 1 3 0 -8 -7 1 0 1 0 2 0 1 1 0 -1 1 0 0 0 0 -3 1 1 -1 -3 1 -1 0 -1 -1 1 1 0 1 1 -2 0 -1 1 0 -3 0 0 1 1 -1 0 -1 1 2 1 1 0 1 4 0 3 0 -1 -1 4 0 0 -3 1 2 2 1 0 0 -3 0 0 0 1 0 1 0 0 7 6 0 -1 -1 1 0 0 -1 1 -1 0 1 1 -1 0 0 -4 -1 0 1 1 0 0 1 1 1 0 0 0 1 2 1 0 0 0 1 0 2 0 0 2 -1 -1 0 2 -1 0 0 2 8 0 -4 -1 -4 -2 0 6 -1 0 -1 0 1 -1 0 0 1 1 -1 1 0 1 0 1 2 6 2 6 0 1 0 1 2 0 1 -1 1 1 1 1 0 1 1 0 0 0 3 0 -3 -1 0 0 0 1 0 -2 0 1 1 0 1 0 1 0 0 0 0 1 0 0 0 1 -1 -1 0 2 1 0 1 2 0 -1 0 1 0 0 3 2 0 1 1 0 0 0 1 1 0 -2 -1 0 1 -1 0 2 2 0 1 0 1 0 0 1 -1 1 -1 0 1 2 0 0 2 1 2 0 0 0 1 0 0 1 -1 0 0 0 2 0 1 0 0 -1 0 0 1 -1 0 0 0 0 0 1 1 0 -1 0 1 0 -1 -2 
3 3 1 1 1 2 0 1 0 1 1 1 -1 0 1 0 0 0 0 0 1 3 2 1 -4 -1 -2 0 -1 1 0 1 0 -2 1 1 1 0 1 -4 -1 1 -1 1 1 0 -1 0 -3 0 1 1 1 1 4 3 0 0 -1 1 0 0 1 0 0 2 1 1 0 0 1 0 1 -1 1 1 1 0 1 0 1 6 1 1 -1 0 2 1 0 0 0 0 2 1 1 1 0 1 0 2 0 1 0 1 1 1 3 0 1 2 1 0 -1 -1 0 0 1 -1 -2 1 1 0 1 -1 0 1 0 -1 1 -1 1 0 2 0 -2 0 0 0 1 0 0 -1 1 1 0 0 -1 0 0 1 0 0 0 1 -2 1 0 -2 1 1 0 1 0 0 0 0 1 8 1 1 2 0 1 0 0 0 -2 0 0 0 0 0 0 1 -1 1 0 0 -1 1 0 -1 -2 1 0 0 2 0 0 0 2 0 0 1 -2 0 0 1 0 -3 0 1 3 1 0 0 1 1 0 1 0 1 1 -1 1 0 0 -2 0 1 4 1 0 0 3 -1 0 1 0 2 0 0 0 1 0 0 1 -2 -1 -6 -2 -1 0 1 0 1 1 0 0 0 -2 1 0 1 1 -4 0 -1 1 1 1 2 2 3 1 1 0 0 0 1 0 2 0 0 -3 0 1 1 0 -1 1 1 1 1 1 0 1 0 -4 0 0 0 0 0 1 1 1 0 1 0 0 0 2 3 0 -1 1 0 0 1 0 1 1 -1 1 0 1 0 0 -2 0 1 0 2 1 0 0 2 0 -1 0 1 1 0 0 0 2 1 0 0 2 0 1 0 -1 2 0 0 -1 0 2 0 1 0 4 1 0 1 -1 -1 0 1 -2 0 2 0 1 0 0 0 -4 -1 1 1 0 0 2 3 5 2 5 3 1 1 -1 1 1 1 0 1 1 1 2 0 0 2 -1 0 1 0 1 0 0 1 -1 1 1 0 1 1 1 1 -1 2 -1 1 1 -1 0 1 0 0 0 0 2 1 2 0 1 1 0 0 3 -3 -2 -2 2 1 0 -4 0 0 0 0 -2 0 0 0 2 0 0 2 4 1 1 0 0 1 0 0 4 1 1 0 4 -1 0 -1 2 1 1 1 9 8 0 0 0 0 1 1 1 1 -1 1 1 0 1 1 1 0 1 0 0 0 2 1 1 0 0 2 2 1 0 0 0 0 0 0 3 2 -1 -3 0 2 5 1 2 0 2 0 1 -2 2 0 -2 1 0 1 0 1 0 1 1 0 0 0 0 1 0 0 1 -1 0 1 1 1 1 0 0 0 0 2 2 0 0 0 -1 0 0 0 0 1 0 1 0 0 1 0 1 0 0 -3 0 0 0 1 1 1 1 0 1 0 2 0 2 0 0 0 4 2 -1 1 0 6 6 2 1 0 2 0 1 -6 1 2 0 -1 2 2 6 0 1 0 1 0 0 1 0 0 0 0 0 -3 1 5 0 0 -1 0 -3 0 
2 0 -2 0 0 0 -3 0 4 0 0 0 1 1 1 2 0 0 0 -2 0 1 1 1 0 1 1 1 2 4 0 0 -1 4 1 1 0 1 0 -1 -2 1 0 1 1 1 1 -2 1 -1 0 1 0 -1 -1 -1 0 0 0 2 0 0 0 0 0 1 1 0 0 0 -5 -2 -1 0 0 1 1 0 1 0 0 2 -1 -1 1 2 1 -1 0 -1 1 0 0 1 0 -1 0 1 1 1 1 0 0 0 -1 2 0 2 1 0 2 1 0 0 0 0 0 -1 1 -1 5 4 2 1 1 1 1 0 -1 -1 -1 0 1 0 2 0 0 0 0 -1 -4 -1 1 3 1 0 1 1 0 1 0 0 1 0 -2 -2 0 1 0 0 1 -2 0 0 2 1 0 2 1 0 2 -1 0 0 1 -1 0 -1 1 0 3 0 1 1 0 0 -1 1 1 0 -1 0 0 -1 1 0 0 0 0 0 1 0 0 1 0 1 1 0 0 1 1 0 1 1 -1 0 1 1 1 0 1 0 -1 0 0 1 0 -1 1 6 2 1 0 1 0 1 0 0 -1 -5 1 0 1 0 0 0 0 0 -3 -1 1 1 1 0 1 1 5 1 0 3 -1 0 1 1 0 0 0 -1 0 1 0 0 1 2 1 -1 1 1 1 -1 0 0 -1 -1 -1 -1 0 1 1 1 0 2 1 1 0 1 -2 1 0 1 1 0 1 1 -1 0 0 -1 0 1 0 0 0 0 0 0 2 4 1 0 0 -1 -1 0 1 0 0 1 0 0 0 1 0 1 0 0 0 0 -1 1 0 0 1 0 -1 -1 -5 1 -2 2 0 2 2 0 2 0 1 2 1 0 0 0 -3 1 0 0 0 1 1 1 -1 -3 1 -1 0 0 1 1 -3 -1 -1 2 4 -1 -3 1 0 0 2 3 1 1 1 5 1 1 1 2 1 2 1 -1 -5 -4 0 0 1 0 1 0 0 -1 -2 1 5 9 3 1 -1 -3 0 -4 0 1 1 0 -2 1 -1 -4 -1 1 1 0 -2 0 1 0 -3 0 2 1 1 0 0 1 1 0 0 0 1 2 0 3 -1 0 1 0 2 1 2 1 1 1 0 0 0 -1 1 2 0 1 0 0 -1 1 2 0 -1 0 -1 3 9 3 1 -2 0 0 0 4 1 1 0 0 -1 2 3 5 0 1 0 0 0 0 1 0 -1 1 2 1 1 -1 -1 0 2 -1 1 -5 -4 0 0 1 0 0 1 1 1 3 -1 0 0 0 0 -1 1 1 1 1 -2 0 1 0 -3 1 0 0 1 1 1 -1 0 2 7 1 0 1 -1 1 -1 1 1 0 1 3 1 3 2 0 0 1 1 1 0 0 0 1 0 0 -1 0 1 0 0 -2 1 0 0 1 1 0 1 0 0 1 1 -1 0 0 1 1 1 1 0 7 1 1 -1 1 -1 0 0 -1 0 0 0 1 1 1 -1 0 1 1 1 1 1 -1 0 0 0 0 -1 1 1 0 1 -1 0 0 0 -1 
2 1 -1 1 1 0 0 2 2 5 0 1 0 1 0 0 0 4 1 0 -1 1 1 2 2 1 0 1 0 3 1 3 1 0 0 -1 1 1 3 1 0 0 1 3 -1 -2 -1 1 1 3 1 0 0 1 -1 1 0 -1 1 1 1 0 0 0 1 -1 0 -5 0 0 0 1 2 1 1 1 1 2 0 1 1 2 1 0 1 2 0 -1 0 0 1 0 0 0 0 -5 -1 0 1 -1 0 1 -1 0 0 1 1 2 1 1 0 0 0 -1 1 1 1 0 0 3 1 -1 0 -1 -1 1 2 1 1 1 0 1 8 0 0 0 -1 1 0 0 0 0 0 0 -1 0 1 1 1 1 0 -2 -1 0 0 -1 1 1 0 1 0 1 1 -1 1 -1 0 0 0 0 -1 0 -1 -1 0 0 1 1 0 0 0 0 -1 -1 0 0 0 0 0 0 2 0 -1 2 0 3 -1 1 2 0 1 0 1 1 0 -3 1 1 1 1 1 0 0 1 1 2 1 1 1 -1 -3 0 0 1 1 0 1 1 2 0 0 1 -1 2 2 1 0 1 5 1 2 0 0 0 1 0 -1 -1 -5 0 2 1 0 0 1 0 2 2 0 0 1 1 1 1 0 5 0 0 1 2 -1 2 1 1 2 0 1 0 1 -2 0 0 1 1 1 0 0 4 0 -1 0 1 3 -2 0 0 -2 1 1 1 0 -1 -1 1 1 0 2 -1 1 0 0 1 0 -2 -4 0 0 2 1 0 0 0 1 0 1 3 1 -1 1 1 1 1 4 0 0 0 0 0 -2 0 2 2 -1 0 1 1 0 0 0 0 2 0 1 1 -1 -1 1 1 1 0 0 0 3 3 1 1 1 1 3 2 1 0 1 0 0 1 -1 0 0 -1 0 -5 0 0 0 -2 1 -3 0 0 -1 0 0 1 1 1 1 -1 1 0 0 1 0 -3 1 1 0 1 0 6 1 1 0 1 2 0 0 0 0 0 -1 -2 0 1 0 -5 -5 -2 0 1 0 0 0 0 0 0 1 0 0 0 2 7 0 0 3 1 0 2 2 2 2 1 0 0 1 0 1 1 1 2 -1 0 -1 -1 0 0 0 0 2 2 0 0 1 -1 -4 -1 0 0 2 0 -1 0 2 1 3 0 -1 -1 1 1 -1 1 1 2 0 0 1 0 0 0 -5 1 0 2 0 1 1 0 1 0 0 1 0 1 0 0 -2 2 -3 -1 2 -3 1 0 1 0 1 1 1 1 0 2 1 0 4 1 1 1 1 1 -2 -1 -4 -2 1 -1 -2 -3 1 -1 2 0 1 0 0 0 -1 1 1 0 1 1 1 0 -1 1 0 0 -2 0 1 -1 -2 0 0 0 -1 -7 -2 0 1 0 2 1 1 0 3 1 0 0 1 -1 0 0 1 0 0 2 1 0 2 0 1 0 0 0 1 1 0 1 -1 0 0 1 0 0 -3 0 0 0 1 0 0 0 0 -1 1 0 2 -1 0 1 1 1 1 0 4 1 2 0 
1 1 1 2 1 1 -1 0 -1 0 1 3 0 0 -1 1 0 -1 0 2 0 1 0 -1 0 0 0 -1 1 1 0 4 5 1 0 0 1 1 0 0 -3 0 1 1 4 0 -1 0 1 0 4 0 0 0 1 -1 0 0 1 -4 -1 1 2 1 4 1 0 -1 1 2 1 0 1 1 0 1 0 0 1 0 1 0 0 2 1 8 7 0 0 0 0 1 -2 -1 1 0 1 0 -1 1 2 1 1 0 0 0 0 1 -1 1 1 0 0 1 0 2 1 0 1 0 2 1 -1 2 1 1 0 2 0 0 2 0 1 0 0 -5 0 0 1 1 0 1 0 0 0 3 0 1 0 2 0 0 0 2 2 -1 5 1 0 0 0 0 1 0 1 0 -3 1 -4 -1 1 -1 1 2 0 0 0 0 0 -1 0 1 0 1 1 -3 1 0 -2 1 0 2 0 0 1 0 4 3 0 1 0 3 1 1 0 -1 1 1 -2 1 4 1 0 -1 -2 0 0 0 1 -1 -1 0 1 2 1 0 -6 -2 0 1 -1 2 1 1 0 2 3 1 -3 0 -3 -6 0 1 1 0 -1 0 1 1 0 1 1 0 1 0 -2 0 1 0 0 1 0 1 2 4 0 -1 0 1 1 1 0 -1 1 -1 -1 -2 0 -1 -3 0 -1 1 0 0 1 -1 -1 -3 5 1 0 1 0 0 0 1 2 1 -1 0 0 0 -5 -2 2 0 0 1 0 -1 0 0 0 -1 0 0 -1 1 -1 1 1 -1 0 -1 0 0 1 0 -1 1 1 0 0 0 0 0 1 0 0 0 -4 -1 -1 2 0 2 0 1 1 0 2 1 -1 -2 0 0 1 0 1 0 3 2 -2 -1 1 1 0 0 1 0 3 1 1 0 0 -1 -1 -4 -1 0 -4 0 2 -1 -1 0 2 3 1 0 0 -1 0 1 0 0 -1 1 0 1 0 1 -4 -1 3 0 0 2 1 0 2 0 3 -1 -1 1 1 0 0 0 -1 1 -4 -6 0 1 3 -3 0 1 -1 1 0 0 1 1 0 2 3 2 2 0 3 1 0 1 4 1 2 0 0 0 0 4 1 0 -1 0 1 0 0 1 -1 1 1 1 0 2 1 1 4 1 2 0 -3 0 0 0 1 1 1 7 10 1 1 0 1 -1 0 1 1 2 0 0 1 0 -1 0 -1 1 0 1 1 1 1 0 0 0 -5 0 0 2 1 1 -3 -1 0 -1 -1 0 1 -1 1 1 1 1 1 1 1 0 1 -1 0 0 0 0 1 0 0 1 -1 0 4 -1 -2 -1 0 1 1 1 -1 3 3 0 0 1 1 0 2 0 1 0 0 5 0 0 1 0 2 1 0 -1 0 1 0 0 1 1 0 1 1 0 1 0 1 3 0 1 1 0 1 1 0 -1 0 -1 1 0 1 1 0 0 0 1 0 0 0 0 0 1 0 0 -1 1 0 1 1 -1 -5 0 3 0 -1 -1 1 3 1 1 0 1 -1 1 2 1 0 0 0 3 
5 4 1 1 1 3 0 -1 0 -5 -1 0 0 1 1 1 1 -1 0 0 -1 -1 0 1 0 0 1 0 -1 -1 -1 0 1 1 1 0 2 -4 -1 -2 0 -3 -1 1 1 2 1 0 7 1 1 -1 -3 0 0 0 -1 0 0 0 1 1 2 5 2 3 1 1 -1 1 1 0 -3 0 1 1 1 0 1 0 0 0 0 1 0 2 1 0 -4 0 -1 0 1 0 0 0 0 1 1 1 1 0 -1 0 0 0 -1 -1 1 1 0 2 1 0 1 0 1 -1 -1 -1 0 -1 1 1 -1 -1 1 1 0 1 0 1 1 0 0 -1 2 1 0 0 1 2 2 0 1 4 1 -1 -4 0 0 -1 0 0 0 -1 1 -1 -4 -1 0 0 -1 1 1 0 -2 0 1 0 1 2 0 0 0 1 1 1 0 1 1 0 0 1 1 0 0 -3 -3 2 -1 1 0 0 1 2 0 0 1 0 0 1 1 2 1 0 1 -2 1 0 0 1 -1 0 1 1 0 -3 1 -5 0 1 -3 0 0 0 1 0 1 0 0 0 1 -1 0 1 1 1 -3 -1 -1 -3 0 0 0 0 -1 0 4 2 0 2 1 1 2 0 0 0 -1 0 1 1 0 0 0 1 0 0 2 2 1 0 -5 -9 0 0 1 0 1 1 0 -1 0 -1 2 5 7 1 1 1 -2 0 4 1 1 1 1 1 3 1 4 1 1 -1 -4 -1 -1 -1 -1 1 -1 0 0 -1 0 0 0 -3 0 -1 0 0 1 0 0 0 0 -3 0 0 0 0 0 2 1 1 0 1 2 0 -1 0 0 1 2 0 -1 2 1 1 0 0 -1 2 1 -1 0 0 5 0 1 -4 0 -3 -1 1 0 0 -1 2 1 0 4 4 -1 -1 0 0 1 -1 1 5 0 -1 0 -4 0 1 -2 0 -1 0 1 1 2 1 0 0 1 -1 1 1 0 0 -1 0 -1 -1 -3 -1 0 1 2 2 -1 -3 0 0 1 1 1 2 0 -2 1 1 1 0 1 0 1 -1 -1 1 0 1 1 0 -1 1 -1 0 2 1 1 0 2 1 0 0 1 -1 0 1 0 0 -4 0 1 0 -1 1 6 1 1 -2 0 -1 0 -1 -1 0 1 0 1 0 0 0 -2 1 0 -1 0 9 8 1 1 1 0 1 1 0 2 0 5 1 0 2 0 0 1 0 0 0 0 0 0 -2 -1 -1 0 0 1 1 0 1 0 0 1 1 1 1 0 0 1 0 0 -1 0 1 0 1 1 1 1 1 1 1 1 2 1 1 1 0 0 1 0 -5 1 -1 0 1 1 1 0 1 0 1 0 0 -1 1 1 0 0 2 0 -6 -2 0 0 -2 0 0 1 0 0 0 0 2 2 1 2 1 -1 0 1 1 -2 0 -1 0 0 -1 -6 -1 1 1 1 1 -1 -1 1 0 2 6 1 0 1 1 -1 0 -1 -6 -2 2 1 2 1 3 0 0 2 1 1 -1 0 1 2 1 1 1 1 0 0 0 -1 1 2 -1 
1 1 2 0 0 -3 0 0 0 1 0 -1 0 0 0 2 0 0 0 0 0 0 0 0 0 0 1 1 2 -3 1 0 0 0 0 0 0 0 0 1 0 -1 1 0 2 1 1 0 2 0 1 0 -4 -1 1 -1 0 1 1 1 3 1 2 0 0 1 1 -1 1 -1 1 0 1 -5 0 1 1 1 -1 -4 0 1 2 0 0 1 -5 0 1 2 0 1 -1 1 0 0 0 0 2 1 0 1 0 3 1 1 0 1 1 0 0 2 1 0 0 0 -2 -1 2 -1 -1 1 0 -1 1 1 2 -1 2 0 0 3 1 0 1 3 0 0 0 2 1 1 1 1 1 0 0 1 1 -1 0 0 0 1 1 1 1 0 1 0 -3 0 -3 1 1 0 1 1 0 1 -1 0 0 0 0 1 0 0 0 0 -1 0 1 -1 0 1 1 0 0 0 -1 0 -1 4 -1 2 2 0 1 4 0 0 0 2 1 0 -5 0 0 2 1 1 0 1 1 3 1 -1 1 0 2 0 1 0 0 3 1 0 2 1 1 -1 -5 0 -1 -1 1 1 3 0 -3 0 0 0 -2 1 0 0 0 1 1 1 -2 0 -1 1 1 0 0 0 2 3 1 2 1 0 1 -1 1 1 0 0 0 -2 -5 0 0 0 1 -1 1 2 1 2 1 3 0 0 0 1 0 1 1 1 1 -4 2 0 2 0 1 1 4 0 -1 0 0 1 1 -2 0 0 -6 0 0 -1 0 0 1 0 3 0 -3 1 1 1 -4 1 0 -1 -1 1 0 -1 0 0 1 0 1 0 -2 0 1 1 0 0 2 1 0 1 1 5 2 1 1 0 1 3 0 -1 1 -1 -1 0 1 2 0 0 0 1 0 0 0 0 0 1 0 0 2 0 1 1 -1 -5 -1 1 -4 1 1 0 2 0 -1 -1 -2 1 1 0 0 0 0 0 0 1 1 1 1 -1 1 4 2 0 1 0 1 0 1 0 1 1 0 -1 0 2 2 1 5 4 0 2 0 0 0 0 -1 0 4 0 0 0 0 0 1 2 1 0 0 0 -2 -1 2 0 1 0 1 0 0 0 0 2 2 1 2 1 1 0 1 1 0 0 0 0 2 1 3 -1 0 1 0 1 1 1 1 0 2 -1 1 1 1 0 3 0 2 0 1 0 -1 1 -1 0 0 0 0 0 0 1 0 -1 1 0 1 0 0 0 -3 1 1 1 1 3 1 0 1 0 1 3 -1 1 0 0 -1 0 0 -4 1 0 1 0 0 0 -1 0 0 0 0 1 0 0 1 -1 0 6 -1 2 1 0 0 1 0 1 0 0 1 2 4 1 1 -1 -2 -3 0 -1 2 1 1 0 0 1 2 0 1 0 -1 0 0 0 0 -7 1 -1 0 -1 0 -1 -7 1 3 0 0 -1 1 2 0 1 1 3 2 1 -3 0 -3 0 1 0 1 1 2 1 1 2 0 1 0 0 0 0 0 0 -1 0 1 0 0 0 1 1 0 1 -1 1 
0 1 -2 0 0 0 0 0 2 0 1 -1 1 0 1 1 0 0 1 -1 0 0 6 4 0 0 0 0 1 1 1 1 -1 0 1 0 -1 1 2 -2 -2 0 2 0 2 1 2 1 -1 1 -1 0 -3 0 0 0 2 0 0 0 1 0 0 1 -1 0 0 0 0 1 1 0 2 1 0 0 0 0 3 1 0 3 0 0 2 0 1 1 2 0 0 -2 -1 1 1 1 1 2 -2 1 0 -1 -1 1 0 0 0 0 2 0 1 2 0 1 -1 0 -3 0 1 -1 -1 0 0 0 1 3 1 0 2 1 1 1 0 1 0 1 0 1 1 0 -1 0 0 2 3 1 0 0 1 4 5 3 0 1 0 1 1 4 1 0 1 0 1 0 2 1 4 1 6 -1 -2 1 0 -1 -1 0 1 1 2 -1 1 0 0 1 5 1 0 -1 1 0 -4 0 1 0 0 0 -2 1 0 0 0 0 1 1 1 -1 0 -1 1 3 4 1 0 2 1 0 1 1 1 2 0 0 0 0 0 1 2 0 1 0 0 2 2 0 0 -8 -2 1 3 -1 -1 0 1 1 0 4 4 1 1 3 0 5 0 1 1 0 1 0 -1 0 4 1 2 1 2 -1 2 0 0 -1 -4 -9 -6 -1 0 1 2 1 0 0 0 0 0 1 0 0 -1 -4 2 -2 1 1 1 1 -3 1 -1 0 0 1 1 0 0 1 1 1 0 0 0 0 1 0 -5 -3 -1 -1 -1 1 1 1 -1 -1 0 0 1 0 0 1 0 1 1 0 1 1 0 1 -1 1 0 0 1 2 0 1 1 0 1 0 0 0 -1 0 1 -1 0 4 1 3 1 0 1 2 0 -1 1 1 1 2 1 0 0 1 0 -1 0 1 0 0 1 0 0 0 0 0 0 -1 1 2 3 0 2 2 1 1 0 0 0 0 1 1 1 1 1 0 0 1 3 0 -1 1 1 0 0 0 1 1 0 1 0 2 2 -3 1 0 0 0 -1 1 0 0 -1 1 1 0 -1 -1 0 2 -1 -3 0 -1 0 1 0 1 -1 0 1 3 1 6 -2 0 0 2 0 0 2 0 0 1 1 0 0 1 1 0 0 1 1 1 3 0 1 5 1 0 -3 0 2 0 0 1 0 0 2 5 3 0 1 0 1 2 -1 1 0 -2 -1 0 2 -1 0 1 -1 2 0 -1 0 -1 -3 0 0 1 0 0 0 4 0 0 1 0 3 0 1 1 1 1 2 0 3 -1 1 3 0 1 0 0 -1 -6 0 -4 -1 -1 0 0 0 3 2 1 0 0 -3 0 0 0 1 1 2 2 2 0 0 0 3 1 1 -1 -1 0 -2 3 0 1 0 0 0 1 1 -1 0 0 0 0 -1 0 0 -1 1 0 1 0 -3 0 -1 1 2 0 -1 -2 0 0 6 1 1 1 1 0 0 0 1 1 1 3 0 0 0 1 0 2 -1 -3 1 -1 0 0 1 1 0 0 0 2 -1 1 -1 -1 2 1 1 2 
0 1 1 -5 -2 1 1 1 1 1 1 -2 2 -1 0 -1 0 1 0 1 1 0 1 0 0 1 2 0 0 1 2 0 -2 0 0 1 1 0 -1 0 -1 0 1 0 2 2 0 0 1 3 1 1 -1 0 0 0 0 1 -1 2 8 0 -4 0 1 0 -2 0 -1 0 0 2 2 0 0 1 -3 0 0 0 1 1 2 0 1 0 0 2 0 0 -2 2 0 -1 0 -1 0 0 3 0 0 1 -1 2 2 1 -1 0 0 0 1 1 0 -1 0 -1 1 1 -4 1 -2 0 -1 1 0 1 4 1 1 -2 1 1 0 1 -1 0 0 0 1 -1 1 0 1 0 -1 0 0 1 0 1 0 -1 2 0 0 0 1 2 0 0 0 0 0 0 0 1 3 1 0 0 1 1 1 -1 1 1 0 0 0 1 -2 0 -1 1 -1 0 0 1 0 0 0 0 1 0 0 0 0 1 -1 1 1 2 1 1 1 0 0 1 1 0 0 0 1 2 0 1 0 -1 1 1 1 1 1 1 0 -1 2 2 -1 0 2 1 3 1 0 -1 -2 1 1 -1 1 0 1 0 1 1 1 1 2 0 1 0 2 1 1 -1 1 0 1 0 1 0 1 -1 1 1 1 0 1 0 1 0 0 1 1 0 0 1 1 0 0 1 0 1 0 1 2 -1 1 -1 -8 -2 0 -1 0 0 -2 0 0 2 0 1 1 -1 0 0 -1 0 0 1 0 0 1 -1 1 0 1 0 2 1 1 1 1 1 -1 0 0 -1 2 0 0 1 1 0 0 0 0 0 0 1 0 0 2 0 0 0 2 4 0 -1 0 1 -3 -1 -1 1 4 1 0 0 1 2 2 6 6 1 0 0 1 0 1 0 1 0 1 1 1 0 1 1 1 -1 1 -1 3 -2 0 0 -1 -3 0 3 4 1 1 -1 0 0 1 0 1 1 -1 -3 1 1 0 0 1 -1 0 1 -1 -1 0 1 1 0 0 0 0 5 0 0 1 -2 0 -2 0 1 3 1 1 3 0 -1 1 2 0 -2 1 1 1 1 0 1 1 1 3 2 0 6 1 0 0 0 0 0 0 1 1 3 0 1 -1 0 -2 1 -1 1 -1 1 0 1 1 1 1 -1 1 0 1 0 2 0 0 0 -1 1 1 1 -1 1 1 0 -2 0 2 1 -1 1 2 2 1 0 0 -1 -4 0 -1 1 0 0 -4 -1 1 0 1 0 -2 2 0 1 0 1 -1 -2 1 2 1 1 0 0 0 1 0 1 0 1 0 -5 -3 -6 1 0 -4 -6 1 0 -1 0 0 2 -3 0 2 0 1 -1 0 1 2 1 0 0 2 2 2 1 0 0 -1 0 0 1 -1 0 0 0 2 -4 0 1 1 0 1 0 1 0 -1 0 1 0 0 0 2 0 -1 -1 0 0 0 0 0 1 1 1 1 1 1 1 0 1 -1 0 0 0 0 0 4 8 5 1 0 0 -3 -1 0 0 3 1 1 0 1 1 1 0 1 0 0 1 
-1 -1 -1 0 1 0 0 2 3 0 0 0 0 0 1 2 1 0 1 0 0 -1 1 -1 2 -1 -4 0 -2 0 1 1 0 1 4 0 0 -6 1 1 0 1 0 1 4 0 1 1 0 3 1 1 -1 1 1 1 -1 -4 -1 1 1 0 0 1 1 1 1 0 -1 0 -3 -1 0 0 1 1 0 0 -1 1 -1 0 3 0 1 1 1 0 0 1 1 1 0 1 3 0 0 0 1 1 2 0 -2 1 0 0 -2 0 0 1 0 1 0 0 -2 -2 0 0 0 0 1 2 0 0 0 2 2 1 1 0 1 0 4 1 0 0 0 0 0 0 -4 2 0 1 -3 1 1 0 0 -1 0 1 0 0 -3 1 5 5 0 1 -1 1 -1 1 -1 -4 -2 3 0 1 0 0 -1 0 0 0 0 1 0 2 0 1 1 -1 2 0 0 0 0 0 -1 0 0 0 1 1 2 -1 0 0 0 3 4 6 2 0 1 -1 1 0 2 2 2 1 2 0 -1 -1 -1 1 0 -2 1 -4 0 0 0 0 0 1 -1 -3 0 -1 0 1 1 2 0 0 1 0 0 1 0 5 1 1 -1 0 0 0 -1 0 0 -1 1 2 2 0 1 1 -1 -4 0 0 5 0 -1 -1 0 -1 0 -1 1 1 1 0 -1 1 -4 0 1 0 0 2 2 1 2 -2 -3 1 1 2 -1 1 2 0 1 -1 0 -1 0 0 2 2 1 1 1 0 0 1 0 1 0 3 -1 1 2 4 1 0 0 1 -1 1 1 1 1 1 -1 0 0 0 0 2 -1 1 1 4 -1 0 1 0 1 2 0 2 0 0 1 0 0 0 -1 0 1 0 0 0 -1 1 1 2 2 3 1 -2 -2 0 0 1 2 0 -1 4 2 0 -1 0 -4 1 7 3 1 1 3 0 0 0 0 0 1 6 1 1 0 1 4 2 0 -1 1 -1 1 0 1 0 1 2 1 0 0 -1 0 1 0 2 3 -1 1 1 2 0 1 1 1 -1 0 1 0 -1 5 2 1 0 1 5 1 0 -3 -1 2 0 1 4 0 -1 1 0 1 -1 1 0 2 0 1 -1 1 -1 0 -1 -2 0 0 1 0 0 -1 1 0 0 -1 0 1 0 0 2 0 1 -1 -1 1 0 1 1 1 1 1 6 2 0 0 0 -1 0 1 1 -1 -1 0 5 -1 0 1 -1 1 2 1 0 2 -3 -4 -7 0 0 -1 1 0 0 1 1 0 1 -1 0 0 0 0 0 1 1 0 0 2 2 2 2 0 -8 -2 0 1 -1 0 0 0 -1 0 -6 2 0 -5 -3 0 0 0 1 -1 -1 1 0 0 1 0 1 2 1 5 2 0 0 2 0 0 1 1 1 0 1 0 0 1 0 0 1 1 0 0 0 0 -1 1 0 1 0 0 1 0 1 3 0 1 2 2 0 2 -1 1 0 -1 1 -1 -1 1 -1 2 2 0 0 1 1 -1 0 1 0 -2 0 1 0 0 0 0 0 0 0 3 0 1 1 
0 2 0 0 1 2 1 1 1 0 0 0 2 0 1 1 0 0 1 1 1 -4 -2 -3 0 0 0 1 1 -1 0 1 0 -1 1 2 1 0 1 1 4 1 0 2 4 1 2 1 2 0 0 0 1 0 -1 -1 -2 -1 1 0 0 0 0 1 1 0 1 1 6 1 0 -2 0 1 1 0 0 0 4 1 -1 2 0 1 -1 -1 1 0 1 0 0 1 4 0 3 0 1 0 0 0 0 1 -1 2 -1 0 0 1 0 0 0 0 -1 1 0 -3 -1 1 1 0 2 0 -2 0 0 0 0 0 0 0 1 0 1 1 0 1 -1 0 0 0 0 1 0 4 0 -1 1 0 -1 -7 1 0 -4 0 3 0 1 2 1 0 1 0 -4 0 2 1 0 0 0 -2 0 0 1 0 0 2 2 1 1 0 1 1 -1 -1 1 0 -1 0 0 -2 0 1 2 0 2 2 0 1 0 0 0 0 2 0 0 0 1 -1 0 0 3 9 1 1 4 0 0 0 1 -1 0 0 0 0 1 -5 1 0 0 0 0 0 0 -1 -1 -2 1 1 -1 0 1 0 0 -1 0 0 0 0 1 2 0 1 -5 -3 -1 3 0 0 0 -1 1 0 1 2 1 1 0 1 0 0 -4 0 0 0 1 1 1 1 -1 0 1 0 -1 2 1 0 0 0 0 1 1 5 1 -1 2 0 1 1 0 0 1 3 1 0 -1 1 5 0 -1 2 0 5 1 3 0 1 -1 2 0 2 1 0 0 0 0 0 0 0 -1 1 0 1 2 -1 1 1 1 0 5 1 0 0 1 3 1 0 0 1 1 -1 1 1 0 1 0 -1 0 1 1 1 1 2 1 0 -1 0 0 0 1 -1 0 -1 -1 -1 -1 1 0 1 1 -1 -1 0 1 2 0 0 -2 0 0 3 1 1 0 0 0 0 3 1 0 0 1 0 0 4 10 3 1 -1 0 0 0 -5 0 0 0 2 0 1 1 0 0 1 0 -1 -1 1 2 1 0 0 -1 1 1 1 1 0 0 2 0 2 -1 0 -1 0 0 0 -1 2 -2 -1 0 1 -1 0 -1 0 1 1 1 0 -1 0 0 -4 1 0 0 0 1 -5 1 1 0 0 0 1 -1 1 1 0 3 0 0 0 1 2 1 -1 1 0 3 1 0 0 0 0 2 0 2 0 0 1 0 -6 0 1 0 3 0 0 0 1 1 0 -1 -7 -2 4 1 1 0 0 1 0 2 0 1 0 0 -1 1 0 1 1 0 0 5 3 0 0 -2 0 0 1 0 0 0 0 -1 0 0 1 1 1 -1 0 1 -6 0 0 1 1 1 1 -1 1 1 0 0 0 -1 1 0 3 0 0 0 1 0 0 1 1 4 2 1 0 0 0 1 0 0 2 -1 0 1 1 0 -1 1 1 -1 -3 0 1 0 0 1 0 1 -1 0 1 1 3 0 1 0 0 0 0 0 2 0 1 1 1 0 -3 1 4 0 0 1 1 1 4 1 -3 0 0 
0 -1 1 3 0 1 0 0 0 1 0 1 0 0 0 0 0 2 3 1 -2 1 1 1 0 0 1 -2 0 -1 0 1 1 0 1 0 0 2 2 1 1 2 0 1 3 4 0 -1 1 0 1 0 -5 0 0 0 0 0 1 -1 1 -1 -5 -1 -4 0 1 1 0 0 0 2 1 1 0 1 1 0 0 0 -1 -1 -1 0 1 0 1 0 2 1 1 0 1 4 1 0 0 1 0 0 1 -1 0 0 0 1 -2 1 2 1 1 -1 0 1 1 0 1 2 0 1 0 -3 0 1 1 0 2 1 1 0 1 -1 1 3 0 0 1 0 2 1 0 1 0 0 1 0 0 2 2 0 0 1 -1 0 1 -1 0 1 -2 -1 1 0 -2 1 1 -1 0 1 2 0 1 2 0 0 1 1 3 0 0 1 0 0 -2 0 1 -2 -1 1 -1 2 0 0 1 0 2 -1 0 0 1 0 0 0 0 1 3 1 0 0 -1 -2 2 1 1 1 3 0 1 -1 1 1 1 0 0 1 1 -1 1 -1 1 1 0 2 1 -1 1 0 -7 -1 0 2 0 1 0 0 1 0 1 -1 0 4 0 -1 0 1 -1 -1 -1 0 0 1 6 1 0 1 1 1 0 0 1 4 1 0 1 1 0 1 0 1 0 2 7 1 1 0 1 3 0 0 0 0 1 -1 1 0 0 2 1 2 1 -1 2 1 4 1 -1 0 -1 0 1 0 1 2 1 -1 0 0 1 1 6 0 0 0 0 0 1 0 0 1 0 1 1 1 0 0 0 0 0 2 0 0 1 1 0 0 1 0 0 0 -3 0 1 -1 1 0 -1 0 0 3 -1 1 -1 0 0 0 0 -4 2 2 -2 -1 1 1 1 -1 0 0 0 0 0 0 3 1 0 -1 1 0 -2 -1 0 1 1 1 1 3 2 0 1 1 1 2 -1 1 4 3 1 1 1 2 1 0 0 -1 -3 0 1 0 -2 1 1 1 -1 2 -1 1 1 0 0 0 0 1 0 0 1 0 1 1 1 2 0 0 0 1 0 -7 -1 0 -4 -5 -3 1 0 3 1 1 2 2 0 -1 -1 0 0 1 -1 0 4 1 -1 1 0 1 -1 1 2 0 0 0 0 0 0 1 11 3 3 0 -1 -1 0 0 0 -1 0 0 0 -1 1 1 1 2 0 2 0 1 0 1 0 1 1 -2 0 -1 0 2 0 0 -2 -2 2 0 2 -3 0 0 1 0 1 1 1 1 5 1 1 1 0 0 0 3 1 1 2 0 0 -3 0 0 1 0 0 1 0 0 1 0 1 -1 0 1 -2 -2 0 0 1 4 0 0 0 1 -1 0 2 0 1 1 -1 2 0 0 0 1 1 0 0 0 0 2 5 2 1 1 1 0 0 0 -2 -1 0 4 -1 2 0 1 1 0 -1 1 0 1 -1 1 0 2 0 1 1 4 -1 -1 0 1 -1 1 6 0 0 2 1 1 0 0 1 2 0 0 0 0 0 -5 -3 1 1 -1 
-3 -4 5 0 0 0 0 -2 0 0 0 0 4 1 2 -1 1 -1 0 -3 1 -1 1 0 0 -1 1 2 0 1 1 0 1 4 1 0 1 2 0 1 0 0 0 0 3 2 0 1 0 3 2 0 2 0 0 2 0 3 0 -1 -1 0 -10 -4 -6 2 0 0 -1 1 0 0 0 0 0 0 0 0 1 4 0 -5 -2 0 1 1 0 0 -2 -1 1 0 -1 -3 0 -1 0 0 1 0 -1 -1 -1 1 0 2 0 0 0 1 0 1 -1 -1 0 1 2 -2 1 1 0 0 0 1 0 -1 1 2 1 2 1 0 0 -1 -1 1 -1 1 1 2 -1 0 1 -1 1 0 0 -4 0 0 0 0 5 3 2 0 5 1 -1 1 0 1 0 1 0 -1 1 1 -2 0 -1 1 0 -1 0 -4 0 -1 1 1 1 1 1 1 0 1 0 0 0 0 -1 2 0 0 1 1 1 1 -2 1 0 -1 0 -1 1 1 1 1 0 2 1 0 2 0 1 1 0 -1 1 0 1 0 2 0 0 0 -1 1 0 0 -1 0 0 0 0 2 1 2 3 1 1 1 1 0 0 -1 -1 0 -3 -1 -2 -4 1 0 1 2 1 0 0 4 1 1 1 0 1 -5 -2 0 2 0 1 1 0 4 1 0 1 0 1 -1 2 1 0 0 2 0 0 1 1 1 0 0 -1 0 2 0 -1 0 -1 -1 0 0 2 1 0 1 1 0 1 2 1 0 1 1 1 0 1 0 4 1 1 0 1 1 2 1 1 -1 -1 0 1 0 0 1 3 2 -1 5 -1 0 0 0 -3 0 0 1 0 -4 -1 0 2 4 -4 0 1 0 -2 0 0 0 1 1 -3 0 1 3 1 1 -3 0 0 0 0 0 2 -3 1 1 7 1 1 0 1 1 0 2 1 0 1 0 2 1 -1 1 1 1 1 0 -1 1 0 0 2 0 1 0 4 2 0 2 0 -1 0 -1 0 0 0 1 1 -1 1 1 2 0 -3 -1 0 0 1 0 1 1 -1 -1 0 -1 1 0 0 0 0 0 -5 -10 -2 -2 -1 2 0 -1 2 1 2 1 -1 -1 0 1 0 2 -1 0 0 0 1 0 1 -1 0 1 1 0 0 1 0 0 -1 2 1 2 1 2 0 0 0 0 0 1 0 0 -2 1 6 0 0 -1 -3 -2 1 -1 0 1 1 2 6 0 1 2 2 0 0 0 0 1 0 1 1 4 0 0 1 0 1 1 -3 1 0 1 0 2 1 0 0 0 0 2 1 1 1 3 1 1 -1 0 1 0 0 -1 0 -5 0 2 -1 1 0 -3 -2 1 0 1 0 1 0 -1 0 0 0 0 1 1 6 2 -1 1 0 1 2 1 -2 -3 1 1 -1 0 1 0 1 2 0 0 0 -7 -3 2 1 -4 1 1 -3 1 0 1 0 0 -1 1 1 1 1 1 -1 1 0 0 -1 0 1 1 1 2 5 2 1 0 1 1 2 2 1 2 0 0 0 1 0 0 0 2 -1 5 
-1 0 -3 2 0 3 1 0 -6 1 -1 1 4 0 2 0 1 0 0 3 0 0 1 -1 1 1 6 0 1 -1 2 0 1 0 0 0 0 0 3 1 0 1 1 1 -3 0 1 0 1 1 1 1 3 1 0 1 0 3 -1 0 2 -6 -5 -1 0 0 1 0 0 -1 1 1 4 2 0 0 2 0 0 1 1 0 0 1 0 1 0 0 -6 0 1 3 2 1 0 0 1 0 1 1 0 1 1 1 1 5 1 1 0 -1 0 0 -3 0 0 -1 1 1 1 -1 -1 1 1 3 1 2 2 0 -6 0 1 -1 0 -1 1 1 1 0 -1 2 0 -1 -2 1 1 0 0 1 0 1 0 -1 1 -1 1 1 1 1 -1 0 0 1 1 0 2 1 -1 -5 2 0 -1 -1 -1 1 1 -3 -1 2 2 0 4 0 0 0 1 1 0 0 0 0 0 1 0 4 0 1 -1 0 -1 0 -1 0 0 1 0 1 0 0 2 9 0 3 1 1 1 1 1 3 1 0 0 1 0 0 3 1 -3 1 1 -1 1 -2 0 1 0 -5 -1 2 1 0 2 1 0 0 0 0 0 0 0 -1 0 -1 0 0 1 -3 0 0 1 1 1 0 0 1 0 -1 -1 1 0 -2 0 0 1 0 -1 1 1 2 1 1 0 -1 1 1 8 6 1 0 0 1 1 4 1 0 -2 0 1 1 -2 1 4 0 1 1 1 2 6 0 2 4 1 -2 0 0 0 0 1 2 1 1 0 1 0 0 1 1 0 -5 -1 1 0 -2 1 1 3 0 0 1 -1 0 1 1 0 0 -4 0 0 1 1 -1 -3 2 -1 0 1 0 6 2 4 1 1 0 0 1 4 1 4 1 0 0 1 0 -6 0 1 1 0 0 -1 1 0 1 0 3 0 1 4 2 0 1 0 0 1 1 1 1 0 -1 -1 0 0 1 -1 -1 1 6 6 0 1 0 0 2 0 1 0 1 -4 -4 -3 0 1 -1 1 3 1 1 1 1 -1 1 1 0 0 0 0 1 -1 -1 1 1 1 3 1 -1 0 1 0 -1 1 -2 4 2 1 -1 1 -1 0 1 4 0 1 0 1 1 0 0 1 1 2 2 1 -2 1 0 0 0 3 0 0 0 1 0 0 -1 -1 1 0 1 0 1 0 2 1 2 1 -3 -7 -4 1 1 -1 0 -1 0 0 1 0 1 0 2 0 0 0 0 2 1 0 1 2 3 1 1 0 -1 0 1 1 0 -1 1 0 0 -1 0 -1 0 -2 0 1 0 1 0 1 2 0 0 0 0 1 0 0 0 5 5 1 0 0 1 0 2 0 -1 -1 1 0 1 1 0 0 2 1 0 1 -1 1 -1 -1 0 1 -1 -2 -1 0 0 0 2 1 -1 0 1 0 0 2 -1 0 0 0 -1 1 2 1 -1 -1 0 0 -1 0 0 0 1 2 1 0 -1 -2 -2 1 1 0 1 1 0 0 0 1 1 1 1 0 2 1 0 -3 -1 1 1 0 2 4 2 
1 1 -2 1 1 1 -1 0 -1 0 0 1 2 -4 0 1 0 -1 1 0 2 1 1 1 -6 0 1 0 1 0 2 1 0 -2 0 1 3 3 0 0 1 0 -1 2 0 1 1 0 0 2 0 0 1 0 0 0 -1 1 1 3 0 1 0 -1 0 0 0 0 0 1 -1 1 1 0 0 -4 0 0 1 1 0 2 1 5 -1 0 0 1 1 0 4 9 1 0 1 0 0 2 1 1 3 1 1 0 1 2 1 1 1 0 0 0 0 1 0 3 1 1 0 0 1 0 0 1 1 6 1 -1 1 0 -1 1 0 0 1 0 1 0 1 -1 -1 1 0 1 1 2 0 0 -5 -1 1 0 1 -2 1 1 0 2 0 3 0 0 1 0 1 1 1 6 1 0 1 -2 1 0 1 0 -1 0 0 3 2 -1 0 0 -1 1 1 -2 -3 0 0 -1 0 1 1 4 1 1 -3 1 1 1 0 2 1 1 -1 0 4 2 0 1 0 1 1 1 1 1 1 2 1 0 1 -2 0 0 -1 2 2 1 0 0 0 0 1 -1 0 0 0 0 5 2 1 1 1 1 1 1 0 0 1 2 1 0 0 0 0 1 1 0 2 1 0 1 0 1 -3 1 1 0 0 -1 -1 -1 0 0 1 0 -1 -1 -2 0 0 3 0 3 1 1 1 1 1 1 0 1 0 1 1 0 0 1 0 -1 -1 -1 0 1 1 0 2 1 2 -3 0 -1 0 1 2 1 1 -1 0 -4 1 1 5 1 0 1 0 0 -1 0 -1 0 1 -3 1 0 -1 0 2 1 1 0 1 1 -2 1 1 -2 -1 0 1 1 0 1 0 0 0 -1 0 0 1 0 2 0 1 0 1 4 3 -3 0 -1 1 0 0 0 0 0 -5 1 1 0 0 0 0 0 0 0 4 1 1 0 3 1 1 0 1 4 2 0 0 0 0 0 2 -1 1 -2 0 1 2 0 0 1 -1 -2 -1 -1 1 1 -1 1 4 1 -1 1 -1 0 1 0 0 1 0 1 0 1 5 1 0 1 2 1 0 0 1 3 1 0 0 1 0 -3 1 3 2 1 1 1 1 0 0 -2 -1 1 3 1 1 2 1 1 0 0 0 -1 -2 -1 0 1 1 -1 2 1 2 1 3 1 1 0 0 -1 1 1 1 0 -3 -1 1 1 2 0 0 -3 0 -2 1 0 2 0 0 2 1 0 1 0 1 1 1 -1 -1 -1 0 1 1 0 -1 -2 1 0 1 1 0 1 0 -1 1 0 0 1 -1 1 1 1 1 5 0 2 0 2 4 2 0 0 0 0 1 1 0 -4 0 0 0 0 -1 -1 1 1 1 3 0 1 1 2 0 0 5 1 1 0 -2 1 0 0 1 1 0 2 0 1 2 1 -1 0 -3 2 1 1 -1 0 1 0 1 -1 1 1 -1 0 2 2 1 -1 0 2 1 0 0 1 1 -1 0 -1 -1 0 -2 1 1 6 0 1 1 2 0 -1 -1 0 1 -1 1 0 
0 -1 1 -2 1 1 0 0 0 3 0 1 0 1 4 -1 0 0 0 2 0 2 1 0 0 0 0 -1 1 0 -1 -1 0 0 0 1 0 2 0 0 1 1 0 -4 1 1 0 1 1 -1 0 0 -2 -1 1 0 0 1 2 7 1 0 -1 0 0 0 -2 -1 1 1 1 -1 1 0 0 -1 -1 0 1 1 1 1 1 0 0 1 0 3 2 1 2 0 -1 1 0 1 0 1 1 0 0 4 1 0 -1 -1 0 -1 1 2 1 0 -1 1 1 2 0 0 0 1 0 0 0 0 1 0 1 1 1 1 -4 0 0 1 1 0 1 0 1 -1 -1 0 4 0 1 0 1 0 2 0 1 1 0 1 0 1 0 1 1 -1 4 0 0 -1 -1 -1 -1 3 0 1 3 0 1 1 1 1 0 1 1 2 0 0 1 1 0 2 1 -5 0 0 0 0 1 1 0 0 -1 -1 2 1 5 1 2 0 2 -2 -1 0 1 2 0 1 0 0 -1 1 0 1 -1 0 5 1 0 -6 -1 1 0 0 0 1 1 4 0 -5 -2 0 1 -1 -1 0 -4 0 1 1 -1 -4 1 -1 0 0 0 0 -4 0 -1 1 2 -5 -2 0 -1 2 2 2 1 0 1 0 0 1 2 0 0 -2 -2 1 1 0 -3 0 0 0 3 1 0 1 0 0 -1 0 0 0 1 1 1 1 0 2 1 3 0 -1 0 0 -1 2 1 -1 -1 1 0 0 -1 0 1 0 -6 1 3 2 1 1 0 -1 1 -1 1 0 0 0 0 1 -1 1 1 5 1 1 0 0 0 6 0 2 1 4 0 2 -3 1 1 1 0 2 0 1 -1 0 1 0 4 2 0 1 1 1 -1 1 4 1 5 1 2 1 1 0 6 1 1 2 -5 0 0 0 0 1 0 -1 1 -3 0 0 -4 0 5 3 1 0 1 0 1 -1 -5 -1 -1 -1 2 0 1 0 1 -1 0 1 4 1 -1 1 -1 0 0 0 0 0 1 0 2 1 1 0 0 1 0 0 -1 0 0 1 1 0 1 1 0 2 1 2 1 -1 1 1 0 1 1 0 1 2 1 1 1 0 1 0 0 0 0 -1 1 -1 -1 1 2 0 0 0 0 -1 0 1 0 1 1 2 2 0 1 0 -1 0 1 3 0 -1 1 -1 1 1 0 0 1 0 1 0 1 0 -6 0 2 0 0 1 -1 0 1 0 1 0 1 0 1 3 1 -1 0 -1 0 0 0 0 1 0 1 0 1 1 1 2 1 -1 -3 0 1 0 1 -2 -1 1 1 1 1 0 0 0 1 1 0 0 0 1 1 -1 0 1 0 -1 0 2 0 0 0 1 1 1 1 0 3 6 1 1 1 0 0 0 1 0 0 0 1 2 -1 0 1 1 1 1 1 1 1 1 0 -2 3 1 1 0 0 1 0 0 0 0 1 1 0 1 0 0 1 0 0 1 0 0 1 1 0 1 0 1 0 1 1 -1 0 1 1 1 0 0 1 -1 
0 0 1 -1 -1 1 0 0 0 -1 1 2 0 0 0 1 0 1 0 0 1 1 -2 -5 0 0 -1 1 1 0 -2 0 0 1 1 0 1 -1 -2 -1 1 0 0 0 0 1 0 1 1 1 0 -1 1 3 0 0 -3 1 0 1 0 0 2 0 1 1 1 -2 1 2 0 0 -1 0 1 1 0 1 -1 1 0 0 2 0 1 1 0 0 1 0 1 -2 -1 1 0 0 1 0 1 0 0 1 0 0 0 2 -1 0 0 0 2 0 2 1 2 1 0 0 0 1 0 -1 1 0 0 0 1 1 1 2 1 0 -1 1 0 2 0 4 1 0 1 1 1 0 0 0 0 5 4 0 -2 1 1 -1 0 0 1 0 0 0 1 0 1 1 -1 1 1 0 1 1 0 0 1 1 1 1 -4 0 0 0 0 1 1 -3 0 3 1 -2 1 0 0 1 0 0 0 1 0 -1 1 0 0 0 0 -1 -1 0 1 0 1 0 -2 -3 -1 -3 0 -3 -4 -1 -3 0 1 -2 -1 -4 -3 0 0 0 -1 -4 1 1 0 -7 0 1 0 -1 0 0 0 0 1 1 -1 0 -1 1 -1 -1 1 0 0 1 1 0 1 0 0 0 1 1 -1 0 0 0 1 1 1 2 0 1 0 0 1 5 0 0 0 6 0 0 2 1 0 1 3 1 -1 0 0 0 0 1 -1 0 0 1 -1 0 1 -3 -1 2 0 1 0 1 0 0 -1 0 1 0 -1 2 1 1 3 1 0 0 -1 1 -2 1 2 1 1 0 2 1 1 -2 2 2 1 0 1 1 1 1 1 1 1 0 0 4 -1 0 1 0 0 0 1 1 0 1 0 0 1 2 2 1 2 -1 2 1 1 0 0 1 -1 0 -1 0 2 0 1 0 0 -1 -3 0 -1 0 1 0 1 0 2 1 -1 0 1 -3 1 1 1 0 2 1 0 -2 -1 0 0 0 0 1 -1 1 1 1 1 0 0 1 0 1 -1 -2 1 2 0 1 1 1 2 0 0 -1 -2 1 -4 0 6 1 -1 0 1 0 0 -4 1 0 0 0 -1 0 0 -4 2 0 0 1 0 1 0 1 -1 0 -1 1 1 1 0 -1 1 -1 1 1 0 -1 -1 1 -1 0 0 0 0 0 0 2 0 0 0 1 -1 2 1 1 1 1 0 1 1 2 0 0 -2 1 0 -3 -1 1 2 1 1 0 -3 0 0 -1 1 -1 1 0 0 2 -7 0 2 5 0 0 1 1 0 0 0 1 2 8 2 -1 4 1 0 -1 -1 -2 0 3 0 0 0 0 0 -1 1 1 -1 0 -1 0 0 -1 -3 1 0 1 1 3 -1 1 0 1 2 -1 1 0 0 -1 2 0 0 0 1 0 1 0 1 0 0 1 1 -1 0 1 1 4 0 0 1 0 1 1 1 -1 0 0 0 0 -3 0 0 0 0 -4 0 0 1 0 1 1 0 0 0 1 0 2 1 1 1 1 1 0 2 0 0 -1 2 1 2 5 1 -1 -3 -7 
1 -1 0 0 -4 -1 2 0 -5 0 0 1 4 0 0 0 -1 2 -1 0 -1 1 1 1 0 2 1 1 1 0 0 -1 1 0 0 2 -1 -5 -3 1 0 -2 2 0 1 -3 0 0 2 1 0 0 0 1 1 0 1 1 1 0 0 1 0 2 -1 2 3 0 0 0 0 1 1 1 0 0 1 0 0 0 1 1 1 -1 0 0 0 1 1 0 2 0 1 1 4 1 0 2 1 0 2 0 0 1 -1 0 -1 1 0 1 0 0 1 1 0 3 1 -1 -3 2 -1 0 1 -5 -1 0 0 1 2 0 1 1 -1 1 1 1 1 1 1 0 4 0 1 3 0 0 1 5 0 1 0 0 0 -1 1 0 0 1 0 0 0 1 1 -1 1 0 0 0 5 0 0 2 -1 0 1 1 0 0 0 2 0 1 0 1 -1 9 5 1 0 1 0 6 2 1 1 -2 2 0 -1 -2 0 1 0 1 -2 0 0 1 1 0 0 0 0 0 -1 0 1 0 1 0 -1 0 -2 -1 1 1 1 0 1 1 -1 0 -3 -1 0 0 0 1 0 0 -4 0 0 0 0 0 1 0 1 0 1 0 0 0 2 0 0 1 6 0 2 5 -2 0 1 0 0 -1 1 0 2 -1 1 0 1 0 -1 -2 -3 1 1 0 1 0 0 1 -1 -1 1 0 1 -1 -2 1 2 1 0 -1 1 0 0 0 1 1 0 0 1 1 1 -1 1 1 1 1 6 2 0 0 1 0 -1 0 -1 2 1 0 -1 0 1 0 1 0 1 0 0 3 2 1 0 2 2 1 0 1 2 1 0 1 0 0 1 1 0 -1 -1 1 2 0 0 0 0 1 3 -1 0 0 1 0 0 0 0 1 1 0 1 0 0 -1 0 -2 0 2 -2 -2 1 1 2 3 1 0 0 5 1 1 -1 -1 -1 5 1 1 0 2 0 0 0 1 2 -1 -3 0 0 0 -3 0 2 0 2 0 0 5 0 -1 0 0 -1 0 0 1 4 1 4 1 0 1 0 0 0 1 0 1 1 -1 1 0 0 -7 0 1 0 0 0 -4 1 1 0 -1 -2 0 2 0 0 -2 -1 0 3 0 1 0 2 0 -3 -3 1 1 2 0 1 1 1 1 0 3 0 1 0 0 1 -1 0 1 1 1 0 -1 1 0 0 1 0 0 -1 0 0 -1 0 0 6 1 0 2 1 0 1 1 2 1 1 0 0 -1 0 0 2 0 1 0 0 1 -2 1 1 0 1 4 5 1 1 6 2 -4 0 0 1 2 0 0 1 -2 1 1 0 4 1 0 0 1 1 -1 -4 0 1 -1 -1 0 0 1 0 1 0 5 1 3 -1 1 3 4 1 2 0 1 0 -4 1 0 -1 0 1 2 0 0 0 -2 -1 -4 1 1 0 -1 1 -1 0 1 -2 -1 -4 1 2 1 1 -5 1 1 1 0 1 0 1 1 1 0 1 2 1 0 0 -1 0 0 1 0 0 0 0 0 1 0 1 1 -2 -12 
0 1 1 0 0 2 0 0 1 -1 -2 0 0 0 0 0 1 2 0 -1 1 0 0 0 0 0 3 1 -1 2 1 2 1 2 -1 0 0 0 -8 1 1 4 1 1 0 -1 1 0 1 0 0 0 0 2 1 0 0 0 -1 0 0 4 0 1 -1 0 1 0 -1 -1 0 2 6 -1 0 -3 -4 1 0 1 0 0 -1 0 0 1 0 1 1 -1 2 2 1 1 1 1 -1 2 2 0 2 4 1 0 0 1 -1 1 -2 -1 -4 0 0 0 1 0 0 0 -6 -1 0 1 0 -1 -3 0 1 0 -2 -1 0 0 0 0 0 -3 0 -1 1 1 1 1 0 1 1 -1 -2 1 1 0 1 0 0 0 2 0 0 -1 0 0 1 1 0 0 0 -1 -1 2 1 0 0 -1 0 2 1 0 0 0 0 2 4 1 5 1 0 1 1 1 4 0 5 7 8 2 0 0 4 5 0 2 1 4 1 -2 1 1 2 1 1 0 0 0 0 0 1 -2 1 0 -2 1 1 -1 0 1 0 0 1 1 1 0 -5 0 -1 -4 0 0 2 0 0 0 -2 -1 -2 -1 0 -1 0 0 0 0 0 0 0 1 0 -2 0 1 1 -1 1 0 1 1 1 0 0 -1 -1 4 1 1 1 1 1 1 -2 1 1 1 1 1 0 -2 1 1 0 4 1 1 1 0 0 1 0 0 0 1 1 0 2 4 2 0 -2 0 0 -1 1 1 5 3 1 1 5 0 2 0 0 0 0 0 1 0 3 0 0 1 0 1 0 1 -2 0 2 5 1 -1 1 0 1 0 0 0 0 2 1 1 1 1 2 0 2 -1 -2 -2 0 0 -1 0 -2 2 2 1 0 0 1 2 0 0 1 3 1 1 0 0 1 1 1 -4 0 5 2 1 1 0 5 1 0 0 0 2 0 1 0 0 0 2 1 0 0 1 0 0 0 1 -1 -2 -1 1 0 -1 0 2 1 -1 1 -1 -2 0 0 0 -1 1 0 -1 1 2 -1 0 0 1 1 1 0 -1 0 0 -1 -1 2 0 1 1 0 1 -1 1 1 -2 -1 -5 0 1 0 0 0 0 -1 0 0 0 -1 -1 -5 -1 0 1 1 0 0 0 4 1 0 4 2 0 2 0 0 -2 0 2 0 0 0 1 1 1 1 0 0 1 1 1 -1 2 0 2 -2 -4 0 1 1 0 1 1 0 1 0 -1 -2 -2 0 2 2 0 -1 1 2 1 2 4 2 2 1 0 0 0 0 1 2 1 2 0 1 4 -1 0 1 1 0 -1 1 1 1 1 0 1 1 -1 1 1 0 1 0 3 2 1 -1 -1 -3 -5 -4 0 0 0 0 8 8 1 1 2 0 0 1 1 1 1 1 1 0 0 -6 -1 0 0 -1 1 1 2 -1 1 -1 0 0 0 0 1 -6 0 0 -4 -2 1 -1 -1 -1 0 1 1 0 1 1 1 0 2 1 -1 1 0 1 0 1 5 5 0 -1 1 1 -1 2 1 0 0 1 1 2 0 
0 1 2 0 -1 3 1 1 1 0 -1 0 2 2 0 0 1 -3 0 1 0 -1 1 0 1 0 -1 0 1 0 0 1 2 2 0 -1 -2 -1 1 0 1 1 2 1 -1 2 0 1 5 1 2 2 1 -1 0 0 0 0 0 -1 1 1 -1 0 0 -1 4 2 -1 0 0 3 0 1 1 1 3 1 1 0 0 0 0 2 0 2 6 1 1 1 1 0 1 1 0 -1 0 -1 -1 1 1 1 -1 2 -1 1 0 0 0 -1 1 0 0 1 -1 0 0 1 -2 -3 1 0 -1 1 0 0 1 3 1 -1 0 -1 0 1 -1 -1 1 1 1 0 0 0 0 1 1 -1 0 1 1 0 0 1 0 0 0 -4 -4 0 1 0 1 -1 1 0 -1 1 -1 0 0 2 2 0 -1 0 0 0 0 0 0 1 0 1 0 3 0 1 0 4 0 1 1 0 4 9 2 0 0 1 0 -1 0 1 0 1 1 0 1 1 0 0 0 0 1 0 0 -1 0 -5 0 0 -1 2 0 2 0 1 5 0 1 0 -1 0 1 2 -1 2 0 3 1 -2 0 1 1 0 0 -1 1 0 0 0 -2 -1 0 1 0 1 1 0 0 1 1 1 1 0 -1 1 0 -2 1 0 1 0 1 0 0 1 0 1 1 -1 7 1 1 1 -1 0 2 1 0 0 0 0 1 1 -1 0 1 1 1 1 1 0 1 0 1 0 -1 -4 0 1 3 1 -2 0 10 1 0 1 0 0 0 0 0 0 -1 0 0 0 1 1 0 -2 0 0 4 -1 1 0 -2 -1 2 1 -1 1 4 1 5 0 -1 -1 0 -1 0 0 0 0 0 0 1 0 -8 -1 0 1 0 0 1 1 0 -2 0 -1 -2 -1 2 1 1 -1 2 1 0 0 0 0 0 2 3 0 -1 1 -1 0 0 -1 1 1 0 1 -1 -1 2 4 1 7 2 0 1 1 3 0 0 2 1 3 0 0 3 -1 0 0 1 0 1 0 0 1 0 0 -1 0 1 0 1 1 1 1 1 0 -1 1 1 2 1 2 3 0 -2 -1 -4 0 1 1 1 2 0 0 0 -3 -11 1 0 1 0 1 -1 -3 -1 1 1 -1 -2 -1 -1 1 -1 1 0 1 1 1 0 0 -1 4 -3 1 -1 -1 1 1 0 1 2 2 1 0 0 3 1 1 -1 -5 -1 1 0 0 2 -1 0 1 0 -1 -1 -2 1 -2 0 1 0 0 0 2 1 1 0 -1 1 1 0 0 0 1 4 1 1 0 1 0 0 0 1 -4 0 2 0 1 1 0 1 1 1 3 -1 -2 0 -1 1 1 0 -1 0 1 1 0 1 3 2 0 1 0 2 2 1 2 0 1 0 2 0 1 4 3 1 1 1 1 -1 1 2 1 6 0 0 1 0 2 0 0 1 0 -1 0 0 -1 1 1 1 0 0 2 1 2 1 2 0 2 2 0 0 -4 1 3 1 0 1 1 -1 -1 0 -1 0 0 0 1 2 0 2 1 0 0 
-6 -3 0 1 3 3 0 1 0 1 -4 1 2 2 -1 4 0 0 1 0 1 2 0 3 1 0 1 0 1 5 2 1 -1 2 0 -2 -6 0 1 0 2 1 0 2 0 1 3 0 0 1 0 6 2 0 1 1 0 0 1 -1 1 0 0 0 -1 0 -1 -1 2 0 0 2 0 0 2 5 0 1 3 0 1 0 -1 -1 0 0 0 1 0 -2 0 1 0 -3 1 1 0 -1 0 0 -1 0 0 1 0 0 0 0 0 0 1 1 0 0 0 0 -1 0 0 1 2 1 -1 0 4 1 6 0 1 0 1 5 1 1 0 1 0 -7 0 0 1 1 0 1 1 2 1 0 1 1 1 1 1 2 0 0 0 0 0 1 -1 -1 -3 0 0 -4 -1 1 0 1 1 0 0 -2 0 2 -1 -3 0 0 -1 1 0 1 -1 -1 1 1 3 2 0 2 2 0 0 6 2 -1 0 -1 1 0 -1 0 0 1 0 4 1 0 0 1 1 0 1 0 0 0 0 0 -1 0 1 1 1 1 1 -2 0 0 1 1 0 1 0 0 2 2 0 1 0 1 1 1 0 0 -1 -9 -4 0 -1 0 1 1 1 1 1 0 1 0 0 1 1 2 1 0 1 -1 1 -4 1 1 1 1 2 1 4 1 1 1 2 1 2 0 -1 0 1 -1 1 1 2 0 1 1 1 -1 0 -5 0 2 1 2 2 3 1 1 0 -1 1 -1 0 1 0 0 3 -1 0 0 1 2 -1 0 0 0 -1 1 0 0 0 1 1 -1 -5 -1 2 -1 0 0 -3 -6 1 2 0 1 1 0 1 1 0 1 1 0 -4 1 0 -6 -2 0 0 1 -1 -3 -1 0 0 3 1 1 1 1 4 0 1 0 0 1 1 0 1 1 0 1 0 0 1 -2 -3 0 -2 2 0 -1 -3 0 0 1 1 1 0 -4 -1 0 0 0 2 0 0 -1 2 -1 2 1 1 0 0 -1 0 1 1 -1 0 0 1 1 0 1 1 2 1 0 1 0 0 0 0 0 0 1 1 0 1 1 1 1 0 0 2 -1 0 -1 1 -1 1 0 2 1 2 3 0 0 0 0 0 0 2 0 0 1 1 0 0 0 0 -2 2 0 1 0 0 0 1 0 1 1 0 3 0 0 2 -1 0 -1 -2 0 1 1 0 0 5 0 -2 1 1 -2 0 1 0 1 0 0 0 -2 -5 0 -1 -1 1 -1 0 0 -1 -3 0 -1 -1 1 0 0 1 0 1 2 1 1 1 0 1 -1 2 0 1 1 -4 0 0 0 -1 1 0 1 1 1 0 2 0 0 -1 1 0 -1 0 6 0 3 1 1 1 0 0 0 1 1 2 1 1 0 -1 1 0 2 2 1 1 2 2 1 0 0 0 6 1 0 0 1 2 0 0 0 0 2 -1 -1 0 -1 2 1 0 -1 0 0 0 0 2 3 2 2 2 2 0 0 -1 2 0 1 0 -1 0 1 1 1 1 0 0 -1 1 1 0 0 0 0 
-1 -1 0 0 0 -1 1 3 0 -1 1 0 0 0 0 1 -2 0 0 -2 0 0 2 1 0 1 2 0 2 0 6 2 1 1 0 1 -1 -2 -3 1 0 -1 1 0 0 1 1 2 0 -1 0 2 2 -1 1 2 1 1 0 1 0 0 0 -3 6 2 0 2 1 -3 0 1 0 1 1 5 1 0 -1 0 0 1 -1 2 -1 -3 0 0 2 1 1 1 2 0 0 0 2 0 0 0 1 -1 0 0 0 0 0 2 0 1 0 -2 2 1 0 -2 0 1 0 1 1 1 -3 1 2 0 1 0 1 1 0 1 1 0 0 1 0 0 0 3 0 1 0 0 0 0 6 -2 0 1 1 1 1 1 0 -1 0 0 -2 0 1 4 1 0 0 1 0 0 1 2 0 1 0 -1 1 0 1 0 1 2 0 0 1 1 1 1 1 0 0 1 -1 4 5 1 1 1 1 -1 -5 -1 1 -1 -1 0 0 2 1 1 0 1 -1 1 0 1 -1 0 0 0 1 1 1 0 0 1 0 0 -4 0 -2 0 0 0 -4 0 0 7 1 -1 0 0 0 1 1 7 5 0 1 0 0 1 1 1 0 0 -1 1 0 4 1 0 2 1 0 1 0 3 6 4 1 -1 1 0 0 0 -1 -1 0 0 2 2 0 4 0 0 0 2 1 2 -1 -1 -2 -4 2 0 0 0 0 0 0 -1 0 -1 0 0 0 1 1 0 2 0 0 0 3 1 0 1 2 2 1 2 1 0 2 1 0 0 -1 0 2 0 2 0 0 0 2 2 1 1 6 1 -1 1 0 -1 -1 1 -1 0 0 0 0 1 2 0 3 1 2 0 0 0 1 1 -1 0 1 1 0 3 0 0 -1 0 -6 0 2 1 0 0 1 1 0 0 -1 4 1 0 0 0 0 0 2 -2 0 1 0 0 0 -1 1 0 1 1 2 0 1 1 0 -2 1 -2 0 -2 0 1 0 2 3 1 5 0 -1 1 2 1 3 1 0 1 1 0 0 -3 -6 -1 1 0 0 0 0 0 0 -1 1 2 1 2 1 0 3 0 -1 0 3 0 1 0 0 0 1 0 0 3 0 -2 1 -1 1 1 0 0 1 1 2 2 3 0 1 0 0 1 4 0 0 0 0 1 3 2 0 0 2 1 0 0 0 1 -1 0 1 1 0 2 1 -2 1 -2 0 1 1 -1 0 0 1 1 1 0 3 1 1 1 2 0 1 1 1 2 0 0 1 2 -1 0 1 -3 0 1 0 1 1 0 1 0 0 1 0 -1 1 2 -1 -1 -3 -1 1 1 0 0 0 1 -1 0 -1 1 0 0 0 0 1 0 1 2 1 0 1 2 0 2 4 1 -1 -1 1 -1 -1 2 1 -1 1 1 0 0 2 2 0 1 1 1 0 1 0 1 1 0 0 0 0 0 1 0 1 -1 -1 1 1 2 0 2 0 0 2 1 0 0 -1 1 -1 1 0 1 0 -1 0 1 1 0 -3 -1 -2 0 0 0 
-2 -5 -5 1 1 1 2 -1 2 1 1 1 0 0 2 1 1 0 0 1 -2 2 4 2 -1 0 1 1 0 2 1 -1 1 1 1 -1 0 1 1 1 1 0 1 1 5 1 0 1 2 0 1 5 1 -4 0 1 -1 0 2 1 -1 0 1 1 1 0 -1 -1 4 0 1 3 0 -1 1 3 6 -1 2 0 1 4 0 0 -1 1 1 1 0 -3 -2 0 1 0 -1 1 2 2 1 1 1 1 -1 -1 1 1 1 1 0 0 1 0 -1 1 -3 1 -1 -1 0 2 1 1 0 0 0 0 1 -1 0 0 0 -1 1 2 1 1 1 0 -2 0 1 1 2 4 0 1 1 1 -1 0 1 0 0 1 0 1 0 1 0 1 -1 -2 1 1 2 -2 -2 -1 -2 1 0 1 1 1 0 0 0 0 2 1 0 1 3 5 1 4 1 2 3 0 1 1 1 1 -1 1 0 1 0 0 -3 0 2 0 0 2 1 1 1 -1 -1 1 0 2 -2 1 0 1 4 0 -3 -1 1 0 1 1 2 -1 -4 1 1 2 1 0 1 5 2 0 1 1 -2 -2 1 0 -2 1 0 -3 1 1 -4 0 2 0 1 -2 1 1 1 0 2 1 2 5 3 1 0 2 1 2 1 1 1 1 -1 3 0 -1 0 0 1 0 1 -1 0 3 0 0 1 1 1 1 1 0 -1 -2 1 1 1 1 0 1 0 1 -1 -1 0 1 0 0 0 2 4 0 1 0 0 0 -1 -1 0 -5 0 0 1 -2 -3 0 0 0 1 1 1 -2 0 2 1 0 0 1 1 -1 1 0 0 0 2 1 1 1 0 0 1 2 6 6 -1 2 1 1 2 -1 1 0 1 1 0 1 1 2 0 0 -2 1 3 1 0 1 0 1 -3 1 0 1 1 0 1 2 0 0 -1 2 5 0 0 -1 0 1 -1 0 1 2 -1 1 1 0 0 3 -1 1 1 2 -1 0 0 1 2 0 1 1 0 1 1 0 2 -1 -1 0 0 0 0 0 -3 0 0 -1 0 0 0 1 1 0 0 1 0 0 1 1 0 1 1 0 1 1 0 0 -1 1 0 0 2 1 1 1 1 1 1 -1 0 1 5 5 1 0 1 0 0 2 -3 0 0 2 3 1 0 -1 5 1 0 1 0 0 0 1 1 6 1 2 1 2 1 1 2 1 1 0 -1 -1 1 1 1 1 1 0 0 -1 0 1 2 2 3 0 1 2 0 1 0 0 -2 1 -1 0 0 0 0 0 2 0 1 0 0 0 -1 0 3 1 -1 0 -1 1 2 0 0 0 1 1 1 0 -2 -1 1 0 0 0 0 0 1 0 0 -1 0 1 0 -2 0 0 1 0 0 1 1 1 1 0 0 1 1 1 1 0 0 1 0 1 0 -4 1 0 0 0 1 1 0 0 0 0 -4 -1 0 1 0 0 -1 0 2 2 0 0 5 1 1 1 1 1 1 0 0 1 0 -1 2 0 0 0 0 0 -1 -2 1 3 
-5 -5 0 0 0 -2 1 -1 1 3 1 1 1 -2 2 0 2 -3 1 0 2 0 2 1 1 0 1 0 2 -1 1 0 -4 1 0 0 -6 -1 0 0 0 1 -1 1 1 0 0 0 1 0 0 0 0 1 -2 0 0 0 0 0 1 2 -2 1 1 1 0 0 1 2 0 2 1 1 1 1 1 -1 0 5 5 1 0 1 0 -2 1 -2 0 -1 -1 1 0 0 1 1 2 1 1 2 0 1 1 -3 1 0 1 1 5 0 1 0 0 1 0 1 0 1 0 1 1 1 0 0 1 1 1 1 1 0 0 0 2 1 1 0 1 2 1 1 0 0 0 0 0 -1 -1 0 0 1 -1 0 -1 1 1 0 1 0 0 1 -1 0 -1 0 3 1 -1 -1 1 1 0 3 0 1 1 -1 0 0 2 1 -1 0 0 1 0 3 -2 1 0 0 1 1 -1 1 1 -1 4 1 1 0 0 0 0 3 1 0 2 2 0 1 2 -2 -3 0 2 1 2 -1 1 -1 0 -1 0 1 0 1 0 0 0 1 1 -1 2 -1 0 2 0 2 -1 1 0 0 -1 0 -2 2 2 5 1 -1 -1 1 2 0 4 -1 0 0 2 -1 0 1 -1 3 1 0 0 1 1 -3 1 -3 -1 -1 1 0 1 1 1 0 0 0 1 0 -1 0 0 1 -1 1 1 1 0 0 0 0 0 1 3 0 2 1 0 -4 0 1 0 3 1 2 -1 0 0 1 1 0 0 0 -4 1 5 3 0 0 0 0 0 0 1 1 -1 1 0 1 0 1 2 0 -2 0 1 0 0 1 0 1 1 1 1 -1 1 4 1 4 0 1 0 -2 1 0 1 0 2 0 0 1 1 5 0 1 1 0 2 1 0 0 3 0 1 -1 0 0 1 1 -1 0 -1 0 0 -1 -3 1 1 2 0 0 3 1 -1 1 1 0 -6 -1 0 1 0 0 0 1 7 0 0 1 0 2 3 -3 2 1 1 -4 0 -1 -1 0 0 0 1 3 0 1 6 3 2 -3 -2 1 0 0 1 1 0 0 2 1 0 -5 0 0 1 1 2 0 -2 1 0 0 1 1 0 1 1 0 2 0 -1 0 0 1 2 1 0 1 0 4 0 1 -1 2 0 0 1 0 2 1 0 2 3 0 1 -1 1 0 -1 1 0 3 1 2 3 0 1 0 0 1 1 1 0 0 -1 0 1 0 1 0 1 1 0 1 -1 0 3 3 0 0 2 -1 1 0 0 0 1 1 0 1 0 1 1 1 2 0 0 0 -1 1 0 0 0 0 0 1 1 0 1 1 0 -1 1 1 1 1 2 0 0 1 1 1 -2 -5 -1 0 0 -1 -1 1 1 1 1 -1 -1 -1 0 1 0 0 0 1 0 2 1 0 0 2 1 -2 -1 0 -1 1 1 1 -1 0 0 0 0 0 -1 1 1 0 -1 0 1 8 2 -1 2 1 1 1 0 1 1 1 -4 0 0 1 0 1 0 2 3 1 0 -1 1 -3 
1 0 0 -5 -2 0 1 0 0 1 0 1 2 0 1 -1 0 1 1 0 0 2 1 -1 0 1 1 4 0 1 -1 1 0 -1 1 1 -4 0 0 1 1 1 1 1 0 0 0 0 0 -1 2 -2 1 0 1 1 -2 0 1 0 0 0 0 2 1 1 1 1 1 1 1 -2 3 -2 -1 1 1 4 1 0 3 2 0 0 -1 0 0 -1 -1 1 0 4 0 0 0 2 1 -2 0 -1 -1 2 -1 1 0 1 -1 0 -1 1 1 1 0 0 0 -1 -1 1 0 3 1 1 0 -1 1 1 1 1 0 -1 1 0 4 0 0 1 0 -1 1 1 0 1 1 1 0 1 0 1 1 1 1 1 0 0 1 2 0 1 1 0 0 -1 1 1 0 0 -2 1 1 0 1 0 1 0 1 0 1 0 0 0 1 0 1 1 1 -1 0 -1 0 0 0 1 0 1 1 -4 0 2 0 1 0 1 0 0 -2 7 0 1 0 1 0 0 0 0 0 1 7 2 0 0 0 0 0 1 0 1 1 2 1 1 0 1 1 2 -1 0 0 0 1 1 -5 1 0 3 -1 0 -1 2 0 0 1 1 0 0 0 0 1 1 0 1 0 1 0 0 0 0 -2 0 1 10 1 3 2 0 1 0 1 -1 0 5 1 0 2 2 2 1 0 1 0 1 1 1 0 0 1 1 0 1 -1 1 1 1 1 -2 -1 0 0 2 8 0 -4 1 5 0 0 1 0 -1 0 0 -3 1 1 1 -3 0 0 -1 1 1 1 1 1 0 -1 -1 1 -1 -4 2 1 0 -2 0 2 2 1 -1 1 2 1 2 0 1 0 1 0 0 1 1 1 1 0 1 0 0 7 1 2 0 2 1 1 0 1 0 0 0 1 0 -1 1 0 1 0 -1 0 0 1 -1 1 0 1 0 1 3 1 -2 1 1 0 -7 -2 0 -4 0 1 0 0 2 0 1 4 1 0 -1 0 0 0 0 0 1 0 2 0 0 -1 1 0 2 0 0 0 1 0 1 1 1 0 0 -1 1 0 1 -1 0 1 0 0 0 1 -1 0 0 0 0 0 1 0 1 0 1 -1 0 -1 0 2 1 0 -2 4 9 2 0 1 8 6 1 0 0 0 2 0 1 1 0 0 5 3 5 1 1 0 1 0 0 1 1 0 0 0 2 0 4 6 1 0 0 0 1 -1 0 0 1 0 0 -1 -5 1 1 1 1 2 1 0 0 1 2 1 3 1 0 0 0 -5 0 0 0 1 1 -1 1 1 0 0 1 -1 1 1 1 0 1 -2 -1 1 1 0 1 0 1 0 -1 0 -2 0 1 1 0 0 -3 1 1 -1 -1 1 3 0 1 1 1 -1 1 1 0 0 -1 0 0 1 2 1 1 1 0 5 1 1 0 1 2 0 1 0 1 0 1 2 1 -3 0 1 2 0 0 1 1 0 0 1 1 1 -1 0 0 1 0 1 0 1 0 0 -1 1 -3 1 0 2 0 0 0 
8 2 0 2 -1 0 -2 0 1 0 1 1 1 -1 0 -2 1 -1 0 1 2 0 2 0 1 1 0 0 0 3 0 -3 1 1 2 1 0 -1 5 1 0 0 1 1 1 0 0 0 1 -1 0 1 2 2 1 0 2 1 -1 -1 0 0 0 0 0 1 1 0 -4 1 0 -1 -1 2 -2 1 0 0 3 0 -1 1 -1 1 0 0 1 1 1 0 3 0 0 0 0 1 0 0 0 -2 0 1 0 1 1 0 0 0 0 0 0 1 0 -1 -1 1 0 1 0 2 0 -2 2 1 0 -1 0 2 1 0 0 0 0 1 0 6 1 1 1 1 0 1 1 0 1 1 0 1 4 0 -1 0 1 0 1 -1 0 -1 1 0 -2 0 0 1 0 0 0 1 0 0 1 -1 1 0 0 0 0 0 1 -3 -1 -1 -1 0 0 3 -1 1 2 0 0 0 1 3 0 1 1 1 0 1 0 0 0 0 0 0 1 0 6 1 1 -1 0 0 1 1 1 -3 1 1 1 0 -3 0 0 0 3 0 0 1 -1 0 0 -1 0 0 1 0 0 0 0 0 0 0 0 0 5 0 -1 1 0 0 0 -1 1 0 2 -1 0 2 0 0 0 -1 3 0 -5 0 0 0 -3 0 0 -1 1 2 0 0 0 1 2 2 -2 0 4 1 -1 0 1 1 1 1 -3 -3 0 2 0 -2 1 2 1 1 0 -1 0 0 -2 -2 0 1 0 -3 1 1 -1 0 4 1 1 1 1 0 2 1 0 2 1 1 1 0 3 4 1 -1 1 0 1 8 0 1 0 -1 0 0 1 0 1 1 0 0 0 0 2 -2 0 1 0 1 -1 -3 0 0 2 0 1 1 1 1 2 0 1 1 -1 0 1 0 1 0 -2 1 -1 1 0 0 0 1 4 1 0 0 1 0 0 1 1 7 1 2 0 -2 -4 -1 1 -1 1 -4 -6 -4 0 -2 -1 3 1 1 1 0 0 0 1 6 1 5 0 1 -1 1 1 0 1 -1 -1 1 1 -1 1 4 0 0 0 -4 -4 -1 1 0 -3 0 1 0 -1 -1 1 -1 1 -1 2 0 0 4 0 1 0 0 0 -1 0 1 1 1 1 0 1 1 1 2 1 1 1 4 1 0 0 1 1 1 -1 1 1 1 4 1 0 1 1 0 0 1 1 -1 0 0 1 0 1 1 7 0 0 0 2 3 0 1 1 0 -3 1 1 0 1 2 1 0 1 1 1 1 4 3 1 7 1 1 0 0 0 0 2 1 -1 0 -1 0 0 1 1 -1 1 0 1 0 1 -3 1 2 0 0 0 0 1 1 0 1 0 0 1 0 -2 1 0 -1 -6 -1 -1 -5 -1 0 0 1 0 0 1 2 0 0 0 1 0 0 1 0 -1 0 0 1 1 3 0 0 2 1 1 -1 1 1 0 1 0 -2 0 1 -1 1 0 1 0 1 1 0 1 1 1 1 0 0 0 -2 0 0 2 1 1 1 2 0 -2 1 1 -2 -2 1 
3 2 -2 -2 0 0 1 1 0 2 0 1 2 -1 1 4 0 0 0 1 1 1 0 0 0 1 0 0 2 1 1 0 1 1 0 0 0 -1 0 0 0 1 0 1 0 -1 1 0 2 1 0 1 0 1 1 1 4 1 -6 -5 1 1 -1 -1 0 0 1 1 -1 -1 2 1 0 1 -1 -1 1 0 0 0 0 1 -1 1 0 -1 1 1 0 0 0 0 0 2 2 7 0 -1 0 0 1 0 0 -1 2 1 1 1 1 0 -1 0 -1 1 0 3 1 2 4 1 0 0 2 -1 1 0 1 1 0 0 1 0 1 0 0 0 0 0 1 1 2 -2 0 2 0 1 2 0 0 -6 0 4 1 0 0 0 0 2 0 0 0 1 0 0 0 0 0 0 1 1 2 1 0 0 2 0 0 -1 1 -1 2 1 1 1 0 0 0 0 0 5 0 -1 1 0 4 0 0 1 0 -1 -4 1 0 1 0 1 0 1 5 2 1 0 0 1 1 1 1 -1 1 -1 -1 -1 -1 -2 -3 2 1 2 0 1 -5 1 0 2 1 2 0 -1 1 0 1 -1 1 0 0 1 1 1 1 0 3 -2 1 0 2 1 2 -1 -3 0 1 1 0 3 1 1 1 0 0 2 -1 1 0 0 1 0 1 -1 1 3 -1 2 0 1 1 0 1 1 0 0 1 -1 0 0 1 0 -1 -1 0 0 0 -7 0 1 -1 0 -1 0 1 1 0 0 0 0 1 1 2 1 0 -4 0 0 0 -2 -4 2 -1 4 1 1 1 1 1 1 0 -2 0 1 6 0 1 4 0 1 0 1 0 2 -1 0 1 -1 1 -1 0 0 1 7 1 -1 1 1 0 2 1 0 1 -1 0 2 0 5 -5 1 7 6 1 2 1 2 -1 1 1 0 0 0 2 4 0 0 1 0 0 1 3 0 1 -1 0 1 0 0 -3 0 0 1 0 1 0 0 0 1 -1 2 1 0 2 1 1 2 0 1 1 1 2 1 0 1 1 0 0 -1 1 1 1 1 0 1 0 2 1 0 0 0 0 0 1 0 0 0 -1 -1 3 0 -2 -1 1 5 -1 0 0 0 0 1 1 -2 -1 0 0 3 1 1 1 3 1 0 0 0 1 0 -1 0 2 0 0 0 1 1 1 0 1 1 0 -1 1 1 1 1 1 0 -1 0 0 1 1 0 1 0 1 0 1 -1 1 0 -1 0 0 3 5 0 0 1 3 -1 0 1 2 2 1 1 1 0 -1 1 0 1 -1 1 0 -4 -3 -1 0 0 1 1 0 -3 -4 0 -5 0 -1 0 0 1 0 0 1 1 0 0 0 0 6 0 2 1 1 -2 -1 1 -2 -3 -2 -1 2 2 2 1 -2 0 0 0 0 0 0 1 -1 1 -1 0 0 0 2 0 0 1 1 0 0 1 1 -1 1 0 1 0 -1 0 1 0 0 0 1 1 2 6 2 1 1 0 0 3 1 -1 0 1 -1 -1 0 1 0 0 0 3 1 1 3 3 
0 0 1 0 -1 -3 0 0 -2 1 1 0 1 -1 1 0 0 2 -1 1 1 0 -1 1 0 1 0 4 4 0 1 1 0 0 0 1 1 1 -2 1 -1 1 0 -1 0 1 0 -2 2 1 0 0 -1 1 0 1 0 0 0 0 0 1 -1 0 1 0 -1 0 -1 -3 0 1 0 0 1 -1 0 0 1 -1 1 0 -1 0 1 1 0 -1 -2 1 2 1 1 1 0 1 -1 1 0 -1 3 2 0 1 4 0 1 0 2 1 4 0 0 0 2 0 1 1 1 1 -1 0 0 1 -1 0 0 0 1 -1 0 1 2 0 0 0 1 0 1 1 1 0 0 1 0 0 2 0 1 0 0 -1 2 1 2 1 0 0 0 0 -1 -6 1 2 1 0 0 0 0 0 -1 0 2 0 0 1 1 1 0 1 0 0 0 0 -1 0 1 0 0 1 1 1 1 0 -1 -1 -7 -2 1 1 -1 1 -1 2 3 0 0 0 1 1 1 0 2 2 0 0 1 0 0 0 0 0 1 1 1 1 2 2 1 1 2 0 0 0 1 1 1 0 -4 0 0 1 0 -1 -2 0 1 -1 2 2 -1 0 1 0 0 0 1 1 0 0 0 1 1 0 -1 0 1 2 3 0 0 2 1 1 1 -1 -3 0 0 -1 -1 1 1 0 0 1 2 1 -1 0 1 2 1 -1 0 -1 1 1 4 0 0 0 2 1 -1 -1 1 1 0 -4 0 1 1 0 -1 0 0 0 0 1 1 0 0 -1 1 0 1 0 1 1 1 1 0 -1 -4 0 0 1 2 0 1 2 2 1 0 1 1 0 -1 0 -1 -1 0 2 1 0 -1 0 -3 0 1 1 1 0 -1 1 0 -3 -1 2 1 1 0 1 8 10 2 1 -1 0 1 -1 -1 1 2 0 0 1 0 -1 -1 2 1 0 0 1 2 -2 1 1 1 0 -1 0 -1 -1 -1 1 0 1 1 5 7 0 0 1 -3 0 2 0 2 -1 -1 1 1 1 0 1 2 -8 -2 1 4 2 0 1 0 2 0 1 0 1 1 1 0 1 2 0 -1 1 1 2 0 5 0 0 1 1 0 2 0 1 1 1 1 -1 1 1 1 1 1 -1 2 0 0 0 0 1 1 0 1 -1 1 0 0 1 6 0 0 0 2 -1 -3 -5 0 0 -1 1 1 1 -6 -1 1 -1 1 0 -4 0 -1 1 -1 2 0 0 1 0 0 0 1 1 1 -2 1 0 1 1 0 -1 0 1 0 1 -1 0 0 -1 1 0 1 0 0 2 0 0 1 0 0 -4 0 -4 -1 1 -3 1 4 1 2 4 0 1 0 0 -1 1 4 0 0 0 0 0 4 1 0 -1 -2 0 0 0 0 2 -1 1 0 0 -1 0 0 1 -2 0 -1 2 2 -1 2 0 4 0 1 -1 0 0 0 0 1 0 1 1 1 2 -1 -2 0 -1 4 0 1 0 0 1 1 0 1 0 0 1 -2 2 3 1 2 0 1 1 1 0 -3 0 0 2 
0 0 1 0 0 -3 0 0 -1 1 2 1 5 0 -2 0 0 1 0 1 1 0 1 0 0 0 0 0 0 2 1 0 0 -1 0 2 2 0 0 -1 1 -1 0 1 0 -3 1 -1 2 2 0 1 0 1 0 0 0 1 2 0 -1 2 -1 1 2 2 0 2 0 1 0 1 0 -1 1 1 1 0 1 0 0 -2 -2 0 1 -3 1 1 0 1 -1 1 0 1 1 1 4 0 0 1 0 -1 1 1 0 -1 1 3 0 1 1 2 1 -4 0 1 0 0 0 0 1 0 -1 1 0 0 1 0 -4 1 1 -1 1 0 0 1 1 1 3 2 0 0 3 0 1 -1 2 -4 1 0 1 -1 0 0 1 1 1 1 0 1 0 1 1 0 -1 0 -7 -6 1 2 0 0 0 1 1 -1 0 0 2 1 1 0 0 0 -1 1 0 1 0 0 0 1 0 1 -1 -2 1 0 0 0 1 -1 1 -1 1 1 -1 1 4 1 0 1 1 0 0 1 0 1 3 0 1 0 -1 1 -1 1 0 12 9 0 0 1 1 2 1 0 0 0 -1 1 1 0 0 0 1 3 2 0 -4 0 0 0 0 0 2 2 0 1 1 0 0 0 5 0 0 -1 1 0 1 0 -1 1 0 2 2 -1 7 3 1 0 1 1 1 1 0 1 0 2 1 1 6 0 0 0 -2 0 -1 0 1 0 0 1 -2 -1 4 1 1 1 0 -1 3 5 1 0 -1 0 0 1 -2 2 1 0 1 0 0 1 3 2 0 1 0 0 0 1 1 0 2 0 -1 -4 -5 2 1 1 2 1 1 2 0 -1 0 -1 1 0 1 0 0 1 -1 0 0 -1 2 1 2 -1 1 -1 -1 -1 -1 -1 0 1 0 6 2 0 0 0 1 0 -2 2 0 1 1 -2 -1 0 2 0 1 1 0 0 1 0 -2 -2 -1 1 1 0 0 -1 -7 0 0 1 1 1 1 1 0 2 0 2 0 -2 1 1 0 0 -3 1 -2 1 1 0 0 1 1 1 1 2 1 0 0 0 1 0 0 1 -1 2 -1 1 0 1 1 1 1 0 1 1 1 1 2 0 -1 0 3 0 0 1 4 1 0 1 -1 -3 0 0 0 1 0 1 1 -1 1 -1 3 0 1 1 1 0 1 1 -1 1 0 1 4 1 0 1 -2 1 0 0 1 1 5 4 1 0 -3 0 1 6 0 -4 1 1 1 1 -1 1 0 1 1 1 0 2 1 2 1 2 0 2 -1 0 0 0 2 0 -1 1 -1 0 1 1 0 1 1 1 -1 0 1 0 0 0 1 4 1 1 0 0 1 1 -1 0 -1 1 -1 -1 1 0 2 2 1 2 0 -1 -2 0 0 1 -2 -1 0 0 0 0 0 0 0 1 3 0 0 1 2 0 1 4 0 2 0 1 2 5 1 0 3 0 1 1 -1 1 1 1 2 -1 1 1 3 -1 1 0 0 0 0 1 0 0 1 3 1 -3 -1 0 1 0 1 1 0 0 
0 0 1 1 0 -1 0 0 3 1 -1 0 3 0 0 0 1 0 0 0 0 0 2 1 0 -3 2 3 1 0 0 0 1 0 0 1 0 1 0 0 1 1 0 -1 1 -2 -1 0 0 0 0 0 0 -2 0 0 0 0 0 -1 -2 0 1 1 1 0 -1 1 1 1 0 1 1 0 1 0 0 1 3 2 0 1 -1 1 1 -1 0 -1 1 1 2 1 0 -1 0 0 0 1 1 1 0 -1 1 1 0 0 4 0 1 0 -1 0 0 0 2 4 0 -1 0 0 0 0 0 -1 1 1 -4 0 0 1 1 0 0 0 0 1 0 0 1 4 0 0 -1 0 2 1 1 7 1 4 0 1 -1 1 0 1 0 -1 0 0 1 2 2 1 0 0 -1 0 0 0 1 0 0 0 -1 -1 0 1 0 1 0 1 2 1 0 -1 2 -1 0 0 -2 0 1 0 0 1 1 1 1 1 2 1 2 0 1 -6 0 1 2 0 -3 1 0 2 1 0 1 4 1 2 1 1 -1 0 2 1 0 1 3 2 0 5 1 1 0 0 3 1 0 -2 -1 0 0 0 -1 1 0 0 0 0 1 1 1 1 2 -1 1 1 4 1 0 -1 2 0 -1 1 0 0 0 0 1 1 1 0 0 1 1 0 1 -4 1 1 1 1 -1 -3 0 0 0 1 3 0 0 1 -1 0 1 3 1 1 1 1 0 0 0 0 -3 -2 0 1 1 -2 1 -1 0 0 1 2 -1 0 2 2 3 -1 1 2 0 1 0 0 0 1 -1 0 0 0 1 3 1 0 -2 0 -1 -1 0 1 1 0 2 1 -1 1 1 0 0 0 -1 -1 1 0 -2 0 -1 -1 1 0 0 1 0 2 1 2 2 1 1 0 2 2 0 1 1 0 0 -2 1 1 0 0 0 1 1 -2 1 -1 1 0 1 1 1 0 3 0 0 0 0 2 2 -1 1 1 0 1 0 0 1 1 2 6 1 1 6 0 1 1 0 0 0 1 1 0 1 0 0 2 0 1 0 0 0 1 1 -2 0 0 0 -1 1 2 0 1 1 4 0 1 1 0 -1 0 0 0 -1 0 -2 0 0 0 1 0 1 1 1 1 0 1 0 0 1 2 0 -5 -4 -1 1 1 1 0 0 0 0 1 1 0 0 1 0 2 5 -3 0 1 -1 1 0 1 1 4 0 1 0 0 0 1 0 0 0 -1 1 1 3 0 0 0 3 1 0 -1 1 0 -1 0 1 0 0 3 2 1 0 1 0 1 0 0 0 0 1 0 2 3 -2 2 0 0 0 0 1 1 1 1 0 -1 0 0 3 1 0 1 1 4 1 2 0 0 0 0 -1 1 -1 1 0 1 0 0 1 0 0 -1 0 -1 0 0 1 -3 1 6 7 1 0 2 1 0 0 3 1 -1 2 1 1 0 1 1 -2 0 0 6 1 1 2 2 0 -5 -1 1 0 -2 1 2 0 1 1 1 0 1 0 0 0 3 5 1 0 1 
0 1 0 3 -2 2 0 0 9 1 0 0 1 0 0 0 0 0 1 -2 -3 0 1 1 0 -1 1 1 0 1 1 1 1 0 2 0 1 1 1 -1 1 1 0 0 0 1 0 1 0 1 0 -2 1 3 1 1 1 0 1 1 -2 -2 1 3 2 1 -1 1 1 0 1 1 1 1 2 2 0 1 0 -4 0 0 0 0 1 -1 1 1 2 1 1 1 1 0 -1 -1 -3 0 -1 -1 -1 0 -1 0 0 0 2 0 1 0 -1 0 -2 1 0 0 0 -1 -3 -1 1 0 0 1 1 0 -1 1 0 0 0 1 1 0 1 1 0 1 0 0 2 2 0 0 1 0 2 1 1 2 1 0 0 3 1 1 1 -4 1 1 1 1 0 2 0 0 1 0 0 4 0 -1 2 1 -1 0 1 0 0 2 0 0 1 0 0 -1 0 0 1 0 0 0 -1 -1 0 1 4 5 0 0 0 0 1 1 0 -1 0 -1 0 -2 0 0 -1 1 0 0 0 0 0 1 3 0 0 0 2 1 0 2 0 1 3 0 0 -1 -2 0 0 1 0 1 5 0 1 1 1 1 0 1 1 1 0 1 -2 1 0 -1 1 1 -4 1 0 1 5 2 0 0 3 1 -1 1 0 1 0 1 1 0 1 0 0 0 0 0 0 1 -1 0 2 3 1 1 0 -2 0 1 1 -4 -4 0 4 -4 -1 0 1 0 1 0 0 1 1 -1 -1 -1 0 1 1 1 1 1 -2 0 1 0 2 0 1 1 1 1 0 1 0 0 2 1 3 1 -1 1 6 1 1 0 0 0 0 0 1 1 1 -1 1 0 1 0 1 2 1 0 0 0 0 1 0 -2 5 1 2 0 1 1 1 1 -1 1 2 -1 3 1 1 1 0 -1 -1 1 2 3 1 4 0 1 1 1 1 2 1 1 1 0 0 1 -2 0 1 0 2 2 0 0 0 3 0 1 1 2 0 2 1 4 0 0 -2 1 1 5 1 0 0 1 0 0 0 -6 -2 0 0 1 0 0 1 0 1 -2 1 0 1 1 -1 0 0 1 0 0 1 0 1 1 -2 0 0 -1 1 0 0 -2 3 1 1 -1 1 1 1 0 0 -1 1 -2 0 0 1 -1 1 -2 0 0 -1 2 1 1 0 -4 1 0 1 0 1 1 0 -2 0 0 2 1 0 1 0 0 0 -2 -1 0 0 1 0 0 1 0 2 1 2 0 1 1 0 1 -1 0 1 1 -4 0 0 0 1 3 5 2 2 1 -1 -1 -1 0 0 0 1 -1 -2 1 2 -2 1 -1 1 0 0 0 1 0 0 1 1 3 1 0 2 0 1 1 0 2 2 -1 0 -4 -6 0 0 0 0 0 1 2 0 1 0 -4 -2 0 1 0 1 1 5 1 1 0 1 1 0 0 0 1 0 0 -1 -3 1 1 -1 1 1 0 1 3 0 1 5 0 1 -3 0 0 0 -1 0 0 0 0 2 0 0 0 0 0 -1 1 6 0 0 1 
1 1 2 0 2 1 2 0 2 2 0 0 0 -1 -2 0 0 1 0 4 0 0 0 1 0 -1 1 1 2 0 1 0 2 0 0 0 -1 1 0 1 1 1 1 1 0 -1 0 1 1 2 2 1 2 5 4 1 1 1 0 1 0 1 1 1 1 -1 0 1 1 1 0 0 -1 -1 1 -2 1 1 4 0 -2 1 1 1 0 0 1 1 -2 -1 0 1 2 0 0 0 2 0 -2 0 1 1 1 -1 -5 0 0 0 0 0 3 0 1 1 0 0 1 1 0 1 1 0 -3 0 0 1 -3 1 0 0 1 1 0 0 1 0 2 0 0 0 3 1 1 2 2 -1 0 -2 -1 0 0 -1 2 1 0 1 3 0 0 -1 0 0 -1 1 1 1 0 1 2 0 2 0 1 0 1 0 0 -1 1 7 2 1 0 0 0 3 1 1 1 3 0 0 1 0 1 -2 1 0 0 2 0 1 0 1 0 1 1 0 0 -1 1 0 0 0 1 -5 0 -1 1 0 -4 0 1 -1 2 0 0 2 2 1 0 1 0 1 -1 -1 -4 1 3 1 1 1 -1 5 5 1 2 0 1 1 -1 0 0 0 0 1 0 0 0 1 0 2 2 1 1 0 3 -1 0 1 -1 -1 -1 0 -1 1 0 0 -2 -1 1 0 0 1 1 -1 -1 -1 0 1 0 2 0 1 2 0 -1 1 7 5 1 0 0 1 4 0 0 1 2 0 0 5 2 0 -1 -1 -4 0 -2 0 1 1 0 -1 2 0 1 0 1 3 2 1 2 0 0 1 3 2 2 0 0 -1 1 2 0 0 2 2 2 1 2 2 2 0 2 0 1 1 0 0 0 0 -1 1 1 2 0 1 0 0 0 1 1 0 0 1 1 1 1 0 1 2 1 0 1 0 0 0 0 1 4 1 -1 -6 -8 2 1 2 1 -1 1 1 2 1 0 0 1 -1 0 3 0 0 0 3 2 1 1 1 0 2 2 0 1 0 -1 -1 3 0 1 4 1 0 0 0 2 0 1 3 -4 -6 -1 0 1 0 0 0 0 1 0 2 1 1 2 0 0 1 1 0 1 2 -1 0 0 1 2 0 0 0 1 2 3 2 2 1 1 0 2 0 -3 0 1 0 0 1 1 2 1 0 0 -1 -1 0 -1 1 0 0 4 0 0 1 -1 -1 0 0 1 1 0 0 1 3 0 0 1 0 -4 2 0 5 2 -1 0 0 3 1 2 1 -1 0 -4 0 0 1 0 -1 0 0 0 0 1 1 -1 0 0 0 -2 -6 1 1 2 0 -1 2 1 0 1 0 0 -1 1 0 1 2 1 1 0 0 0 -1 1 -1 1 1 1 1 0 0 1 1 0 1 0 1 2 0 -3 -3 0 0 -1 0 -2 0 1 1 -1 0 2 -1 1 -1 2 0 1 4 0 1 -1 -5 0 0 2 1 0 2 -1 2 1 1 -1 1 0 0 -1 2 1 0 -3 0 1 -1 0 0 1 1 0 0 0 0 2 1 
0 0 1 2 0 3 1 -1 0 1 0 1 0 0 0 0 1 -1 0 -3 -6 0 -1 0 7 1 1 1 0 0 0 1 0 0 0 0 0 0 1 0 1 0 2 7 1 4 0 -2 1 1 2 0 1 1 2 1 1 0 0 1 1 1 1 1 2 -1 -1 3 3 1 3 2 0 -1 0 0 2 -1 1 0 0 0 1 0 1 -4 1 -2 -1 0 0 -1 -1 0 0 1 1 0 0 1 0 0 0 0 -4 0 0 -1 0 0 0 5 0 0 -1 1 0 2 2 -1 0 0 -1 0 1 0 0 0 2 0 1 0 1 0 -1 1 -1 -1 0 0 1 -1 1 0 5 1 0 0 0 0 1 0 0 -2 1 1 0 0 0 -1 3 0 0 1 1 -2 0 0 2 0 0 0 4 1 -1 0 0 -1 1 1 1 0 -5 -1 5 1 0 0 1 0 1 1 5 0 0 0 0 0 0 0 2 0 1 -1 2 0 1 0 0 2 1 1 2 0 0 -4 0 -1 0 1 1 0 1 2 1 -1 1 1 3 1 2 1 1 -1 0 1 -1 1 1 1 1 1 1 1 1 2 1 1 -1 0 1 1 -2 2 4 0 1 2 1 0 2 0 1 0 0 1 1 -1 0 2 0 1 1 0 0 1 0 -1 0 0 3 0 0 1 1 1 -1 1 1 1 1 1 0 2 6 2 0 -1 0 0 2 0 -3 1 1 -1 1 0 1 1 6 2 -1 -1 1 1 0 0 -1 -1 1 1 0 1 0 1 3 1 0 0 2 2 3 7 2 0 1 6 1 1 5 0 2 1 0 0 1 1 6 5 2 1 0 1 0 0 0 2 0 -5 0 0 0 0 0 1 2 0 0 -5 1 -1 0 1 0 -1 0 -2 -2 1 -1 0 1 1 0 -4 1 1 2 1 0 0 -1 0 0 0 0 0 1 0 1 -1 1 0 1 1 0 -4 -1 2 -1 1 5 2 1 1 1 1 0 0 0 0 0 1 1 0 0 0 0 0 -1 3 -1 -2 0 0 0 -1 0 0 1 -5 -1 -1 1 2 0 -1 -1 1 1 -1 1 2 0 0 0 0 0 -1 -1 1 1 0 1 0 3 -1 0 0 1 1 2 1 1 1 2 0 1 0 2 1 0 0 2 0 0 0 3 0 2 3 0 0 1 0 1 1 0 1 2 0 -3 0 0 3 1 0 0 0 -4 0 1 6 5 0 1 5 2 -1 -1 -2 0 1 4 1 1 0 -1 -4 0 0 0 1 0 0 1 0 2 1 -2 1 0 0 1 0 2 2 1 0 3 1 4 0 -2 0 0 1 0 -2 1 1 0 0 2 1 0 1 0 1 1 0 0 1 0 0 0 1 1 1 0 -2 1 0 0 1 -5 0 4 0 1 0 1 1 -1 1 0 -3 0 2 0 1 1 4 1 1 -2 0 -1 -1 0 2 2 0 -1 0 2 1 1 0 1 1 0 0 0 0 -1 1 5 0 1 1 5 2 3 1 -1 0 1 0 
-4 -1 0 0 1 1 1 -1 1 1 0 2 0 -5 0 -1 1 0 -2 -1 -1 0 0 1 0 0 2 0 1 2 0 1 -1 0 2 3 0 0 1 2 1 1 0 2 4 0 1 1 -1 0 0 0 0 3 1 1 1 1 1 0 2 0 1 0 1 3 1 0 1 0 -1 -1 0 1 1 5 1 1 0 1 1 3 3 1 1 0 0 0 1 -1 1 0 0 1 2 0 0 1 1 0 -1 1 -1 -2 0 4 0 1 0 0 -1 1 -1 -3 0 0 0 1 1 1 0 -6 -7 1 0 -2 -1 1 0 1 0 1 1 1 0 1 0 1 0 1 -5 3 2 4 1 0 -2 0 0 -3 1 1 1 0 0 2 1 1 0 2 0 1 1 -1 1 1 1 1 2 3 1 1 2 2 1 1 0 -4 0 -1 1 0 0 0 1 1 0 2 0 1 0 0 -1 -1 0 1 1 1 2 1 1 1 1 1 0 1 2 1 0 0 0 0 1 1 1 1 1 1 1 1 1 0 0 1 0 -1 1 1 1 1 0 0 0 1 2 -1 2 0 1 4 0 1 0 -1 0 -2 0 0 1 0 0 0 4 1 4 1 5 1 2 1 0 1 3 0 0 5 0 1 2 0 0 -1 1 0 1 0 0 1 -1 -1 -3 1 -1 -5 0 0 0 1 0 -4 0 0 2 4 2 0 0 1 1 -1 2 0 0 0 1 2 0 1 4 1 0 0 0 1 1 2 -1 1 -1 1 0 2 2 2 1 0 1 1 1 2 0 1 1 0 0 1 1 1 1 1 -1 1 1 1 1 1 0 0 -1 0 -1 -1 0 -1 0 2 0 1 0 2 1 0 0 3 -3 0 2 1 1 0 0 1 0 0 1 0 0 -1 -1 1 0 0 -1 1 0 0 0 2 1 0 0 0 1 0 1 -1 0 1 0 0 -4 -2 -1 -1 1 0 1 1 -1 0 0 0 0 1 1 0 2 0 1 0 1 0 0 1 -2 1 0 1 0 0 0 -1 0 0 -1 -1 2 0 0 -3 0 -3 0 -3 1 1 0 4 1 1 1 0 1 2 0 -4 -2 0 -3 -1 -1 1 1 1 1 1 1 1 0 -1 2 1 0 0 -1 2 0 0 0 1 4 0 1 1 1 0 0 1 1 -2 1 1 2 -1 1 1 1 0 1 2 0 -1 0 1 0 1 0 0 0 -1 0 1 0 0 0 2 0 0 1 1 -3 1 1 1 0 0 0 1 0 1 0 0 0 0 4 1 0 0 1 1 1 0 0 0 0 0 1 1 0 0 2 1 -1 1 1 0 0 1 1 0 -4 -2 -1 -1 0 1 -1 -1 -3 0 1 -3 0 -4 -5 -2 1 0 0 0 1 -1 -1 1 0 2 1 0 0 2 0 1 1 0 1 0 1 -1 -3 0 1 2 1 1 1 3 1 -1 1 2 0 1 0 1 -1 0 0 1 1 4 1 -1 0 1 2 -4 0 2 1 1 0 1 1 1 0 1 1 0 1 0 
0 1 1 0 -1 3 6 2 0 1 1 1 0 0 -1 2 0 0 1 1 0 1 -1 0 1 2 1 0 0 0 1 0 0 0 1 0 1 0 0 1 1 0 0 1 0 0 1 1 1 0 0 1 1 0 1 0 3 1 -1 0 1 1 0 0 1 0 1 2 4 1 0 -1 0 1 1 -1 -1 0 2 2 1 2 5 1 1 -1 1 0 1 2 0 1 0 1 -2 0 0 1 -2 0 1 0 -1 0 1 -1 0 -1 1 1 0 0 -8 0 1 -4 1 2 -1 1 1 -2 -1 1 0 -1 0 1 1 0 -1 1 -1 0 -1 0 0 0 1 2 2 2 0 1 0 1 0 1 0 0 1 1 0 0 4 0 0 0 -1 1 2 1 2 0 -1 1 0 0 0 1 1 2 -2 2 -2 0 1 1 1 1 4 0 1 1 1 1 0 1 -1 0 0 0 1 0 0 0 0 0 1 1 1 1 -1 -1 0 0 3 1 1 -1 1 1 1 4 2 -1 1 0 3 1 2 0 0 1 1 0 0 0 -1 1 0 0 2 5 1 0 0 0 0 1 2 -1 -2 0 -1 0 0 0 1 1 2 1 -2 -2 1 1 1 1 1 0 1 2 -1 -1 2 1 1 0 1 1 1 0 0 0 0 2 1 0 0 -1 0 0 0 -3 -2 1 3 1 -1 0 0 -1 1 0 1 0 -1 1 0 0 -1 0 -5 1 1 1 -1 3 1 0 2 1 0 0 0 1 1 -1 1 0 0 2 1 1 0 1 1 9 1 1 0 2 0 0 1 3 1 4 2 3 0 0 0 -1 -1 0 -6 1 0 -1 0 1 1 0 2 -1 1 1 1 0 0 1 1 0 0 1 4 6 0 2 2 0 1 1 -1 1 0 1 5 1 1 0 2 -1 0 -2 1 1 1 3 -2 0 0 1 1 0 0 0 0 -1 0 1 0 0 1 5 3 0 0 1 1 0 0 1 0 1 2 0 0 0 1 0 1 0 0 1 2 1 0 1 -2 -1 1 0 1 -1 2 0 1 0 0 0 1 0 1 2 7 0 1 -1 2 0 -1 0 -1 -2 -2 1 -3 -3 -6 -2 1 0 0 0 0 -2 2 0 -1 4 1 -1 -1 0 0 0 0 -3 -4 -5 -1 1 1 0 -2 0 2 3 -2 -2 1 0 1 0 1 1 0 0 1 2 0 -1 -1 0 0 2 3 1 1 0 0 0 2 1 1 0 1 0 -1 1 -4 1 0 0 -2 -1 0 0 1 0 0 2 1 0 0 -1 1 0 1 1 -1 0 -3 0 4 -2 1 -1 0 0 -1 0 0 1 -1 0 1 -1 1 -2 0 -5 0 0 1 1 1 2 2 0 -1 -2 0 1 0 -4 0 0 2 1 0 1 1 1 0 1 2 1 0 0 1 0 1 1 1 0 3 1 3 2 1 0 0 1 0 0 1 2 1 1 1 -3 0 0 1 1 0 2 1 4 0 2 1 -2 -1 1 -1 0 1 -1 0 1 0 1 0 -1 0 0 
1 1 0 1 1 1 3 -1 1 1 1 -3 -4 -1 0 1 0 0 -1 0 2 0 0 1 1 0 0 2 1 0 0 1 0 3 2 -1 1 0 0 1 1 1 1 1 -1 0 0 2 2 0 0 0 0 0 0 1 1 0 0 0 -1 2 -3 -1 1 0 0 2 0 0 1 0 0 3 0 3 2 0 0 1 1 0 1 0 1 1 2 0 0 1 0 0 0 0 1 1 0 0 0 3 -1 0 0 0 1 1 0 0 0 0 -5 -2 -1 -1 1 0 -1 1 0 2 0 0 1 0 0 2 2 0 0 0 0 1 -2 0 1 0 0 1 2 -2 0 0 1 1 1 0 0 2 0 1 2 1 1 1 1 1 2 1 0 1 0 -2 -1 0 0 1 0 -7 1 0 0 1 0 0 -2 1 1 -1 1 4 3 1 0 -1 1 -1 4 0 1 2 0 0 1 0 1 0 0 2 2 1 -4 0 1 1 0 3 0 -4 0 1 1 2 0 1 0 1 2 1 2 1 0 0 1 1 -1 0 0 2 0 -1 0 2 1 1 1 1 1 1 -4 1 4 -1 -1 1 0 -1 1 1 -3 1 -2 1 1 0 -3 0 0 0 -2 0 2 0 2 0 1 1 0 -6 0 1 0 -1 2 1 1 -1 1 0 0 1 -1 -1 -1 0 2 0 1 1 0 1 -1 1 0 5 1 1 0 2 0 0 -5 -1 -5 3 5 -1 0 0 0 1 1 1 1 1 1 0 0 2 -1 1 2 1 0 4 2 0 0 4 0 0 1 3 0 1 2 1 4 -3 0 0 0 3 2 2 0 1 1 0 -2 0 1 1 1 1 1 0 0 2 0 1 1 1 -1 1 0 1 1 1 1 5 0 0 0 1 0 1 1 1 1 1 0 0 1 -1 -1 0 1 3 1 0 0 0 3 0 -1 0 0 0 1 0 -1 0 0 3 0 0 1 0 0 1 0 0 2 0 0 -2 1 0 1 6 0 -1 1 1 0 1 -1 -1 2 2 0 0 1 1 1 1 1 0 1 0 0 1 1 0 2 4 1 1 -1 0 1 1 0 0 1 0 -5 -1 -5 1 1 1 1 0 1 0 2 -1 0 0 0 0 0 0 -2 1 1 2 -2 -2 -1 -1 -2 1 5 1 -5 -7 -4 0 0 -1 1 0 -1 -1 -1 2 1 0 1 1 0 0 0 0 -2 1 2 4 0 0 0 1 0 6 3 1 0 1 0 0 1 1 0 1 1 1 -3 0 1 0 0 0 1 1 0 2 -1 1 2 0 0 0 -2 1 0 1 -2 -2 1 1 1 1 1 1 1 0 1 1 -1 -6 -5 -1 1 0 -1 -1 2 1 0 0 1 0 0 0 0 1 1 0 -1 1 0 0 1 0 0 1 3 0 -2 1 1 1 -6 0 1 2 3 0 1 1 -3 0 0 1 1 0 0 0 2 0 0 -1 -1 1 -3 -7 -3 1 2 6 0 2 0 -1 0 -1 1 1 1 0 1 -1 1 0 -1 1 0 0 
1 1 2 2 2 0 -1 0 1 5 0 -1 1 1 -1 -1 1 0 1 2 1 1 2 1 0 1 -1 1 3 0 -1 0 0 1 1 1 -3 0 -2 0 0 1 0 1 0 1 -1 0 0 1 0 0 1 2 0 0 -1 0 1 0 1 3 -2 -2 -1 0 0 2 0 0 1 -1 1 2 7 0 0 2 1 0 0 0 1 1 0 0 3 1 1 0 0 1 1 -1 0 0 1 0 0 0 0 -1 0 -1 1 1 0 0 -1 1 0 1 0 0 1 -1 1 1 0 1 0 2 2 1 1 2 1 -1 3 1 0 2 0 0 1 0 0 1 0 1 -3 0 -3 4 -1 1 1 0 -2 -1 2 0 0 1 -1 1 1 3 2 1 2 2 1 2 0 0 0 -1 0 1 1 1 0 -1 0 1 0 0 0 0 1 -1 0 0 0 0 -1 0 1 1 1 0 0 0 1 1 0 0 0 0 -5 0 1 2 -2 -1 1 0 2 1 0 0 0 0 0 2 6 1 2 0 1 1 4 4 0 0 -1 0 0 0 0 0 1 1 2 2 2 0 0 1 0 0 0 0 1 0 -2 0 0 -1 0 2 0 0 0 0 1 -5 -1 0 1 0 2 5 1 0 1 1 1 1 1 4 0 1 -8 -1 1 0 1 3 2 1 0 0 0 2 1 -1 2 9 1 4 1 0 1 1 0 2 1 0 1 1 -1 -1 1 -1 0 1 0 0 0 0 0 0 2 1 0 2 2 0 -1 -1 1 1 0 -1 0 1 0 1 0 1 1 0 2 -1 0 1 -1 0 0 1 2 0 0 0 4 1 0 1 -1 -1 1 1 1 2 1 1 1 1 0 1 2 0 2 1 0 -1 1 -2 0 1 0 0 0 0 -1 2 1 1 -1 1 0 -5 0 0 1 1 1 0 0 0 -1 1 2 1 2 0 0 0 1 1 1 0 0 0 1 -1 6 0 0 2 0 0 0 2 0 0 1 3 1 0 0 1 6 1 1 0 0 0 0 -2 0 1 0 0 0 -4 0 0 0 1 0 1 1 2 2 0 3 -3 0 0 -3 2 3 0 0 0 1 1 1 1 0 2 1 0 1 -4 1 1 0 -1 0 0 1 0 1 3 -1 0 1 2 2 0 0 0 -5 -6 -6 0 0 -1 1 1 0 0 2 2 2 1 -1 0 0 -1 -1 1 0 -1 2 4 1 0 1 0 1 0 1 0 0 0 1 -2 0 1 -1 -1 0 -1 -5 0 3 0 2 0 0 2 0 1 1 1 1 0 0 1 1 0 0 0 0 1 0 1 1 0 0 5 1 1 -1 1 0 -8 0 1 -1 2 -1 -1 0 1 0 1 1 1 1 -2 0 1 -1 -1 2 0 1 1 0 1 0 1 2 1 1 1 -1 -4 0 1 -1 1 0 0 0 0 1 -1 0 1 4 1 0 0 0 0 0 1 -1 2 0 -8 -1 2 6 2 1 0 1 0 0 1 1 0 2 1 0 0 1 0 0 1 1 3 
0 0 1 -2 -1 1 1 0 0 2 0 -3 1 -1 0 0 0 1 5 1 0 1 -2 1 2 1 0 0 2 2 0 1 0 0 1 0 1 2 1 -1 2 0 1 2 1 -1 1 0 0 2 2 1 0 0 2 1 0 1 0 1 1 0 0 0 0 1 1 1 -1 1 3 1 1 2 1 0 1 0 1 0 -1 1 1 0 1 -1 0 0 3 1 -2 1 0 0 1 0 2 1 0 1 -1 0 0 3 -1 1 0 1 2 0 1 0 1 -6 -7 0 1 0 0 0 0 5 0 1 0 2 0 0 1 0 1 2 -3 1 0 0 1 1 -1 0 0 2 1 1 0 -1 0 1 -1 2 4 0 3 0 1 0 -1 1 0 1 1 1 0 0 0 1 0 -1 1 0 0 1 1 2 0 3 -1 2 1 0 -1 2 0 1 1 1 0 0 1 0 -1 -2 0 1 0 -2 1 0 1 0 -1 -1 0 1 0 0 0 0 0 0 3 0 -1 0 1 -2 0 1 0 1 2 0 0 1 0 -1 1 -2 0 0 1 2 -1 -1 -1 1 1 1 0 2 0 1 0 1 1 -1 0 -2 1 0 2 0 1 2 0 2 0 -2 0 1 1 1 0 1 1 1 -4 1 2 1 0 1 0 -1 0 1 0 0 1 1 0 -1 1 1 1 0 0 0 0 1 3 6 2 -1 1 2 1 0 3 0 0 1 1 -1 1 0 -1 0 1 0 0 0 1 1 0 2 1 1 1 0 0 0 -1 0 3 0 6 0 0 2 1 0 0 -1 0 0 2 1 2 2 1 2 0 1 1 0 1 3 1 0 0 1 3 4 0 0 0 1 1 1 1 0 -1 -3 0 0 1 -2 0 0 0 0 0 0 1 2 0 1 -2 0 0 0 0 0 1 0 4 1 1 0 -1 0 0 0 0 1 -1 1 6 0 0 1 1 1 1 1 1 1 -1 0 0 2 0 0 -1 0 2 0 1 2 4 2 1 -1 -1 -3 0 1 0 0 0 0 -2 3 1 0 -3 -3 -1 2 1 1 3 1 1 2 2 2 0 -3 0 0 -1 0 1 0 -1 -6 1 -1 1 0 -1 1 1 1 0 2 1 0 0 0 0 2 1 1 -1 1 0 1 0 2 1 -3 -2 0 0 0 0 0 1 1 0 1 1 -3 0 0 0 -2 0 -2 0 0 1 -2 0 0 0 0 1 1 -1 1 0 1 0 1 1 1 -1 0 -3 0 0 1 0 1 1 0 0 1 0 -2 0 0 1 1 0 0 1 -1 0 1 2 1 1 0 0 1 2 2 7 6 0 0 0 0 2 0 0 -1 0 0 0 0 -2 1 -2 0 0 -4 0 -1 0 0 0 0 1 1 2 1 1 1 0 0 0 0 -1 2 -1 1 1 0 -1 0 -1 1 1 1 3 0 1 0 0 1 1 4 1 1 1 0 1 1 2 0 -1 -3 -1 0 0 5 1 -2 3 1 0 0 0 0 0 0 0 -1 1 1 1 0 0 0 
0 1 -1 0 -1 2 1 0 0 0 1 0 -1 0 0 0 2 0 1 1 2 1 3 3 1 0 0 -1 0 0 0 1 0 0 -1 4 2 1 -4 0 1 2 0 1 1 0 0 0 0 4 0 0 1 0 1 1 1 1 -1 0 -3 0 1 0 1 0 4 0 1 0 1 1 1 1 0 0 1 0 1 0 1 2 0 0 1 1 1 0 0 0 0 -1 0 1 0 0 -1 0 0 0 1 0 -1 2 0 1 1 1 0 -3 3 0 -1 -2 1 0 1 1 1 0 0 -1 1 0 -1 0 1 0 2 0 1 0 0 -4 0 1 0 1 0 -3 0 0 1 0 1 0 -1 0 1 0 1 1 0 0 0 1 1 0 -1 0 0 2 0 1 3 5 4 2 -2 0 1 1 4 0 1 1 -4 0 0 -1 2 0 0 0 0 0 1 0 0 0 1 0 2 -1 0 0 -4 0 0 1 2 -4 0 0 0 0 1 4 1 0 -1 0 1 1 1 0 -2 1 0 -2 1 0 1 0 -1 0 2 1 2 1 7 1 1 2 1 1 1 -2 1 0 1 0 2 0 -5 -7 0 -1 0 0 1 5 0 1 1 1 0 1 -7 -1 2 0 0 3 0 0 0 2 2 0 1 2 0 1 2 1 1 1 -1 2 2 2 1 0 1 2 1 0 1 1 2 2 1 -6 0 0 1 1 1 1 2 6 0 0 0 0 0 -2 2 1 0 0 1 -1 0 -5 0 1 0 1 4 1 1 0 2 1 1 0 6 8 5 0 1 -2 0 1 2 1 1 1 2 0 -5 0 1 1 1 3 0 1 0 0 0 0 -1 0 1 0 -2 1 1 0 -1 -1 0 0 -1 0 1 0 -1 1 0 0 1 0 1 1 1 2 1 0 0 -1 1 2 0 0 1 -3 -8 -9 -2 0 0 1 0 4 0 1 0 0 2 0 -1 0 0 1 0 -1 0 0 1 0 1 1 0 -2 -1 1 0 0 0 -1 1 1 0 -1 1 0 1 1 0 0 1 0 -1 -1 0 1 8 2 1 4 1 3 2 1 1 0 1 1 1 -1 -1 0 0 -1 -1 1 2 1 0 2 3 1 1 -1 1 0 0 1 -1 0 0 0 0 0 1 0 0 0 0 2 1 1 -2 1 2 0 0 0 0 1 0 1 0 1 1 0 -7 1 0 0 2 0 0 -1 0 0 1 1 0 0 1 0 0 1 4 4 1 1 1 0 1 0 0 0 1 1 -1 0 -1 0 -4 0 0 0 -1 0 0 0 1 0 0 0 4 1 1 2 1 6 6 3 0 0 0 2 0 1 1 -1 0 1 -4 1 0 0 -1 1 4 0 -8 2 2 0 1 0 0 1 1 -1 0 0 -1 0 1 1 1 0 2 1 -3 0 -6 2 1 1 1 1 1 0 0 1 0 1 -1 1 0 1 -1 0 7 1 0 2 0 1 0 1 0 1 1 1 0 1 -1 0 0 1 1 1 0 1 3 2 1 -2 1 1 
1 1 1 0 0 1 0 -1 1 -3 0 1 1 0 -1 0 0 0 0 1 0 0 1 1 0 0 1 -2 -1 -1 2 -1 0 0 -4 0 7 1 0 0 3 -1 -1 1 -3 -1 1 0 0 1 -1 0 0 1 0 1 1 1 -1 -2 0 0 1 0 2 0 0 0 2 1 0 1 0 0 0 -2 0 0 1 0 1 2 1 -1 1 -1 -1 1 -1 0 1 1 0 1 0 1 1 0 0 1 0 0 1 1 -2 -5 0 4 0 1 0 1 -2 0 0 0 -1 1 0 -1 0 1 0 0 2 0 2 -1 -1 1 0 0 -1 -1 1 0 1 0 1 -1 0 1 0 1 0 1 1 2 0 0 -1 1 1 -1 1 1 1 -1 0 1 1 1 0 -1 1 1 0 -2 -4 -1 0 1 2 0 1 0 -7 3 1 -1 1 1 1 -1 -2 0 1 2 0 1 1 -1 1 -1 1 1 7 0 1 2 1 0 -1 -4 -4 0 1 1 1 0 1 -2 2 -1 1 2 1 1 1 1 4 1 1 0 -1 2 -1 -1 1 0 2 0 0 0 1 2 0 0 1 1 0 -1 6 2 0 0 0 1 0 0 2 0 1 0 0 -1 -1 1 -1 1 0 0 1 2 1 -1 2 5 1 2 1 2 0 1 0 0 1 -3 1 0 0 0 0 0 1 5 2 5 4 0 0 0 -1 -1 1 1 -1 -1 0 2 2 1 3 1 0 1 0 1 0 0 2 2 -6 1 0 0 1 6 2 -1 2 0 6 5 1 2 0 0 0 1 1 0 0 1 0 1 -2 1 -1 0 -3 0 0 1 1 0 -1 0 1 1 1 0 2 -2 1 0 0 0 0 0 1 1 1 0 0 1 0 4 3 4 -1 0 0 -1 0 0 0 -1 0 1 0 0 2 2 1 0 0 1 1 1 0 -2 1 -2 0 1 1 1 0 1 1 0 2 1 0 1 0 1 1 1 -1 0 2 0 1 2 0 1 0 1 0 1 0 1 1 1 1 1 0 0 1 2 2 1 1 1 1 0 1 0 0 0 1 2 1 0 0 1 0 6 1 1 1 3 1 0 0 0 0 0 2 0 0 0 1 0 2 2 0 2 0 -1 1 0 0 0 1 0 2 3 1 0 0 1 1 0 1 1 0 2 1 0 1 0 1 0 0 1 1 0 -1 1 0 -1 1 -1 0 1 0 0 0 0 -2 0 0 1 0 1 1 1 0 1 1 -1 0 0 2 -2 1 -2 1 1 0 0 -1 -1 -7 -3 2 0 2 1 1 2 0 6 1 0 0 2 6 0 2 1 0 1 0 0 0 0 0 -3 0 0 3 -1 2 5 0 0 0 1 -2 1 4 0 0 2 0 0 0 1 2 0 -2 1 0 0 1 -4 0 0 1 2 0 0 3 -2 1 4 1 0 2 0 0 0 0 0 0 2 0 1 1 1 0 0 0 1 0 0 0 1 1 0 1 1 0 0 -1 0 -2 1 1 0 0 1 0 0 1 1 
0 0 1 0 0 1 -2 -1 1 -1 -1 1 -1 1 0 1 2 -1 0 4 0 2 1 0 -2 -1 -1 -5 0 -1 1 0 -1 2 -1 1 1 1 0 -1 0 -1 2 1 -1 0 0 1 1 0 1 0 0 0 -1 0 1 0 0 -1 0 -3 0 0 0 0 -1 1 1 1 1 0 1 -1 0 1 -1 1 4 1 1 -1 0 0 0 1 1 -1 0 1 3 -1 -3 0 1 -1 1 -1 1 0 0 1 0 0 -1 -1 1 1 0 -4 1 0 2 0 1 1 0 0 1 0 -2 2 1 2 1 0 1 -1 1 1 1 1 0 1 0 -2 -1 2 1 1 0 1 -2 -1 -3 1 0 2 1 -1 0 1 0 -2 0 1 0 1 1 2 1 0 0 0 1 5 2 1 0 1 0 1 6 1 2 0 1 0 0 0 2 1 -1 0 1 0 0 0 1 9 1 1 0 0 -2 1 0 2 1 0 1 1 1 -1 0 -1 -5 0 -1 1 0 1 0 -1 0 0 0 0 0 0 2 -1 0 1 3 1 0 0 2 1 1 -2 1 0 0 2 1 1 1 1 1 1 4 6 1 1 0 0 1 2 1 4 6 1 1 0 0 0 -1 0 1 0 1 8 1 0 0 1 1 1 1 0 0 0 1 0 1 -1 1 0 1 1 -1 0 2 3 1 1 1 0 2 0 2 1 1 0 2 -1 0 0 1 -3 1 0 -1 1 1 -2 1 -1 -3 1 -1 1 0 -1 1 0 2 0 0 0 1 5 0 1 0 0 0 0 0 0 -2 0 -1 0 0 1 0 0 0 1 -1 2 1 0 -1 0 1 0 1 2 1 2 -4 0 -1 0 -2 0 1 0 0 1 1 1 0 -1 0 1 0 0 1 0 -1 5 1 0 0 1 1 1 0 2 3 -1 5 0 1 0 1 1 0 -2 -3 2 1 0 0 0 1 0 0 1 1 1 0 0 1 0 1 0 2 0 1 4 4 0 0 2 -3 3 0 2 0 1 1 0 1 0 1 0 5 0 2 0 0 -1 1 -1 1 0 0 0 0 -2 1 0 -5 0 0 1 3 0 0 2 1 1 1 -1 0 1 3 1 1 1 1 0 0 0 1 1 1 0 -1 0 0 0 2 1 -3 0 1 6 1 1 0 2 2 0 -1 0 0 1 0 1 0 0 4 0 1 -2 0 1 0 1 0 0 1 0 0 0 2 0 0 1 0 -1 0 -1 0 1 0 1 2 0 0 0 0 1 0 0 1 -1 0 0 2 2 0 2 0 1 1 1 1 0 1 0 1 -2 1 1 1 0 2 0 1 -1 -3 -1 1 1 0 1 0 0 -1 0 1 1 0 1 1 1 1 0 2 3 1 0 0 0 -1 0 1 2 1 0 1 1 0 1 2 1 1 0 4 1 5 0 0 0 0 0 0 1 0 0 0 0 1 0 1 2 -1 3 1 5 0 -1 2 -1 1 0 0 0 0 0 0 -1 1 0 0 1 2 1 0 0 0 1 
0 1 0 -1 0 1 0 0 1 0 1 0 1 0 0 0 3 0 1 0 0 1 0 0 0 0 2 1 -1 -1 1 0 1 -1 0 -1 0 -1 -1 1 0 0 2 1 0 1 1 -1 1 0 0 1 0 1 0 2 0 0 7 1 1 0 0 0 0 0 4 -3 0 0 -1 0 -1 0 0 1 -1 1 1 0 -4 0 1 0 0 0 2 0 0 0 2 1 1 -1 0 2 0 0 2 -1 -3 2 1 0 1 0 1 0 1 0 1 1 -1 0 1 -1 -5 1 1 -1 0 -1 1 1 0 -2 1 1 0 -1 -1 2 1 0 -1 0 0 1 6 -1 1 0 1 0 1 1 0 0 1 -5 -1 0 -3 1 0 5 0 1 -1 0 -1 1 0 0 1 0 1 2 0 0 2 1 7 4 0 1 0 2 2 0 1 1 2 0 1 -3 -4 0 1 0 0 1 0 1 1 -1 -3 1 1 0 -2 0 1 1 1 0 1 0 0 1 -1 -1 -2 1 0 1 -1 0 1 0 1 0 0 1 0 0 0 2 -2 1 1 3 0 -1 1 1 0 1 1 1 0 5 -1 0 1 -1 0 0 0 2 1 0 1 1 2 0 1 -3 0 -1 0 0 1 1 0 0 1 1 6 -3 0 0 -2 -1 -1 1 0 0 1 0 1 1 -2 1 0 0 0 0 2 0 1 2 2 5 -1 0 -1 -1 1 2 1 0 6 1 5 1 0 0 0 1 3 2 1 0 0 -1 0 0 1 0 1 1 0 1 1 0 1 1 0 2 0 0 2 0 -2 2 0 0 0 0 1 0 1 4 2 1 0 1 1 -3 1 1 0 1 0 1 4 -1 0 1 0 2 0 -1 1 1 -1 1 -1 1 1 1 0 0 0 1 0 0 0 1 0 0 0 2 0 0 4 0 0 -1 1 2 1 1 0 0 0 0 0 0 0 1 -1 1 1 0 0 1 1 1 1 0 0 1 1 0 -1 0 0 1 4 1 1 1 -3 0 0 -1 0 1 0 0 1 2 1 0 1 -2 0 3 0 4 1 0 0 1 1 2 -1 1 0 0 1 0 2 1 1 0 0 -3 0 0 2 0 1 0 0 2 -1 0 1 0 0 -4 0 1 1 0 2 0 2 1 2 0 0 1 0 1 1 0 1 0 -2 0 0 0 1 1 4 2 1 0 0 2 0 0 0 2 1 1 0 1 1 0 1 1 0 0 2 1 2 1 0 0 0 1 -2 -1 0 1 1 1 1 0 0 1 1 1 2 0 -1 -1 0 0 -1 0 1 0 1 0 1 0 2 1 2 0 1 1 -1 0 3 1 0 1 1 0 0 0 1 1 0 1 -1 0 0 0 1 3 1 1 1 -1 2 0 0 0 0 0 0 2 0 0 1 2 1 2 1 1 1 0 -2 -2 1 0 1 1 0 0 0 1 -2 0 1 1 0 1 0 1 0 0 0 3 0 -1 0 0 2 0 0 2 1 0 -1 1 1 2 1 1 0 1 
0 1 1 -3 2 7 0 1 -1 0 -1 1 2 -1 0 0 0 1 1 0 0 0 1 -2 1 1 0 0 0 -4 1 -2 1 0 2 0 0 0 0 -1 0 -2 0 0 0 0 0 0 1 0 -1 0 -2 0 0 1 1 1 0 4 1 1 1 2 0 1 1 3 2 -1 -1 0 2 1 0 1 1 -1 -2 1 -1 0 0 1 0 2 0 -2 1 0 0 1 0 -2 0 1 0 0 -1 -8 1 1 -1 0 0 1 1 1 1 1 -1 -1 0 -1 -1 0 0 1 1 1 0 2 6 6 1 1 0 1 -1 1 -1 0 0 0 1 2 5 4 2 0 1 0 -1 1 0 -1 1 1 0 0 1 2 1 2 0 0 1 2 0 1 0 1 1 0 -1 -1 -1 0 0 1 7 1 0 2 0 0 0 0 0 1 1 3 1 1 0 1 -2 -5 -2 -1 1 0 -1 -1 -1 -1 0 -2 1 -1 -1 0 3 4 4 -2 1 1 1 2 5 1 1 0 -1 1 0 0 1 0 0 3 2 5 -1 1 0 -1 1 1 1 1 1 0 0 0 0 2 0 0 2 2 1 1 1 1 -1 1 0 1 2 1 0 1 0 -3 0 1 -1 -6 -5 1 3 -1 0 1 1 -7 2 -1 1 1 0 1 -1 0 0 1 0 0 1 0 0 1 0 1 2 0 0 0 1 1 1 1 1 1 2 0 2 1 4 2 1 1 1 0 3 2 0 0 0 1 1 0 1 2 0 0 0 0 1 0 1 1 0 1 2 0 1 0 1 2 3 0 2 -2 1 1 2 1 1 0 1 2 7 1 0 0 1 1 0 4 0 1 1 -1 1 0 1 0 1 -1 0 -5 1 1 3 0 0 1 0 2 1 0 -1 0 1 -2 0 1 0 0 0 0 2 -1 1 2 0 -1 4 0 2 1 1 1 1 5 0 0 1 1 1 0 -1 -1 -1 0 2 0 0 0 3 -1 -1 0 2 0 1 1 0 0 0 0 0 2 0 1 1 2 1 0 0 1 1 1 1 3 0 2 1 1 -1 -2 0 0 -1 0 1 1 -1 0 0 -2 0 -1 1 0 1 0 0 0 1 0 1 1 0 3 1 1 -1 -1 0 0 -1 0 1 0 1 1 1 1 -2 1 2 -1 -3 0 0 1 0 -4 1 1 1 1 1 1 0 0 1 2 -1 0 0 1 2 -1 0 0 0 0 1 1 2 3 1 6 1 0 -2 1 0 2 1 2 0 -5 0 0 0 1 0 0 -4 1 0 0 1 0 1 0 -1 1 3 3 0 0 0 0 1 1 0 2 -1 0 1 -1 1 1 1 0 -3 -1 1 0 0 1 0 5 0 0 1 2 2 1 0 1 4 0 1 -1 1 0 1 0 1 0 1 1 1 1 2 3 -1 1 1 1 -1 1 -5 0 -1 1 0 1 -1 0 1 0 2 1 0 0 0 1 0 0 3 0 1 0 1 0 0 0 -1 2 0 0 1 -2 1 -1 0 0 1 1 -1 0 
0 -1 0 -2 0 -1 1 0 1 -1 0 1 -2 -1 0 2 -1 0 0 1 0 1 1 -1 0 0 1 0 1 1 -2 1 0 2 0 1 -1 -4 0 0 -1 0 0 1 -1 -1 1 0 2 1 0 0 1 0 0 1 2 -1 2 4 2 1 5 1 -1 -2 1 1 0 1 3 1 -1 1 1 0 1 0 3 1 1 -4 0 0 0 -3 -1 0 0 1 0 2 2 1 -1 1 1 0 -1 -1 1 0 1 2 2 0 2 1 2 -1 2 1 0 1 0 -1 0 0 0 0 0 1 1 2 0 -1 -1 1 0 0 1 1 0 1 0 2 -1 1 2 1 1 0 0 -1 1 1 1 0 0 0 2 2 1 0 0 0 1 0 -1 -1 0 -1 -4 -1 1 1 1 0 0 0 2 1 0 3 1 1 1 2 1 1 1 4 0 -1 0 -2 1 1 -1 1 -1 0 1 2 0 1 0 0 0 0 -1 2 1 2 1 1 0 0 0 0 1 0 2 1 2 1 1 1 1 -1 -1 -7 1 3 0 0 1 1 0 -4 0 1 -1 0 0 1 -1 0 1 0 -1 1 0 1 1 1 0 0 0 0 0 1 1 3 0 -1 0 0 1 1 -4 0 1 1 0 2 1 -5 -1 -2 -1 -1 0 -1 0 0 1 0 1 1 1 1 2 0 1 1 0 1 1 5 1 2 0 2 1 1 1 0 2 1 1 0 5 3 1 1 2 1 1 2 1 1 1 0 -1 0 -1 0 -1 0 1 1 5 0 2 1 0 0 0 0 0 1 1 1 0 1 1 2 -1 1 1 2 1 1 8 6 2 0 1 1 2 1 1 -1 -1 1 1 0 0 0 1 1 1 0 0 3 0 1 -1 0 2 1 1 -1 -1 -1 -2 0 0 0 0 0 1 0 2 1 -2 0 0 0 1 1 1 0 1 0 1 1 4 -1 1 2 -1 0 1 0 2 1 0 0 1 0 1 1 1 -2 0 0 2 1 2 0 -5 0 0 0 1 1 0 0 0 1 3 1 0 1 1 -1 -1 0 1 1 0 1 -1 0 2 2 3 0 1 1 4 1 0 1 2 1 0 0 1 0 -1 1 0 1 1 1 1 1 1 0 1 -1 0 2 1 1 -1 0 -1 0 1 0 2 1 2 0 0 2 0 -1 -3 1 0 4 1 2 0 0 1 -4 0 0 0 0 1 0 0 1 1 0 -1 2 2 1 3 1 5 0 1 5 1 -2 -1 -1 1 1 5 0 0 -2 1 0 -2 0 -1 -1 -1 1 2 -1 0 1 0 -1 0 1 1 -3 0 1 -1 2 0 -1 -3 -1 0 3 0 0 0 0 1 1 1 1 1 0 4 0 -1 -2 0 1 -1 1 1 0 2 2 0 0 0 0 3 0 0 2 1 1 0 1 1 0 1 -1 0 -1 1 1 0 1 1 1 0 1 1 1 0 2 0 0 1 1 1 0 1 0 -2 -3 2 3 0 0 0 0 0 0 -1 0 -1 -8 1 -1 0 0 -4 0 
-3 -1 0 0 2 0 0 0 1 -2 1 6 2 0 0 1 0 0 0 1 0 1 1 0 0 -1 -2 1 2 1 0 -5 1 0 2 0 2 0 2 1 1 1 1 0 0 1 0 0 0 0 0 -1 1 1 -1 -4 0 -4 0 2 1 1 1 1 0 2 1 1 2 1 1 -1 1 1 0 1 0 1 0 1 1 1 1 1 -1 -1 2 0 2 0 -1 0 0 1 2 0 1 1 1 1 1 1 1 1 0 0 0 1 0 0 1 -1 -1 1 0 2 1 -5 -1 -1 2 0 0 1 0 -1 2 -1 0 0 1 -1 0 1 0 0 1 0 1 0 1 1 1 -2 0 1 0 0 1 1 1 0 -1 0 0 0 -1 -1 -1 0 0 0 0 0 -2 0 0 2 0 0 1 0 0 1 2 1 0 -1 0 0 1 3 0 2 1 1 1 0 2 0 1 1 1 -1 -1 1 2 0 1 2 3 0 -1 0 0 0 -1 -4 -9 0 0 2 1 1 1 1 1 1 -2 1 0 0 2 4 1 0 0 0 0 0 -10 -3 0 2 0 0 -1 -1 0 0 0 0 -1 1 2 2 1 0 1 2 0 0 0 -1 1 1 0 3 -1 1 1 3 0 1 1 0 -1 1 0 0 -6 -1 0 1 0 0 0 0 2 1 1 2 0 1 1 0 1 2 1 0 0 0 1 1 1 1 0 1 0 1 1 -2 0 0 2 -1 -1 1 4 2 1 -1 1 0 1 1 -1 -3 1 0 0 -1 0 1 0 -1 2 0 1 -1 2 1 0 0 1 1 1 0 3 -1 0 0 0 0 1 0 1 1 0 2 2 2 1 -1 1 1 0 0 0 2 0 0 1 2 0 4 1 0 0 0 1 1 2 1 1 -1 1 2 0 1 1 1 1 -1 0 1 1 -1 1 0 1 -1 2 1 0 3 -3 1 0 0 0 0 1 1 0 1 0 1 1 1 2 0 0 1 1 0 1 -2 1 3 1 1 -1 1 0 1 0 0 -1 4 1 1 2 7 3 1 1 2 1 1 -2 1 1 0 1 0 0 -1 1 0 0 1 0 0 0 -2 -1 0 -1 -3 0 1 0 1 5 10 1 0 1 1 -1 -1 -2 1 1 0 0 1 1 0 2 1 0 0 3 0 1 1 0 0 4 1 1 1 2 4 0 0 1 -1 1 0 1 0 -2 0 1 1 0 1 0 0 -3 1 1 1 1 1 1 1 1 0 1 1 2 1 1 0 -1 1 0 0 0 4 0 -1 -1 1 1 1 0 1 1 0 -4 1 -1 1 1 -1 0 2 1 1 -1 0 -5 0 2 0 2 0 0 1 2 1 0 0 0 2 0 -1 1 3 1 1 3 0 0 1 1 0 0 0 0 -1 1 2 2 1 0 1 1 -1 2 -1 0 0 -1 -1 -2 -1 0 0 0 1 0 0 0 0 2 0 -1 -1 0 0 0 0 1 0 -4 1 1 0 1 0 -2 0 0 2 0 -1 1 -1 1 1 0 0 -2 -1 
0 0 0 0 0 1 0 1 2 1 0 0 1 0 1 0 1 0 0 2 3 1 0 2 0 2 0 1 2 1 1 1 1 1 -1 1 -1 0 1 0 1 -1 1 4 0 1 1 0 -1 0 1 2 2 1 -3 0 1 -1 1 -1 0 0 0 2 1 0 1 0 2 0 0 1 0 0 1 1 1 -3 -1 0 -1 1 0 1 0 0 0 0 -1 0 1 0 1 1 0 2 -1 1 0 2 0 1 0 0 -7 -1 1 0 0 1 2 -1 0 -1 1 1 1 -1 0 -2 0 1 0 0 0 0 1 -2 3 0 -2 1 1 0 0 0 1 1 1 0 1 0 4 -1 1 0 0 -2 -1 0 0 0 1 0 0 0 -1 0 -1 0 0 -4 1 1 1 0 0 1 -3 0 1 1 0 2 0 0 0 1 1 1 1 2 0 1 0 -1 0 0 -1 1 1 1 -1 -7 0 0 1 1 1 2 0 0 0 1 1 0 1 0 0 0 0 0 2 1 0 0 3 -1 0 -1 -1 2 1 2 -1 2 1 1 2 0 1 1 1 1 0 1 1 2 -1 0 0 1 1 0 1 0 1 0 0 1 -1 -1 0 0 0 0 1 0 1 0 0 0 -1 0 1 1 2 0 0 2 3 1 0 0 1 2 -1 6 2 0 2 0 0 -4 0 0 0 -1 0 0 1 1 0 1 1 1 -2 0 0 -1 0 0 0 0 1 1 -2 0 1 -1 2 1 1 0 -1 1 0 1 1 1 0 0 -1 1 0 0 1 1 5 1 0 1 0 1 0 0 1 2 9 1 -1 2 0 1 1 1 1 1 0 0 2 1 0 0 1 0 1 1 6 1 1 1 1 1 1 4 0 6 0 0 0 0 2 1 0 1 1 1 1 0 2 1 3 2 0 1 0 1 0 -2 0 1 1 0 0 0 0 1 1 0 2 1 1 2 7 4 1 1 1 4 0 -1 0 -1 -1 0 1 0 0 1 -1 -1 0 1 1 1 -1 0 1 -1 1 1 4 0 1 0 0 1 1 -1 0 1 2 1 2 2 1 -5 0 0 6 0 0 0 0 -4 0 2 0 -1 0 0 -1 1 1 6 1 1 3 2 1 0 1 1 1 0 -1 1 -1 6 1 2 0 1 1 0 0 1 1 1 1 0 2 -1 2 3 0 1 0 0 0 2 1 -1 1 1 0 0 1 1 -1 1 0 0 0 0 0 0 0 0 0 2 -1 1 0 1 0 0 1 1 -1 1 0 1 1 -1 1 3 -2 0 1 0 1 -1 -1 1 0 1 0 0 0 1 1 -1 -1 4 0 1 0 0 1 3 3 2 0 1 -3 -1 0 0 0 1 1 2 4 1 -1 1 1 3 -2 -6 1 4 0 2 0 1 3 0 0 1 0 0 2 1 1 -1 -5 0 -1 1 1 1 0 0 1 1 3 1 2 3 1 1 1 0 0 4 -1 0 0 -3 0 -1 2 2 1 2 1 0 -1 1 0 1 1 0 -1 -4 1 -4 
1 1 1 1 0 -2 2 2 1 -1 -2 1 0 -1 0 -6 -6 0 0 0 1 3 1 0 4 1 1 1 2 -1 -1 0 1 0 -1 1 0 2 -1 -4 2 4 2 3 2 2 1 -2 1 2 0 1 -1 -1 -4 -1 -1 0 -2 -2 1 0 0 1 -1 0 0 -1 2 0 1 0 0 1 0 1 1 1 -1 -1 0 0 1 1 1 1 -2 1 -1 -1 1 -2 -1 0 0 1 -1 2 0 0 -1 0 1 -1 -2 -1 -6 0 0 0 1 1 0 -1 0 0 0 0 1 1 2 -1 0 1 0 -3 -1 1 2 1 -1 1 0 0 1 3 4 0 1 0 0 0 1 6 -1 1 0 0 0 1 1 1 0 0 -2 1 0 1 1 1 -1 0 1 1 -1 0 2 2 1 0 0 -1 2 2 0 -2 1 -1 1 1 0 -3 -1 0 0 1 1 1 1 0 1 1 1 -1 1 0 0 -1 1 0 0 -3 -2 -1 1 0 0 1 1 1 5 0 1 1 1 1 2 0 0 1 0 0 0 1 1 0 7 0 -1 0 3 0 -1 1 8 1 1 -1 1 1 2 0 1 2 1 1 8 1 0 -4 -7 -1 -4 -1 1 0 0 4 1 0 1 0 0 2 0 0 -2 1 -1 2 1 1 0 2 -1 1 1 1 1 0 0 0 0 0 -1 1 1 0 1 4 1 1 1 1 0 1 1 0 1 -1 1 0 2 1 3 1 0 -5 -2 -1 -1 1 1 0 1 1 1 0 4 2 0 1 0 4 3 0 1 2 1 4 -1 0 0 1 0 1 1 0 0 0 1 0 0 0 1 2 2 5 1 1 -1 1 1 1 1 1 1 0 1 1 0 0 2 1 2 0 0 2 1 -1 2 0 1 0 0 2 1 1 1 0 2 8 3 2 0 0 -1 0 1 1 2 0 2 0 1 1 5 0 0 1 2 -1 1 1 0 -1 0 0 0 0 -1 1 0 1 1 1 0 0 -1 0 0 0 2 1 0 1 1 -4 0 0 0 5 0 2 0 0 0 1 0 1 1 1 1 1 0 1 0 1 0 1 1 0 1 1 1 0 0 1 1 0 -2 0 0 1 1 1 -1 1 2 0 2 -1 1 0 0 -2 -1 2 -2 0 -4 -1 0 1 -1 1 -3 0 3 1 1 -1 1 -1 1 3 0 0 0 1 1 0 0 0 0 0 0 0 -2 -1 -1 0 0 0 2 0 1 -2 1 0 -1 2 -2 0 1 1 0 0 0 -1 1 0 0 0 1 1 8 0 0 1 0 0 1 0 0 -4 -1 -7 1 0 0 -1 -2 -2 1 0 1 1 0 -1 0 0 1 0 0 4 0 1 2 0 0 -1 0 2 -1 0 3 1 1 0 1 -1 1 1 0 0 -1 0 -1 -1 0 2 -1 0 -1 1 1 0 0 0 1 0 -1 0 1 2 1 0 0 3 0 0 1 0 1 0 1 3 1 0 0 1 0 0 2 4 0 0 1 0 3 1 0 -1 0 2 0 1 4 0 
1 0 -7 0 1 0 1 0 0 -6 -1 -2 1 0 -1 -4 0 1 0 0 0 2 0 0 1 0 0 -1 0 3 1 2 1 0 1 0 -1 1 1 -1 0 4 1 1 0 1 0 0 0 0 1 1 0 -1 1 0 1 1 1 0 -1 1 1 2 0 1 0 0 -1 0 1 1 0 2 1 0 3 2 0 1 2 0 0 1 1 1 0 0 0 2 1 0 1 5 1 0 1 -1 1 1 1 1 1 0 1 1 0 0 1 0 0 0 0 1 1 0 -1 0 0 1 0 1 0 1 0 0 1 0 0 1 0 -4 0 0 1 2 2 0 1 0 0 -1 -1 1 0 -3 0 2 1 2 0 0 0 0 0 0 1 0 1 0 1 0 0 1 0 0 0 1 2 1 1 0 1 0 1 0 1 1 0 0 1 0 0 0 0 0 0 0 0 0 1 0 -6 0 -1 0 1 0 0 0 0 -5 0 1 0 0 1 -1 -7 -1 2 2 -3 1 0 2 0 0 0 1 -1 -4 0 -3 0 1 -1 2 2 1 0 1 5 2 1 -1 0 -1 0 0 0 1 0 0 -1 2 6 1 0 2 1 1 0 -3 2 0 0 -1 0 -1 1 0 0 0 2 1 0 -1 1 0 -5 2 1 -1 0 -1 0 0 0 -2 1 1 -5 1 0 6 2 2 3 5 2 1 1 0 0 2 -4 -1 1 1 2 0 -1 2 0 1 0 0 0 1 2 1 1 4 2 1 0 8 1 0 0 0 -1 1 10 2 2 4 9 3 2 3 5 21 5 3 15 5 4 2 1 5 13 2 -1 1 1 0 -1 1 1 1 2 1 2 1 -1 2 0 0 0 1 -1 2 1 0 1 0 1 0 -1 0 0 1 1 1 0 0 0 0 0 1 1 1 2 5 0 0 0 1 2 0 0 1 0 1 0 1 0 1 1 0 -1 1 -1 0 0 0 1 -1 -3 0 -1 0 1 0 0 0 -1 -1 0 0 0 1 0 0 -1 0 0 1 0 1 2 -1 2 0 -1 -1 -1 0 0 -3 0 0 0 1 0 0 0 1 -1 2 0 1 1 5 -1 -1 -1 2 -4 -1 1 0 2 1 0 0 2 0 2 0 1 2 -1 2 1 0 1 1 0 0 0 -4 0 0 2 2 1 0 1 0 -2 1 0 1 1 0 2 1 1 0 0 0 1 0 0 0 1 0 0 0 2 2 1 1 1 0 1 0 0 1 2 -1 0 -2 0 0 2 0 3 -1 -2 1 0 0 1 -1 0 2 2 0 4 1 1 0 0 -11 -8 -2 0 1 -3 1 0 2 3 0 2 5 -1 2 1 -1 0 5 1 1 -2 0 0 1 0 1 1 -1 0 3 0 1 0 -1 -1 2 0 1 1 0 1 -1 1 0 0 0 3 0 1 0 2 1 0 0 1 0 1 0 1 0 0 1 0 -2 1 0 0 -1 1 -1 0 -2 1 0 0 1 0 1 5 1 0 1 6 1 1 1 -1 1 4 1 0 1 
1 -1 -2 -1 -1 0 2 0 0 1 -1 1 -1 -1 -1 -1 0 1 1 0 0 0 0 0 0 0 3 0 0 0 1 0 8 2 2 0 -4 0 0 0 0 1 1 0 0 1 0 1 0 0 1 1 -1 0 0 -1 1 0 0 0 -1 -1 0 1 0 0 0 1 -1 1 1 1 1 -1 1 0 1 2 1 1 0 1 -1 0 1 -1 1 -1 1 1 1 1 0 -1 0 3 2 1 1 0 1 3 1 0 0 1 0 0 0 1 0 1 1 0 1 -3 -6 -2 1 -1 1 1 1 2 -2 1 2 1 3 5 4 0 0 0 -1 3 1 0 -1 2 0 2 0 0 0 1 1 5 2 0 -4 2 0 1 0 1 0 1 0 -1 0 1 1 1 -1 1 0 1 5 2 0 1 0 1 0 1 0 0 -2 1 1 0 1 0 0 1 0 -2 0 0 -2 1 -1 -2 1 -1 -3 5 -1 0 -1 -1 0 -1 -2 -2 0 -4 -1 1 2 4 0 -1 0 2 -1 1 4 0 0 1 2 0 1 -2 0 0 1 7 1 1 2 0 0 3 2 0 0 1 2 1 1 -1 1 0 2 1 0 0 1 1 2 1 -1 0 1 0 0 1 0 0 1 2 2 0 -1 1 0 0 0 1 0 1 0 1 0 -3 -2 0 1 0 0 0 1 7 1 0 1 2 0 0 1 -1 0 1 0 0 2 -1 0 1 0 1 -1 0 1 2 -1 0 1 2 0 0 1 0 8 4 3 2 4 10 16 32 44 51 52 56 56 57 55 58 59 58 60 66 62 63 70 64 61 65 62 30 19 8 5 5 3 17 13 1 4 -1 2 0 1 0 0 0 1 0 0 0 0 1 -1 1 1 -2 2 -1 1 -3 0 0 -4 2 0 1 2 0 1 -1 1 1 1 0 1 0 0 -1 1 2 1 -1 0 -1 0 0 1 1 -5 0 1 1 0 -1 0 1 2 -1 -1 -1 -10 0 0 0 0 -1 0 1 2 1 1 0 0 1 2 0 1 1 0 0 0 1 2 -1 1 1 2 1 1 1 1 0 1 0 -3 0 1 -1 0 0 0 -2 1 0 0 -3 -1 0 2 3 6 3 1 0 2 1 0 0 3 0 0 1 1 0 2 1 0 1 -3 1 1 1 5 1 0 1 1 4 0 2 1 1 0 1 0 1 1 -1 2 1 0 -4 1 -1 1 0 -1 -1 1 0 0 1 0 0 0 1 1 2 0 2 0 -1 0 2 1 2 0 1 0 1 0 0 0 1 1 1 1 -1 0 1 0 1 3 -8 -3 -1 -3 -1 -1 0 0 4 2 0 1 1 0 -1 0 0 1 1 1 0 1 -1 1 1 1 1 1 -1 1 -1 -3 -1 1 5 2 0 0 1 1 2 1 0 0 0 1 1 1 0 -2 1 0 2 1 1 1 2 0 0 1 1 0 1 0 -1 0 -1 0 3 0 0 0 0 -1 0 0 1 0 1 1 0 -2 -1 0 0 2 0 1 0 1 1 1 1 
1 2 2 -1 -1 0 1 3 0 2 1 1 0 1 2 2 1 -3 0 0 -3 1 0 0 0 0 -1 -2 -1 0 0 0 3 0 0 1 1 -1 1 1 2 1 2 0 1 1 0 0 2 1 1 0 0 1 -1 0 1 0 1 0 -1 0 1 2 0 0 -1 0 0 1 0 0 1 0 1 0 -4 -1 0 1 1 1 0 -1 0 1 0 -1 -1 1 0 0 1 1 2 0 1 0 1 1 0 0 0 -3 -1 1 -1 1 1 0 1 1 1 3 0 0 0 1 1 1 0 0 -1 0 0 0 0 0 1 1 -1 1 2 1 -2 0 -1 -1 -1 1 1 2 1 -3 0 0 -1 1 0 0 0 -1 0 1 0 0 0 2 0 0 1 0 0 -5 0 0 2 1 2 1 1 -1 -1 2 0 -1 -1 -2 -3 1 2 3 1 -1 0 0 0 -1 2 0 -2 1 0 1 0 3 0 1 1 2 2 4 1 0 1 2 2 0 1 0 1 1 1 -1 3 0 0 0 3 0 0 0 -1 -1 1 1 1 1 0 1 0 1 1 1 0 5 4 1 -1 0 0 2 1 3 -1 0 -1 1 1 0 2 1 0 0 -1 -1 -1 0 0 -1 1 0 0 0 0 1 2 -1 0 1 0 -2 1 2 0 1 2 1 3 2 2 1 0 1 3 8 0 2 1 1 0 1 0 0 1 0 1 1 -2 0 2 1 0 0 1 1 0 0 2 2 2 1 3 4 6 12 24 40 56 75 95 112 126 138 144 148 150 149 151 151 151 150 151 151 150 151 150 149 150 148 150 147 142 133 122 109 92 75 72 54 53 24 15 8 5 4 3 13 2 1 2 -1 0 1 0 1 1 1 -2 0 -1 0 1 0 0 5 2 -1 1 2 6 1 0 5 1 0 -2 0 0 1 0 0 -1 0 0 -1 -3 1 1 1 0 -1 0 2 2 1 2 1 2 0 1 1 0 2 0 0 0 2 1 2 2 1 1 1 8 3 1 -1 2 0 0 1 0 0 0 1 5 0 1 0 -1 0 -2 -1 0 -4 0 1 1 0 1 1 1 0 -1 1 1 -2 -1 -3 1 1 -1 0 6 3 1 1 1 0 1 0 -1 -1 -3 -3 0 3 4 1 1 0 0 1 1 0 3 2 -1 2 -1 3 2 0 0 0 0 1 1 0 0 1 0 -1 1 0 1 2 -1 1 1 3 0 0 0 -1 0 1 0 0 2 1 0 3 1 -2 0 1 -1 -1 0 1 -1 -1 0 1 1 0 0 1 0 1 1 0 1 -1 -5 -2 0 -2 -1 0 2 0 2 0 0 1 1 0 0 -2 0 0 1 0 -1 0 1 1 1 -1 1 0 -1 0 0 -3 -6 0 1 4 1 1 0 1 -1 0 1 0 0 0 0 1 0 -1 -8 -4 0 0 -2 -1 1 -1 1 1 0 5 1 0 0 -1 -2 0 0 0 1 -1 0 -1 3 1 -5 0 0 0 0 1 1 1 0 1 0 3 0 1 0 2 -1 1 
0 1 0 0 1 1 0 2 0 0 -4 -1 1 5 2 3 0 1 4 4 -2 0 0 -3 1 -1 0 0 -1 2 0 4 1 0 2 2 -1 2 0 -1 1 1 1 -6 0 -1 0 1 1 0 1 0 -2 1 0 1 3 1 1 0 0 0 0 -1 1 1 0 0 3 0 1 -1 0 -1 2 0 0 1 1 0 1 0 0 0 1 1 0 0 0 1 -1 1 1 1 3 -1 1 1 0 1 0 0 1 1 -1 0 0 0 0 -2 0 1 1 2 0 2 5 1 0 0 1 0 0 -1 0 -3 1 2 0 0 1 1 0 0 0 1 0 2 1 0 -1 0 0 -1 2 -1 0 2 -3 0 1 2 -3 0 1 1 -1 0 1 0 1 -1 -1 0 1 -1 0 1 -2 0 -1 -4 1 0 0 1 -4 0 1 -1 0 0 1 0 2 0 0 2 0 0 1 1 0 2 0 0 0 2 0 0 1 1 0 3 1 4 6 0 0 0 2 8 2 4 2 0 2 1 0 1 1 3 0 -1 -2 1 -1 1 2 0 1 0 1 0 1 6 2 0 1 0 1 -2 -1 0 -1 1 1 1 0 1 -1 0 -1 1 1 1 -1 1 0 0 1 1 1 2 1 1 1 0 1 -1 -2 0 -3 -3 0 2 1 1 2 1 2 1 2 8 7 1 0 0 0 1 0 1 1 2 6 2 1 1 -1 1 1 1 3 0 0 2 0 4 32 47 33 46 66 87 89 121 137 147 155 158 161 165 167 162 172 176 176 178 179 178 180 178 178 177 178 178 178 177 176 170 176 167 177 175 171 159 163 145 153 146 110 98 114 103 89 75 60 44 41 6 4 2 0 -1 0 7 1 1 0 1 -1 1 1 2 0 3 0 0 -1 2 0 -1 1 1 0 0 0 1 1 1 -2 0 1 0 0 -1 0 2 2 0 2 1 1 2 3 1 1 1 -1 -3 -1 0 0 2 1 2 0 0 2 0 2 1 0 0 -2 2 1 1 0 2 0 -5 1 0 1 0 0 0 -1 0 -3 -1 -4 -1 1 2 1 -1 0 0 2 0 0 0 0 -4 2 0 0 0 0 0 1 1 0 0 0 -2 1 0 0 0 1 0 0 1 -1 -1 0 5 1 1 1 1 0 1 -1 2 1 0 -4 0 0 1 2 1 0 1 1 0 0 0 -1 1 0 -2 0 1 0 1 6 1 0 0 1 -2 1 1 -1 -1 -3 -2 2 1 0 0 0 1 0 0 2 1 0 -4 -5 -4 0 -1 -1 3 1 5 0 1 -1 -1 -1 -1 -5 1 1 1 1 0 1 0 0 0 -5 1 4 -3 -1 1 1 -1 1 1 0 4 1 1 -2 -1 1 4 0 -1 0 1 -1 0 1 0 0 1 0 3 0 1 0 2 1 2 1 -2 1 1 1 -2 1 1 1 0 1 -1 0 1 1 1 0 -1 0 4 2 0 0 -1 1 1 2 0 0 0 1 0 2 0 0 1 0 1 1 0 1 0 1 1 0 -2 
-1 2 1 0 0 1 0 0 -1 0 0 1 3 3 1 1 1 1 1 -3 0 0 1 1 2 0 1 2 0 0 0 1 -4 0 3 2 -2 0 1 0 1 -1 -1 0 0 2 0 0 0 0 0 2 1 0 -3 1 0 1 2 1 -1 0 1 0 -1 2 0 0 0 0 1 1 2 1 4 0 -1 0 1 1 0 1 1 1 0 -1 1 0 0 1 2 1 1 -1 -1 2 0 -1 0 2 0 0 0 0 1 1 2 1 0 -1 2 1 1 1 2 3 2 2 1 1 1 0 -1 0 5 2 0 2 1 2 1 0 -1 0 1 1 0 0 1 0 1 0 -1 -2 1 0 1 1 -2 -4 0 -1 0 0 0 -1 1 0 0 1 6 1 0 -1 2 1 0 0 1 -1 1 0 -1 2 2 1 0 2 1 0 2 0 0 -2 -1 -5 1 2 3 4 2 1 0 -1 1 0 1 1 1 2 4 0 3 0 0 0 0 1 1 0 1 1 1 1 1 0 0 0 0 3 2 0 0 1 4 2 1 -4 -3 -1 0 0 -1 0 1 -1 0 0 1 1 0 0 0 0 0 0 0 -1 0 0 1 0 0 0 0 2 1 0 0 -1 0 1 -1 1 1 0 1 1 3 0 2 0 0 0 1 -1 1 -1 1 0 4 0 1 3 2 1 0 5 1 2 2 -8 1 4 1 1 6 -1 1 0 1 -1 2 1 9 5 16 46 85 121 144 153 158 144 165 156 171 173 176 175 177 172 180 171 181 181 182 174 181 182 183 183 184 183 183 183 184 184 183 182 168 162 184 184 185 184 184 181 180 179 175 161 168 148 161 157 151 141 122 94 66 47 16 4 4 1 1 -1 -1 1 0 1 -1 0 0 1 2 2 1 2 0 2 3 0 0 4 6 1 0 3 0 -2 -1 1 3 1 1 2 1 -3 1 1 1 1 2 0 0 0 -1 -1 0 0 0 -2 0 0 1 0 2 1 0 -2 -3 1 1 0 1 1 1 1 0 1 1 0 2 0 1 0 1 1 1 0 -2 0 2 0 1 1 1 5 1 2 0 1 0 -1 0 0 -5 0 0 1 -1 1 1 -1 -1 -2 -3 2 2 0 3 3 1 0 0 1 2 -1 0 0 3 -1 -1 1 0 2 1 1 0 -4 -3 1 3 0 0 1 6 0 1 0 1 1 0 2 2 1 1 -1 7 0 1 0 0 2 1 1 -1 3 0 -1 2 0 2 1 1 2 1 0 1 0 -1 2 -1 -1 -1 0 -1 1 0 -1 1 2 3 2 1 0 2 0 0 0 3 1 1 0 1 0 0 0 0 0 0 3 1 -1 0 0 -1 2 2 1 3 2 1 0 1 1 1 0 1 1 1 0 -6 0 1 2 1 1 0 2 5 2 1 -1 0 1 1 0 1 -1 0 1 0 0 0 1 1 0 0 0 -1 1 2 -1 -2 -1 0 1 -1 0 0 0 0 1 0 2 0 2 0 1 -1 0 -1 0 0 1 -1 0 
1 0 0 2 0 -1 1 1 -1 1 -3 -1 -1 1 0 0 1 1 2 2 0 0 2 1 0 1 1 1 1 0 0 -1 0 1 0 1 0 1 2 1 -1 0 1 2 3 1 2 0 2 1 0 -1 1 -1 0 0 1 0 7 0 0 -1 0 -10 -8 -1 1 -1 1 0 0 1 0 7 0 2 1 1 0 1 0 -1 0 0 2 -1 1 1 1 1 0 1 1 0 1 1 0 1 1 1 1 -1 -1 2 2 1 0 4 1 1 0 0 0 2 1 1 1 -1 1 1 1 0 -3 1 7 2 -1 1 1 1 0 0 1 4 0 0 0 1 1 0 1 -1 0 0 0 1 -1 0 0 2 -1 0 1 0 3 0 1 1 0 0 3 0 1 -7 0 0 1 1 6 1 0 0 1 0 -1 0 1 1 0 1 0 1 -4 0 2 2 1 1 1 -1 0 0 1 0 0 1 0 1 0 1 0 0 1 1 0 1 3 8 1 4 1 -2 -3 2 0 1 0 1 1 7 3 0 0 0 0 0 0 -1 0 1 0 0 0 -1 1 -1 0 2 1 2 2 -1 0 -1 2 1 -2 1 1 1 0 0 1 1 0 1 -1 0 -1 1 1 0 1 0 -1 -1 -1 1 -1 1 2 0 -1 -1 0 -5 0 -1 0 2 0 0 1 1 0 0 1 1 0 0 3 0 1 0 1 -1 0 2 0 1 5 5 22 20 57 72 102 149 142 168 172 174 177 177 180 178 180 183 181 162 162 179 180 174 180 180 175 174 175 174 173 175 176 176 174 176 174 176 176 177 172 166 176 179 181 183 183 183 185 184 185 184 185 183 184 183 180 163 157 164 155 138 101 88 59 34 15 6 2 1 -1 0 -1 0 0 -1 -4 0 1 6 2 0 1 0 0 1 1 1 4 2 3 1 1 0 1 -1 2 -1 1 1 1 0 -1 0 -1 1 -5 1 5 -1 -1 0 0 1 2 1 0 2 1 0 -1 2 -4 -1 0 0 1 1 1 0 1 1 1 2 1 2 4 4 0 1 1 0 -1 0 0 -1 1 1 -1 0 1 1 1 1 1 0 0 0 0 0 1 1 -1 1 0 0 0 0 0 1 1 0 -1 1 0 0 0 0 0 -3 0 0 0 0 1 -2 -2 1 2 2 2 1 2 0 1 1 0 0 0 0 1 0 -1 0 0 6 6 1 1 1 0 2 2 -1 3 1 1 1 1 0 1 1 0 -2 0 1 0 0 1 1 0 2 1 1 0 0 2 0 0 0 1 0 1 1 1 0 0 0 1 1 0 -1 0 0 0 1 2 -1 1 2 0 1 1 0 -3 0 1 0 -1 2 2 0 0 0 0 -1 1 3 2 -1 2 1 2 1 -1 -1 1 1 0 -1 0 0 1 0 -1 1 0 0 -2 0 1 0 0 3 0 -1 2 0 1 0 0 1 0 3 0 2 0 2 1 0 0 1 1 1 1 0 -1 0 0 2 1 1 0 2 2 -1 1 2 0 -6 
1 2 0 -1 -1 2 -1 -4 1 -1 0 -1 -2 -1 1 0 0 -1 2 0 0 1 0 1 1 1 1 0 1 0 0 -1 0 0 1 0 0 0 0 4 0 1 1 0 1 0 0 0 0 0 0 1 0 1 0 1 1 0 1 1 -3 0 0 -1 -3 0 0 0 0 0 0 2 -1 -1 2 1 -1 0 1 0 0 1 0 1 9 2 1 0 -1 1 0 0 0 0 1 1 0 0 0 0 -1 1 0 2 -1 -1 0 4 3 1 0 -3 -4 0 0 0 1 1 0 3 1 -1 -1 1 5 0 1 4 1 1 0 0 1 0 0 1 0 -1 -1 2 0 1 0 1 0 1 0 0 0 0 0 1 2 2 1 0 1 -1 2 0 1 2 -2 -1 -5 1 0 3 3 1 1 2 0 0 0 0 0 0 2 0 -3 2 0 1 3 1 1 1 1 0 0 1 0 -1 1 0 3 1 1 2 4 0 0 1 0 1 1 5 2 1 -3 0 -1 2 0 -1 -1 -1 1 1 1 1 0 2 2 0 0 0 -1 1 0 2 0 0 -1 -1 1 1 0 0 1 1 0 2 2 1 0 0 1 0 0 2 1 1 1 -1 0 1 0 0 1 1 2 0 1 0 1 2 2 0 6 0 1 1 0 0 3 1 2 0 -1 1 1 0 1 1 1 2 0 -3 0 -1 0 1 1 6 -1 9 2 8 24 72 105 113 154 144 169 164 175 177 165 162 170 180 169 179 166 179 178 174 163 173 172 171 167 167 165 164 164 162 149 159 147 160 162 161 162 162 161 160 160 158 140 162 164 167 170 173 176 177 178 181 183 182 184 185 186 168 184 185 183 178 171 150 151 122 113 85 57 32 12 5 1 0 -5 0 0 -3 0 0 0 3 5 1 1 1 0 0 -1 1 1 1 1 1 -1 1 2 0 0 -1 0 -2 1 1 2 0 0 1 1 2 1 -1 4 1 0 1 0 0 1 2 0 1 0 -5 1 1 0 1 0 1 -1 0 1 1 1 2 3 1 10 8 2 -1 1 1 1 0 0 0 -2 0 2 1 1 1 1 4 5 1 -1 1 -1 -1 -1 -1 1 2 1 0 0 -1 0 2 1 -1 0 1 1 1 0 1 1 0 0 1 1 0 3 2 1 1 0 0 0 0 0 0 1 0 0 0 -1 -3 -4 -1 0 5 0 1 0 1 0 0 2 0 1 0 2 1 -1 1 0 0 1 0 -2 1 2 -1 0 0 1 0 0 -1 1 0 5 1 0 0 0 -1 2 0 -1 1 1 0 0 0 1 -1 1 -2 1 0 1 -2 1 1 0 1 0 1 1 6 -1 2 1 1 1 1 1 -6 -2 0 2 2 2 2 1 0 5 -1 0 1 1 0 -1 0 0 1 -1 0 0 -1 2 1 0 0 0 0 0 0 0 0 0 0 1 0 1 -1 0 1 1 0 -4 0 1 0 1 1 0 0 1 0 0 1 -1 0 0 0 1 0 2 0 1 0 1 1 
1 0 -4 1 0 0 1 0 0 -1 0 0 -1 0 2 1 2 1 -1 0 1 0 0 0 -1 0 0 0 2 1 0 2 0 0 1 1 1 -2 1 0 1 1 -1 0 1 0 4 0 -1 0 0 1 -1 1 1 0 1 0 0 1 1 1 2 0 1 0 1 1 0 1 0 0 -1 2 0 1 0 0 -1 -4 0 0 2 0 2 1 0 0 1 0 0 -1 0 0 1 1 0 0 1 0 -2 1 1 0 2 2 1 1 -2 0 -1 -2 0 -1 1 1 1 1 0 1 1 1 1 1 1 1 0 1 0 1 1 1 1 1 1 1 1 1 0 0 -1 2 6 2 0 0 0 1 -1 -6 -4 0 0 0 1 0 1 1 -1 0 2 -1 1 -1 -2 0 1 2 0 0 0 0 1 0 2 0 0 1 -1 0 0 0 -4 0 1 0 0 0 0 0 1 -1 -1 0 1 1 -4 1 1 1 2 1 1 -1 1 1 1 1 0 1 4 1 0 1 2 0 1 1 1 1 1 1 0 1 1 0 -2 0 1 1 -1 0 1 1 2 0 1 0 1 0 1 0 -1 1 1 2 1 0 3 1 3 2 -4 0 1 0 4 1 0 1 2 0 1 1 2 0 0 3 1 0 4 1 0 0 0 1 0 1 -1 1 2 1 0 1 -2 1 0 1 1 1 0 1 -1 1 5 4 10 30 65 111 143 163 170 174 166 177 169 180 178 183 182 179 177 175 166 173 162 169 168 163 166 163 159 148 153 150 146 143 143 140 112 97 95 108 135 115 136 134 119 132 134 105 98 120 147 150 153 154 156 160 162 165 166 171 172 162 176 165 172 185 186 187 186 170 182 179 172 162 127 132 109 81 54 22 5 2 0 2 4 5 1 1 1 1 -1 1 0 0 -1 0 -1 -3 1 5 2 0 1 0 1 0 2 1 2 1 0 0 1 1 1 6 1 0 0 -1 1 0 0 0 11 0 2 1 1 -4 -4 -5 1 0 2 1 0 -1 0 0 0 1 0 2 0 3 1 0 2 0 -1 1 0 -1 1 0 -1 0 0 0 0 0 -1 0 0 -1 0 -2 1 0 0 0 0 -1 1 0 2 3 1 0 1 1 0 0 1 1 0 0 1 -1 0 0 0 -1 0 -1 2 0 -2 1 0 0 3 -1 -3 -1 2 0 -1 0 0 -1 0 0 1 1 0 2 -1 0 1 -1 1 -3 -3 0 0 -4 0 0 0 1 1 1 2 1 0 1 2 0 1 1 1 1 5 2 0 -6 1 1 4 -3 -3 2 1 1 0 -1 -1 -5 -2 0 0 0 1 1 1 0 0 -1 0 1 0 -1 1 0 -1 0 0 1 0 0 1 0 2 1 2 1 0 0 0 1 0 0 1 1 0 -1 -1 0 3 2 6 0 0 1 0 0 -1 1 0 0 0 0 0 0 0 0 2 1 1 0 1 0 0 0 0 2 0 0 1 0 0 2 0 1 0 -2 -4 1 2 2 1 0 0 2 
0 -1 0 1 0 1 0 1 -1 1 1 0 1 -1 0 2 3 1 0 0 0 0 0 0 1 0 0 0 1 0 -1 -1 0 1 1 1 -1 0 1 -1 1 1 1 0 0 0 0 0 0 -1 1 0 -2 -1 0 0 1 0 1 1 0 1 1 0 0 1 0 -4 1 -1 0 3 -2 0 0 2 1 1 1 0 -4 2 1 1 0 0 1 1 0 0 -1 0 0 1 0 1 -1 0 -1 0 -4 -1 0 0 1 4 4 1 0 1 1 0 1 -1 -2 0 0 0 1 2 1 0 1 0 -1 3 3 0 -1 1 -1 -2 -1 0 0 5 0 0 0 0 0 0 0 -3 1 3 2 1 -4 1 0 -1 0 -1 1 1 0 -3 1 1 2 -2 2 1 0 1 0 -1 0 0 -6 0 1 0 1 0 1 1 2 1 -1 -1 1 1 1 5 1 0 0 3 0 0 -1 1 0 0 -1 1 2 -1 1 2 -1 1 -2 1 2 1 2 1 2 1 1 1 1 2 1 1 0 2 2 0 0 1 -1 0 1 -4 -5 1 0 2 3 6 1 -1 1 1 -1 0 -1 0 -2 1 3 0 0 1 1 1 1 0 0 0 -4 0 1 0 2 2 0 1 0 1 1 4 -1 0 1 0 1 1 0 0 1 -1 1 1 1 0 1 0 2 1 0 2 -1 0 -1 0 0 7 5 32 29 74 123 150 165 174 167 180 181 183 181 184 176 170 178 178 176 174 162 167 163 163 159 142 153 148 143 132 103 106 91 79 65 66 62 59 53 49 51 53 48 45 46 43 40 41 54 53 65 80 91 84 113 124 130 133 126 141 138 150 152 141 143 162 169 173 177 181 184 178 185 186 186 186 182 166 171 162 149 123 84 43 14 4 2 2 6 0 0 -1 -3 0 1 1 2 0 0 1 1 0 1 1 3 1 1 2 1 0 -7 1 0 0 0 1 0 0 1 1 1 0 0 0 1 1 0 0 1 -1 2 1 -4 0 1 0 -1 2 5 1 -2 -1 0 0 1 0 0 1 2 2 0 1 2 1 0 -1 1 -2 0 1 0 1 1 1 2 2 1 0 -1 -1 0 1 0 1 2 0 1 0 2 1 0 0 0 1 0 -3 1 3 0 -1 1 0 1 3 -1 0 -1 -3 0 2 -1 2 1 0 0 0 3 2 1 1 0 0 0 1 1 2 1 0 1 1 0 1 0 0 -1 0 0 1 2 0 -4 -2 1 1 1 2 1 0 0 4 5 2 1 0 -2 0 1 0 0 -1 0 0 1 -1 -1 2 1 1 0 -1 0 -1 1 -1 1 1 1 2 0 1 1 -2 2 0 0 0 1 1 -5 2 0 0 2 -2 1 0 1 0 1 1 2 0 2 0 1 1 1 0 0 0 0 0 -1 1 4 1 -6 0 0 1 0 1 1 -1 0 1 4 0 3 2 1 0 0 2 -1 2 0 1 0 -1 1 -1 1 0 2 1 2 0 -1 0 1 0 0 0 0 0 1 -1 
0 0 1 2 0 -3 0 1 0 -1 1 0 1 0 0 1 0 1 0 0 2 1 5 1 0 1 2 -1 1 0 0 0 0 1 2 2 1 1 2 1 0 -1 0 0 -1 0 -1 0 -1 1 1 1 -1 1 0 0 1 1 0 -4 0 -2 1 -1 -1 -1 -1 -7 0 -1 1 1 0 -1 0 1 1 -1 2 1 0 -1 3 0 0 -3 0 0 0 0 -1 1 2 8 0 0 0 0 0 0 0 0 0 0 4 3 1 -4 1 1 1 0 0 -1 -1 0 0 0 2 0 0 1 1 1 -2 3 0 1 -1 -3 0 0 0 0 0 2 1 1 1 1 -1 -6 -6 0 1 -1 -2 1 0 1 1 2 -6 -2 -2 0 0 0 0 0 0 0 7 1 2 1 1 1 -2 0 -7 0 1 0 5 1 0 0 1 0 1 1 1 0 1 1 0 -1 0 2 0 -1 0 -1 1 5 1 0 0 -1 -1 0 -1 -1 1 0 1 1 1 0 -3 -1 1 4 -2 -1 1 0 1 2 0 2 0 0 1 0 -1 1 -1 1 2 0 1 1 -1 0 3 1 1 0 -1 1 0 0 1 -1 1 1 0 0 0 1 1 0 1 0 0 1 1 1 0 1 1 1 1 1 1 1 1 3 1 1 -1 1 1 0 -2 1 1 0 0 0 4 1 0 1 0 0 3 2 2 8 56 88 143 168 176 179 179 181 181 182 183 183 180 180 177 173 173 171 169 159 132 145 120 130 120 86 87 72 50 49 19 8 5 4 19 4 4 14 4 4 16 3 13 3 1 2 7 3 14 4 4 5 6 10 19 32 43 61 71 77 103 117 126 132 138 145 149 154 154 160 170 175 171 181 172 186 187 186 179 185 182 177 162 143 107 65 27 27 4 -2 0 1 0 -1 -1 2 1 4 7 1 1 0 -1 3 1 -1 1 1 1 1 0 0 2 6 1 -2 1 0 0 0 0 -1 1 3 0 0 -6 -5 -2 0 -1 1 0 1 2 1 0 0 1 1 2 0 1 1 1 0 0 -1 0 -1 1 1 -1 2 2 1 -1 0 1 0 2 0 3 1 3 0 0 1 -1 -2 0 1 1 0 2 0 -1 0 -5 1 1 1 0 1 0 0 1 4 1 -1 0 0 0 0 0 0 0 1 0 1 0 -1 -1 0 5 1 0 1 0 2 1 1 0 1 2 1 1 1 1 -3 0 -1 2 -1 -2 -2 0 2 2 0 0 2 0 0 1 0 0 -1 2 1 1 2 1 1 2 1 0 1 3 1 2 -1 0 1 2 1 1 1 0 -5 -1 5 1 0 2 1 1 1 1 4 0 -1 1 0 1 1 0 0 0 0 1 0 -1 0 0 0 0 -1 1 0 0 -4 0 1 1 1 0 1 4 0 -1 1 0 -2 0 1 0 -1 1 2 0 0 -1 -4 1 2 1 -1 0 0 0 2 0 1 2 2 0 -3 1 0 1 2 0 -1 -2 -1 2 2 1 1 2 -1 0 0 -2 -1 0 0 
-1 0 1 1 0 0 0 0 1 0 0 2 2 2 2 1 0 0 1 0 0 0 0 0 0 0 1 1 0 2 5 0 0 0 -1 0 -1 0 1 1 0 0 0 0 1 1 0 0 0 -1 0 0 0 -1 -4 0 1 1 0 2 0 0 1 -3 0 0 -1 0 -1 0 1 -3 0 2 1 -1 2 3 2 -1 1 5 1 1 -5 0 -1 1 1 0 0 0 1 2 2 0 0 0 1 0 3 1 -1 1 1 2 0 0 1 -1 0 1 -1 0 -1 1 0 0 0 0 1 0 1 1 3 1 1 0 1 -1 2 0 0 -2 0 1 0 -1 0 5 -1 0 1 1 0 -5 -1 0 1 1 1 0 1 2 0 -1 0 0 0 1 1 2 2 1 0 0 2 4 0 -1 0 1 1 0 0 5 1 2 1 1 1 0 -1 1 -1 0 2 2 0 0 1 1 1 1 1 0 0 0 0 1 0 -1 0 2 -1 0 0 0 1 1 1 0 1 0 -1 0 1 0 0 1 1 0 1 0 0 1 1 1 2 1 2 0 -1 0 0 1 1 0 5 0 -1 1 0 0 0 0 0 0 -2 -3 0 -2 0 -1 1 0 0 1 0 -1 0 1 -1 1 3 -1 0 2 1 1 1 2 -1 1 1 1 1 2 -1 0 0 0 1 2 1 0 -1 2 27 48 50 97 149 141 155 180 180 171 181 175 183 183 174 171 174 173 170 168 164 153 135 97 83 63 44 29 16 7 4 4 2 1 8 0 3 0 1 -1 2 4 2 -1 7 1 1 1 0 1 2 1 2 0 -1 -1 -1 8 1 1 4 8 15 19 38 59 78 89 105 120 127 127 140 146 153 158 155 167 158 175 176 183 184 176 188 187 185 180 172 153 128 89 45 16 5 9 0 2 -1 3 -1 1 0 -1 2 1 0 2 -1 0 0 2 10 6 6 0 2 4 1 -2 2 1 1 1 1 1 1 0 1 0 1 1 1 0 0 -1 0 1 -1 -4 1 1 0 1 1 -1 0 0 1 2 4 1 1 1 0 -1 -1 -1 1 1 1 1 -2 0 -5 1 0 -1 0 0 1 1 1 0 -1 -3 -1 1 1 0 2 0 0 0 1 0 -3 0 2 0 4 1 1 1 -3 0 1 -1 0 1 1 0 2 0 0 0 0 -2 1 1 1 0 0 1 2 1 0 1 0 0 0 2 -1 -1 0 1 -4 0 0 1 5 1 2 0 0 2 -1 0 0 0 2 0 1 1 2 1 0 0 0 1 2 -1 -4 -1 1 1 2 -1 1 1 0 0 0 -3 1 0 0 -1 0 2 4 2 1 1 1 1 -1 2 1 -1 1 0 2 0 -1 0 1 -2 0 1 2 1 1 0 0 0 -1 0 1 1 0 -3 2 -5 1 -4 0 1 0 1 1 2 0 1 0 1 1 0 0 0 -1 -1 1 0 0 1 0 -1 1 3 -1 0 1 0 0 1 -1 1 -4 0 1 0 1 1 0 0 1 1 1 0 0 -1 
1 0 0 0 -3 0 0 -1 0 2 0 1 1 1 0 2 0 0 1 4 1 3 1 1 1 1 0 1 1 1 1 1 1 0 0 1 0 1 1 0 0 0 0 1 0 1 1 -1 -1 1 1 0 -1 1 1 0 0 3 0 1 0 -2 1 -1 0 1 0 1 3 1 1 0 0 -1 -1 -2 0 0 0 0 1 0 1 0 1 -1 -4 0 1 -2 0 1 0 6 1 0 4 1 0 1 3 -4 -4 1 1 -1 1 0 1 0 0 0 0 0 0 0 1 -1 -4 0 0 0 0 1 0 0 0 1 2 0 0 1 1 -1 0 0 1 1 0 0 1 1 1 0 0 -2 -1 0 0 0 -1 0 0 0 1 2 1 1 1 0 1 1 3 1 0 1 -1 2 0 0 1 1 3 1 0 1 1 3 0 1 1 1 0 0 2 1 1 0 5 1 0 0 2 0 0 1 1 0 1 1 1 1 1 1 1 3 1 4 2 2 0 1 1 0 0 -1 0 2 0 0 -1 -4 -5 0 1 -2 0 0 1 0 1 3 2 4 0 0 0 0 1 0 2 2 1 0 1 1 -2 0 -2 0 -1 0 0 1 0 0 -1 -1 0 1 0 1 1 1 1 -4 -4 0 0 -1 -1 0 1 1 0 2 1 0 1 2 0 5 11 3 2 7 4 14 59 102 158 175 181 179 179 181 173 183 183 169 177 174 172 170 167 161 152 138 111 77 37 10 6 4 1 0 0 -1 0 1 0 -1 1 2 3 2 1 2 1 2 0 0 2 0 0 1 1 -1 0 -5 -1 0 2 1 0 1 0 2 13 8 4 11 9 25 33 48 67 83 99 110 114 124 126 135 141 133 138 158 165 170 167 177 181 185 179 174 187 184 175 162 112 107 68 30 7 2 1 0 2 1 0 1 1 0 1 1 0 -1 1 2 2 11 7 2 0 1 1 0 4 1 1 0 -5 -1 1 0 -1 0 1 1 -1 0 1 0 1 1 1 -1 1 3 -1 0 0 1 2 0 1 -1 2 1 -1 3 2 0 1 1 2 1 0 3 1 0 -1 0 1 1 1 1 1 1 0 1 2 1 0 -4 1 0 1 0 0 0 1 0 0 0 0 0 2 1 0 -1 -1 2 -1 0 0 1 -1 0 0 1 0 0 0 -1 -1 1 0 1 0 0 1 1 0 -6 -5 0 -1 0 0 -3 -2 0 1 1 0 1 1 0 1 1 1 1 1 1 2 4 1 -1 0 0 0 0 0 0 1 0 1 0 -1 0 1 -1 0 -1 1 0 0 0 -5 0 1 1 4 0 1 0 2 0 0 0 0 1 1 1 1 0 1 -2 0 -1 -6 0 0 1 1 3 1 1 1 0 1 1 0 0 1 -1 1 1 1 0 2 0 0 1 2 1 1 1 1 1 1 0 0 0 1 0 -4 -1 1 0 0 1 0 0 4 -1 -2 1 1 -2 0 2 0 0 0 1 0 1 1 -1 0 1 0 0 0 1 1 0 
1 0 0 0 0 0 0 1 0 1 0 1 -1 1 0 0 0 0 2 0 0 1 0 2 3 0 0 0 -1 -2 -1 1 4 2 -1 0 0 2 0 -1 -1 0 0 1 0 0 3 2 1 -1 1 1 2 -3 0 1 1 0 0 1 -1 -5 1 -1 1 1 1 1 0 0 1 0 -2 -1 -2 -1 1 5 1 2 0 -4 1 -4 1 1 0 2 0 0 0 1 0 1 1 1 0 2 3 1 1 1 0 0 1 -1 0 0 2 0 -1 0 0 0 -1 0 5 1 -1 1 1 1 2 1 1 0 0 0 1 1 -1 0 1 1 0 1 0 0 0 1 1 0 1 0 0 -3 -7 -3 1 0 2 0 0 -1 2 3 1 1 1 -1 0 1 1 1 1 0 -1 -3 0 -1 0 -1 3 -1 1 1 2 -1 -1 0 0 -1 1 0 0 0 0 0 0 0 -2 1 -1 -1 0 1 -1 1 0 -1 1 2 -2 1 2 0 0 0 3 0 1 0 1 2 0 1 1 6 1 0 1 -1 -1 0 -1 0 0 1 1 0 0 2 0 1 1 -5 1 -1 0 0 1 1 1 1 1 1 -2 1 -2 1 0 -5 0 0 1 1 -1 2 -1 1 4 0 0 0 1 1 0 -1 1 0 2 0 1 0 1 0 1 0 1 0 -2 2 1 1 7 43 70 130 162 152 181 183 182 177 184 183 182 181 177 173 162 154 159 152 135 96 71 58 13 3 2 0 1 1 4 1 10 1 2 0 1 1 0 1 0 1 11 4 3 5 6 6 8 8 8 30 10 8 8 11 11 13 39 38 7 3 4 17 4 9 14 2 2 0 7 28 40 54 68 88 104 112 116 118 121 123 130 125 132 147 157 162 169 175 179 183 185 173 167 156 146 144 156 131 93 50 18 6 3 6 1 0 1 0 1 1 0 1 1 -2 1 0 1 0 -1 0 0 -5 0 0 0 2 0 1 1 0 1 1 0 0 -5 0 -1 0 0 1 1 0 1 0 0 2 0 2 0 -1 0 2 1 0 1 1 1 1 1 0 0 -1 1 -1 1 1 0 0 2 1 1 1 0 1 -1 -1 1 1 0 1 1 1 0 0 1 0 -2 1 1 1 1 1 1 0 1 -3 1 1 1 1 0 1 1 6 0 1 2 -1 0 1 0 0 1 0 0 1 2 1 -1 -1 1 1 -1 0 -1 1 0 -1 0 0 0 -4 0 2 2 1 0 0 1 0 0 1 0 -1 0 -3 2 0 0 2 0 -7 -1 -5 -2 -3 0 0 -3 1 0 -1 2 1 1 0 1 0 0 1 0 1 0 1 5 1 1 -2 2 -2 0 -1 1 1 1 1 -2 -4 0 0 2 5 1 0 2 0 1 1 0 2 0 3 0 1 0 0 0 1 1 0 1 0 0 0 1 -1 0 1 -1 1 0 0 0 0 0 1 0 1 0 0 1 1 0 0 0 0 0 1 1 2 0 1 1 3 -1 0 0 0 2 1 1 -1 -3 1 
1 -3 0 0 0 2 0 -1 1 1 1 0 1 1 2 3 0 -2 1 0 1 0 2 2 0 0 0 1 2 1 1 1 1 2 1 0 -2 0 0 -1 1 1 -1 0 0 3 1 0 -1 0 0 2 1 1 1 2 1 0 1 1 2 1 -1 2 1 0 2 7 2 1 2 0 2 -3 1 1 1 2 0 0 1 1 1 1 -1 0 1 0 0 0 -4 0 1 1 0 -1 0 0 2 3 1 0 1 0 1 -4 0 -1 1 0 1 0 0 2 0 0 0 0 0 1 0 0 1 0 0 -1 -1 0 0 1 0 0 0 0 2 -1 1 -1 0 1 0 1 0 0 0 0 -9 0 0 -3 1 1 0 0 4 0 0 4 1 0 0 -2 0 0 0 0 1 -1 1 2 1 -4 1 -1 1 3 -2 -1 0 0 -1 1 -6 -1 2 0 1 -1 -1 -1 -1 2 2 1 3 1 -1 0 1 2 1 1 1 2 -1 0 1 0 0 1 1 6 3 -2 1 0 1 5 1 1 -1 1 2 1 0 1 -2 0 0 1 0 2 4 -1 -1 1 0 2 1 1 1 -1 0 1 4 0 1 2 -1 0 6 1 0 4 1 -1 1 -1 0 -1 0 -1 0 2 -2 0 -1 5 0 2 1 -2 0 1 0 0 0 2 0 4 2 2 4 22 77 135 141 178 186 184 184 174 184 184 185 177 177 173 161 162 152 132 104 68 34 10 5 3 1 7 0 1 2 0 2 2 6 6 0 3 4 13 7 29 16 32 49 68 90 99 103 103 104 103 72 82 104 74 73 104 109 110 100 101 86 73 69 47 31 22 15 7 5 6 7 13 19 28 45 63 74 92 106 112 116 116 115 116 119 123 133 141 144 158 164 168 169 179 171 186 187 186 184 177 165 146 114 70 34 6 2 1 1 0 0 0 0 0 -1 -3 2 2 1 1 -2 0 0 0 0 2 0 2 -1 1 -1 2 2 1 1 1 1 -1 0 1 0 1 -1 1 1 0 3 1 -1 0 0 0 -1 -1 1 5 1 0 0 0 1 1 1 0 3 1 1 1 0 0 0 -2 -1 1 -4 -1 -1 1 1 -3 0 -1 1 1 0 0 0 2 -1 0 -1 1 2 3 0 1 3 -3 -1 1 0 0 -2 1 1 0 1 1 0 0 2 0 1 0 -1 1 0 0 1 1 1 0 1 0 0 1 0 0 -2 0 0 0 -1 1 0 0 3 -1 -3 0 1 0 0 0 0 0 -1 1 -1 1 2 2 0 0 -8 -7 -1 1 1 1 2 0 1 1 0 -4 0 0 -1 1 0 1 0 0 0 1 0 2 0 1 1 1 0 0 1 0 -2 0 1 0 0 0 1 1 1 0 1 1 1 2 0 0 -1 -1 -1 0 0 0 0 0 0 0 0 -1 -1 0 -3 -1 -3 -2 2 0 -1 1 1 4 1 0 -1 0 1 1 1 1 0 1 2 1 0 0 1 1 0 1 2 1 0 2 1 0 0 0 1 1 0 1 
0 1 -1 0 1 1 1 1 0 2 1 -1 0 0 1 6 0 -1 1 1 0 1 1 0 1 1 0 0 1 1 1 0 1 1 1 0 -1 0 1 -2 0 -1 -4 -3 0 1 1 1 0 -3 0 0 0 0 1 0 1 0 0 1 1 2 0 5 0 1 5 4 0 0 0 0 -1 0 -1 3 1 0 0 0 1 1 1 0 0 1 1 1 0 0 -1 1 1 1 3 2 0 1 6 1 0 -1 0 1 0 0 0 0 -4 0 0 1 1 2 0 1 1 1 1 0 0 0 0 -3 0 -1 1 1 2 2 0 0 -1 0 -1 0 1 -1 1 0 1 1 1 0 -2 0 1 1 -1 0 0 0 3 2 0 0 -1 1 2 1 0 -5 -1 0 0 1 1 1 0 0 0 1 -1 1 0 1 5 1 2 0 1 0 0 1 2 -4 4 1 2 -3 1 2 1 1 1 1 1 1 0 0 2 1 6 1 2 0 1 1 0 1 0 0 4 4 0 1 1 1 -2 -1 1 1 0 2 0 0 1 -1 1 0 0 1 -1 2 0 -1 0 -2 1 8 9 1 -7 -1 0 -4 -1 1 1 0 1 1 1 1 0 -1 -1 0 2 1 0 1 6 1 0 1 2 6 5 1 2 -1 0 -1 -1 1 1 0 1 3 26 25 79 139 172 183 185 186 184 186 186 185 175 180 176 173 171 162 145 99 69 31 33 5 0 0 0 1 1 1 1 1 -1 0 5 21 6 10 19 38 54 74 97 113 104 137 125 151 155 142 157 157 157 133 129 153 153 152 125 131 152 140 151 149 145 144 138 133 125 114 105 93 82 69 56 55 34 49 32 45 58 73 87 93 105 113 114 114 112 113 113 116 125 135 140 137 160 169 169 180 185 187 189 187 180 183 171 129 98 71 41 5 2 5 10 9 2 1 1 1 0 1 1 0 1 1 -1 1 2 2 0 1 1 0 2 1 1 0 1 1 2 1 2 0 1 -1 -1 1 4 0 0 1 0 1 1 0 1 1 1 1 1 0 1 1 1 1 4 0 3 1 0 4 0 0 -3 1 1 0 0 0 0 0 1 0 -4 -1 1 0 0 0 -1 1 1 0 0 1 1 0 -2 0 0 0 1 1 1 -1 1 2 2 2 1 1 0 1 1 2 6 0 -2 1 1 0 1 0 2 4 1 0 0 2 0 1 1 0 2 2 0 1 0 1 2 1 2 1 -2 0 0 2 1 0 0 1 -1 1 -1 0 1 2 -1 -1 1 0 0 0 2 -1 1 -1 -1 1 0 1 1 1 2 1 2 0 0 0 1 2 0 0 -1 0 1 0 3 0 2 0 2 -1 0 1 1 1 -2 1 0 -1 0 -1 2 2 0 0 1 1 1 1 1 0 0 1 0 1 1 2 0 0 0 1 3 1 2 0 -2 0 2 1 0 0 0 -1 0 1 1 0 0 0 -1 1 1 0 -1 0 0 0 0 1 1 -1 0 1 1 2 0 -3 
1 1 0 1 0 0 0 0 1 0 -1 0 1 4 0 1 0 -1 0 1 0 1 1 0 1 0 0 1 1 0 0 1 1 0 4 1 -2 -1 1 0 1 0 1 0 2 0 0 -1 0 0 1 -1 0 -5 -6 -7 -4 0 2 1 1 0 0 0 0 1 2 0 0 1 -1 -5 -1 0 2 0 0 -1 1 -1 -1 0 5 2 0 0 1 -1 2 2 1 0 -1 1 2 0 1 0 2 1 0 1 1 -1 0 1 0 0 0 0 2 0 1 6 2 0 1 2 2 1 1 1 2 0 0 1 0 1 0 1 7 3 4 1 1 0 1 -1 1 -1 0 1 0 0 1 1 1 0 -2 1 0 1 -1 1 0 1 1 0 0 0 0 2 -2 0 0 0 0 2 0 1 -1 0 0 1 1 0 0 1 0 0 0 -1 1 2 2 0 -2 0 0 1 0 0 0 0 0 0 1 1 2 2 -1 0 1 -1 1 2 2 0 1 5 1 -1 0 1 0 0 0 -1 1 0 0 1 1 1 1 1 0 1 0 1 0 -3 -1 -1 0 2 2 -1 1 1 -2 0 0 1 1 0 1 0 0 0 1 2 1 1 1 1 1 1 1 -1 1 0 3 0 1 0 1 0 1 1 -1 1 -1 1 1 1 0 1 6 52 89 141 173 184 187 185 187 186 186 187 184 169 176 168 170 163 145 93 60 10 2 2 2 0 -5 1 0 0 1 1 2 4 6 17 53 82 103 120 135 147 152 133 161 162 150 164 166 162 163 168 167 168 167 166 166 166 167 166 163 147 162 151 164 165 162 151 158 144 150 151 141 145 141 136 132 127 118 105 82 69 61 64 75 84 103 111 112 112 111 111 111 110 110 112 115 119 130 146 159 166 171 176 182 185 187 189 186 165 172 154 107 62 18 20 15 2 6 2 0 1 1 0 0 -6 2 0 1 2 -1 2 0 1 1 0 1 -1 1 0 2 0 1 1 1 1 7 6 4 3 1 0 0 1 2 0 1 1 1 1 0 -1 0 0 0 0 0 1 2 0 -1 0 0 6 0 1 0 1 -1 1 2 1 3 0 0 1 0 0 1 0 0 1 1 1 -1 2 2 1 6 0 0 1 0 1 0 1 2 -1 0 -1 0 1 0 0 -1 2 2 1 2 1 0 2 0 4 1 5 0 0 1 -3 1 0 1 -1 0 -4 0 -1 0 0 -2 -6 0 0 1 0 1 0 0 2 -1 1 -1 1 1 0 2 3 -1 2 0 0 1 0 0 0 0 1 1 -1 0 1 0 2 4 2 1 0 0 -1 1 0 0 0 0 -1 0 0 0 2 0 0 -1 0 3 1 1 1 1 2 -1 0 -1 -1 0 0 0 1 1 0 0 1 1 0 0 1 -4 0 -1 0 0 1 1 1 0 0 1 1 0 0 1 1 4 -1 0 1 2 -1 0 0 1 0 1 2 -1 -1 0 3 1 -1 1 2 0 1 0 0 0 0 3 0 2 -5 
0 0 -1 0 0 0 1 0 2 0 2 1 1 1 0 0 0 1 2 0 1 0 5 0 0 1 0 1 1 0 1 0 -1 -2 1 1 -1 1 1 1 2 1 0 1 1 3 0 -1 0 0 1 1 0 1 0 1 1 0 1 -1 -1 -1 0 0 0 2 0 1 1 1 1 1 2 1 -2 -1 0 2 1 6 1 0 -1 0 1 1 0 1 1 4 -1 0 -4 1 7 2 3 1 1 4 1 2 -1 -1 1 0 -1 0 0 1 1 1 0 2 1 3 0 0 0 1 0 0 1 -1 0 1 0 0 1 0 1 0 0 2 0 1 -1 -1 0 1 0 -1 0 -2 1 1 -1 0 1 0 1 0 1 1 1 0 -1 1 0 0 0 1 0 2 1 2 0 1 0 0 6 0 0 -1 2 2 0 1 0 0 -1 0 1 0 0 1 1 1 2 1 0 1 2 2 -1 1 0 0 1 0 0 1 0 1 8 2 -1 0 -3 -1 -2 1 0 1 6 1 1 3 -1 1 0 0 0 0 0 0 0 2 -2 0 3 1 1 -1 0 10 1 1 0 0 -2 -1 2 1 1 -2 0 2 1 -1 1 1 0 2 1 -5 1 -5 2 1 0 1 -2 0 1 2 2 2 0 0 0 2 0 1 0 1 3 22 80 141 146 181 178 187 187 187 187 187 186 184 175 143 141 161 146 106 51 9 3 0 0 -1 1 -1 -5 0 1 3 20 44 57 55 97 102 119 160 165 159 170 170 169 169 170 164 170 171 170 172 173 174 173 167 172 172 167 166 171 171 172 170 161 165 171 170 167 161 167 165 164 154 154 161 154 158 156 154 145 145 130 128 119 107 104 96 101 106 110 112 111 111 110 110 109 109 108 109 113 120 135 146 155 163 169 173 180 185 187 189 188 168 173 151 111 57 14 2 -1 -2 1 1 2 1 0 0 0 0 -1 1 -1 1 -1 0 0 0 -1 0 1 2 1 0 1 2 1 1 7 2 1 1 1 1 5 1 1 0 2 6 1 -1 0 0 -5 -4 0 -1 -2 -1 0 0 0 0 1 1 1 1 1 0 1 3 5 2 1 1 1 1 0 1 0 1 0 0 0 2 0 -1 2 2 1 -1 1 1 1 1 1 0 0 -1 -1 0 0 -2 0 0 3 0 0 0 0 1 1 1 1 -1 0 1 -1 2 1 0 2 -1 0 1 0 0 0 -1 -1 -1 1 1 0 0 0 1 0 1 1 1 2 0 1 2 -2 -1 -1 0 1 2 -1 1 1 -1 -1 0 1 1 0 -1 0 1 1 -1 1 2 1 1 -4 1 1 3 1 1 1 0 0 0 0 0 -6 0 0 1 1 -2 0 0 0 0 1 1 1 0 0 0 0 -1 0 -1 -2 1 1 1 2 1 0 1 1 0 0 2 0 0 0 1 0 -1 2 1 -1 2 1 2 0 0 0 0 1 -1 0 1 2 0 1 -1 0 -1 1 -2 0 1 1 1 1 1 0 -1 1 1 1 -1 
0 1 0 0 1 1 -5 1 1 1 2 1 3 0 0 0 1 -1 0 1 0 -1 0 1 0 2 -1 0 1 0 1 1 -1 -7 -1 2 -1 -1 0 -1 0 0 0 0 -2 0 0 0 0 0 0 2 0 2 1 0 1 0 1 1 1 1 0 0 -1 -1 0 5 0 2 1 0 2 2 2 0 5 0 -1 4 1 -3 0 0 1 0 1 0 0 2 1 0 0 0 2 1 0 0 0 1 0 2 0 0 1 0 -1 1 -1 0 0 0 1 0 -1 0 0 1 2 1 0 1 0 0 1 1 0 0 1 1 1 -4 1 0 1 -1 0 1 1 -1 -7 -8 1 0 0 -2 0 0 0 0 1 1 -4 0 2 1 -4 0 0 0 1 1 0 0 0 0 0 1 0 1 0 1 1 0 1 0 1 0 1 0 2 0 1 0 1 1 0 5 1 1 5 2 0 0 -1 0 1 0 0 0 3 0 -3 1 0 -7 -9 -1 0 -1 0 0 1 2 4 0 1 1 3 1 1 2 1 0 1 0 1 0 0 0 1 0 2 1 0 0 1 1 0 0 1 1 1 -1 -1 0 0 1 2 0 0 0 0 1 1 1 0 1 3 0 0 1 -1 1 -1 2 3 1 1 2 2 8 0 1 4 20 77 139 172 183 186 178 176 187 178 174 178 184 181 175 152 123 105 84 49 10 2 4 -1 0 -2 -2 0 0 0 4 30 21 54 103 117 155 148 168 171 173 174 174 175 175 175 174 175 175 175 169 177 175 175 177 175 176 175 174 174 173 174 169 169 173 172 172 171 170 171 171 169 168 169 164 169 168 165 161 164 164 156 160 159 155 150 143 137 128 118 114 113 109 111 109 110 108 109 107 98 106 106 102 107 111 122 139 149 160 161 171 170 182 188 188 188 182 171 148 103 49 11 2 1 0 -1 0 0 1 -4 1 -3 -1 -3 2 0 -7 -5 1 3 1 0 1 1 0 0 0 0 -1 0 0 0 1 7 1 1 5 1 1 -1 0 1 1 0 -1 0 1 0 2 1 0 -1 -4 -2 0 -1 0 -1 1 1 0 1 0 1 0 0 0 1 0 0 2 1 1 1 0 0 0 -2 0 1 -1 -1 1 3 2 1 0 1 -1 1 1 1 1 0 1 1 -2 -3 3 0 -1 -5 0 1 1 0 2 0 1 0 2 2 -1 0 1 7 5 1 0 1 0 -3 -6 1 1 -1 1 -4 0 2 -1 1 1 1 1 -2 -1 0 0 5 0 0 1 -1 1 1 1 0 -1 3 1 0 -2 -3 0 0 0 0 1 5 1 0 2 0 1 1 1 0 -4 -3 0 2 0 0 1 1 0 0 -2 1 5 1 2 0 0 1 -1 2 -2 0 0 0 1 2 -1 1 0 0 4 1 1 1 1 -1 0 1 0 -1 -1 0 0 1 1 1 1 0 1 0 3 2 1 1 1 1 2 0 2 0 0 0 -1 1 0 -1 1 1 1 0 0 1 0 1 -1 1 1 
0 5 -1 0 0 1 -4 0 0 1 0 1 1 0 -1 2 0 1 1 0 1 3 0 2 0 0 1 -1 -1 0 0 1 0 0 1 0 0 0 0 1 0 1 0 -3 1 0 1 0 0 1 1 1 1 1 1 1 -1 0 -1 0 2 1 2 0 1 1 2 1 1 3 2 0 1 9 2 1 -2 0 6 0 0 0 0 0 0 0 1 1 1 1 1 0 1 -2 -1 0 1 0 0 -1 2 0 4 0 1 1 0 -1 -1 -3 -3 1 0 -1 0 1 0 1 0 1 1 0 0 0 2 2 -5 1 0 -1 2 -1 1 0 0 1 -3 -6 1 0 -9 -1 0 -2 2 1 3 0 1 1 -1 -3 -1 2 9 0 0 -1 -1 0 1 1 -1 1 1 -1 0 6 0 0 1 1 0 1 0 3 1 1 0 0 1 1 -1 0 -7 1 0 1 0 0 1 0 0 2 -1 -1 0 1 0 0 1 1 1 0 0 -1 -1 -5 0 0 1 5 1 0 2 2 1 -1 1 1 0 1 1 5 1 0 1 -1 -1 1 5 0 -1 0 1 2 1 2 1 -1 0 1 -1 2 1 3 2 0 1 -1 0 0 -1 0 0 0 1 6 1 0 1 1 1 2 3 4 0 -1 0 1 2 7 4 21 74 139 171 185 180 189 188 190 187 177 181 185 173 177 174 165 148 114 58 13 2 0 0 2 1 5 0 -5 0 4 20 57 106 136 114 131 169 175 173 168 175 171 174 177 178 178 177 178 178 177 172 176 177 177 178 177 176 176 176 176 175 174 175 175 174 174 173 172 168 172 172 172 172 172 169 170 170 169 163 162 167 168 165 165 164 163 163 160 157 153 148 139 135 126 122 116 111 109 107 107 103 106 101 105 102 102 98 101 100 122 129 154 149 157 179 185 187 184 188 181 151 141 83 44 9 2 1 0 2 6 2 1 0 0 -1 1 1 -1 -5 0 0 0 0 1 5 0 1 2 3 2 -1 0 0 2 1 -1 0 -1 0 3 -4 -1 0 1 0 2 -3 -2 0 1 1 0 0 1 0 0 2 -1 0 0 -2 0 2 0 6 2 -1 0 1 1 2 8 0 0 1 0 -1 1 1 0 0 0 1 1 0 1 1 1 1 1 1 5 4 1 0 0 1 1 0 0 3 -1 0 0 -1 0 6 1 1 -3 -1 0 1 -1 -1 1 0 1 0 0 -1 0 1 0 1 6 1 0 1 1 0 2 1 0 1 1 1 0 1 2 1 1 -1 1 -2 -4 0 2 0 0 0 2 1 1 0 -1 1 0 0 -1 1 0 2 -2 0 1 0 0 0 -1 1 0 1 -2 -3 1 0 0 0 0 0 1 1 5 2 0 -2 1 1 2 2 1 1 0 0 1 1 0 1 0 1 2 1 2 1 0 -1 1 0 -1 1 0 1 -1 0 0 1 1 0 1 1 -1 1 2 0 1 0 2 2 1 -1 0 0 1 0 0 0 1 3 1 0 0 0 -1 0 0 
0 1 1 0 2 -1 0 0 0 1 0 0 0 1 0 2 0 1 1 1 0 0 2 1 0 0 -1 0 1 0 0 0 -1 0 -1 -2 0 -1 1 1 3 0 -1 0 1 0 0 0 0 -2 0 0 0 0 0 1 1 0 1 1 -2 0 1 0 0 0 2 0 1 1 2 0 0 3 1 2 2 0 1 -1 -1 2 4 1 0 0 2 -1 3 -1 0 1 4 1 0 0 1 0 1 2 0 1 0 1 0 1 0 1 0 0 1 3 0 1 0 0 2 -1 0 0 0 -2 -2 1 1 0 -3 0 0 0 1 0 -1 -1 1 5 0 0 0 -2 -4 -1 1 1 1 0 0 0 0 1 -4 -7 0 4 12 2 1 0 1 0 1 -1 -1 -8 0 1 0 0 0 1 1 0 2 -4 -1 0 0 -1 0 -1 2 -1 0 0 1 2 0 1 -1 0 1 0 1 1 0 1 0 0 0 2 0 -1 0 0 0 0 1 -1 -1 0 1 1 1 1 0 1 0 -1 -1 2 1 1 5 1 1 2 0 0 0 -1 3 0 0 1 0 0 1 -1 -1 -1 0 0 5 1 0 -1 0 1 0 0 1 1 0 -2 0 1 -1 0 0 1 1 0 1 0 1 0 2 2 -1 -1 3 21 73 138 172 183 180 188 190 192 190 189 188 187 185 181 177 173 158 100 63 46 6 1 0 1 1 1 1 0 1 6 36 93 139 161 170 154 146 172 174 175 173 169 174 177 168 175 171 177 178 179 178 177 177 179 177 179 178 175 176 177 176 177 176 175 175 175 170 173 175 174 174 174 169 174 172 173 172 171 163 171 172 170 168 169 170 167 157 154 165 165 165 165 161 159 155 143 144 140 132 122 113 108 106 106 103 104 105 103 97 90 79 61 71 108 140 144 166 174 180 186 188 180 186 162 164 139 90 36 8 1 2 1 2 -2 -1 1 1 1 3 3 -1 1 0 0 1 7 1 0 0 0 2 1 -3 0 0 1 0 0 -1 2 1 1 3 0 0 0 0 2 2 0 0 0 0 1 -1 -1 -1 1 0 -6 0 1 1 1 0 0 1 0 0 -1 0 1 0 1 2 0 1 0 1 0 0 0 0 1 -1 0 4 -1 0 0 1 0 0 1 0 -1 1 0 0 1 0 0 -1 -2 -2 2 1 1 0 3 0 0 1 -1 0 1 1 1 0 0 0 0 1 1 2 1 0 0 3 0 -1 1 3 1 0 0 0 1 1 1 1 2 4 0 0 1 1 -1 0 -1 0 1 0 1 2 1 0 1 1 -1 1 1 0 1 1 -3 0 0 1 1 3 1 -1 1 0 -1 0 0 3 0 0 1 0 1 -2 0 0 0 1 4 -1 0 0 0 0 0 1 0 1 1 0 1 0 -1 1 3 0 1 0 2 0 0 1 0 0 -2 0 0 0 0 -1 0 1 -5 0 2 1 1 4 1 4 1 0 0 1 2 0 -1 -3 0 0 0 0 0 1 0 2 0 
1 1 -1 1 -1 1 -1 1 0 1 3 0 1 2 1 1 1 1 1 0 0 2 1 2 0 -6 0 -1 1 -4 1 0 0 1 0 0 0 -4 0 1 1 0 1 1 1 4 1 1 0 0 0 0 4 1 0 -3 0 1 2 1 0 1 -1 1 1 1 0 1 3 1 1 -2 1 0 0 1 3 2 1 0 1 1 4 5 1 1 1 0 0 0 0 1 1 3 1 1 2 -2 0 0 -4 0 0 3 0 0 0 1 0 1 -1 -3 0 -2 1 0 1 0 0 0 0 0 0 -1 0 1 0 0 1 1 3 0 0 0 1 0 1 2 1 -1 -1 1 1 1 0 1 1 3 0 1 1 0 -1 1 0 3 1 0 -2 1 0 1 1 0 1 1 0 0 1 1 1 1 1 0 -1 -5 -1 1 1 0 1 1 1 5 1 4 1 0 1 0 0 -1 1 -1 -4 -1 -1 3 5 1 0 1 0 -3 0 0 2 1 0 0 0 -5 -1 2 2 1 0 2 -1 0 1 2 0 0 1 -1 0 0 0 0 -1 1 0 0 0 -1 0 0 1 2 0 3 1 6 1 -1 1 -2 1 -1 2 3 0 0 0 0 1 1 1 1 -1 2 0 1 1 1 1 -1 3 17 72 137 172 184 179 180 187 191 192 190 190 188 187 185 179 174 170 149 82 22 16 3 2 1 0 1 2 4 2 7 35 94 150 172 176 167 168 176 158 175 176 177 174 177 174 172 163 175 172 176 176 177 177 179 170 168 177 179 178 178 172 177 177 179 176 168 175 176 175 175 177 175 164 175 175 173 174 171 173 165 173 173 174 171 167 171 164 171 168 161 167 165 167 168 166 165 158 162 152 156 153 147 138 126 116 110 105 103 102 98 99 93 81 68 62 50 66 114 146 158 167 175 181 184 189 189 188 177 162 117 82 33 5 1 2 1 1 1 -1 -1 2 1 1 1 1 0 2 7 3 1 -1 0 3 0 1 0 1 1 -1 1 -2 0 -4 0 0 7 0 -4 -1 0 3 0 1 -1 2 0 0 0 0 0 -4 -3 0 5 2 0 -1 2 1 1 -1 0 -6 -1 0 3 1 1 1 0 0 0 0 0 -1 -1 0 0 1 -1 0 1 2 -1 1 0 0 0 1 1 1 1 1 0 1 1 1 1 1 0 1 1 0 1 1 2 1 2 1 0 0 2 1 -1 0 1 1 0 0 1 1 1 2 0 0 2 0 1 1 0 1 1 0 -1 2 4 4 2 1 1 -2 1 1 1 0 -1 1 5 2 3 2 1 1 -3 5 1 0 -1 1 -6 -4 1 1 1 0 0 -1 0 1 -1 1 2 5 1 7 1 -4 -1 0 -1 1 2 0 1 -3 0 1 -5 2 -1 0 -1 1 1 1 0 1 1 2 0 0 2 -1 1 -1 0 1 1 -3 0 -1 -1 3 3 0 1 -1 2 -1 1 0 1 1 0 0 -1 1 1 3 1 0 0 -1 1 1 2 3 0 1 1 
2 0 2 2 0 -2 0 -1 0 3 0 0 0 0 0 2 0 0 0 2 2 0 0 5 -2 1 3 0 0 -1 1 4 1 1 -1 2 1 1 0 0 0 4 2 7 9 4 0 0 0 0 -1 0 -1 -4 0 0 1 0 1 2 1 1 0 -4 1 1 0 -1 0 0 0 -1 1 1 3 1 -1 4 1 1 0 -1 1 1 -1 1 0 -1 -1 -2 1 0 1 0 1 -1 0 1 1 0 0 0 1 1 5 0 0 1 1 0 -1 0 0 3 0 3 1 1 1 0 1 1 0 0 1 -1 0 1 3 0 1 1 -2 -2 -1 0 0 -1 1 0 2 1 1 1 0 0 -4 2 1 1 4 -1 -1 -2 1 1 2 1 -1 1 0 -1 0 0 -1 0 0 -2 1 0 1 2 1 0 0 1 -1 1 1 2 1 1 0 3 1 1 1 0 -2 0 -3 1 6 9 1 0 0 0 -2 0 0 2 1 -1 1 -1 -3 0 0 1 0 0 -2 0 -1 0 0 0 0 0 0 0 0 1 1 1 0 0 0 0 0 1 2 0 1 -4 1 1 -1 1 1 -1 2 1 1 2 0 -2 1 1 1 1 1 -1 -2 0 5 1 0 0 1 0 0 2 11 11 17 17 74 134 171 184 187 189 189 191 192 192 189 189 188 187 185 177 172 165 137 66 7 1 0 0 1 11 2 -1 2 4 26 83 147 171 179 179 172 177 173 176 174 175 174 174 174 175 173 172 173 172 172 173 173 174 177 173 176 169 178 178 181 179 177 169 179 178 171 175 166 176 171 167 176 176 176 176 177 176 175 176 167 173 174 174 173 173 173 171 171 171 163 153 169 169 169 168 167 167 163 162 165 162 157 160 155 144 136 127 121 111 108 101 100 102 92 82 69 55 43 70 96 122 146 143 166 176 182 185 189 190 174 176 160 126 63 12 3 0 -1 -7 0 1 -1 0 4 4 1 1 0 -2 1 0 0 0 3 2 1 0 2 2 0 -1 1 2 -1 0 -1 2 1 2 0 -1 1 1 1 -1 0 -2 0 -2 1 -1 1 -1 0 1 0 0 0 1 1 2 0 1 0 -6 -1 -1 1 1 4 1 1 3 1 0 1 0 0 1 2 0 0 0 8 1 5 0 1 0 1 0 -1 0 1 1 0 0 0 1 0 2 0 1 3 1 2 1 1 1 -1 1 0 0 0 0 0 -1 1 2 -1 0 1 0 0 1 0 1 1 1 1 1 1 1 0 2 1 0 0 0 -1 1 -1 -1 0 0 0 1 0 0 1 0 0 0 0 0 0 0 0 1 1 -6 1 0 1 1 1 2 0 -1 0 -1 2 1 1 1 2 0 0 0 0 0 0 0 2 2 0 -1 0 0 1 -2 -3 0 0 0 1 0 -1 0 -2 1 0 1 0 4 1 -3 -1 0 0 1 0 4 0 0 0 1 1 0 2 3 1 1 0 0 -1 0 2 0 2 -1 -2 1 0 0 1 1 5 1 0 0 
1 2 1 1 0 1 -1 -4 -1 2 0 0 0 2 0 0 -1 -6 0 0 0 -2 2 7 1 0 1 1 1 0 0 1 1 0 0 0 1 1 -1 0 1 2 4 1 -1 1 2 1 -1 2 1 0 1 -1 0 -5 -1 -1 0 0 2 1 0 0 1 0 0 1 0 1 2 1 1 1 0 2 1 0 0 0 0 -2 -1 1 0 2 1 0 1 2 -1 0 1 1 0 -1 -2 -1 0 1 0 1 2 5 5 0 -1 2 0 0 1 1 0 0 0 1 1 1 0 1 0 1 3 1 1 -6 0 4 0 5 1 1 0 2 0 -3 0 1 1 1 1 2 -1 -1 0 1 2 -1 0 -1 1 0 -1 0 -1 5 0 1 0 0 2 0 0 1 0 1 -1 0 0 0 1 2 1 -3 0 1 1 0 0 0 -1 1 0 1 2 0 4 1 1 1 2 1 0 0 0 0 0 -1 0 0 -6 0 1 1 0 -2 -2 1 -1 0 1 2 -1 0 -1 -1 3 2 0 3 -1 -4 -1 0 1 0 -1 -1 1 3 1 -1 2 1 4 0 4 1 0 1 1 1 1 1 -1 0 0 1 -1 2 5 1 1 -1 1 1 2 1 -1 0 -1 2 1 1 4 15 68 134 169 182 171 187 186 191 191 192 191 190 191 190 187 183 176 170 159 104 57 5 0 -1 -4 0 1 9 13 4 21 79 141 169 163 180 180 179 178 176 176 176 175 175 174 173 172 172 170 171 171 164 170 170 170 171 170 173 173 175 176 177 179 178 179 176 178 177 165 177 165 177 177 178 177 176 176 176 177 177 176 176 175 176 175 168 174 174 173 174 173 173 172 152 154 159 170 171 167 167 168 167 168 166 164 164 162 161 158 153 147 138 124 113 105 99 93 81 70 59 49 51 33 64 83 103 128 161 169 171 183 186 178 188 184 160 146 90 45 4 2 0 0 0 0 2 4 0 0 1 1 1 1 5 1 1 0 1 0 2 1 0 1 3 0 1 -1 1 -1 1 0 1 1 1 0 1 1 2 1 0 1 -4 0 0 1 1 -2 1 0 0 0 2 1 2 0 0 0 0 -1 1 0 1 0 0 0 1 0 2 1 1 1 1 -1 0 1 0 0 0 1 -1 0 0 2 0 0 1 1 0 0 0 -1 2 -1 1 3 0 0 2 0 0 1 -1 1 2 0 3 2 0 1 -2 1 1 -3 0 -4 1 0 1 0 -7 0 -1 0 1 1 3 3 6 1 -3 0 3 1 1 -1 1 2 0 1 1 1 1 0 0 3 1 1 1 0 0 -1 0 1 0 0 1 0 0 0 4 2 1 0 -1 0 1 -1 0 7 0 0 -1 1 8 1 1 1 2 2 0 0 0 1 0 1 1 1 1 0 -1 1 2 1 0 0 -2 0 0 -1 0 0 0 1 1 0 2 0 0 1 0 1 0 7 0 -1 0 2 3 1 -1 0 1 2 -5 1 0 2 0 0 3 0 1 -1 0 
2 0 1 1 0 2 -2 -1 0 1 -1 0 0 0 0 1 -3 -3 2 0 1 1 0 -1 -3 0 5 7 2 -1 1 4 1 0 1 -1 0 0 0 1 1 0 2 -1 0 -1 -4 1 0 1 1 1 1 -4 -1 -1 -7 1 1 0 -1 1 1 0 -1 1 1 0 0 1 0 3 1 1 -1 -2 1 1 0 0 0 1 0 0 2 5 2 0 1 2 2 1 0 0 2 0 1 0 1 0 2 0 0 0 0 2 -1 1 -1 2 0 2 -1 -5 0 0 -1 0 1 2 0 1 5 0 -2 -4 -1 0 1 2 3 0 1 1 0 2 0 -1 0 1 2 -3 1 2 1 0 2 1 2 0 -2 1 0 3 1 -1 1 0 2 1 2 0 1 0 1 0 1 0 -2 1 0 -1 1 -1 0 0 2 1 0 2 0 1 -1 1 1 1 1 3 1 1 4 0 1 0 0 1 0 0 1 1 0 0 0 0 1 1 1 0 1 1 1 -1 1 1 -1 0 1 -1 1 0 1 0 0 0 0 -1 -1 0 3 0 1 0 -1 0 0 1 1 2 0 0 -1 -1 0 3 1 -1 1 0 -1 0 0 4 0 1 0 1 1 0 0 0 1 -1 3 11 59 130 168 182 180 187 172 189 181 192 193 186 183 190 191 189 179 175 170 124 93 24 4 -1 1 1 0 1 1 3 17 75 110 169 181 183 182 179 173 172 176 169 175 175 173 172 173 172 171 171 171 169 170 170 170 167 167 169 170 169 169 169 172 173 176 169 178 179 174 171 172 178 178 178 180 177 170 177 169 178 178 176 178 173 175 176 176 175 174 176 175 173 174 174 174 172 171 171 172 172 160 169 164 169 167 166 168 167 164 162 162 163 160 156 150 142 129 120 104 84 71 61 47 42 26 27 46 64 102 139 155 163 172 177 183 186 189 188 179 161 120 58 29 4 1 1 1 0 1 2 11 4 1 1 0 2 1 -1 1 -2 0 0 1 -2 0 2 1 1 0 3 0 -1 0 0 -1 -1 2 1 1 1 1 1 0 -1 -9 -9 0 2 1 1 1 1 1 1 1 0 0 1 1 1 1 0 1 1 0 0 0 -1 2 1 0 -1 1 1 -1 1 0 1 -2 1 0 0 0 1 2 0 0 0 2 -2 1 0 0 1 0 1 1 -1 0 -3 -1 -3 0 1 -1 0 0 1 -1 1 0 0 2 1 0 -2 0 0 1 0 0 2 0 0 1 1 0 0 0 2 1 1 0 1 2 1 -2 -1 1 -1 0 -1 1 1 -1 0 1 -1 1 1 -1 0 -2 0 4 1 1 0 2 0 0 1 0 1 1 0 -2 1 2 2 2 1 0 1 2 1 1 4 1 1 0 -1 0 2 0 -1 0 0 0 0 1 1 1 1 1 -1 0 -4 0 1 2 0 0 1 0 0 1 1 0 0 0 2 1 1 1 1 1 1 0 0 1 1 -1 -3 5 0 1 2 -1 1 -1 -3 0 0 0 0 
-3 0 0 0 1 1 2 4 0 0 1 -1 -2 0 1 0 0 2 0 0 0 3 4 -1 1 1 0 0 2 0 1 0 -1 0 1 0 0 0 0 0 -5 -2 0 -1 1 2 0 0 1 0 0 1 0 0 -1 1 1 0 2 0 0 -1 0 0 -1 1 0 2 -1 2 1 1 1 2 0 0 -1 -1 -6 0 2 0 0 1 0 0 1 1 5 0 1 0 1 2 1 0 1 1 1 0 0 1 0 1 0 0 1 0 0 -1 0 0 0 1 0 -1 1 0 1 1 0 0 1 -1 -2 -2 1 3 -1 1 1 0 0 2 0 0 0 1 3 2 0 0 0 2 -2 1 0 0 5 0 1 0 1 1 -1 1 1 0 0 2 1 1 0 -1 1 -1 0 -1 1 -1 0 2 0 0 1 2 2 1 1 3 0 0 1 0 0 1 0 1 2 1 0 1 1 1 0 0 2 1 -1 0 0 2 2 0 2 0 0 -1 2 -1 1 1 1 0 -4 1 0 -1 3 2 8 1 -2 0 -1 -1 1 0 1 0 0 3 1 2 0 2 1 1 0 0 1 1 1 1 1 0 1 1 1 0 1 0 1 2 0 -1 2 1 0 -1 5 38 51 117 129 180 187 182 189 190 183 193 193 193 183 190 184 189 186 177 173 167 137 68 38 4 0 0 2 5 1 1 7 59 130 169 179 182 182 182 175 179 178 177 177 175 175 174 174 174 172 165 171 170 169 169 168 169 169 168 167 167 166 168 167 167 162 168 170 173 173 177 179 178 178 169 176 178 179 179 178 176 166 178 176 176 177 171 176 176 175 175 174 174 175 175 170 174 167 173 175 171 173 173 169 172 172 171 171 171 168 169 163 160 165 166 163 161 160 159 154 147 127 116 101 76 52 34 29 22 24 40 64 94 126 144 156 165 171 179 186 188 189 179 171 143 85 42 4 3 0 2 1 -1 1 1 0 0 1 1 1 2 1 4 1 1 2 1 0 1 1 1 1 2 0 0 0 0 0 0 1 1 0 4 -4 0 0 0 1 -2 -1 1 1 1 0 1 1 0 1 4 0 -1 1 1 0 1 0 0 0 1 0 0 1 1 1 0 1 0 1 1 1 3 0 2 -1 0 2 0 1 1 1 1 6 1 0 0 -1 1 0 1 2 2 0 1 1 -1 0 1 0 0 1 1 1 1 1 0 1 2 1 2 0 0 0 0 0 1 1 1 1 0 1 0 1 0 0 0 1 -1 0 1 4 1 -2 -6 1 0 0 0 2 1 0 0 0 1 0 1 0 -1 1 -1 1 2 0 0 0 1 -5 0 0 1 0 0 0 1 0 0 -1 0 0 1 0 1 1 0 1 -2 -1 0 0 0 1 0 0 1 0 -1 1 0 0 0 0 0 0 -2 1 1 1 0 4 4 3 1 3 1 1 0 -2 0 1 1 0 0 1 0 0 1 1 2 0 1 0 2 1 0 0 0 1 1 -1 -11 
0 1 0 1 0 -4 1 1 0 0 1 1 1 0 2 0 0 0 0 1 1 0 2 1 -1 1 1 1 -1 1 3 1 2 1 2 0 -1 -1 -1 -3 -1 1 1 1 0 1 -1 -1 1 1 0 -1 1 1 1 0 -1 -1 1 -1 -1 0 0 1 0 1 0 -1 -5 -1 2 1 2 1 1 1 0 -3 0 0 0 0 0 -1 1 0 1 0 3 1 2 -1 -1 1 -2 1 0 0 1 0 1 1 0 1 0 0 0 0 0 1 1 1 0 0 1 -2 1 0 -2 1 2 0 1 0 0 -1 0 1 -1 0 0 1 1 1 -1 0 1 6 9 1 -1 1 -1 0 0 0 0 0 1 0 0 1 1 6 0 1 1 0 0 1 -1 1 3 -1 0 -1 1 1 -1 1 0 1 -1 -3 0 2 0 -1 0 2 2 1 1 1 3 -1 0 1 1 0 0 1 0 1 0 0 1 1 -1 0 1 0 -2 0 0 1 -1 2 -3 1 0 0 1 3 0 1 -2 0 2 4 1 0 -2 0 -1 1 2 2 1 0 1 0 -2 0 1 0 1 1 1 1 2 0 2 1 -1 -1 0 1 1 2 1 0 1 0 0 1 1 1 0 7 40 107 160 178 169 187 190 189 190 192 193 195 194 194 192 191 190 186 180 172 161 124 46 5 2 0 0 1 1 0 3 19 82 126 179 184 185 184 182 181 180 179 177 177 176 175 173 174 174 172 172 170 167 170 170 170 168 169 167 167 163 166 167 166 162 165 164 165 167 168 169 172 171 176 179 179 179 179 180 179 177 177 171 176 168 176 172 176 177 174 176 178 176 175 171 169 174 174 174 173 175 173 167 174 172 173 172 172 172 172 170 171 169 168 165 167 164 166 163 162 162 159 155 149 137 113 92 61 39 32 16 23 40 69 97 115 133 146 159 166 176 180 187 189 187 176 131 92 47 7 1 1 0 0 0 0 -2 0 0 0 0 1 1 0 0 0 2 0 1 1 1 1 0 1 1 -3 0 1 1 1 1 2 1 1 1 1 0 -2 1 0 0 -1 1 0 1 1 0 0 0 1 1 1 0 -1 1 0 0 1 0 1 0 2 0 0 1 5 1 -1 0 0 2 3 0 1 1 1 1 2 0 0 0 1 1 0 0 1 2 1 1 2 0 1 0 0 1 0 0 1 -1 5 1 1 -1 0 1 0 1 1 0 0 0 1 0 -4 1 0 4 1 0 1 2 0 1 -1 0 0 0 -1 0 -1 5 1 0 -1 2 1 1 0 1 3 0 -1 1 0 3 0 1 0 0 1 2 1 0 0 3 0 2 4 0 -2 0 1 -1 4 2 2 1 1 3 -2 -1 2 1 -2 -2 -1 0 0 -1 -1 5 5 1 0 1 0 -1 0 0 0 -1 -1 2 1 1 -1 2 1 1 1 1 2 0 0 0 -1 1 0 0 2 1 2 7 2 2 3 -1 0 2 0 1 1 2 0 0 0 0 0 -3 -7 
0 -1 -1 4 1 1 0 1 -1 1 1 4 0 2 0 -2 0 0 1 0 -1 1 -2 0 1 0 0 2 1 1 0 1 0 1 1 0 1 -1 -1 2 1 0 1 0 0 0 2 0 -1 0 1 1 0 3 1 -1 0 1 0 -3 -1 -1 3 1 0 1 1 0 -1 -4 1 5 0 2 1 1 1 0 3 1 1 -1 0 -1 -1 2 0 1 0 0 -2 0 0 -6 -1 0 0 0 1 1 1 0 1 2 1 1 -3 0 1 0 0 1 1 1 0 -5 -1 0 -4 0 0 0 1 0 0 1 1 1 1 2 0 1 -3 0 0 2 0 1 0 2 0 0 1 -3 0 0 1 0 -3 4 0 -1 0 4 -1 0 1 1 1 -1 3 1 0 -1 1 0 0 1 0 0 2 0 0 0 0 -1 0 1 0 1 0 1 0 1 1 -1 0 0 -1 1 0 0 2 1 1 0 1 0 0 0 -1 1 0 1 1 0 1 -1 0 0 2 2 2 0 -1 -4 -1 1 0 0 0 0 1 0 -6 1 0 0 1 1 1 0 -1 1 6 1 1 0 -1 6 1 0 1 2 4 1 1 1 -1 1 1 1 1 1 0 0 1 18 24 91 151 155 184 188 181 191 192 193 194 194 194 194 194 192 191 191 189 182 173 156 103 49 4 0 -1 1 3 2 -1 5 37 126 172 182 184 184 185 182 181 180 178 173 175 176 176 167 164 173 173 170 171 172 170 168 168 168 167 169 162 167 165 166 166 165 165 164 163 163 164 165 166 165 168 173 177 175 176 180 179 174 179 178 179 178 177 178 177 176 175 177 178 176 177 176 177 174 167 175 174 174 166 176 174 173 174 172 173 174 171 172 173 172 171 171 160 169 168 167 166 166 164 163 164 160 155 147 135 116 85 50 23 25 24 51 77 107 117 125 137 152 164 167 179 185 189 188 182 167 114 75 21 3 3 0 2 0 0 1 1 1 0 2 1 2 -1 0 3 0 0 1 0 8 8 2 -1 1 0 0 1 0 0 0 1 0 0 -1 -5 0 0 1 1 0 1 2 0 4 2 1 -1 0 0 0 0 0 -1 0 0 0 0 1 0 1 0 1 1 1 4 0 1 1 1 -1 2 7 0 -1 -1 1 2 -1 0 -3 -1 0 0 0 0 -4 0 0 0 -1 0 0 -3 1 3 2 0 0 1 0 -2 0 1 0 0 1 1 0 3 1 -1 4 1 0 0 1 1 0 3 2 0 0 2 2 0 0 1 2 0 4 3 0 0 0 0 1 1 0 1 0 1 1 4 0 1 1 0 0 1 0 -2 0 0 0 -1 1 0 1 0 0 3 0 8 1 2 3 0 -1 0 0 0 0 1 0 1 1 0 -4 1 -1 1 1 0 0 0 1 0 1 0 1 1 1 0 -1 2 0 0 1 -3 -8 0 -1 1 -1 0 1 0 2 1 0 0 1 0 2 1 1 1 0 3 0 0 0 4 4 1 0 0 -1 
1 -1 0 1 1 2 0 0 1 1 0 -1 -1 0 1 -1 0 1 1 1 -1 -1 2 2 2 1 1 4 1 -6 0 6 1 0 1 1 0 1 -1 1 2 0 1 0 1 -2 1 1 2 0 -1 0 2 0 1 1 0 1 0 0 -2 0 2 0 -1 0 2 0 6 -2 -1 1 0 -3 1 1 0 0 1 5 2 5 -2 1 1 1 1 0 1 1 0 0 1 0 0 2 0 -1 -2 0 1 0 1 0 -5 -1 1 1 0 0 1 1 -1 1 1 2 -1 1 1 1 0 1 -3 0 -1 0 2 0 -1 1 1 1 0 1 0 2 7 -1 0 0 1 5 3 2 1 1 -1 0 1 3 0 -3 -2 1 -2 1 -1 1 -1 -6 0 1 0 -1 -1 1 1 1 1 1 -1 0 -1 2 0 0 -6 -6 1 0 2 0 2 1 1 1 0 1 0 1 -1 4 1 -1 0 2 1 2 0 -1 0 -3 0 5 1 0 4 1 -1 0 4 1 1 0 1 0 1 1 1 1 1 3 0 0 -4 1 1 1 0 1 -1 0 0 0 0 2 0 0 0 0 0 -1 -3 0 0 1 1 0 1 0 1 0 2 1 1 1 11 62 137 172 169 187 190 192 190 192 192 194 194 194 194 185 192 192 192 189 178 173 152 80 15 3 1 0 -1 1 6 1 9 75 144 179 185 180 184 183 180 176 179 178 179 178 175 167 168 169 172 171 171 173 169 170 170 172 172 169 167 168 164 165 167 162 163 166 164 165 163 161 163 163 161 164 165 166 170 173 177 177 180 179 179 179 179 179 179 178 178 172 178 180 175 171 177 176 172 176 176 176 177 177 175 175 175 175 173 167 164 173 167 173 172 172 172 168 171 170 168 167 168 165 165 164 159 162 156 150 154 145 125 112 81 45 40 26 55 86 109 120 122 131 148 158 168 175 180 176 190 188 175 152 107 43 7 0 1 0 1 -1 0 0 1 1 1 4 1 1 1 0 0 0 0 1 5 1 2 0 0 0 0 -3 -1 0 4 1 0 0 1 1 4 3 2 0 1 0 0 0 0 1 0 0 -1 1 -6 0 1 6 2 0 0 0 2 6 6 2 0 0 1 1 0 -1 0 0 2 1 0 -1 -6 0 0 0 1 1 0 0 0 0 2 0 -1 -2 0 -4 0 -1 0 0 1 1 2 0 0 0 1 0 0 2 -1 2 1 1 1 -1 -2 0 0 1 1 0 0 0 1 1 0 3 1 0 0 -2 0 0 0 0 0 1 1 1 -1 0 0 -1 1 1 1 0 0 1 1 1 1 -1 2 1 0 -4 0 1 -1 -1 0 0 1 -1 0 2 2 1 1 6 0 -9 -1 2 0 0 0 0 0 0 1 -1 0 1 0 0 -5 -3 0 -1 -2 1 2 2 1 1 0 1 1 -1 0 0 1 -5 -3 2 1 -1 1 -4 1 0 1 -1 3 5 1 -3 2 0 -1 -1 1 0 1 2 0 0 2 1 0 -1 
0 0 2 1 1 1 0 -2 0 3 -1 0 3 0 -3 -1 1 1 0 0 0 2 3 3 1 0 1 1 -2 -1 1 1 2 6 1 0 4 2 1 0 4 0 0 1 0 -1 0 0 0 0 0 0 0 0 1 2 1 -1 0 1 0 -1 -2 0 -2 1 1 2 1 -1 -1 0 0 0 -1 0 0 3 -5 0 0 1 0 1 2 3 2 1 3 2 0 0 -3 0 0 -7 -8 0 0 0 -1 0 0 0 0 2 4 1 1 1 0 1 1 1 1 1 -2 -2 0 0 0 1 1 1 2 1 1 1 1 1 0 0 2 1 2 2 1 2 -2 0 1 1 0 -1 1 -2 1 -1 0 0 0 0 1 0 1 1 0 0 0 0 1 1 -1 -3 -4 2 2 4 0 1 1 1 0 -1 0 -4 0 0 -2 0 0 0 2 1 1 0 0 -2 0 0 0 0 1 -2 1 0 0 -1 1 1 0 0 0 0 1 -1 1 0 0 -1 0 1 1 -3 0 0 -1 -5 1 1 1 1 6 5 2 1 0 -1 0 1 2 0 1 5 0 0 1 0 0 2 2 1 1 1 1 0 1 1 0 1 0 0 2 3 6 52 111 163 183 187 188 191 192 191 173 168 179 193 196 196 194 193 193 192 180 172 172 159 88 10 2 0 1 0 1 2 15 15 81 161 184 187 186 185 182 184 181 178 179 178 176 177 177 175 174 173 173 172 171 172 171 170 170 168 170 169 168 168 166 166 166 163 166 165 163 163 163 162 161 154 162 161 158 162 165 168 170 173 177 178 179 179 177 178 179 172 176 179 176 177 171 167 177 176 177 176 178 176 176 175 176 174 175 175 174 174 173 174 175 174 171 173 172 171 173 170 169 170 161 158 154 167 162 164 165 154 160 159 153 143 130 107 76 43 39 59 88 115 123 123 128 142 153 155 163 167 185 190 189 160 146 130 70 17 2 1 2 1 1 2 0 2 0 2 1 1 -1 0 0 0 2 1 0 1 1 2 0 -2 1 0 0 2 0 -3 -3 0 0 -1 1 0 0 -2 0 1 0 0 3 2 0 3 -1 1 0 0 2 2 0 2 1 1 0 2 7 1 -1 0 -1 -2 0 1 1 -1 1 3 0 -2 0 -1 0 1 -1 1 1 1 -1 0 0 2 0 1 0 1 1 -3 2 1 1 1 1 0 1 1 -1 -1 0 0 1 0 2 2 -1 1 1 1 1 1 1 1 0 0 2 3 1 1 1 0 -1 1 0 -1 1 -1 -1 0 -1 0 1 2 0 -7 0 -2 0 0 0 1 1 0 1 1 0 0 2 0 0 0 0 1 1 1 1 0 -1 0 0 0 0 -1 0 0 -1 0 1 2 6 1 1 -1 1 1 1 -1 2 1 0 1 0 0 0 1 4 0 0 1 0 0 -2 0 -1 0 0 -2 0 0 -1 4 2 -1 1 1 1 -1 0 2 0 1 2 0 -1 1 1 0 0 0 -2 1 1 3 5 -1 
2 1 1 -1 1 0 0 1 1 0 0 0 1 1 -1 -1 0 1 3 1 1 0 0 1 0 0 1 2 1 1 1 -1 1 4 1 2 1 4 2 1 0 -2 0 1 -1 1 0 0 0 1 0 -1 0 0 0 1 0 1 0 1 0 0 5 1 0 2 1 0 0 1 0 0 -4 -2 0 -2 0 1 0 -2 0 -1 1 -1 0 -1 1 1 5 0 2 -1 1 -1 0 1 1 1 4 0 -3 -4 1 2 2 0 -3 0 1 0 0 2 0 1 0 1 0 1 1 1 0 1 2 2 1 -1 0 2 1 2 0 0 0 3 0 2 -1 0 1 0 0 -1 0 0 3 0 0 -1 0 -1 -6 2 3 4 0 -1 3 0 0 0 0 0 1 0 -3 0 1 1 3 1 1 -1 0 0 1 -1 0 -1 0 1 1 2 0 -4 0 -1 0 0 3 -3 0 -1 0 0 2 -1 1 0 1 0 0 1 0 1 1 2 1 1 1 3 0 0 -1 1 0 1 3 0 1 5 2 -1 1 8 1 1 1 0 1 1 0 0 1 1 3 4 0 2 1 6 7 2 6 0 1 0 1 0 1 0 0 4 38 55 70 105 174 186 188 190 191 193 193 193 179 174 180 195 197 191 193 193 193 190 183 172 130 98 17 8 2 2 0 1 1 5 63 115 169 179 187 186 185 183 180 175 179 179 179 178 177 176 175 170 175 172 172 172 173 173 172 170 170 169 169 168 168 167 159 167 165 164 166 165 164 159 163 161 162 161 161 160 160 161 161 160 164 160 165 175 173 180 179 179 178 180 177 178 178 174 178 177 177 177 178 178 176 176 177 177 176 175 177 175 175 175 175 173 173 173 168 169 173 173 169 171 171 171 170 159 168 171 169 164 167 163 165 161 163 152 153 142 111 78 71 56 68 101 119 123 125 127 134 148 159 169 176 183 187 189 186 175 151 98 35 4 0 1 1 2 1 0 1 0 1 0 0 1 0 0 1 1 1 1 1 1 0 0 -2 0 1 0 4 2 0 1 -1 -5 0 -2 0 0 2 1 0 4 1 1 0 1 0 2 1 0 0 -1 -4 -1 -4 0 1 0 1 1 1 0 0 0 1 2 0 0 1 0 0 0 -1 0 1 0 -2 2 -1 0 1 0 0 0 0 -2 1 1 1 2 5 -2 1 0 0 -1 -1 -1 0 0 -3 0 1 2 1 8 1 3 1 1 1 0 0 1 0 5 1 0 -1 2 0 2 2 1 0 2 1 1 -1 2 1 1 0 1 1 0 1 1 0 0 0 1 2 -1 0 1 0 2 1 1 0 1 0 1 1 2 1 1 -1 -3 1 1 1 1 1 7 3 1 0 1 1 3 0 0 3 1 1 1 2 6 0 1 0 1 -1 2 0 -3 0 1 3 0 0 2 2 1 0 -1 0 0 1 0 1 0 -3 4 1 0 0 -2 0 1 -1 1 0 1 0 1 0 1 1 -1 1 2 0 0 
0 0 -4 -1 -1 0 0 1 0 0 -1 0 0 1 -1 0 1 0 1 1 0 1 -1 0 0 0 -2 -2 0 0 0 0 2 1 0 -1 -1 3 2 0 1 0 0 4 0 1 0 0 0 1 2 1 1 1 1 -4 -1 1 1 0 5 1 0 2 1 0 1 1 1 1 1 -1 -1 2 0 0 2 0 0 1 1 -1 0 1 1 1 1 1 4 0 0 1 0 2 0 0 0 1 6 1 0 -3 1 1 0 -1 1 0 2 1 -1 -1 1 1 2 1 1 0 1 0 -1 1 1 1 0 0 2 1 1 0 0 2 0 2 1 0 7 0 1 1 1 0 1 3 0 -1 0 2 0 0 -1 0 1 1 -1 1 5 0 0 1 1 1 1 1 1 -4 -2 0 1 3 0 0 1 1 6 0 0 -1 0 1 0 -4 -6 0 -1 1 -6 0 1 4 1 1 -1 1 1 1 -1 1 0 -2 -1 -2 0 0 -1 2 5 0 0 1 2 0 2 1 0 0 0 1 1 0 0 1 7 5 4 4 0 2 4 2 0 1 -1 0 0 1 1 -1 0 7 1 0 1 1 -1 -3 -2 0 9 2 3 36 82 115 127 145 170 189 192 191 193 194 193 195 191 194 195 196 197 196 189 193 190 185 175 161 113 57 4 1 0 1 1 0 4 40 131 180 181 186 187 183 184 183 182 180 180 180 180 178 176 171 167 174 175 174 174 172 172 168 172 171 171 170 169 162 158 167 168 166 155 159 164 164 164 162 163 161 156 162 158 159 160 158 159 157 160 162 164 169 175 178 179 177 179 179 179 179 179 178 178 178 179 176 170 177 176 177 174 178 171 174 176 175 175 175 176 174 175 175 174 173 173 173 173 173 172 164 171 170 170 171 169 169 167 167 166 159 162 162 161 156 149 116 106 103 77 84 109 122 124 125 125 131 144 157 159 165 180 186 189 188 181 161 117 46 6 10 8 0 0 1 1 1 1 1 3 0 0 1 0 0 0 2 0 0 -1 0 0 1 0 2 1 0 0 0 0 0 0 -3 1 0 0 -1 0 0 1 2 3 0 1 0 -6 -1 2 0 1 0 0 1 0 1 0 0 0 1 1 0 2 2 0 3 0 0 -1 1 1 0 -1 -8 -1 1 2 1 1 1 5 0 -4 -1 -1 -1 0 0 0 -4 0 -2 -1 1 1 2 -1 1 0 1 1 -1 1 1 0 0 1 3 0 2 7 0 -2 1 -1 0 1 0 0 1 1 0 0 -1 -4 -1 0 0 2 0 -1 1 7 1 -1 0 0 0 -2 0 -2 0 0 1 1 3 0 1 1 0 1 0 0 0 1 0 0 5 0 1 1 -3 1 1 0 5 6 0 1 0 2 0 2 1 1 -1 0 1 1 0 0 -1 1 0 1 0 0 1 0 1 1 1 0 -1 1 1 -1 -3 0 0 -1 0 0 1 1 0 0 1 0 0 1 2 -1 0 2 1 -1 0 1 -1 2 1 2 3 
1 2 0 0 -1 -6 0 0 1 -1 -4 1 1 1 0 1 0 1 0 1 0 1 0 2 3 1 1 0 0 -1 1 1 0 7 1 0 0 0 -1 0 1 0 -1 1 0 2 2 0 1 1 1 1 1 2 0 1 1 0 1 1 1 0 2 0 0 2 0 2 -1 0 0 0 0 2 0 0 0 0 -1 3 -1 2 2 1 2 0 0 1 2 1 0 0 0 -1 0 0 0 1 0 3 2 1 1 2 1 1 4 -1 1 0 0 1 0 2 0 0 0 1 1 1 2 0 0 2 -1 1 0 1 -1 0 0 1 2 5 3 1 1 1 2 0 0 1 2 3 2 0 -6 0 -1 0 -3 -1 1 3 0 2 0 1 0 1 1 -1 0 0 1 1 0 1 3 0 1 0 2 2 1 0 -1 2 0 0 -1 0 -1 1 1 1 1 2 2 0 0 0 0 0 0 0 2 2 1 1 -1 1 1 0 2 2 1 0 1 0 0 -1 0 3 2 1 5 1 0 -4 1 1 1 0 0 3 -3 2 1 0 1 -1 0 0 1 0 1 1 1 0 2 2 2 0 2 1 1 7 -1 1 6 57 122 176 184 188 191 192 192 193 191 193 190 196 196 196 197 197 195 195 194 191 185 176 163 98 58 31 2 0 -2 0 0 8 59 147 183 188 187 188 188 186 183 182 182 180 179 180 179 176 173 176 174 173 174 173 170 173 172 171 171 169 171 169 170 167 153 154 166 165 166 166 165 164 164 163 162 164 160 155 160 162 161 160 159 158 157 158 160 165 168 174 179 179 177 178 178 180 177 178 178 175 179 177 169 170 178 176 166 176 177 171 175 175 165 173 176 177 174 175 176 176 175 175 174 172 168 172 164 170 161 171 165 169 161 156 168 167 165 159 163 161 159 142 149 137 118 110 114 118 123 126 112 117 129 139 152 160 170 177 176 188 170 155 164 126 58 34 3 -1 4 1 0 2 1 1 1 1 0 0 -1 0 -1 0 -2 0 -1 1 1 -1 -2 0 1 1 0 1 1 7 1 1 0 4 6 2 1 0 2 1 -1 0 3 0 -1 0 -1 -1 0 0 1 1 0 1 3 3 0 1 0 1 1 0 -1 0 1 0 -2 1 2 1 2 -1 0 -1 1 7 0 -2 0 0 1 2 1 1 1 4 0 0 1 -1 -5 -1 0 2 -1 0 0 0 2 -2 1 1 0 0 0 3 0 -1 1 0 0 1 1 0 -3 -1 0 3 1 -1 -1 0 -1 -4 0 1 1 1 0 1 2 0 1 0 1 -3 -1 -4 2 0 0 1 0 0 0 1 0 1 0 -4 1 1 0 0 0 1 3 1 1 0 -1 1 0 1 1 1 1 1 1 -1 0 0 1 1 1 0 2 1 -4 1 -2 1 2 0 1 -3 0 1 0 2 0 0 2 0 1 1 0 -1 -2 1 0 -2 2 1 1 0 1 1 2 1 1 0 1 0 0 0 2 -1 -1 -1 0 0 
0 0 0 0 0 0 -1 1 -1 -4 0 0 0 0 -3 0 -2 1 0 0 1 1 2 0 0 0 1 4 0 0 1 1 -1 0 -1 2 0 0 -1 1 5 0 -1 2 2 2 2 3 2 6 1 1 2 0 1 1 0 0 1 -3 1 0 0 1 1 1 2 0 1 -1 -3 0 2 1 -1 0 1 0 1 2 -1 1 -4 2 0 0 0 0 3 0 0 -1 0 0 -3 -4 0 1 -2 0 1 0 1 -3 0 1 0 1 1 0 2 2 0 1 0 -1 1 1 -4 -1 1 -1 1 0 1 1 1 1 0 0 2 1 1 0 1 0 1 1 0 -2 -1 -1 1 1 -1 -2 0 0 0 -1 -1 0 0 1 1 -1 0 2 0 0 1 0 0 0 -3 1 5 0 0 2 1 0 0 -6 1 0 1 4 1 0 -1 0 1 0 0 1 7 0 1 -3 -1 0 2 1 0 0 0 1 -1 0 0 1 -5 0 0 -1 0 1 0 1 -1 0 -1 1 2 1 2 2 8 1 1 0 0 1 0 2 0 -1 -1 0 1 0 0 -1 1 0 1 6 -1 0 0 1 2 1 1 1 -1 1 13 17 86 158 182 189 189 183 191 192 193 187 194 197 195 192 189 195 198 196 191 182 191 187 179 169 128 35 6 11 1 0 0 0 6 69 159 189 189 182 186 186 179 182 178 182 182 180 179 179 179 170 176 174 165 174 167 174 163 172 171 170 170 170 170 162 161 169 167 151 166 166 166 166 165 162 164 159 163 163 162 160 159 161 161 161 159 154 151 158 157 160 164 168 174 180 180 180 179 180 174 178 178 179 177 179 178 176 176 170 176 176 175 168 171 175 171 174 176 170 176 169 175 169 174 176 175 167 173 167 163 155 159 173 171 169 159 171 170 163 168 166 155 164 162 162 161 154 144 130 113 112 122 115 116 124 127 128 133 145 157 165 174 183 184 156 159 166 115 66 10 1 2 6 -3 0 2 1 0 1 1 0 0 0 0 0 1 1 -1 0 2 4 1 1 1 2 1 4 0 1 2 0 1 2 1 0 0 0 2 1 1 4 1 -2 0 0 -5 0 1 -1 0 0 1 1 0 -1 1 1 3 -1 0 3 0 1 0 1 2 1 -1 1 1 0 0 0 0 1 0 3 1 0 8 2 2 0 0 0 -2 1 1 -1 -3 1 -1 -1 0 1 1 1 0 2 1 -1 1 -2 -1 0 0 2 2 -1 0 1 2 0 1 0 -2 2 0 -4 0 0 -4 -1 0 0 -2 1 1 0 -3 0 1 0 1 0 -5 1 0 0 1 1 1 2 -2 -1 0 1 -1 0 2 1 1 1 -1 1 1 0 0 -2 1 0 -1 1 1 1 0 2 6 0 -1 -1 1 1 1 1 3 0 1 0 2 -1 0 1 1 0 1 1 3 3 1 -1 -1 1 0 4 0 -1 1 1 -1 -1 0 1 0 1 0 0 2 1 0 -1 0 0 1 1 0 0 1 0 0 0 
-1 -1 -3 -1 0 -1 0 -1 1 1 1 1 0 0 -1 3 0 1 -1 -5 0 1 0 2 0 -1 5 1 2 0 1 -1 0 -1 1 0 0 1 0 1 1 1 0 1 0 2 2 3 1 1 0 0 2 0 0 1 -2 0 0 0 0 -1 1 -1 0 0 0 -1 1 1 -3 -3 1 0 5 1 -1 2 1 0 1 -1 -2 -4 0 0 0 0 -1 -1 1 0 -1 0 -2 0 -1 0 0 1 1 1 1 2 0 2 1 0 0 0 0 0 0 1 5 1 1 0 -1 1 1 -1 2 0 1 1 0 1 -1 2 2 1 -1 0 0 1 0 0 0 -2 1 1 2 2 1 1 1 0 0 0 0 1 0 0 0 -4 0 0 0 -1 0 1 1 1 1 2 1 1 -4 0 0 0 1 -2 0 1 2 3 0 1 -1 1 2 4 1 2 -1 0 -3 -1 0 0 0 0 -2 1 0 0 3 2 -1 0 -2 1 1 1 0 0 0 0 0 0 0 0 -1 0 0 0 1 7 2 1 1 1 0 1 0 0 0 -3 0 0 -2 2 3 0 1 4 0 -1 2 1 1 0 1 1 0 5 33 119 172 187 184 191 192 178 176 187 194 191 197 197 196 197 199 196 196 183 193 187 188 179 169 137 64 5 1 -1 2 0 -1 5 65 127 186 189 189 188 188 187 185 184 182 181 181 180 179 178 177 177 170 174 174 162 163 173 172 171 171 167 170 170 170 171 169 162 167 167 167 166 166 164 164 165 164 165 163 158 162 163 162 161 160 160 160 159 158 158 152 158 159 157 167 174 178 178 180 180 179 178 178 180 177 176 177 177 177 176 177 179 175 176 178 176 178 177 177 175 176 175 169 174 173 174 175 165 158 172 172 169 172 168 167 169 167 171 171 172 170 165 168 167 162 163 162 161 159 150 137 123 119 123 115 126 127 119 114 116 130 142 162 173 180 169 188 186 157 141 74 14 0 1 0 -4 0 3 0 0 1 0 1 2 0 1 1 0 1 1 0 1 1 0 0 0 0 1 1 1 0 -1 1 1 2 -1 0 1 -1 1 2 -1 -1 1 -1 0 1 1 0 -1 1 0 1 1 -1 2 0 0 0 0 -1 0 1 0 0 0 0 1 2 0 1 1 1 2 1 0 0 1 -1 2 0 2 3 0 0 1 1 1 1 0 1 -1 0 -2 0 1 0 0 1 1 0 0 0 1 3 4 0 0 0 -1 1 -1 -1 1 1 0 2 6 1 2 1 -1 0 1 1 1 -1 0 1 2 1 1 0 0 0 1 -2 -1 -1 -1 1 1 -1 -1 2 0 0 0 1 1 2 1 1 2 0 1 1 3 4 1 -1 -2 -4 1 0 0 1 0 7 0 0 2 1 1 1 0 1 1 0 3 1 1 0 4 1 0 -1 -5 1 0 1 -1 2 0 -5 1 0 0 0 2 -1 0 0 0 0 0 0 1 3 1 1 1 6 1 0 0 2 2 1 -1 1 1 
1 -2 0 0 0 0 -5 1 1 0 0 0 -4 -1 1 1 1 0 -1 -2 0 2 -1 0 -1 0 0 -1 -1 -1 1 0 0 0 1 6 2 0 0 2 0 2 1 -1 1 1 0 1 8 2 1 0 0 1 1 0 0 0 0 1 -1 1 0 0 0 2 0 0 1 1 1 0 1 1 0 0 0 0 1 0 0 2 0 1 2 2 0 0 -1 1 2 0 1 0 3 0 1 0 0 -1 0 1 0 1 0 0 0 2 1 1 0 0 1 -1 0 0 0 1 0 1 0 0 3 -5 0 0 -1 1 2 1 1 3 1 -3 1 0 -10 0 1 7 7 4 -1 1 1 0 0 2 1 1 0 1 4 -1 0 1 0 0 0 1 0 2 1 2 2 -1 1 1 -1 0 -2 0 -1 1 1 -3 0 -2 -3 0 0 0 0 0 0 1 -7 -1 2 1 -5 1 1 0 0 -1 0 -1 0 0 1 1 1 -1 1 0 1 0 1 0 0 -1 1 2 0 -1 1 1 2 0 0 0 0 1 1 1 1 1 0 -4 0 -4 0 0 3 2 2 1 0 0 0 -1 1 -1 2 2 6 57 142 180 190 189 191 191 194 193 194 197 195 195 193 197 190 197 196 197 195 195 194 190 182 169 143 54 6 -1 1 -4 1 4 6 45 146 184 189 189 189 189 187 186 185 184 182 182 182 180 178 178 171 175 176 175 167 160 172 174 157 155 155 170 174 171 171 170 169 168 169 167 168 162 166 166 165 160 164 160 164 163 163 163 162 161 163 160 160 159 159 158 157 158 148 148 160 167 173 178 180 181 179 179 179 179 179 178 179 178 178 178 177 176 178 177 176 172 172 168 175 177 177 176 176 175 170 159 173 174 173 174 173 174 167 171 172 172 173 171 171 170 166 170 170 169 169 166 160 163 163 160 155 143 129 122 118 123 126 120 110 96 97 112 139 158 169 170 186 189 185 176 146 85 19 8 7 0 0 0 3 0 0 0 0 2 0 1 1 0 1 -2 2 0 1 0 0 1 1 0 4 0 0 0 0 2 1 0 -2 0 0 0 1 0 1 0 1 -1 1 1 1 1 2 -3 1 1 1 5 0 0 1 1 2 0 -1 2 0 1 0 1 1 0 -1 0 0 -3 0 0 0 0 1 1 13 2 4 1 0 -1 0 -2 0 -1 0 1 0 0 0 1 1 -1 0 0 0 2 4 5 1 0 1 0 1 0 0 0 0 0 1 0 1 0 1 0 1 3 4 1 -1 1 -1 1 1 0 1 1 0 4 0 0 -1 0 1 1 1 -5 -1 0 0 -1 0 1 1 0 1 0 0 -1 0 1 2 2 4 2 -1 1 0 2 0 0 0 0 0 1 0 1 2 0 2 0 0 0 0 -3 0 1 1 2 2 1 0 0 -4 -1 -1 1 4 1 2 0 0 -4 -3 0 -1 0 0 1 1 0 -1 0 1 1 -2 0 1 0 2 5 0 1 1 1 0 0 
1 0 0 0 1 2 2 2 0 0 0 -1 0 1 0 1 1 1 0 4 0 4 1 0 0 -2 0 3 1 0 2 -5 1 1 2 0 1 2 0 0 6 2 1 2 0 5 0 1 1 0 2 1 1 1 2 4 1 1 0 1 0 0 0 0 1 0 1 0 1 0 0 1 1 1 0 0 -4 -3 0 0 0 0 -1 0 2 1 0 0 -1 1 1 0 0 0 1 1 1 1 0 0 1 1 0 -1 -1 1 0 1 0 0 1 1 0 0 0 0 1 3 0 2 1 0 1 0 1 1 0 0 4 -2 -1 0 0 0 1 -1 0 -3 2 0 1 1 1 0 2 0 2 -1 3 1 3 1 -1 1 -2 0 0 -2 0 0 1 0 1 0 0 -1 1 2 1 0 2 0 1 0 -2 -1 -1 -4 -1 0 2 1 -1 1 0 1 2 0 0 0 0 0 0 0 -1 8 1 1 1 0 0 -2 1 1 -1 0 1 2 1 1 0 0 0 1 1 1 0 1 0 -4 2 0 0 0 0 2 1 1 1 1 -1 0 0 1 0 0 0 1 0 0 0 1 1 -2 2 16 87 159 185 190 191 193 191 180 194 194 195 196 192 196 197 190 197 198 188 196 196 195 194 188 174 147 62 6 0 0 2 5 3 22 31 133 167 190 189 189 189 189 187 186 186 184 182 180 179 180 178 176 172 174 167 175 174 173 173 172 171 162 171 171 172 172 169 168 169 167 170 167 167 166 166 166 168 163 165 164 170 164 164 162 162 163 158 161 160 160 159 159 158 156 151 156 158 161 163 174 177 181 179 179 179 177 178 178 178 178 173 177 178 178 175 177 176 169 176 176 171 176 176 167 173 175 174 175 175 174 176 175 176 174 173 174 173 175 173 171 171 158 171 171 170 165 169 169 158 167 163 163 160 157 149 137 125 125 124 116 99 85 79 75 88 131 156 169 179 185 190 188 176 152 94 25 2 4 2 6 8 2 6 1 1 0 1 0 1 1 -1 0 -1 0 2 0 3 3 1 0 0 1 1 -2 -1 1 1 -3 0 1 -1 1 -1 -1 0 2 0 1 0 1 -1 1 4 1 -1 -1 0 1 1 6 2 1 0 1 1 -1 0 0 0 -2 -4 0 2 0 0 0 1 0 0 0 0 1 1 1 0 0 1 -1 0 1 2 0 0 1 1 1 0 0 6 3 2 0 0 1 1 5 1 0 0 2 0 2 0 6 0 0 0 1 0 1 1 0 0 0 2 2 0 1 0 0 -3 1 0 1 -1 1 0 0 1 0 -1 0 1 2 -1 -1 1 1 -1 1 2 0 0 1 3 1 6 2 -2 1 0 0 1 2 0 0 1 0 1 3 0 1 0 -1 -1 2 2 1 1 0 -5 -1 0 0 1 0 0 0 0 -3 -1 0 1 0 1 4 4 2 1 2 0 0 0 -1 -1 0 2 -1 0 0 -1 0 1 0 0 -3 0 1 0 6 4 6 0 1 
0 1 0 0 0 0 1 0 1 -1 3 0 -1 1 0 -1 0 0 1 0 0 0 2 0 1 0 1 0 2 0 0 -1 0 1 0 -1 1 -1 -1 1 1 -1 1 2 0 2 0 2 1 1 2 1 1 0 0 0 2 5 1 1 3 1 -1 0 -1 -1 2 1 -1 1 -1 -1 -1 0 -1 0 -4 -1 0 -3 -1 -1 0 0 0 1 0 0 0 1 1 0 0 1 0 1 1 4 1 1 0 -1 -3 0 0 0 -4 -5 0 1 1 1 1 0 2 1 2 0 -1 1 0 0 2 0 1 -1 -1 0 1 -2 0 4 1 -4 0 0 2 4 -1 0 0 1 -1 0 0 -1 1 2 1 1 1 0 0 -1 0 -1 0 0 0 0 -1 0 3 0 0 1 0 -1 3 2 0 3 0 -1 0 2 -1 1 1 1 1 1 -1 0 2 2 1 -1 0 1 0 1 0 0 0 5 0 -1 -4 -1 -1 1 0 1 -5 0 1 1 1 -2 -4 2 2 3 1 0 1 1 0 0 0 0 1 2 0 2 0 1 1 1 0 0 1 2 -1 1 1 1 0 1 1 0 -1 4 32 119 171 189 191 187 193 193 194 195 196 195 195 192 197 198 198 198 199 198 197 188 194 194 190 180 163 91 10 0 -1 1 6 0 4 62 128 182 190 190 191 183 184 189 187 185 186 183 178 182 180 179 178 178 175 175 171 175 176 174 161 162 167 172 172 171 171 170 169 169 169 169 169 168 168 167 166 159 165 164 164 163 163 164 164 163 162 160 160 161 160 160 159 158 160 158 156 157 158 158 160 162 172 180 179 180 180 180 180 180 179 179 179 177 177 178 177 177 178 177 176 176 176 169 176 175 176 171 177 175 176 172 175 176 175 176 176 174 174 175 172 162 156 163 171 171 171 170 170 170 169 167 168 164 155 161 159 155 143 132 124 114 97 81 78 65 55 72 121 152 168 177 181 190 188 179 155 90 33 4 11 10 1 2 7 2 0 3 0 0 3 1 1 0 0 1 1 1 1 2 1 0 1 0 0 0 -1 -6 0 -2 2 0 1 1 1 1 0 0 5 -1 0 0 -1 2 5 1 1 -1 0 0 1 1 0 4 2 2 -4 0 0 -1 -4 -1 -6 -1 1 0 1 -1 2 1 0 -2 0 0 1 2 -1 0 1 1 1 0 2 0 0 -1 0 0 0 1 0 0 0 1 0 0 0 0 1 -1 1 0 1 6 1 -1 0 -2 1 0 0 0 0 -1 2 0 1 0 -1 2 0 0 1 1 1 1 0 1 1 0 0 6 2 0 -1 -1 0 0 0 0 2 1 1 -1 -4 0 0 1 1 0 1 1 0 0 0 1 0 0 1 2 1 2 0 1 2 1 1 4 2 0 0 2 -1 0 1 0 -1 1 0 2 0 0 -2 1 1 0 1 0 0 2 2 0 -2 1 1 -5 0 2 3 0 1 1 -1 0 0 0 0 -1 1 1 2 0 2 2 1 1 
3 -1 -5 -4 1 1 -1 -1 1 0 0 1 1 -1 0 3 1 0 2 0 -3 1 1 1 0 0 1 0 3 1 1 1 0 1 -1 0 -1 0 -1 1 1 1 1 0 0 0 0 0 0 -1 0 2 1 1 0 0 0 0 1 0 0 2 0 -1 1 1 1 0 0 0 1 1 1 1 1 0 -1 1 1 -1 1 0 -3 1 -1 -3 -1 1 1 -1 1 0 0 0 0 2 1 1 0 1 0 1 1 -4 1 0 0 2 1 -3 -1 -3 -1 1 -1 -1 -1 -1 -1 0 0 0 1 1 0 1 2 0 0 2 2 0 -4 0 0 0 -1 1 0 0 1 1 2 -1 1 1 1 0 0 1 4 3 0 1 4 1 1 1 1 -3 1 0 2 0 -2 -5 -2 -3 -1 1 2 0 0 0 0 1 0 1 0 1 1 1 0 1 -1 0 1 0 1 1 -1 1 -1 0 2 5 2 0 -1 0 1 0 0 0 0 0 1 -1 2 1 -1 1 1 2 1 0 2 -1 -2 -1 3 -1 -1 0 1 0 4 0 1 0 2 1 1 1 0 1 1 -1 1 0 2 0 7 59 141 181 177 192 191 194 193 193 195 196 196 190 197 196 196 192 198 198 199 194 197 185 194 185 184 171 135 63 26 2 1 1 2 1 18 115 154 191 191 192 190 185 190 190 187 186 185 182 182 181 179 179 178 177 175 177 176 175 175 164 156 173 172 171 173 171 171 170 170 168 170 169 166 168 165 166 160 157 166 165 165 165 162 164 163 163 163 160 160 162 160 160 157 158 158 156 156 159 156 156 157 155 166 173 175 180 178 180 178 178 179 178 178 178 178 176 178 177 178 177 175 168 177 176 177 177 176 169 177 175 176 176 176 175 176 176 174 176 173 175 175 175 172 174 173 172 164 161 170 171 171 170 169 167 166 165 163 160 158 148 136 123 109 89 69 60 41 45 51 106 149 158 175 184 180 187 182 160 115 45 30 3 3 1 0 1 3 2 1 1 1 2 0 1 0 1 1 0 0 -1 1 1 0 1 0 0 -1 -1 -2 0 2 2 2 5 1 1 -1 0 2 0 4 0 -2 2 0 -2 0 -1 1 1 2 0 8 6 1 2 0 0 1 0 1 -4 -2 -8 1 0 0 -1 0 -1 -2 0 1 1 6 1 0 2 1 -1 -5 -1 0 1 0 -5 0 1 0 1 0 1 1 -1 0 1 0 2 1 1 -1 2 1 1 0 -1 -2 -1 -1 1 2 -1 1 0 0 -1 0 0 1 1 5 1 0 0 1 1 2 1 0 2 2 1 0 -1 0 0 2 1 1 0 1 1 -1 0 -1 -1 1 0 0 1 0 -1 0 2 3 1 1 3 2 1 2 1 0 1 1 0 9 8 6 1 0 -1 0 1 -1 2 1 1 0 -1 1 1 3 1 1 0 -1 0 1 2 1 0 1 1 6 0 -4 1 0 0 -5 -1 1 0 0 0 1 -3 0 -1 1 2 1 0 -7 1 
1 1 0 1 0 -1 0 1 1 -1 1 1 -1 0 0 1 1 -1 -1 4 2 0 0 1 0 0 2 2 1 0 2 0 0 2 7 1 0 -1 1 1 2 0 2 -3 0 1 1 3 0 0 1 1 -1 0 1 1 0 1 0 0 1 0 0 0 4 1 1 -1 1 1 0 1 0 2 4 0 1 0 -1 -5 -5 0 -3 0 0 1 0 0 1 -2 0 0 2 0 0 1 2 0 0 1 2 2 4 1 1 1 -1 1 13 4 7 30 10 31 7 5 6 5 7 25 7 2 1 0 -1 -6 -1 0 -1 2 -1 2 2 2 -3 6 2 0 3 0 0 -1 1 2 -1 0 2 1 0 0 0 1 1 0 0 0 0 0 0 0 1 1 0 -3 1 -1 0 1 1 1 0 0 5 9 1 0 1 0 1 1 0 0 0 0 -1 1 2 0 -1 1 0 0 0 0 1 1 1 6 1 2 0 0 0 1 1 0 1 1 1 0 6 1 2 0 0 -3 -1 2 -5 1 0 0 1 0 0 0 1 0 1 0 1 1 0 0 0 1 -1 1 0 1 15 16 88 162 185 182 190 193 192 196 194 196 196 196 183 188 197 188 198 198 186 190 198 198 197 195 194 189 170 154 78 7 10 9 1 1 0 10 89 175 191 192 191 191 191 190 190 190 186 186 173 182 181 180 177 178 177 178 176 174 175 173 174 173 165 173 174 172 170 171 171 171 169 171 168 167 167 169 168 164 166 156 165 165 165 167 164 163 162 163 162 163 161 161 163 163 161 158 159 157 157 155 157 151 155 157 160 165 174 177 179 177 179 178 171 177 179 180 179 179 174 178 178 176 177 168 177 169 177 177 174 178 176 166 172 175 178 176 176 174 168 175 174 171 172 174 173 168 172 173 171 171 172 172 170 170 170 168 168 165 155 165 161 159 151 141 114 101 70 49 34 22 16 36 98 145 163 174 181 188 187 176 165 123 52 7 1 11 1 0 0 0 1 0 1 -1 0 2 0 0 -2 -3 2 1 0 1 0 0 0 0 0 -2 1 1 -1 1 0 1 1 1 0 -1 0 -1 2 1 0 1 -2 0 0 6 0 1 0 -4 0 0 0 -2 1 2 0 2 2 2 -1 1 1 2 0 0 -3 -1 1 1 0 -1 0 0 1 2 2 0 1 1 0 0 2 -1 0 1 0 -4 0 1 0 1 0 0 -5 -1 1 1 0 1 1 1 0 -1 -1 0 0 -3 -2 -2 0 3 1 -4 0 -1 -1 1 0 1 3 1 0 0 -1 1 3 1 0 0 0 -1 0 2 1 -6 1 0 0 -1 1 1 3 2 2 1 0 1 1 -1 0 0 1 0 1 0 0 1 1 0 -1 1 -1 -3 1 6 1 0 -1 0 2 1 0 -1 1 1 -1 1 0 0 1 -1 1 0 0 -1 0 2 0 1 0 -1 2 0 -1 1 1 0 0 1 -1 0 2 -1 1 -1 -11 -2 1 0 -1 0 0 0 
-1 0 3 1 2 1 2 2 0 2 0 0 0 1 1 1 1 1 0 1 2 0 1 1 0 0 3 1 2 1 1 -1 0 1 1 0 1 2 0 0 -4 -1 0 1 -1 1 -1 2 2 0 -4 -2 0 1 0 0 0 -2 1 1 0 1 2 1 2 -1 -1 0 -2 0 1 3 0 2 0 0 0 0 0 0 0 0 -1 0 0 1 1 2 0 0 1 0 1 0 1 1 0 1 1 1 2 9 1 -1 1 3 5 14 58 74 94 108 121 119 114 120 116 105 120 119 104 78 57 40 26 13 8 7 4 3 1 0 0 1 1 2 2 0 2 8 2 1 1 0 3 1 2 1 0 -1 -2 -1 0 1 1 0 0 1 2 -1 1 0 0 1 0 0 0 0 1 0 1 0 1 -1 1 0 0 -1 0 -1 1 1 1 1 0 1 1 2 1 0 1 1 0 0 1 0 1 2 7 5 1 1 -1 -1 1 1 2 0 1 0 0 2 1 1 -1 0 0 1 1 0 1 1 1 -1 1 3 1 -1 1 2 1 1 2 0 -1 1 1 0 1 4 32 121 174 189 191 191 193 194 194 196 197 197 196 197 197 199 197 188 199 198 197 197 192 198 196 194 192 184 167 114 16 2 3 0 1 2 7 75 166 191 187 191 191 191 190 192 191 189 187 186 185 182 181 181 180 178 177 177 175 175 175 175 175 174 174 173 173 163 171 171 169 171 170 170 169 162 167 160 168 164 166 165 165 165 166 165 164 164 162 161 159 162 162 161 161 160 160 159 157 147 157 158 161 155 156 155 156 153 165 167 179 180 179 179 179 180 180 177 178 174 177 178 176 178 178 177 177 178 176 178 177 176 175 166 175 177 175 178 176 176 175 175 175 165 163 173 175 165 164 173 173 172 171 172 171 171 171 166 168 166 156 164 165 159 139 139 144 119 104 74 33 18 12 10 27 85 140 162 174 183 188 189 177 167 132 61 7 9 1 1 0 -1 1 -1 0 1 1 0 -2 -3 5 1 -2 0 1 0 1 0 -1 0 -1 1 0 4 1 -1 1 1 0 0 1 0 1 2 -2 2 0 1 -1 1 0 0 -1 1 0 0 -1 1 0 0 1 2 0 1 -1 0 0 5 0 -1 -5 1 0 0 -1 0 0 1 1 0 1 4 0 -1 -1 0 0 2 2 1 0 0 0 -7 -5 -5 2 0 1 -4 0 -1 -1 1 -1 1 0 1 1 0 -1 -1 0 0 0 1 2 0 0 1 -1 0 0 1 -1 1 -1 1 0 0 2 6 7 0 5 1 1 2 2 0 1 -2 2 -1 0 0 1 0 -1 -1 0 2 1 0 5 0 -1 0 1 0 -1 2 1 1 0 1 -5 0 0 -1 0 1 1 2 0 1 1 0 0 -2 1 0 1 1 1 -1 0 0 0 1 0 0 -1 -1 -1 0 0 0 0 -1 0 1 0 -1 -1 -1 1 -1 1 0 1 0 1 5 1 -1 -1 -1 0 0 
1 1 2 0 0 1 0 -3 1 0 0 1 1 0 2 2 -1 -3 0 0 0 0 0 0 1 -1 0 0 1 1 -4 -2 0 0 0 0 1 0 0 1 0 -4 1 -1 1 1 0 0 1 1 0 0 -1 1 0 0 1 0 1 1 0 -3 1 1 -4 -3 -1 -6 0 1 2 2 1 0 1 0 1 0 -1 1 1 0 1 -1 0 0 1 -2 0 1 0 2 2 1 1 2 -1 2 1 1 -1 1 9 4 19 80 130 156 147 184 170 201 202 203 204 201 175 201 202 201 199 194 189 182 170 116 111 121 89 68 25 8 4 4 12 0 -1 0 4 2 4 0 1 0 4 1 1 0 1 0 0 -1 0 2 0 0 1 -1 1 0 0 0 1 -1 2 0 1 1 0 0 0 0 3 2 1 1 -1 -2 -7 0 1 1 1 -1 1 0 1 2 0 1 1 1 1 1 0 0 -1 0 1 0 0 2 0 0 -1 -3 -2 0 3 0 2 0 1 1 0 -1 0 -1 -1 0 5 1 1 3 0 0 1 2 4 1 1 1 2 -1 -1 1 7 1 6 53 109 179 190 188 192 194 194 195 195 195 197 196 197 192 198 197 198 198 198 200 198 191 198 198 194 195 186 175 145 47 17 1 0 2 1 4 55 158 188 186 193 187 192 177 190 192 192 188 183 186 185 184 179 180 177 178 177 173 172 174 173 175 176 175 172 173 172 173 171 172 171 170 166 169 169 168 167 168 168 168 167 167 166 165 164 164 165 164 165 162 163 162 161 162 162 162 162 160 159 158 158 153 156 156 151 155 151 151 161 165 173 179 180 173 179 179 175 178 178 171 178 172 178 178 177 177 179 179 177 176 177 175 177 176 175 169 176 175 176 174 176 171 174 167 166 174 173 174 174 175 174 172 167 172 173 172 172 170 170 162 168 168 162 165 163 161 158 148 132 108 57 25 6 4 4 14 71 137 160 172 181 186 188 185 171 135 60 25 2 -1 0 0 1 1 -2 1 0 5 0 2 1 1 -1 -5 2 1 0 1 0 -1 2 0 2 0 0 -1 1 0 0 1 0 2 0 -1 0 -1 0 0 1 1 1 -1 0 1 1 1 0 -1 0 1 1 0 1 1 7 1 2 1 2 0 0 0 2 1 -1 1 -3 1 2 -2 0 1 2 1 0 0 1 1 3 1 0 1 -3 -4 1 -1 -3 0 0 -1 -5 0 1 1 0 0 0 0 1 -1 -1 0 0 -1 0 0 2 1 0 0 1 1 -1 1 1 0 0 0 1 -1 0 1 1 2 1 2 1 2 0 1 1 1 2 0 0 0 4 0 1 0 0 1 0 -2 0 -1 1 1 1 1 -1 0 0 1 1 1 0 0 1 0 1 1 0 -1 3 0 -1 -1 0 0 5 1 1 0 0 0 1 0 -1 0 1 0 2 0 0 1 1 0 1 1 1 0 0 4 1 2 3 2 1 1 1 -2 1 1 1 2 1 0 3 1 
-1 0 1 0 0 0 1 2 0 1 0 0 0 0 0 0 0 0 0 -1 -1 1 1 0 0 2 1 1 0 0 0 0 1 0 1 2 0 -1 2 1 1 1 1 0 -1 -1 1 1 -1 0 -4 -1 0 0 1 0 1 1 0 1 -1 -6 0 0 0 1 1 -4 -1 2 6 2 0 -1 -6 -1 2 0 1 0 2 0 0 0 0 1 1 -5 -1 1 2 0 0 1 1 3 -1 -3 -1 0 1 7 58 81 158 195 204 189 205 206 207 207 208 207 207 206 205 206 206 196 198 207 208 206 208 204 201 199 194 183 166 141 102 61 58 13 5 1 0 -5 1 1 1 1 1 0 1 1 0 0 0 1 1 1 0 -1 1 1 0 0 -1 0 1 1 0 0 0 1 -1 0 1 1 2 0 1 0 -1 0 0 1 4 0 0 3 0 0 -1 1 1 0 -1 1 -1 1 0 -1 1 1 1 -1 0 -2 0 2 0 1 1 1 0 2 3 0 4 0 0 2 1 2 0 1 -1 0 2 1 0 2 1 1 2 -1 1 1 2 0 1 2 2 13 82 127 182 190 191 194 193 193 184 194 185 189 195 187 197 199 196 197 193 200 199 199 198 199 196 196 194 191 180 162 90 7 1 2 -1 1 14 26 136 168 192 191 193 192 191 191 191 179 190 183 189 188 185 180 180 179 176 178 179 177 177 176 175 175 175 173 174 173 172 170 169 171 166 166 169 169 169 168 170 168 166 168 168 166 166 164 165 164 164 163 163 164 163 160 163 162 162 162 161 158 159 158 154 156 157 157 156 156 154 140 155 160 167 174 179 178 179 178 178 180 179 179 177 178 177 177 178 177 175 175 175 175 176 168 176 173 176 166 175 175 176 177 176 175 175 171 175 175 175 175 173 175 174 174 173 173 174 171 161 172 172 165 170 170 168 167 164 166 163 158 151 133 109 55 16 6 0 0 7 64 129 145 170 180 174 176 184 169 128 51 5 2 1 2 1 0 0 0 -1 1 -1 0 1 1 -1 -1 1 0 -1 -1 0 0 0 1 0 1 1 0 1 0 2 1 0 1 0 -1 0 0 1 1 2 0 2 0 0 1 3 1 1 1 0 1 2 7 1 1 10 4 1 0 2 -1 0 -1 1 0 0 -1 1 0 1 0 2 0 1 0 1 0 0 0 0 0 0 0 0 2 9 2 0 1 1 1 1 0 1 0 0 0 -1 -1 0 0 -1 -1 -1 0 1 1 0 1 0 2 0 0 0 1 1 4 0 1 0 -4 0 -5 1 2 5 0 1 0 4 1 0 2 0 -1 0 1 0 0 1 0 0 1 3 -1 1 0 1 0 1 0 0 3 0 0 0 0 1 1 0 3 1 2 0 0 1 1 -4 -2 0 0 5 1 -1 1 0 2 0 0 1 0 1 1 0 0 1 2 1 0 1 1 2 1 1 0 1 1 1 2 1 1 -1 0 2 1 3 2 -1 1 0 1 
1 0 0 -1 -3 0 1 1 0 0 1 0 2 1 -1 0 2 0 1 1 4 1 1 0 2 1 0 -1 -1 0 -4 -1 1 2 2 2 1 0 0 3 8 2 0 -1 -1 -3 2 0 0 0 0 -4 -3 -5 -8 -3 1 0 0 0 1 1 1 0 1 1 0 1 1 -1 0 0 1 1 0 -1 -1 0 0 0 2 0 1 0 1 0 0 1 0 1 -2 0 -2 -5 -1 -4 -1 -2 0 1 27 71 159 195 191 210 208 206 205 194 203 203 198 203 201 201 199 200 197 189 198 194 202 203 202 206 203 206 207 208 205 201 196 186 170 146 103 55 17 5 -1 -3 0 0 1 6 0 2 0 1 0 -1 1 0 0 1 0 1 -1 1 0 0 2 0 0 0 0 -1 0 0 -1 1 1 0 1 1 2 1 -2 1 0 1 2 5 2 -2 0 0 1 1 2 -1 2 0 0 2 2 8 1 -1 0 5 0 1 -1 1 1 1 0 1 0 1 0 0 0 2 6 3 1 0 0 0 2 1 1 0 1 0 0 1 -1 0 1 0 12 23 28 92 170 186 183 191 192 193 187 195 195 189 197 196 194 197 191 198 199 199 200 199 192 197 192 198 197 197 194 186 173 134 29 0 1 3 0 8 9 83 151 191 193 193 194 193 190 192 190 179 177 179 190 188 185 178 181 180 178 178 176 176 178 170 176 177 173 174 173 173 169 171 172 172 171 169 162 159 169 169 167 168 168 167 166 167 162 167 166 166 164 164 164 164 157 162 162 162 161 160 161 160 158 159 159 157 158 156 157 155 154 135 152 156 158 162 175 179 179 181 179 179 178 178 167 175 172 168 165 164 161 163 157 155 157 156 159 165 170 172 175 178 173 176 177 169 175 176 175 175 176 175 175 175 175 175 174 173 173 161 167 173 172 170 172 172 173 171 169 166 161 163 159 151 132 115 63 13 1 1 1 5 53 124 154 169 177 175 187 184 165 122 41 24 2 5 0 0 0 4 0 0 -1 -2 1 1 1 1 1 2 0 0 0 1 1 0 1 6 2 -1 0 0 2 1 0 -1 0 1 1 1 -1 1 -2 0 1 2 2 0 0 1 6 1 -1 0 0 1 2 1 7 0 1 6 -1 1 0 1 0 2 1 1 1 1 1 1 1 0 1 1 1 -1 0 2 1 0 0 2 3 -2 0 1 0 2 1 2 1 -1 1 1 1 0 0 0 1 0 0 -1 1 1 0 0 1 2 0 0 0 4 1 -1 -5 0 0 0 1 -1 2 7 1 2 1 1 0 2 0 2 1 0 -1 1 2 0 0 0 0 1 0 0 1 1 -1 1 1 0 1 0 -2 1 0 0 -1 -2 0 -2 2 1 0 0 2 -1 1 -1 1 -2 1 2 2 1 0 0 -1 -4 -2 -2 0 -2 -1 -1 2 4 1 4 1 2 1 0 1 1 -2 2 -1 1 -3 -1 0 1 0 0 0 2 5 4 0 1 0 1 
0 2 2 1 0 1 1 0 0 2 4 0 1 2 1 1 -1 1 2 3 0 1 0 1 0 0 -1 0 1 0 1 -8 -4 -1 0 1 1 -4 0 1 0 0 0 2 0 0 3 1 1 0 0 -1 0 1 0 0 1 2 0 1 0 2 0 1 3 1 1 0 0 0 1 0 0 1 0 2 0 0 0 0 1 1 0 1 0 0 0 1 0 0 0 1 0 1 -5 -1 0 2 -1 2 49 178 209 212 208 206 205 204 203 192 199 200 199 199 197 196 195 195 188 180 191 195 193 194 194 196 195 197 200 200 202 204 203 207 202 200 191 177 149 99 42 11 3 3 0 -2 0 -1 -2 0 0 0 -1 0 1 0 2 1 2 1 -1 3 0 -8 1 0 -1 0 0 3 0 1 -1 -1 1 0 2 0 1 0 1 2 0 1 0 -1 -1 -1 -1 0 0 0 0 0 3 0 1 0 0 0 0 0 0 1 0 1 1 0 2 0 2 0 1 2 1 1 2 0 1 1 0 0 1 2 0 3 1 0 0 0 2 1 1 10 6 43 135 179 190 192 193 193 193 196 196 195 192 198 198 197 198 199 199 198 190 197 199 200 199 198 198 197 197 197 188 179 157 71 4 1 1 7 -1 2 35 154 191 183 192 193 193 192 191 191 192 191 191 190 190 188 188 184 177 181 179 178 177 173 175 176 175 176 173 174 173 166 172 172 170 170 173 171 169 166 169 169 169 166 167 163 161 165 162 166 166 166 165 164 164 163 150 147 162 162 154 161 160 155 158 158 155 159 156 156 156 155 154 145 148 154 147 159 169 176 178 181 179 178 177 174 172 170 169 168 165 166 166 163 163 162 159 155 149 150 141 142 152 166 171 174 175 177 176 171 175 172 176 176 176 176 175 176 173 175 176 174 174 173 173 172 172 173 171 170 170 167 166 153 163 161 152 143 122 63 13 19 15 12 5 47 121 153 158 172 188 190 184 164 112 35 3 1 2 2 1 0 0 1 1 2 1 0 0 0 1 1 -1 1 0 0 0 -5 -1 6 2 0 1 1 1 1 1 0 1 2 0 1 0 0 -7 0 1 2 0 -1 2 2 1 0 1 0 3 -1 0 0 3 1 1 1 0 0 1 2 1 0 1 2 0 -2 0 1 0 1 0 2 0 1 0 5 1 0 -1 0 1 -1 0 0 1 2 0 -2 -5 1 1 1 0 -1 1 0 0 1 1 -1 -1 0 -1 1 2 2 0 0 0 0 3 2 1 -1 0 -2 0 2 0 0 1 -1 2 1 1 0 0 -1 -1 -1 1 2 0 1 0 -1 1 0 5 1 1 0 -2 0 1 1 0 1 0 0 1 1 1 1 -1 -1 0 -1 0 -1 0 0 0 1 1 3 0 0 -1 1 2 -1 0 1 -1 0 0 1 1 0 1 0 1 0 1 0 1 0 2 -1 0 2 2 0 0 0 0 1 0 0 0 -1 -1 0 1 0 0 0 
1 0 1 0 1 -1 0 1 0 3 1 0 -4 0 -1 0 -6 1 4 0 0 0 0 0 0 0 3 0 0 -4 -6 -1 -1 -6 -1 1 0 1 1 0 4 1 0 -1 0 -1 1 0 0 1 1 -1 5 -1 1 0 1 1 0 0 1 0 -2 -1 0 0 -3 1 -1 1 0 1 0 1 2 0 1 3 1 -2 -9 1 0 1 4 1 0 0 1 1 2 2 2 1 1 -1 0 1 0 14 141 182 211 208 199 203 193 201 202 201 193 197 198 195 196 195 190 192 191 189 188 188 187 186 184 184 184 186 187 178 183 196 201 203 204 207 205 204 199 186 136 128 71 25 6 1 1 -1 2 0 1 0 1 3 1 -1 1 0 0 0 2 1 1 1 1 0 0 0 1 2 1 1 1 1 1 0 0 1 -1 1 1 2 -2 2 1 0 -2 1 0 1 1 2 1 1 -1 1 0 1 0 0 1 1 -3 0 1 1 2 1 2 -6 -9 2 1 -1 0 1 1 -1 1 -1 1 -1 0 0 3 0 1 5 -1 1 4 1 3 7 73 116 181 191 192 192 194 195 195 196 196 196 197 197 198 192 194 199 200 199 199 190 192 199 199 199 192 198 196 192 176 167 117 18 2 6 0 2 1 8 98 181 193 193 194 194 194 192 193 191 192 192 192 183 191 187 187 185 183 181 174 178 176 163 167 176 174 175 164 174 174 172 172 163 167 171 171 170 170 171 169 169 169 167 168 167 168 167 166 167 165 165 164 163 160 163 157 162 154 160 160 161 158 151 160 158 158 157 147 158 154 156 156 155 154 153 154 156 162 165 176 179 176 179 176 174 173 171 172 173 173 173 172 165 166 171 169 159 165 165 161 155 148 137 136 153 166 174 175 176 175 176 176 175 174 175 174 175 175 175 174 174 174 174 174 174 171 172 171 170 169 170 162 160 166 163 162 154 145 125 69 16 3 0 1 3 41 118 153 170 180 188 189 181 159 94 40 3 1 1 3 2 1 0 2 6 -1 -1 1 0 1 2 3 -1 0 -1 -1 0 -1 0 0 0 1 -5 1 1 0 7 2 0 1 0 1 1 1 -1 3 3 -1 0 1 1 4 2 2 1 0 0 1 -1 3 1 -1 -1 1 0 1 1 -1 2 0 0 0 0 1 0 0 1 0 0 2 -1 1 1 1 0 -4 1 1 0 1 1 -1 0 1 0 0 0 0 1 1 1 0 0 0 0 0 1 1 -1 0 0 0 0 1 0 0 0 1 1 0 0 -2 1 0 1 0 1 0 -1 0 2 2 0 0 -3 -2 0 2 0 5 2 0 1 -2 0 -2 1 0 0 -1 0 1 1 1 1 -1 0 2 -1 0 1 1 -1 2 -1 1 2 2 0 1 -1 3 -1 1 0 0 0 3 0 -1 0 0 -1 1 0 0 0 2 0 0 2 1 0 1 -1 1 4 0 0 0 -1 0 -2 0 0 1 0 1 0 1 0 1 1 1 1 
0 0 1 1 -1 1 0 -1 0 0 0 2 0 -2 0 0 -1 0 1 0 0 1 0 1 1 0 0 0 0 1 -3 -5 0 0 0 1 -5 0 1 1 0 0 0 0 1 -1 2 1 2 0 -2 0 1 1 0 0 0 -5 -1 0 1 1 -2 -4 0 1 0 1 -1 1 1 0 1 -5 0 1 0 1 1 -2 -1 -2 0 -2 0 0 0 0 2 1 2 1 1 4 0 0 0 0 3 72 192 195 208 208 205 202 200 199 189 187 196 190 197 195 194 190 191 190 188 186 177 182 181 180 177 175 174 169 173 172 174 179 172 188 193 198 204 206 205 203 197 171 178 148 99 42 10 2 0 1 0 -4 0 2 1 1 1 3 0 0 0 -1 -1 1 -1 -2 0 0 1 0 1 3 0 0 -1 -2 0 0 0 0 0 0 1 -1 0 0 1 0 1 1 1 0 0 0 0 0 -4 0 0 0 0 1 0 -1 1 1 -1 0 1 0 -1 1 0 5 0 -1 1 -2 0 -4 1 0 0 1 0 0 -1 0 1 1 0 7 8 67 155 184 192 190 192 196 196 196 196 196 189 183 198 199 197 199 198 198 200 198 200 199 199 200 201 199 196 197 197 190 175 133 69 27 1 1 0 0 3 52 162 193 194 193 194 192 193 189 186 191 191 186 193 193 191 190 189 181 183 171 174 177 177 167 176 174 175 174 159 173 173 175 172 172 173 171 171 158 156 171 169 163 162 168 165 168 168 166 166 166 167 167 165 164 164 165 161 163 163 162 162 162 161 160 160 160 155 145 157 157 157 155 157 153 154 152 153 153 157 168 170 174 170 177 177 177 175 170 178 176 177 175 176 174 174 174 173 171 171 165 165 164 165 161 154 140 131 147 165 174 177 176 176 177 174 176 174 175 176 175 174 175 173 166 174 174 173 173 171 172 172 170 171 168 167 165 164 162 156 148 128 76 20 14 2 1 5 43 122 155 171 181 186 187 179 155 97 20 1 1 2 -1 1 0 0 1 2 -3 -1 1 1 0 0 0 -8 0 0 1 2 0 1 0 4 -1 0 1 0 1 6 0 1 1 3 1 -1 1 0 0 4 1 0 0 0 2 1 -1 0 0 0 1 1 4 1 2 2 1 1 1 0 0 1 1 1 -2 0 1 0 0 1 1 1 1 2 6 1 0 2 0 7 1 0 1 -4 0 1 1 -1 -2 -1 -1 -2 1 0 2 2 1 2 1 1 0 1 0 1 0 0 2 1 0 2 0 1 0 2 -1 -1 -1 0 2 0 0 -2 0 0 2 1 0 -1 1 -1 1 2 0 -2 0 -4 -1 2 1 -1 1 1 0 0 0 1 6 2 -1 1 0 1 0 -1 0 -1 1 -2 0 0 1 1 0 0 -1 1 0 2 2 7 1 0 6 1 0 -6 0 0 0 1 7 1 0 1 0 2 1 1 2 1 -1 -5 0 -1 1 1 1 0 0 0 -3 0 0 1 0 0 0 
0 1 1 0 0 0 0 1 1 -1 0 0 1 -1 1 -2 0 -1 1 2 0 1 2 -1 1 0 1 1 0 1 -1 0 1 0 0 1 0 1 0 2 1 0 0 1 2 0 0 1 0 0 1 0 1 2 4 1 1 -4 0 -2 1 2 -1 -3 1 1 -1 -2 0 5 0 1 1 1 1 -1 0 4 0 1 4 -2 -2 0 -1 -1 0 0 1 3 2 1 0 0 2 0 1 1 12 152 209 212 207 207 199 195 182 190 198 199 198 197 196 194 188 190 188 170 172 180 186 184 183 178 176 169 168 167 163 160 156 154 156 158 155 164 188 196 201 206 205 203 199 194 181 160 114 44 8 2 0 -1 0 0 -1 1 0 4 2 6 0 0 1 0 -1 2 0 1 0 1 1 1 1 1 1 1 0 1 0 -1 0 1 0 1 1 6 1 0 -2 -1 1 0 1 0 -1 1 0 -3 -7 0 2 -1 0 1 -1 2 0 1 1 0 2 -2 1 1 1 2 0 3 0 1 0 1 -1 -5 1 3 1 1 4 1 3 9 73 160 187 192 191 196 195 196 196 198 197 197 191 197 197 198 198 198 199 195 199 201 200 200 201 201 198 194 198 198 194 187 167 95 10 15 2 0 0 1 14 98 158 193 184 194 193 194 194 193 192 192 192 192 186 193 191 191 189 186 183 180 179 171 172 176 175 170 175 175 167 175 174 173 172 172 173 171 171 164 169 168 169 163 169 169 168 168 168 161 161 167 167 167 165 166 164 165 163 163 163 162 161 161 161 153 161 158 153 157 158 158 158 156 155 147 153 148 153 156 162 177 184 183 179 179 179 179 178 178 172 170 177 172 176 177 176 176 175 174 173 163 164 170 168 168 165 162 157 144 132 152 168 174 176 176 176 176 175 166 175 176 175 174 176 175 175 174 173 173 172 173 172 172 170 170 168 169 168 168 163 156 149 134 92 27 3 1 1 5 52 128 155 172 180 174 173 177 151 89 14 0 0 2 -1 0 1 1 1 -1 0 1 1 -1 -2 1 1 2 1 0 1 -1 2 0 1 0 1 0 0 1 -1 1 0 2 1 1 -1 1 1 1 1 1 0 -1 0 1 -1 0 -1 0 0 1 3 0 6 7 0 1 0 0 -1 0 0 0 0 0 0 0 0 1 0 -1 2 0 0 4 1 1 -1 6 4 1 0 1 0 0 2 -1 -1 1 1 1 -2 0 0 0 1 3 1 -1 0 1 1 -3 0 1 0 0 1 1 -1 1 1 -1 -2 0 0 1 -2 0 -1 0 -1 0 1 1 1 4 2 -1 -3 0 -1 -4 0 0 -2 -1 -3 -1 1 -1 0 0 0 0 1 1 0 -1 0 1 0 0 1 1 0 0 0 1 -1 0 0 0 0 1 -1 0 0 2 5 1 0 0 1 0 0 1 2 1 0 1 1 -2 -2 1 -1 1 0 1 1 1 1 1 -1 -1 0 -2 0 2 3 0 0 0 0 1 3 0 
4 -1 0 -4 -3 1 0 -1 0 1 1 0 0 0 -2 0 1 -2 0 1 0 0 2 0 0 -1 2 1 0 -3 0 5 0 -1 1 1 3 0 0 0 -3 -1 0 1 5 -1 1 2 0 0 1 -2 1 -1 1 1 3 0 0 0 1 2 0 2 0 -1 2 -1 0 0 0 0 -1 -1 0 1 0 2 1 0 0 2 0 2 2 0 1 0 0 -1 1 0 0 0 0 -1 0 4 58 158 212 212 203 205 204 202 200 198 191 198 197 197 195 192 194 192 177 171 186 187 183 184 182 180 178 174 170 165 160 148 151 141 135 130 121 134 148 165 179 193 201 206 204 201 198 191 180 154 93 35 6 1 1 0 0 -1 -5 0 4 0 2 -6 -1 1 0 0 0 0 0 2 0 -1 0 1 0 7 1 0 -1 2 1 1 -1 1 1 0 1 1 0 2 8 0 0 0 0 -1 1 -2 0 1 1 0 1 1 0 1 1 0 2 0 2 0 2 1 1 1 4 1 1 0 1 1 0 1 1 1 1 5 1 1 5 74 162 187 190 184 193 192 195 196 195 198 196 195 198 189 189 198 196 200 200 199 199 200 194 201 200 201 200 183 198 196 192 181 152 42 3 2 2 -4 1 26 77 172 191 180 179 193 193 193 188 191 194 193 193 192 191 191 193 192 191 180 180 181 182 171 178 176 171 174 176 175 176 172 174 173 174 173 173 171 171 171 171 158 160 169 169 168 168 168 168 167 167 167 166 167 166 167 165 166 164 163 157 163 164 162 159 160 161 160 160 158 158 156 156 155 155 149 153 152 153 163 178 183 182 182 179 180 182 180 180 179 179 171 180 180 179 177 177 177 177 172 177 174 174 174 172 171 168 157 164 161 155 144 134 160 174 171 175 175 169 175 170 174 175 176 176 176 175 174 174 173 168 173 165 172 172 170 166 170 167 167 166 162 159 150 136 79 20 4 14 4 28 60 132 145 172 164 185 173 176 148 77 10 4 2 1 -1 0 0 1 1 2 1 1 1 1 0 -1 -1 -5 0 0 2 1 2 1 3 0 -1 0 -2 1 0 0 1 0 1 0 1 1 1 1 2 1 -1 0 1 0 -1 2 0 0 1 0 1 3 0 1 1 1 1 1 0 -2 1 -1 1 1 0 0 2 1 1 1 2 0 1 0 0 0 1 0 1 1 2 2 0 0 0 -6 -2 0 1 0 1 2 1 6 7 10 0 1 1 0 1 1 2 1 0 1 0 -1 0 1 0 1 0 1 1 1 1 0 -1 2 2 1 0 2 -2 3 1 2 -1 -2 -1 1 0 0 2 1 0 0 0 1 1 4 -4 1 0 1 1 5 0 0 0 1 -1 0 1 1 2 1 1 -1 1 1 1 0 1 1 1 1 1 -1 1 0 -3 4 2 1 0 1 0 1 1 1 1 1 1 0 0 1 1 1 2 1 2 1 1 -1 0 1 1 0 1 0 1 2 1 
1 1 1 0 0 1 0 -1 1 1 -1 -6 0 1 -1 0 -1 -4 0 -4 0 0 5 1 1 0 1 0 1 0 1 1 1 1 1 0 -1 0 -1 -1 1 1 1 1 0 0 0 0 2 2 2 1 1 1 3 2 0 1 0 0 4 0 -1 0 -6 0 0 0 -1 1 0 0 0 0 2 1 0 0 -1 0 3 0 1 1 1 1 -1 -3 0 -1 1 0 2 1 1 0 0 3 45 128 206 211 206 204 201 195 201 199 196 198 197 189 196 195 190 193 192 192 190 190 186 173 180 175 168 165 162 158 158 156 140 92 75 69 78 87 98 105 114 145 175 175 204 207 206 199 194 188 174 140 71 14 3 2 2 0 0 0 1 1 0 -1 1 1 1 2 0 1 3 5 1 1 -1 1 -2 1 1 -3 -1 5 2 -1 1 1 0 -1 -1 2 -3 1 1 3 1 0 -1 0 -1 0 5 1 0 0 0 -4 -1 0 1 0 0 -2 0 -2 2 0 1 1 1 0 -1 1 1 1 0 0 2 3 1 2 1 7 65 130 186 188 185 194 195 194 196 199 198 197 197 197 198 198 197 198 198 199 193 199 196 201 199 200 199 200 200 189 197 187 189 174 122 15 1 1 1 0 4 28 112 166 179 180 193 193 194 195 193 187 192 193 193 191 186 190 192 192 186 189 186 185 181 180 179 177 174 175 175 175 173 175 174 174 174 167 172 171 170 170 170 169 168 165 168 165 169 170 168 168 167 166 168 166 166 165 164 164 165 165 157 163 163 163 162 162 162 160 158 154 158 158 157 158 157 156 147 150 162 181 187 181 181 181 175 182 180 182 181 180 181 178 181 182 180 176 179 178 178 178 178 177 177 176 174 171 173 168 162 168 166 161 142 139 150 171 175 176 177 175 167 167 174 176 176 176 175 174 175 171 173 174 173 172 173 172 165 163 170 168 166 165 163 158 138 134 86 46 21 1 1 9 66 109 158 173 179 187 187 174 142 71 8 0 1 0 -1 0 1 1 1 -1 1 0 1 4 1 -4 0 1 1 2 3 1 1 0 1 -2 -6 0 0 2 1 1 0 0 -3 0 0 2 2 0 1 -1 1 -1 1 -1 0 -1 1 1 3 1 0 -1 1 0 1 2 0 2 -1 -1 1 0 2 2 2 0 -1 0 1 -1 1 -1 1 1 -3 0 0 1 1 1 1 0 1 0 0 0 0 1 -1 1 0 0 1 1 0 2 -1 0 1 1 1 1 6 3 0 -1 -1 0 1 0 1 0 0 0 6 2 1 0 1 3 0 -1 3 0 0 2 -2 0 -2 -1 0 -5 1 0 1 1 0 0 5 7 1 2 0 -1 0 2 4 4 2 0 -2 0 0 1 0 -1 -1 0 -1 1 2 2 0 4 2 3 0 0 3 1 -1 3 1 0 2 0 -1 2 0 1 0 3 1 1 0 -1 1 -1 2 0 -1 -1 1 1 0 0 1 0 0 0 0 0 3 1 
2 1 1 0 1 0 -1 0 0 0 -6 -1 1 0 -1 0 2 0 0 1 -1 1 2 2 1 0 1 1 -1 -4 -1 1 0 0 -1 1 1 0 -8 -1 -1 0 1 1 2 0 1 0 1 2 4 0 2 0 2 4 -1 0 0 -1 0 -1 1 1 0 1 0 2 4 1 6 1 1 0 0 0 2 -1 0 0 1 0 0 0 2 -1 -8 -4 3 1 1 5 1 5 2 0 1 -1 7 84 201 213 203 205 204 201 201 199 185 187 198 195 196 194 194 193 194 186 192 189 182 166 162 162 162 156 159 160 160 150 105 38 5 5 27 9 18 33 47 61 86 141 182 199 207 203 189 193 189 180 161 111 65 27 2 0 0 0 0 0 1 1 1 1 1 1 -1 1 0 2 0 2 1 0 0 1 2 1 1 2 1 0 1 0 1 2 1 0 -6 -2 0 2 0 0 0 0 2 2 1 1 1 0 0 0 2 1 0 1 1 0 2 1 2 1 0 1 0 0 0 1 0 3 0 -1 1 2 1 2 4 57 156 186 191 193 194 195 194 186 196 196 197 197 199 197 199 200 190 200 200 200 196 200 199 200 201 200 187 195 200 198 194 194 178 163 80 8 1 2 2 3 29 86 178 194 184 193 192 194 193 194 193 190 191 192 191 185 192 191 192 192 191 190 188 186 183 182 179 177 172 175 173 176 174 173 173 173 172 172 173 173 173 172 166 169 170 169 162 157 169 168 169 165 168 163 167 167 165 167 164 166 165 163 156 163 165 163 162 162 162 160 160 156 151 158 158 157 158 158 156 157 167 187 185 184 182 182 183 184 182 183 183 183 182 181 180 181 180 182 180 180 180 178 180 178 177 178 177 177 174 174 172 172 168 167 157 157 150 160 167 174 176 170 175 175 175 176 176 176 175 175 176 173 174 174 173 174 176 173 172 172 171 170 168 167 157 154 157 149 136 83 12 0 0 2 10 83 119 162 175 184 188 186 158 139 60 6 1 9 0 1 0 0 0 1 1 0 1 0 -1 0 -1 0 -3 0 2 4 0 0 1 0 0 1 1 0 0 0 0 0 1 1 2 2 1 1 0 2 1 0 0 -1 1 0 0 0 2 0 1 1 -3 -1 0 -1 1 0 0 0 0 0 1 1 0 -1 0 2 0 0 0 -2 -1 1 -1 0 0 -1 0 1 1 -1 -1 0 0 -1 1 0 0 0 1 1 0 0 0 0 -1 -1 0 0 1 6 1 2 0 0 -5 0 1 -1 0 -2 -1 0 4 2 1 0 0 0 2 1 0 2 0 0 0 0 1 5 1 -3 0 1 1 0 3 1 0 1 -3 1 2 0 0 0 1 1 1 1 1 0 0 -3 1 1 1 2 0 1 0 -1 -1 3 4 7 1 0 0 2 0 0 1 0 -1 1 -1 1 0 0 0 3 0 -1 1 1 -1 0 0 1 1 0 2 2 1 1 0 1 4 1 2 0 1 0 
0 6 1 0 -1 -5 -1 0 0 -5 -3 1 1 0 3 -1 1 2 0 0 -1 0 5 0 1 1 0 0 1 2 1 1 0 1 1 2 -2 0 1 1 1 0 1 1 0 4 3 1 0 2 1 0 0 1 3 0 -6 0 0 0 1 1 3 1 1 0 1 -1 1 1 1 2 0 -1 -5 0 0 -1 1 1 2 0 0 1 1 0 -1 -3 1 0 0 0 1 1 4 0 0 1 1 46 184 214 208 204 204 202 202 194 198 197 188 196 183 194 183 181 193 192 191 179 170 161 161 162 160 160 159 160 150 118 61 18 7 9 1 0 -1 2 1 4 6 26 85 134 200 200 204 199 194 185 184 170 137 71 14 2 0 1 1 2 6 3 1 0 8 2 2 -1 0 4 3 2 1 1 0 1 1 -1 1 0 0 0 0 -5 -1 8 1 1 -5 0 2 0 -1 -7 0 0 1 0 2 1 0 2 1 0 1 0 1 1 5 -1 -1 1 0 2 0 -3 0 -2 1 0 0 0 0 0 5 2 0 6 52 122 183 193 193 189 190 196 195 187 195 192 199 199 198 202 198 197 188 197 201 199 200 200 197 201 199 200 200 200 200 199 197 192 178 146 67 7 5 4 5 3 39 157 195 197 194 195 196 193 195 191 194 193 192 188 193 191 192 192 189 190 190 191 185 187 182 181 179 178 175 175 175 175 166 173 169 173 172 173 173 172 172 169 169 171 171 171 169 168 157 160 162 168 168 166 167 167 165 166 165 165 166 165 165 164 163 163 162 163 159 155 156 159 158 159 158 156 160 157 157 173 166 185 184 184 183 183 184 185 185 184 183 183 183 184 183 183 182 182 182 182 178 179 180 181 178 179 179 177 169 176 174 171 172 169 168 161 162 154 155 165 175 176 177 177 177 175 175 175 176 174 174 171 171 174 161 173 174 174 172 173 173 171 169 167 156 155 162 157 141 131 70 9 2 1 1 16 92 149 164 172 184 188 186 168 104 51 27 4 0 1 1 0 0 0 1 0 -1 1 0 1 1 0 0 -1 2 6 1 0 -1 0 1 -1 1 1 1 2 1 1 0 0 1 0 -2 0 0 1 -1 0 0 0 2 -1 -3 1 0 1 1 -1 0 1 0 1 0 4 2 1 0 1 -1 1 1 0 0 0 1 1 0 -1 1 1 0 0 0 1 -1 -3 0 1 1 0 1 -1 1 0 1 0 -1 1 1 1 -1 1 2 0 0 0 -1 1 2 0 -1 -4 1 -2 -1 0 0 0 -4 -7 0 0 -1 0 1 -1 -2 0 0 1 0 1 0 0 2 1 0 0 -1 1 2 1 -1 0 0 0 1 1 0 1 1 0 0 1 0 0 0 1 0 1 -1 2 1 0 1 1 1 0 -1 0 1 2 4 0 -1 -1 0 0 1 -1 -1 -1 0 0 -1 0 0 1 4 1 1 0 2 1 1 1 0 -1 1 0 -1 1 0 2 4 2 0 -1 3 1 
0 1 2 0 1 0 1 1 0 1 1 1 1 0 1 1 2 1 -1 -3 0 2 1 1 1 0 0 0 0 0 0 0 0 0 1 1 0 -1 0 0 0 0 0 -3 0 0 1 -1 -3 -1 1 0 -1 0 0 -3 -2 0 1 0 1 1 0 1 1 4 3 2 0 7 0 0 0 1 1 1 0 0 0 0 0 0 0 -1 1 0 1 1 0 0 0 -1 0 -1 -1 1 1 0 0 8 121 197 210 210 206 204 203 201 200 199 196 191 193 189 195 194 194 195 184 164 160 160 160 161 159 143 160 151 104 62 32 3 0 0 0 1 0 -1 1 0 0 2 6 52 159 204 208 203 197 191 188 182 166 121 92 32 4 4 0 1 1 1 2 0 4 2 1 1 1 1 0 1 0 0 1 -1 2 0 0 0 0 0 1 1 2 1 1 0 -6 -2 4 -1 0 0 0 0 1 1 3 1 2 0 0 0 1 -1 1 0 1 0 -1 2 1 2 0 1 1 1 1 0 1 1 0 1 0 -1 5 70 149 185 193 195 194 191 196 196 197 195 187 198 198 200 200 199 201 199 189 199 200 195 201 197 201 195 201 200 195 200 198 198 196 191 170 103 44 4 3 1 1 9 93 184 194 196 195 196 195 195 193 193 194 193 191 186 192 193 187 192 191 191 192 192 191 180 183 182 181 178 177 175 172 173 165 172 174 172 165 172 172 173 172 171 170 170 170 170 171 171 162 166 168 168 169 167 166 167 162 166 167 166 166 154 162 165 163 163 163 163 162 161 162 160 153 150 150 158 157 157 165 168 167 169 174 185 170 185 185 185 185 184 183 183 182 184 184 183 184 182 182 181 181 181 180 181 180 181 179 170 166 178 177 169 174 173 172 169 166 156 155 150 164 175 177 171 176 166 175 170 174 176 177 176 175 169 174 171 174 174 173 174 172 175 172 169 168 166 157 149 156 147 129 63 29 1 0 4 52 109 151 164 165 186 188 184 164 123 59 3 -1 -1 0 0 1 5 2 1 0 1 1 1 0 0 1 0 1 1 1 2 0 1 -1 2 0 1 0 0 5 2 1 1 1 -2 -1 -1 0 -1 0 1 0 0 1 0 0 1 2 0 -1 0 1 0 0 1 0 2 1 0 1 1 -1 0 0 1 0 -1 2 0 0 -4 0 0 1 0 0 0 0 0 1 1 -1 0 0 1 4 1 2 -1 -3 -1 1 1 0 0 -4 1 0 1 4 1 2 0 0 0 -1 3 1 4 0 1 0 0 0 1 0 -1 0 1 2 0 0 -1 0 2 0 0 2 1 -1 1 2 1 0 1 0 0 -3 -1 0 1 1 0 1 0 -1 0 -4 -1 1 0 1 2 7 0 1 1 0 0 0 -1 0 -1 1 0 0 0 -1 -5 -3 0 0 0 1 0 0 1 1 0 -5 0 1 1 0 1 0 0 1 1 0 -2 1 1 1 1 1 2 -1 2 -1 1 1 0 
2 1 0 1 1 2 0 -1 0 1 0 0 0 3 0 1 0 0 0 -1 0 0 1 -1 -5 -1 1 1 0 1 1 0 -1 1 -5 0 2 0 -1 -6 -1 1 0 0 0 0 -1 -1 0 1 -1 1 -1 0 0 -4 1 0 -1 0 0 6 3 1 -1 1 1 2 7 5 1 -4 -2 0 0 0 1 -2 0 1 -3 0 -1 -1 1 -1 1 2 2 -1 0 1 7 1 3 1 3 1 0 2 18 99 162 209 199 201 204 202 200 199 199 197 187 187 195 191 194 193 171 164 160 161 160 158 150 141 150 110 56 17 3 0 0 0 3 1 1 0 -1 4 0 1 0 6 80 168 204 207 195 196 192 185 163 153 148 111 56 11 -1 1 -1 1 0 0 0 1 1 -3 0 -1 0 0 3 0 0 0 0 1 2 3 1 0 0 0 6 0 1 0 0 5 5 4 1 0 0 -1 1 6 2 2 0 0 1 3 0 0 1 0 2 1 1 -1 0 1 0 1 2 0 -4 0 -2 -1 2 3 -1 6 59 119 184 186 192 195 196 197 196 197 197 198 198 199 190 200 199 194 195 194 198 196 200 200 200 202 202 201 190 200 199 200 199 199 194 185 161 68 8 3 2 1 9 18 135 191 192 196 195 196 195 193 193 193 195 194 192 193 191 192 193 191 191 185 190 191 190 181 178 185 182 178 167 171 176 174 167 173 173 172 172 166 172 172 171 165 171 171 172 171 171 171 168 160 169 167 167 161 155 166 159 161 166 166 166 165 167 165 165 161 164 162 164 158 161 161 161 160 157 157 157 159 180 190 187 185 175 184 178 184 185 186 185 185 185 184 182 182 183 183 183 182 182 181 172 181 182 181 182 182 181 173 178 179 177 161 164 174 172 171 169 166 163 157 152 166 175 177 174 167 175 175 173 176 175 176 175 175 174 174 174 174 174 174 173 173 173 172 170 170 167 165 152 157 149 123 54 5 1 8 5 57 119 140 165 176 178 187 180 158 98 16 1 1 6 1 -1 -1 2 0 6 1 0 2 0 1 0 1 2 0 0 0 4 1 0 1 0 1 0 1 1 -2 -2 -5 0 0 0 -2 0 0 2 0 1 0 0 1 -2 2 0 0 -1 2 0 -1 -4 -1 -4 1 0 1 -1 1 1 -1 2 1 1 0 3 1 -1 -4 1 0 -1 -6 -2 0 0 1 1 0 1 1 7 1 1 1 1 -1 0 1 -3 -1 0 0 0 5 -1 -2 3 3 0 2 2 0 1 0 1 5 0 1 1 0 2 1 0 1 2 1 1 0 -3 1 1 0 2 2 1 1 -1 1 0 0 1 -1 -1 -1 1 0 1 2 1 1 0 2 4 1 3 1 1 1 6 7 3 1 1 1 -1 0 2 1 -1 0 -3 0 0 1 1 1 0 -5 0 2 1 6 1 0 -1 1 0 0 0 0 -2 1 0 -3 0 0 -1 0 5 1 0 -1 0 1 2 0 0 1 1 1 
1 1 1 -2 2 -1 1 0 6 0 2 0 0 -4 0 0 -2 -1 -7 0 2 0 1 1 1 0 1 0 0 3 0 1 0 1 1 2 10 0 -3 0 2 1 0 -1 0 -1 2 0 1 1 0 0 1 2 0 0 4 4 0 2 0 1 3 -1 0 1 1 1 1 0 4 0 0 1 2 1 0 -4 0 0 0 1 0 0 -4 -1 0 1 6 1 0 2 5 0 0 0 0 1 1 4 7 23 139 200 209 207 205 204 200 199 198 198 195 196 196 193 195 183 169 159 160 159 159 158 154 142 109 63 22 1 1 0 -4 0 1 0 1 -2 0 1 3 0 1 -1 8 94 165 207 202 197 193 189 182 177 164 148 122 78 25 3 1 -1 0 2 -1 1 1 -3 1 1 0 0 0 1 0 1 1 0 0 2 1 1 4 1 0 1 1 1 1 1 5 1 -1 1 -2 -2 1 1 3 5 1 0 0 0 1 1 2 1 1 0 -1 1 1 0 0 0 2 -1 1 2 0 1 2 -1 2 34 137 156 190 193 194 195 197 196 197 197 198 198 191 198 193 199 202 200 199 190 200 200 200 200 202 195 201 201 200 198 200 199 197 195 192 173 141 28 0 1 3 2 3 56 170 196 193 196 196 195 194 194 189 194 195 191 193 193 193 192 191 191 182 192 190 190 180 190 189 188 183 180 171 176 175 175 173 167 164 171 173 172 170 171 171 167 172 172 172 170 170 171 170 165 168 153 167 154 156 167 166 155 167 163 166 166 166 165 164 160 165 164 163 162 162 162 164 161 154 158 159 156 178 183 188 186 186 186 178 176 186 185 181 179 184 185 185 185 184 176 183 180 182 173 180 181 181 182 180 182 182 180 180 177 167 166 172 176 175 174 172 170 167 165 159 155 160 177 168 166 176 176 176 176 175 175 171 176 175 168 168 175 173 174 170 173 173 172 171 170 169 168 165 162 157 136 118 45 25 3 -1 5 60 124 135 159 179 180 187 165 145 67 6 1 1 2 0 1 1 1 1 1 0 0 0 0 0 2 0 0 0 -1 0 1 1 1 0 0 1 0 1 0 1 1 0 1 1 -1 1 1 0 1 1 0 6 1 0 1 1 0 0 1 0 -2 0 1 -1 -1 0 2 3 1 0 1 -1 -2 1 -1 1 0 -1 1 -1 0 -1 -1 0 3 1 1 0 1 0 0 1 0 2 0 -1 1 1 0 0 0 -2 0 2 1 2 1 0 2 1 -1 1 2 0 2 0 1 1 -1 0 0 0 1 1 2 -1 -1 2 1 -1 -1 4 1 2 2 1 1 -1 -1 0 1 1 0 1 1 0 2 5 1 0 -1 2 1 5 0 2 2 5 2 1 1 -1 5 1 0 1 0 3 1 0 -1 0 1 1 0 0 0 0 0 0 1 -1 0 0 0 0 1 2 1 1 0 0 0 1 1 -1 1 1 1 0 2 1 1 -3 -1 0 2 4 0 1 -1 
0 1 4 1 0 0 -2 1 3 1 1 0 0 0 -5 -4 -1 0 -6 1 2 0 3 1 1 -1 -1 -1 2 1 3 1 2 0 1 0 0 -1 0 0 1 0 -4 -3 1 1 0 0 0 1 1 -1 -1 -3 -2 2 -1 1 1 2 1 2 0 -2 0 1 0 1 -2 1 2 1 1 2 2 1 1 -1 1 2 1 7 -2 0 0 0 -4 0 1 -1 -1 0 0 0 -1 1 2 1 1 1 0 0 34 148 171 206 206 204 206 202 200 193 197 195 193 184 193 192 172 159 158 157 155 150 124 81 49 20 4 1 1 6 0 0 1 1 1 1 0 1 0 1 1 1 1 40 179 208 200 189 191 187 184 180 171 150 137 129 95 44 7 1 0 1 1 0 1 -1 1 2 0 1 3 0 0 2 -1 -4 1 0 0 0 1 8 1 0 1 0 1 0 0 1 0 -1 1 0 3 4 1 3 6 1 0 1 0 3 1 3 1 2 2 0 1 0 0 1 0 0 1 1 1 -1 1 3 28 132 184 191 195 195 194 197 196 198 197 197 199 199 198 199 198 199 197 200 200 196 200 201 200 200 200 200 202 203 202 201 201 200 198 186 189 170 108 11 0 1 2 1 6 100 186 197 196 195 194 196 194 194 194 194 192 193 193 194 193 187 193 192 181 192 184 191 192 191 191 190 186 177 170 178 173 175 174 173 163 172 174 171 171 173 172 165 170 171 166 169 171 170 169 170 162 168 169 166 167 164 162 154 167 167 167 166 166 165 165 164 164 162 163 163 159 162 161 161 160 156 161 170 188 190 188 185 181 188 186 187 186 186 186 186 185 178 184 185 184 183 177 183 182 181 171 167 172 181 176 178 178 181 182 180 178 180 178 179 169 174 174 170 169 167 163 155 157 172 175 176 178 177 176 176 177 175 162 174 176 175 174 166 175 174 174 175 173 174 172 172 170 161 168 165 163 157 147 101 57 5 0 1 6 47 128 159 166 183 188 184 165 89 38 2 1 0 0 2 2 0 -2 -1 1 -1 -1 0 1 0 -1 2 2 0 -4 0 0 1 0 0 2 1 -1 1 2 0 -1 0 1 3 1 -1 0 -1 -1 2 4 -1 -1 1 0 0 -5 0 0 0 -1 1 -1 3 1 0 0 0 0 0 -6 -3 0 0 0 1 1 2 -3 0 -1 1 0 1 0 0 1 0 0 0 1 -1 1 7 2 0 -1 1 1 0 0 0 -1 1 1 -1 -3 -1 1 -1 0 0 -1 0 -4 0 1 0 0 2 2 1 0 -4 -1 -1 0 0 1 1 0 -1 0 -1 0 0 0 1 0 0 0 0 1 2 5 5 1 4 0 1 1 1 2 4 3 1 0 1 1 0 -4 1 4 0 -1 -3 -1 0 3 8 1 0 0 2 0 1 0 1 2 0 1 -1 1 1 0 0 0 0 0 0 1 1 0 0 1 1 0 -1 1 0 0 -3 -1 -2 1 2 2 0 1 1 
4 1 0 1 0 1 2 0 0 -1 0 0 0 -1 1 0 0 0 1 -1 1 2 1 0 0 0 1 0 -1 -1 -1 1 3 1 1 3 1 0 0 1 1 1 3 1 0 0 2 1 -3 0 1 -1 1 0 1 1 -3 4 1 1 -1 2 1 -1 1 0 -1 3 1 0 1 2 1 2 -1 0 1 -1 -1 0 2 2 1 2 1 0 1 1 0 1 1 1 1 1 1 -1 1 1 0 0 0 -2 1 38 134 144 173 208 210 205 201 199 199 195 180 175 192 182 180 158 153 146 128 105 65 25 14 2 1 0 2 -1 -4 0 1 2 0 1 1 0 1 -1 1 1 2 26 141 206 203 196 179 172 183 181 174 163 152 146 136 113 62 11 1 0 0 2 0 0 1 1 1 1 1 0 0 2 0 -1 0 1 -1 0 0 0 -1 0 0 1 1 1 0 1 5 0 -1 1 2 1 2 1 1 1 -1 5 1 1 5 5 1 2 1 0 2 1 0 0 2 1 2 1 1 0 1 23 123 183 192 192 195 197 190 197 197 198 196 199 198 199 199 199 200 195 199 201 201 201 201 201 200 201 199 187 190 201 202 200 200 200 198 195 183 158 77 6 0 0 0 2 16 137 192 198 195 197 183 186 195 193 187 194 194 193 194 194 192 192 192 192 191 193 191 191 193 192 181 190 189 180 180 174 177 175 175 174 175 172 173 171 172 177 170 172 171 171 165 169 165 171 166 169 169 170 170 166 168 168 169 168 167 166 167 167 165 166 165 161 164 164 163 164 163 163 163 162 162 161 169 187 192 190 187 188 187 185 186 187 187 179 186 186 186 185 185 176 184 183 185 182 184 184 183 173 171 183 181 182 181 183 180 181 177 181 181 178 179 178 175 166 165 169 168 160 160 162 174 178 177 178 176 176 173 175 161 169 176 171 177 176 175 175 175 175 173 174 175 171 172 171 164 168 167 159 156 145 103 24 12 0 1 7 60 114 160 176 185 175 155 126 105 46 3 1 2 1 1 1 0 1 2 0 1 0 1 0 3 0 1 1 1 0 1 1 3 0 -1 0 0 0 0 0 -5 0 1 0 1 -1 -3 0 0 0 0 0 -1 2 1 1 0 0 0 0 -3 -1 1 0 0 0 0 4 0 0 -1 1 1 0 1 1 0 0 0 -1 2 1 -4 0 1 0 1 0 -1 -4 1 0 1 0 0 1 1 0 0 0 0 1 1 -1 2 2 -3 0 0 -1 1 0 -3 1 0 0 -6 -1 0 -2 0 1 0 -1 0 0 1 1 1 4 7 0 0 1 -2 2 0 -3 0 1 0 1 -1 0 -1 1 0 2 0 1 0 0 0 0 1 0 0 0 0 1 1 0 0 0 0 -1 -4 0 7 9 3 1 1 4 1 -1 0 0 -1 0 1 1 6 1 -1 0 -1 0 -1 1 -2 1 1 -2 1 4 1 1 1 2 1 -1 0 1 0 -2 0 4 1 0 
0 0 0 0 2 1 1 1 0 1 -1 1 1 4 0 0 1 -2 0 1 0 1 0 -1 -1 1 1 1 1 1 0 0 2 2 1 0 0 -1 1 1 0 3 2 1 1 0 1 2 -1 -8 -3 1 0 2 0 0 1 0 1 -1 0 0 0 1 0 6 3 1 1 1 0 0 0 0 -2 0 0 -1 1 1 1 2 2 4 -1 -1 0 2 0 2 4 1 1 1 0 2 -1 1 0 0 0 1 0 16 20 84 126 195 205 210 206 194 202 199 183 179 187 189 188 165 130 91 56 36 25 8 16 11 1 5 1 -2 0 1 -1 0 0 1 5 2 1 0 0 0 3 87 191 189 201 197 184 188 186 181 175 167 158 151 148 139 103 74 14 7 1 1 1 1 -2 -1 1 1 1 2 2 0 -2 -7 -8 3 1 1 0 2 0 1 0 1 -2 1 0 3 1 0 -3 2 1 0 1 1 1 3 2 6 1 1 0 2 0 0 0 0 0 0 1 2 1 4 1 -4 2 3 20 119 179 193 193 194 195 194 194 198 191 197 195 198 199 196 199 200 200 200 199 201 201 201 201 201 201 201 201 201 189 192 200 200 200 200 198 191 167 136 27 1 1 0 2 10 44 136 195 196 196 196 190 179 193 194 192 194 193 187 180 192 193 193 193 191 191 192 192 187 190 191 183 191 190 184 185 182 179 177 174 174 173 172 162 172 173 172 174 172 171 171 170 171 171 171 175 171 168 169 169 169 165 168 167 167 164 168 160 167 167 166 167 164 158 164 165 164 163 162 164 163 161 162 167 190 192 190 189 188 189 187 182 187 187 186 186 186 186 178 184 185 184 185 183 184 182 185 184 183 182 183 183 179 182 181 182 181 181 180 182 180 181 179 177 176 174 173 170 163 162 162 168 176 175 178 174 176 177 177 163 175 176 176 176 176 176 176 175 175 175 175 173 174 173 171 169 170 167 167 163 155 145 84 17 2 0 1 9 90 152 167 178 186 186 176 150 77 7 0 0 1 1 1 -1 1 6 0 0 7 1 4 1 0 1 0 0 0 2 0 0 -3 -1 -1 0 -1 1 0 0 0 0 0 -2 0 1 3 3 -1 -2 -1 2 2 -1 0 0 3 1 0 -1 -1 2 0 -1 0 0 1 0 1 0 0 1 0 1 0 0 0 1 -3 0 1 0 0 1 0 0 1 1 0 -1 0 -1 0 0 -1 0 -3 0 1 -1 2 -1 1 0 2 2 1 -5 0 3 0 0 0 0 1 -2 -3 -8 0 0 2 1 0 0 0 0 1 3 0 2 1 1 0 4 1 1 0 1 1 -1 -1 -3 -6 0 -2 0 0 1 1 0 1 1 1 5 2 0 1 1 0 1 1 1 1 3 0 0 0 1 1 0 0 1 1 1 1 0 2 0 0 2 3 2 1 0 1 6 2 0 0 0 1 0 -1 1 1 0 0 4 1 1 1 2 -1 1 0 4 0 0 1 
-3 -2 1 0 0 1 1 -1 1 0 -1 1 7 5 1 3 2 0 1 2 2 1 0 0 -1 1 0 1 -1 -1 -1 -1 0 1 0 -1 1 0 0 -5 0 0 2 0 0 0 0 2 0 -1 0 -1 -1 1 0 0 1 0 -1 -1 0 0 -1 -1 -1 0 8 1 0 0 2 -4 0 0 -1 -4 0 2 1 1 1 2 9 2 0 0 1 0 0 0 1 0 1 0 1 1 1 4 5 2 2 0 1 1 2 6 40 121 178 201 196 208 206 207 203 200 197 193 191 180 119 45 7 3 3 2 6 3 8 1 2 0 0 3 1 0 1 1 1 3 0 0 0 3 39 167 205 205 196 195 192 189 185 176 176 170 160 155 153 150 144 128 75 15 9 6 1 0 -3 1 1 1 2 1 2 -1 1 0 -1 0 1 -2 -1 0 1 1 1 -1 1 1 0 1 -2 0 0 0 2 1 1 1 1 0 2 0 -1 1 -1 0 2 6 2 -1 2 0 1 3 1 0 1 -1 0 15 110 176 182 192 195 195 186 189 197 186 197 185 198 199 200 200 200 198 199 201 201 201 201 201 200 197 193 201 201 201 196 201 201 202 200 198 197 188 169 100 8 0 1 1 0 9 103 184 186 197 196 196 196 193 195 185 192 193 194 194 194 194 194 191 194 192 191 191 192 191 193 191 183 182 192 189 185 184 182 179 177 174 165 173 171 161 171 173 171 166 171 170 171 171 170 171 169 169 170 169 169 170 169 167 168 169 168 168 167 166 168 169 167 166 164 165 165 163 165 163 163 162 162 165 182 191 191 189 184 190 188 188 188 188 188 187 186 187 186 186 187 184 185 185 185 185 183 179 183 182 183 184 183 183 182 172 182 182 180 181 182 180 180 181 179 174 176 174 172 171 164 166 163 172 179 176 177 171 178 177 166 168 176 176 175 174 175 175 175 166 175 173 175 174 173 172 171 170 170 170 166 163 155 141 78 30 2 0 2 31 120 150 171 182 188 184 158 131 43 1 -1 -1 0 2 1 1 0 0 1 0 1 1 0 4 -2 -1 2 0 0 1 -3 0 1 0 1 -3 0 0 0 2 0 0 0 1 0 1 1 -1 -8 -3 0 1 4 1 0 0 0 -3 -1 1 2 0 1 1 0 0 1 1 2 0 0 1 1 2 0 -2 1 -1 2 5 0 1 0 1 -1 1 0 0 -2 -7 1 0 0 0 0 -1 -5 1 1 1 0 0 0 1 0 0 -1 0 0 2 0 0 1 0 0 -1 0 -5 0 -5 1 1 1 0 -1 0 1 1 0 0 0 0 1 0 0 0 1 2 -1 0 1 1 0 1 0 0 0 -4 0 2 -4 0 1 0 0 0 -1 1 -1 7 1 1 0 0 -3 2 0 1 -1 0 3 0 -1 0 1 -1 0 1 2 4 2 1 0 0 1 2 0 1 0 0 2 -1 -1 0 -1 1 -2 0 0 3 0 1 1 1 0 0 0 1 
0 1 0 -1 4 2 0 1 2 1 1 0 -3 1 2 5 4 1 -1 0 0 1 1 1 0 1 -1 0 0 0 1 -1 0 0 2 -1 1 0 0 0 -1 0 1 -1 -3 -5 1 0 0 1 -1 -3 0 1 1 1 1 0 1 1 1 0 0 1 0 2 2 0 2 0 0 -1 3 0 -1 1 0 1 0 0 1 1 1 0 0 -1 2 0 0 0 1 2 1 0 0 0 2 1 1 0 -1 0 1 2 1 2 2 12 65 146 183 197 204 207 207 196 203 201 198 192 154 134 79 14 8 6 5 4 15 2 0 -1 -1 -1 0 -1 -1 -2 1 0 1 5 21 81 162 203 206 201 194 191 188 187 176 180 177 177 161 159 157 147 150 145 102 73 12 1 2 2 -2 0 -2 0 0 0 -1 1 1 0 -2 1 1 -3 0 -5 -1 0 -1 -7 -7 -1 1 0 2 0 0 1 6 3 1 1 -1 -1 2 0 0 -3 -1 0 2 2 0 1 0 2 5 4 5 1 1 2 13 99 174 176 192 193 195 196 196 186 193 196 183 196 198 199 200 200 201 197 199 200 200 200 201 202 196 201 201 202 202 201 202 198 201 201 200 200 194 186 155 55 3 1 7 -1 1 23 144 193 198 195 196 190 188 195 195 194 195 195 194 194 194 195 193 194 192 192 191 185 190 188 191 190 191 189 192 187 190 189 185 176 176 174 175 175 174 172 172 173 174 171 172 172 171 171 171 172 170 171 171 170 169 171 169 161 168 168 168 167 167 167 167 167 168 166 166 166 164 167 165 164 164 164 164 167 177 190 189 188 190 191 189 190 189 189 188 188 181 184 188 187 181 186 186 184 184 184 185 184 184 181 184 184 183 183 180 174 182 181 183 180 181 175 180 180 180 178 171 176 173 171 171 169 162 165 158 162 175 161 164 177 176 177 174 178 177 178 171 176 176 169 175 175 169 174 168 173 165 166 171 168 168 158 161 155 131 47 10 1 -1 4 54 137 163 175 185 177 182 142 89 19 3 1 10 2 1 2 5 0 1 -3 -4 0 -3 2 0 0 -1 0 0 0 1 0 0 0 -1 0 -1 1 -2 -1 2 1 -4 4 2 0 0 0 0 0 0 -1 0 1 0 1 -1 -1 1 1 -1 0 1 1 2 0 1 1 -3 -5 0 1 1 0 -1 -2 0 -1 0 0 1 0 1 1 0 1 -1 0 0 2 0 1 1 0 1 2 2 0 0 2 2 0 0 1 1 0 -3 0 2 0 -1 -1 3 0 0 0 1 0 -1 -1 1 1 0 1 3 1 0 -1 1 0 1 -1 -2 -1 0 1 0 1 4 0 1 0 1 0 -1 0 1 1 3 -1 0 1 0 0 0 -1 1 2 -2 0 1 1 0 0 0 1 1 0 0 0 1 0 1 -1 2 0 0 -6 -2 -1 -3 -4 -4 -1 -1 -1 0 -2 0 2 0 1 1 1 0 1 -1 -1 2 1 0 2 0 0 0 -3 8 2 
0 1 0 1 4 1 1 0 1 -1 1 -3 1 -1 -1 1 1 -1 1 4 1 0 1 1 0 0 0 -4 1 0 2 0 1 3 0 1 1 0 1 1 -1 0 4 0 -2 3 2 1 3 1 0 -1 1 1 1 1 0 1 0 0 0 1 0 0 4 -1 -1 1 1 5 0 1 1 1 0 0 0 0 0 -6 0 0 -1 0 -1 -1 -1 3 0 0 0 0 1 0 0 2 1 0 3 1 2 -2 2 0 0 0 1 1 5 61 85 145 175 195 202 190 189 206 208 203 177 194 178 147 113 70 59 34 68 57 11 7 6 7 7 7 8 8 13 27 50 91 156 160 202 204 201 199 196 193 189 186 172 179 176 169 163 161 159 157 155 153 145 103 72 11 9 0 1 1 1 0 1 6 4 1 1 4 1 0 -5 -1 1 -2 -4 -2 -6 -6 1 -1 0 1 2 -4 0 1 0 1 1 -1 1 3 1 1 1 0 1 2 7 5 2 1 0 0 0 2 -1 0 3 38 84 169 175 191 194 195 195 190 198 198 198 198 197 199 198 200 199 190 200 201 201 199 200 202 199 202 200 198 190 201 202 201 202 203 197 199 193 198 195 182 122 30 2 0 0 1 5 52 170 197 197 198 196 196 195 184 185 194 189 193 194 187 193 194 194 192 192 193 191 192 192 190 191 187 192 192 192 193 190 190 188 184 179 177 176 175 174 172 170 174 172 172 171 172 171 169 172 170 170 170 171 169 169 170 169 170 168 168 168 169 168 168 168 168 168 167 168 167 166 166 165 160 155 164 165 168 186 190 191 189 187 189 178 189 188 187 182 182 186 186 188 186 185 181 176 176 184 186 184 180 185 185 179 182 183 183 182 182 182 182 182 181 180 181 177 181 173 180 168 177 175 173 172 170 169 168 171 164 174 156 176 167 176 176 178 177 173 173 176 178 176 175 175 176 175 175 176 173 173 170 172 170 169 163 161 160 152 107 20 1 -7 -1 8 71 120 165 178 186 186 177 152 82 8 -1 0 0 0 0 -1 -2 2 -2 -1 0 -2 0 1 3 0 0 1 0 2 1 0 1 -5 1 -1 1 0 -2 0 0 0 -1 -1 -1 -5 0 0 1 1 0 0 1 1 1 1 -1 0 1 1 -1 0 1 2 1 0 -3 -2 -1 0 0 -1 1 6 0 -2 1 -1 -1 2 3 1 0 1 1 0 1 1 1 0 1 1 0 0 3 1 1 0 -1 -1 2 -1 1 1 4 -1 1 -4 0 1 0 0 -1 -3 -3 0 0 1 4 -1 -1 0 0 2 1 2 2 3 -1 -4 0 0 0 1 0 0 1 1 1 0 -2 -1 -1 0 0 2 0 -1 0 0 2 1 0 0 2 4 1 1 1 0 -1 1 2 2 -2 1 1 0 0 1 1 3 0 0 1 -1 -1 -2 -2 0 1 0 -1 -1 0 0 -2 0 8 4 1 0 -1 1 2 1 1 1 0 0 -1 0 -1 1 0 5 -1 
0 3 0 -1 0 0 4 3 -1 -1 -1 0 -1 1 -1 1 1 1 2 1 3 2 1 -1 1 1 1 1 1 1 2 -1 3 1 0 1 -1 0 1 0 -1 1 0 -1 -2 0 1 1 1 1 0 0 -3 0 0 2 1 1 0 1 0 2 1 1 1 0 1 1 -1 2 3 -1 -4 0 0 1 -1 0 2 -1 1 -5 0 -1 1 1 0 0 0 1 1 0 1 5 0 -1 0 1 0 0 2 2 0 1 4 1 2 1 2 3 5 27 76 133 170 187 173 198 203 204 176 167 178 201 158 136 132 173 167 152 131 121 121 120 119 117 122 139 114 130 183 193 182 201 201 200 196 194 193 188 187 185 175 177 172 167 163 161 152 158 151 154 151 131 127 71 10 -1 1 1 0 -1 1 1 2 2 7 4 1 1 -1 -1 0 0 -1 0 1 1 0 8 0 1 0 0 1 0 0 1 0 1 0 1 4 0 1 1 1 0 0 0 0 0 0 1 1 3 2 1 8 77 131 187 183 187 195 196 196 196 198 198 198 196 199 198 186 188 197 199 200 202 200 195 200 194 200 201 202 202 201 202 194 202 201 203 200 199 191 187 194 179 135 61 3 0 1 1 40 101 185 196 196 197 196 196 195 194 195 190 186 195 194 194 194 194 194 192 192 191 186 191 192 192 192 191 192 192 190 192 192 189 180 186 184 183 170 175 173 174 174 173 167 172 169 172 171 171 171 170 170 170 170 167 171 168 169 170 169 169 169 168 168 169 166 166 155 169 169 168 166 163 164 164 160 165 164 172 189 192 185 190 191 190 189 188 175 188 189 188 188 188 188 187 187 186 186 186 182 186 185 186 186 184 184 184 184 177 174 182 183 184 183 181 182 183 181 181 181 180 180 179 176 176 175 171 173 172 169 176 169 177 177 178 171 171 178 177 179 178 178 177 176 176 178 177 177 176 174 169 174 175 169 172 167 169 166 156 159 145 71 7 0 2 2 24 91 158 169 164 176 185 163 138 47 5 0 0 1 1 2 0 0 2 -1 -1 0 1 1 0 0 0 0 1 -2 1 -1 2 0 0 -1 1 0 0 1 1 2 0 0 1 0 -1 1 0 0 0 1 0 0 -1 0 1 0 0 -1 1 0 -1 2 1 0 0 0 -1 -2 -5 0 -1 2 0 1 -1 0 -1 0 1 0 1 0 2 6 1 0 1 1 2 0 5 2 7 2 2 0 1 0 1 0 0 1 0 2 1 2 -1 1 3 0 0 0 -1 0 0 1 1 3 -2 0 1 0 -3 -1 1 1 0 0 0 0 -1 1 2 -1 2 0 0 0 0 1 -1 1 1 0 0 1 2 1 0 1 1 0 0 0 4 2 -1 1 2 3 0 -1 1 0 0 1 2 0 1 8 1 1 6 1 1 1 1 2 4 2 -5 0 1 1 1 3 1 9 0 0 1 1 0 0 0 0 -1 0 -1 0 1 8 2 1 0 
0 1 1 2 2 0 -4 1 0 1 0 -5 0 1 0 0 -1 0 -1 0 0 4 1 -1 1 2 0 0 1 1 1 2 0 0 4 -1 0 1 1 1 1 1 0 0 1 0 1 0 0 1 0 0 0 -2 1 -2 1 4 1 -1 0 1 1 1 1 0 0 2 -1 -1 -3 0 1 0 0 0 0 1 1 1 0 0 0 0 -1 1 1 1 0 1 -1 1 2 1 1 1 4 2 1 2 10 2 2 0 -1 0 2 1 -1 0 0 2 3 23 65 122 160 153 175 193 173 171 201 204 203 201 182 204 205 202 200 181 201 201 199 181 200 201 177 200 197 203 199 200 196 197 193 192 188 180 184 181 176 174 168 165 162 162 160 161 160 159 156 136 131 125 63 6 0 -1 1 2 1 0 1 1 1 -1 0 2 1 0 1 1 1 1 1 -5 1 1 1 1 0 0 4 1 -1 2 0 2 0 0 1 1 5 0 1 1 0 1 0 2 1 4 1 1 6 29 58 119 185 193 193 196 195 196 197 189 196 191 199 199 200 200 200 192 188 190 200 201 201 200 199 189 199 195 202 202 202 202 194 200 203 202 201 199 183 184 192 176 116 53 3 -1 2 3 32 146 174 197 185 196 196 196 196 186 186 195 194 182 195 193 193 193 193 194 185 192 187 192 190 192 192 193 192 192 190 191 191 180 188 191 182 184 180 173 175 173 174 172 173 171 172 173 171 172 172 172 171 167 165 170 170 171 170 166 170 160 162 169 169 169 168 168 168 169 163 168 166 168 167 166 166 162 164 174 190 192 189 190 186 190 189 183 178 188 189 189 188 188 187 186 184 185 185 172 183 186 185 185 185 185 184 186 184 184 183 182 177 183 183 182 179 181 182 181 182 177 181 179 173 176 175 173 174 175 175 173 178 178 177 178 178 171 177 178 177 177 178 177 175 172 177 170 176 176 175 168 174 174 174 173 169 156 167 165 159 156 134 49 4 1 -1 4 54 136 143 153 182 180 182 164 116 50 2 1 -2 0 5 0 0 2 0 1 2 1 2 1 1 -3 0 4 5 1 1 1 1 2 1 0 -1 0 0 0 0 1 0 -1 1 0 2 1 0 0 2 6 0 -2 1 1 0 2 1 0 0 0 1 1 0 0 1 0 0 1 1 1 1 0 1 -1 0 0 0 1 3 1 0 1 1 -1 1 2 0 1 0 1 0 3 7 1 1 1 1 0 0 1 1 0 2 1 0 1 0 2 -1 1 0 -1 1 -2 0 2 2 1 1 1 -1 -1 0 -1 2 0 0 0 0 1 0 0 1 -1 -1 1 1 1 3 0 1 1 1 3 1 0 0 -2 2 -1 0 2 0 1 0 1 -3 0 2 1 2 0 -4 -3 0 -1 0 1 6 6 0 1 0 1 1 2 2 2 1 0 4 2 1 2 1 1 2 -1 -1 3 10 1 0 0 -1 0 0 0 1 1 -1 1 0 0 
1 -1 0 0 1 -1 -1 1 1 2 0 -1 0 1 1 1 2 -1 0 -1 0 1 2 0 3 0 0 0 0 0 1 0 0 0 -1 0 0 1 0 1 1 0 -6 -1 2 6 3 0 0 -5 0 2 5 0 1 1 0 2 2 1 1 0 1 1 0 1 1 1 -1 -1 0 0 -1 0 2 1 0 1 0 -1 1 1 1 1 -1 0 -1 0 0 1 0 -1 5 0 0 0 1 3 1 0 1 3 1 0 0 0 -1 4 0 0 0 -1 0 11 21 20 72 108 145 165 176 184 192 196 198 200 188 202 202 195 203 188 193 202 203 201 202 199 200 201 199 198 196 196 186 190 191 187 186 183 172 172 174 172 165 165 164 164 163 161 162 161 159 156 152 144 94 39 3 0 1 1 -1 2 -2 0 1 1 0 1 1 0 2 0 -2 -1 0 -2 0 1 0 0 1 0 -4 0 1 1 -1 1 0 0 -1 2 5 1 0 0 1 0 2 0 2 1 8 5 4 45 105 183 192 195 195 196 196 199 197 198 198 199 199 200 197 200 199 188 181 198 201 201 200 202 201 201 191 200 202 202 202 202 201 201 201 201 200 200 197 197 192 169 97 8 0 2 5 19 64 172 195 198 196 196 197 197 195 195 195 183 194 194 195 188 193 193 191 193 185 193 191 184 192 192 192 190 190 193 191 191 190 182 182 191 189 189 185 182 176 162 174 173 166 172 173 172 171 171 171 171 158 170 161 170 170 170 171 170 171 170 168 170 170 163 169 170 169 169 170 168 163 167 167 168 167 163 167 177 192 192 190 191 185 186 190 188 175 188 182 188 188 188 187 187 187 187 177 173 166 186 187 184 186 186 181 181 185 184 184 185 185 184 182 176 181 182 183 181 180 182 182 179 175 176 175 164 173 175 174 174 178 178 177 178 168 177 178 178 178 178 177 178 176 178 178 177 171 177 176 170 175 176 174 166 170 155 168 168 165 162 155 113 24 12 -1 0 9 79 127 165 177 185 187 177 157 89 8 0 0 2 2 3 0 0 1 0 1 0 0 1 0 3 0 0 1 1 0 2 2 1 1 2 0 -2 1 0 -1 1 1 0 0 1 1 0 1 0 0 0 0 2 1 1 3 2 -1 0 -2 1 -2 -1 1 0 2 0 0 1 1 1 -1 0 1 1 0 -4 -1 0 0 0 0 1 0 1 1 1 1 -3 0 0 4 0 0 3 0 0 2 0 0 0 0 -1 0 -1 -1 -1 1 1 1 1 0 1 0 0 13 8 2 1 0 0 0 1 -1 -1 1 1 0 -1 1 0 1 2 -1 0 0 0 0 1 2 1 1 2 1 1 1 0 2 0 0 1 0 1 1 2 1 1 -1 -1 1 1 0 -1 -5 -4 -1 -1 0 0 8 4 2 2 1 -1 1 0 0 1 1 1 1 1 0 1 2 3 0 1 1 3 6 0 -1 0 -1 0 -1 0 -1 0 0 -1 1 8 
0 1 0 0 -1 1 1 0 0 0 0 1 1 1 0 1 2 0 0 0 0 -2 0 0 1 0 1 -4 -9 0 0 1 1 1 -1 0 0 1 -4 1 -1 1 1 0 2 0 1 1 0 -3 -1 2 0 0 0 1 1 1 3 1 1 0 0 0 1 -1 0 -1 1 1 0 0 1 0 2 1 1 1 0 0 0 0 2 -1 1 -1 -5 -1 0 3 4 3 6 1 1 1 1 1 1 0 5 0 0 1 0 -2 0 0 0 0 1 -1 1 1 1 0 4 15 62 90 123 146 161 174 181 185 181 191 192 195 194 195 194 196 196 196 196 196 195 194 193 192 190 189 187 183 185 178 179 174 176 174 171 166 165 166 164 163 163 158 156 160 161 152 157 154 142 74 12 1 2 1 1 1 0 0 -1 1 1 1 1 2 -2 -6 1 2 0 -1 0 1 0 0 1 0 1 0 6 1 -1 0 1 0 1 0 -1 1 1 2 2 1 0 0 6 7 2 2 29 88 136 190 195 195 196 198 198 198 198 196 195 199 191 199 199 201 200 193 200 196 201 201 203 201 202 200 201 193 201 202 193 202 204 202 202 202 199 198 199 198 191 165 76 5 1 1 0 7 92 180 197 198 191 198 196 196 191 194 186 184 188 194 195 194 192 193 185 192 193 192 192 192 192 192 191 192 192 191 191 190 192 191 190 191 182 191 189 188 181 167 177 172 165 167 171 168 172 170 174 170 159 157 169 162 168 172 171 162 170 167 171 168 170 164 169 170 165 171 169 169 168 169 165 169 169 168 166 175 191 192 190 186 190 192 191 191 190 190 190 189 181 188 188 187 188 187 185 181 187 185 187 184 186 186 186 185 185 175 185 185 185 183 179 182 179 183 184 182 182 182 182 180 179 178 176 175 175 177 166 173 178 178 179 178 177 170 169 179 178 177 177 178 175 177 177 176 174 176 177 176 176 176 174 174 164 164 170 169 164 166 162 148 83 9 0 -1 1 25 116 158 171 180 188 187 173 141 57 4 0 0 0 0 1 1 0 2 1 -1 1 1 1 2 1 0 0 1 1 0 4 1 1 0 3 -1 0 1 1 2 0 1 0 1 -1 1 0 1 0 -4 0 4 0 1 1 0 1 -1 -1 -4 0 0 1 0 2 1 1 1 2 0 -2 0 2 1 -3 -2 0 1 -4 -1 0 0 0 1 -3 1 0 0 -1 0 1 0 1 1 0 1 3 0 2 1 -1 1 -3 2 0 1 6 0 0 -1 -2 0 2 1 -1 1 0 -1 -1 0 1 0 1 2 1 0 0 0 0 0 -1 1 1 1 1 3 0 1 0 3 4 0 1 2 1 1 0 0 0 -2 0 1 3 1 0 1 0 1 2 -2 6 2 -2 -1 0 1 2 1 2 2 2 0 0 0 0 1 2 0 0 0 -2 1 1 1 0 0 3 0 0 0 0 1 0 2 2 0 -4 -1 0 3 -1 2 1 0 
1 0 1 0 0 -1 1 -1 -2 -1 1 2 0 0 0 1 2 6 4 3 1 1 -1 1 0 1 0 0 -2 0 1 1 1 0 0 0 1 2 1 0 0 -1 1 1 4 5 1 0 0 -1 0 0 -2 -1 0 1 -1 1 1 1 0 1 0 1 1 0 0 1 1 0 0 1 2 0 0 0 0 1 1 0 2 2 0 2 1 0 -6 -1 0 0 1 1 1 1 1 0 0 0 1 1 1 0 0 7 2 1 0 0 0 0 1 0 0 1 -4 0 1 -1 3 12 48 72 99 127 144 158 168 173 177 180 182 184 186 188 188 187 188 187 188 185 176 186 185 185 182 172 179 177 176 174 171 169 166 165 165 165 157 165 165 165 165 164 161 161 154 155 152 132 59 5 0 0 4 0 -3 0 -5 0 0 1 1 0 -1 0 0 1 0 0 0 1 0 0 1 -1 -1 1 1 0 1 0 0 1 0 1 1 0 1 0 1 -1 1 -2 1 1 3 13 112 139 187 194 194 196 197 198 197 191 198 197 199 199 198 199 200 201 200 200 200 201 201 201 201 202 201 202 200 194 201 201 201 201 203 194 202 200 202 200 200 198 189 159 59 4 0 3 0 10 113 188 197 187 189 196 196 197 196 186 195 196 193 194 190 193 193 194 194 193 192 192 193 187 186 192 193 190 187 192 192 190 191 192 191 187 190 191 190 190 179 183 177 170 174 174 172 173 171 163 171 171 171 172 165 171 171 171 165 159 159 169 171 172 169 170 171 170 170 170 170 172 171 158 168 169 168 168 169 169 180 190 190 191 191 191 190 187 190 185 189 189 189 180 181 183 188 188 183 187 187 187 186 186 187 186 185 185 186 181 185 183 186 184 183 184 173 183 182 184 182 183 182 180 181 179 178 176 176 174 178 177 175 173 178 179 175 180 177 175 177 178 174 178 177 179 178 177 178 177 176 176 177 177 175 174 174 173 172 169 168 167 165 160 139 57 6 0 0 4 50 137 163 173 183 188 180 141 112 16 0 0 0 1 1 1 0 0 1 0 2 5 0 3 0 -1 5 7 1 2 -1 1 2 1 2 1 0 -1 1 1 6 2 1 2 -1 1 0 0 1 1 0 1 -1 0 0 1 0 -1 0 0 -2 0 1 0 1 -1 -7 0 2 0 -7 -2 1 0 -3 0 0 0 1 0 0 1 3 1 1 1 0 1 -3 -1 1 -1 3 5 1 0 0 1 0 0 1 0 1 1 1 -1 1 1 0 1 0 1 -1 -2 -4 0 1 1 0 1 0 1 2 0 0 1 0 -1 0 -4 0 0 0 -1 0 1 0 2 0 1 0 1 0 2 1 0 -1 1 0 0 -2 0 2 0 1 1 0 0 2 5 0 2 1 1 1 1 0 1 1 1 -1 6 1 1 0 0 1 0 1 1 0 3 0 0 2 1 1 1 -1 0 0 -1 1 1 1 2 -1 0 2 0 0 1 1 -1 
8 0 0 2 0 -2 0 -1 4 0 2 1 1 -3 -1 1 -1 2 1 0 4 -1 0 0 0 0 -1 0 0 2 1 2 0 1 2 1 1 -1 2 3 1 0 0 0 1 0 1 0 -1 1 0 -1 0 1 0 -1 -2 0 0 1 1 -1 -1 0 0 -1 0 -2 4 1 1 1 0 0 -1 1 8 2 0 0 0 0 0 0 0 0 1 0 0 1 -1 0 1 0 1 0 2 1 0 1 1 0 2 1 1 0 -1 1 1 6 3 1 0 0 0 -1 1 1 -1 2 3 7 28 59 87 110 129 134 150 158 163 159 162 173 176 177 170 177 178 178 179 179 171 177 176 174 173 168 163 167 163 164 165 166 166 164 157 164 166 164 160 164 164 163 161 152 154 148 93 29 1 1 0 -7 0 1 -2 1 0 0 2 1 0 -4 1 1 -1 0 -1 3 -1 4 1 3 1 -1 -3 0 0 0 2 1 0 0 2 0 2 -1 2 2 0 2 0 1 5 74 168 189 193 187 195 196 197 197 198 198 196 200 198 200 201 198 200 201 200 202 201 200 199 192 196 202 202 203 201 201 202 197 201 193 202 200 200 201 200 201 198 189 186 152 65 3 7 1 -1 13 110 192 197 196 192 196 197 195 195 196 194 195 195 195 194 194 194 191 184 193 193 194 193 192 192 192 192 192 192 191 191 185 191 188 190 190 190 180 191 182 190 188 184 180 176 176 174 174 171 172 171 172 171 171 167 163 171 171 169 169 171 171 171 170 170 170 171 164 170 169 170 170 170 164 155 153 159 158 171 175 185 173 189 187 192 191 187 191 190 178 175 189 182 188 187 187 188 189 187 187 187 187 187 187 186 185 186 185 175 184 178 173 177 185 184 185 183 184 184 183 182 184 184 180 181 180 179 177 177 175 178 176 177 178 178 179 179 178 179 178 179 172 177 179 176 175 178 178 178 178 175 177 179 175 176 178 174 168 175 172 169 169 167 166 158 117 28 11 1 0 7 83 152 167 178 187 184 159 149 62 4 -1 1 1 1 1 2 5 1 1 2 2 1 -1 1 0 0 2 4 1 1 0 1 1 6 0 1 0 -1 2 6 0 2 8 0 0 0 1 1 0 1 0 -3 -2 0 -1 1 -1 2 1 1 0 1 0 -1 -1 -7 1 1 1 1 1 0 0 -6 1 3 2 -1 1 -1 -1 1 1 0 2 0 0 1 1 1 -4 0 5 1 0 1 0 -1 1 1 2 -3 0 1 0 0 -4 0 1 0 1 1 0 -2 0 2 1 -1 0 1 1 0 -1 0 1 0 0 0 2 -1 -3 -3 0 1 1 0 0 3 1 1 0 0 1 0 1 1 0 0 0 0 -3 1 0 0 0 0 0 1 0 0 2 1 1 2 1 2 0 1 1 0 1 1 0 0 1 -1 1 2 2 4 0 -1 -3 -1 3 0 -5 -1 2 3 1 -2 1 0 -3 -1 0 1 0 1 1 0 2 
1 1 1 0 0 -1 1 -1 1 0 1 1 0 0 0 0 1 1 1 0 1 -1 0 -1 1 -1 1 1 -1 1 -1 1 1 1 0 1 0 1 0 1 1 1 0 2 -1 -2 0 -1 1 1 2 1 -2 0 4 0 -1 2 1 1 1 1 -1 -3 -1 0 0 -1 -1 0 2 0 1 0 2 2 8 3 0 0 1 2 0 -1 0 1 1 2 1 0 2 -1 1 1 0 -1 0 0 4 0 0 -1 6 2 -1 1 0 -2 1 0 1 1 0 3 1 0 0 1 1 2 1 1 0 6 25 52 74 102 119 130 135 142 149 151 152 161 163 161 164 164 167 167 164 158 167 166 166 164 163 163 154 156 164 164 166 166 167 166 158 165 166 165 164 162 163 161 159 155 140 78 6 0 0 4 0 0 0 0 0 2 6 2 0 1 0 1 -1 0 0 1 0 2 0 -1 0 0 0 0 1 1 0 0 1 1 0 1 3 5 4 2 1 4 0 2 52 121 185 193 193 194 195 198 198 197 197 197 199 198 199 199 199 201 200 200 195 196 200 201 201 200 203 202 202 202 195 202 202 202 201 190 201 201 189 201 200 198 198 189 183 140 28 0 0 1 6 20 138 192 197 198 198 196 185 190 196 196 195 194 194 195 195 191 194 185 182 193 193 193 192 194 193 193 191 185 192 190 192 190 190 191 192 186 192 189 189 179 190 192 189 178 178 177 174 173 174 172 172 172 159 172 171 171 170 170 172 170 170 171 172 170 171 173 171 171 170 171 170 167 171 170 170 171 170 170 172 173 172 177 191 180 187 191 184 190 183 174 177 189 189 191 190 188 189 187 188 188 188 180 187 186 187 185 187 185 177 184 186 182 173 185 183 179 183 184 183 183 183 184 181 173 176 181 179 176 178 172 175 177 168 178 178 179 178 179 166 177 179 177 171 178 178 180 178 175 178 177 176 177 176 177 177 174 175 166 175 175 171 161 169 167 164 152 90 10 0 0 1 23 117 160 162 176 187 181 165 120 41 2 1 1 -2 1 0 1 1 0 2 0 1 0 1 -1 0 4 1 1 0 1 0 -2 0 0 0 0 -4 0 2 0 1 2 -3 -7 0 0 -1 1 -1 1 1 -7 -6 -1 0 1 0 1 0 1 5 4 -7 -9 -5 0 1 0 1 0 2 -1 0 2 0 0 1 0 -8 -2 -1 1 1 1 -1 1 -4 -1 2 -1 -1 -1 0 0 0 0 -2 -1 0 -1 -1 -1 0 1 1 -2 1 3 1 2 -1 1 -1 1 1 1 1 -1 0 1 -1 -1 -5 0 1 0 0 1 0 1 0 0 1 2 0 0 1 4 1 1 0 -1 1 0 -1 1 0 1 0 0 -1 0 -1 0 1 0 0 1 0 3 0 0 1 1 1 1 4 0 0 1 3 0 -4 0 2 6 1 2 4 1 -2 0 -1 0 1 0 -1 0 1 1 1 2 1 1 0 1 0 0 0 1 0 2 
-1 -3 1 1 2 1 0 1 -2 0 3 1 0 1 1 0 5 1 1 0 0 0 -1 1 1 1 1 1 0 0 1 0 1 0 0 -1 1 6 2 0 3 0 0 2 1 -1 -4 1 -1 0 0 0 0 1 1 0 2 1 5 1 1 -1 0 1 0 1 0 0 -1 0 -1 0 1 0 2 0 8 2 6 1 -1 -1 -1 -5 -1 0 -1 0 2 0 0 -1 1 0 2 0 2 -1 2 2 0 3 2 4 0 0 -3 -1 1 2 1 2 0 3 1 1 1 -3 -1 0 -1 2 1 1 0 8 30 61 80 101 115 124 130 136 140 144 146 150 152 153 154 157 159 158 160 159 161 157 162 165 163 157 164 164 165 167 165 166 166 163 165 165 161 165 164 163 161 158 150 96 34 13 1 0 1 0 0 1 2 0 0 0 0 1 -2 1 0 2 0 3 1 0 2 4 1 1 -1 2 1 0 -1 -1 0 1 5 1 1 0 2 3 0 1 1 12 115 179 183 195 195 195 185 198 198 196 193 189 199 200 199 201 199 201 200 187 200 201 201 193 201 202 200 203 202 189 192 202 202 202 200 193 195 201 192 199 199 192 198 188 179 128 16 0 0 2 14 37 158 196 197 197 194 193 196 194 195 195 194 194 194 195 194 184 194 191 192 187 192 193 192 194 192 192 188 191 192 192 192 192 190 191 191 190 191 191 191 183 191 191 188 190 186 182 178 169 167 173 173 171 172 172 171 171 171 172 170 169 169 169 171 172 172 173 170 171 172 171 172 172 172 173 172 173 168 172 173 174 183 190 192 191 191 193 191 185 191 191 190 187 190 190 189 187 189 187 186 188 187 187 188 188 186 187 186 186 185 185 186 185 179 185 185 184 185 184 184 183 185 184 182 182 183 181 179 180 176 179 179 172 178 167 178 179 179 179 177 178 180 179 178 178 179 179 179 178 171 178 179 177 170 173 176 165 169 174 175 172 173 171 169 169 165 162 141 56 4 1 0 2 51 140 149 175 186 179 174 150 65 4 0 0 2 0 0 1 1 1 3 -1 0 1 3 0 0 1 0 1 0 1 -1 2 2 1 -1 -1 -1 -2 -4 -1 1 1 0 0 0 1 -1 1 -1 1 1 -1 0 1 0 1 1 0 1 -1 1 2 0 -1 0 -1 1 1 1 -6 -1 0 0 0 0 1 -1 -1 0 0 -1 -1 1 1 1 -1 1 0 -1 0 -4 -2 -3 1 1 0 1 0 -1 0 0 1 -1 0 1 1 1 0 0 0 -1 1 1 -1 1 2 0 0 0 2 5 1 -1 -1 2 0 1 -1 2 0 -1 2 1 1 2 -3 1 1 -3 0 1 1 0 0 0 1 3 1 0 -2 0 0 -1 2 0 0 1 -2 1 2 -1 -3 0 1 -3 4 2 1 0 1 -2 1 1 0 0 1 1 1 0 0 -1 -1 1 1 -2 -1 2 0 5 2 0 0 1 0 0 0 1 1 1 2 6 1 
0 0 1 2 1 0 2 0 -1 0 1 0 0 0 0 1 0 1 0 1 2 0 1 1 2 1 1 -1 1 -2 -2 0 0 -1 -1 1 1 2 1 1 0 0 0 1 6 1 1 1 1 -2 2 5 1 0 2 2 0 1 1 1 1 4 0 1 1 -6 0 -1 0 -1 1 0 0 0 2 0 2 1 0 1 0 1 -2 1 1 1 -2 0 2 0 1 0 -2 0 0 0 0 2 0 3 1 2 0 0 0 -1 -5 0 0 1 1 0 1 2 0 5 1 -4 0 0 1 -1 1 0 4 2 1 13 42 72 90 103 115 123 126 133 126 122 128 147 148 152 152 154 158 157 158 154 160 163 163 163 163 157 162 165 162 167 167 167 166 166 158 166 166 164 161 160 153 113 79 38 14 2 2 1 1 1 2 1 1 0 -1 1 0 -2 1 -1 1 -1 1 -2 -1 0 1 3 3 1 0 1 1 0 0 0 1 -1 2 6 2 1 0 0 4 62 167 176 192 194 196 197 197 197 199 198 198 198 199 189 198 200 200 199 191 189 201 202 199 192 201 200 202 201 202 202 201 195 201 198 201 201 201 193 201 192 194 198 198 188 173 92 7 1 0 1 20 58 168 196 198 198 197 197 196 195 198 196 196 196 196 193 188 192 194 193 193 194 188 194 193 193 186 190 192 192 191 192 191 192 192 191 183 176 182 190 189 189 191 185 190 190 188 189 186 180 176 176 172 170 169 172 170 171 171 171 170 172 171 171 171 171 173 173 171 171 173 172 172 173 173 172 174 171 173 174 174 172 180 184 184 190 191 192 183 191 190 192 192 192 189 191 190 189 190 190 183 178 177 179 187 187 185 187 187 185 178 186 187 187 178 185 185 185 186 186 185 188 185 185 184 184 177 176 180 178 180 179 182 174 180 179 180 180 180 180 179 178 178 179 178 178 179 179 179 177 177 177 177 177 171 178 177 167 176 178 175 175 174 172 166 169 167 165 158 113 15 0 0 1 12 101 125 155 171 187 181 150 119 19 1 0 0 1 0 1 1 1 1 2 0 0 0 0 0 1 3 0 0 1 1 2 9 1 0 -3 1 0 0 0 -1 0 -1 0 -1 -1 -1 0 1 3 2 1 -3 -3 0 0 3 1 1 1 0 1 0 1 -2 1 0 0 0 -5 -3 0 -1 -4 2 2 0 0 -1 2 0 1 0 -1 2 -1 0 1 0 1 1 0 1 4 0 1 0 -1 0 -1 -1 0 1 1 1 0 0 2 0 0 1 -1 -1 1 1 0 1 0 -1 0 0 0 0 5 0 0 1 1 0 -1 0 2 6 0 0 1 1 1 0 0 0 0 0 1 0 0 0 0 0 0 1 0 2 2 3 2 1 1 0 0 0 -1 1 1 0 -2 0 0 1 1 1 0 1 -1 0 0 0 0 0 -1 0 1 0 1 1 -1 0 4 2 1 1 0 8 0 0 1 0 -1 -1 3 1 1 
0 1 1 1 2 1 1 1 -5 1 0 1 -1 1 1 1 -1 5 2 1 -1 0 1 1 -1 0 0 1 2 0 0 3 -1 2 1 0 1 1 1 0 -1 0 0 1 -1 1 0 0 1 3 1 0 1 2 1 0 2 0 0 1 0 0 0 2 1 0 -2 0 3 -2 -1 -5 1 0 -1 2 0 0 0 0 0 0 1 4 1 0 2 1 1 0 0 0 1 0 2 1 3 1 7 1 1 2 0 1 0 1 -1 -5 0 1 0 2 1 0 1 0 3 -1 1 -1 0 0 0 0 1 2 -1 2 12 21 54 80 90 111 118 127 131 130 128 142 138 137 139 147 154 154 158 160 161 161 160 160 161 162 164 165 167 167 166 163 165 167 167 167 165 160 162 162 147 148 99 37 16 11 0 1 2 1 2 9 4 0 0 1 1 1 1 0 -3 -1 2 1 0 0 0 1 1 1 2 1 1 3 -1 5 1 0 0 0 0 0 -1 2 26 140 165 191 194 196 197 197 198 197 197 199 199 194 182 199 197 200 194 189 199 201 201 201 197 202 202 196 196 202 193 200 203 194 201 200 201 202 202 203 201 194 200 198 198 191 169 91 6 -1 2 8 29 61 171 197 197 196 196 198 195 194 195 196 195 193 195 193 187 193 194 193 183 182 193 194 192 193 184 192 192 191 188 191 192 191 189 192 190 184 189 184 187 191 192 191 192 192 191 190 189 187 184 178 171 174 174 173 171 173 173 172 172 170 171 163 172 172 172 172 174 172 172 172 163 168 173 173 170 172 165 174 175 175 177 186 191 190 191 191 192 192 191 190 191 190 190 190 186 189 189 189 187 188 187 181 185 187 188 184 187 189 183 186 185 186 180 186 185 185 184 185 185 184 184 185 183 182 178 182 180 179 180 180 181 182 180 181 179 179 179 174 175 178 173 179 178 180 179 179 173 179 178 179 177 175 178 178 178 177 176 177 176 175 175 174 173 172 169 166 165 146 57 3 2 1 2 47 109 163 177 186 185 175 151 63 4 0 0 -1 1 1 1 3 1 0 -2 -1 0 1 0 3 1 1 -1 1 0 1 1 0 -1 0 0 1 0 0 0 1 -1 0 2 2 3 1 0 -1 0 0 0 2 2 0 1 0 1 0 0 0 0 1 -1 0 -3 0 1 1 0 2 -4 -1 1 0 1 0 -1 0 1 0 0 0 1 -1 0 0 1 0 1 0 3 2 1 -2 1 1 0 3 1 -1 -5 2 -2 1 2 0 -4 -1 0 2 1 -1 1 1 0 1 1 0 2 1 2 6 -1 2 0 1 0 0 0 1 0 0 0 1 1 1 2 0 2 2 4 3 6 1 0 0 1 0 -1 0 0 1 -1 1 1 0 1 0 1 1 0 0 1 0 1 1 0 0 4 0 -8 -10 -1 -1 0 1 0 1 0 -1 -1 0 1 0 4 1 1 1 0 1 2 0 -1 0 1 1 1 -1 -2 0 
0 2 3 6 0 0 -1 1 1 0 0 1 3 2 2 0 -1 1 2 1 0 0 0 1 0 1 0 0 0 1 2 2 1 1 -1 -1 0 0 1 0 1 1 1 0 2 0 1 2 1 1 0 1 1 3 2 0 -1 0 -1 -3 -1 0 0 0 -1 0 2 0 0 0 0 0 1 1 1 1 8 1 0 0 1 0 0 0 0 0 1 0 -2 1 0 -1 0 1 1 1 1 0 0 0 1 2 0 1 0 1 0 1 -2 1 -3 -2 4 -1 0 2 0 0 1 -3 0 -1 0 1 2 1 0 1 2 9 7 36 64 89 104 114 123 131 133 138 142 146 148 151 152 155 155 159 160 158 153 163 163 165 164 164 166 166 166 166 167 167 165 166 166 164 165 161 160 155 143 81 8 0 1 0 1 1 -1 1 9 1 1 1 0 -1 1 -2 0 3 0 0 0 0 0 0 0 1 1 1 3 0 5 1 3 1 -1 0 3 0 1 7 89 178 178 194 196 197 196 191 197 189 198 198 199 199 195 199 201 201 197 191 196 201 201 202 200 202 201 202 202 201 200 200 201 202 202 201 200 191 201 202 202 199 200 194 196 182 161 72 6 0 1 2 6 80 149 196 190 197 199 197 187 196 195 195 190 194 195 194 185 193 192 193 194 192 185 193 192 192 193 192 183 190 183 192 193 192 193 191 191 186 190 191 192 191 191 190 190 189 181 191 190 188 187 184 183 177 177 175 174 176 174 173 171 172 171 168 172 172 171 172 172 172 172 172 173 167 171 173 170 172 166 174 175 176 176 176 189 189 189 192 192 192 186 192 191 177 178 183 190 190 189 188 189 188 187 187 187 182 187 187 186 186 175 186 187 181 185 184 180 185 183 182 183 185 183 181 184 181 176 181 180 178 181 182 183 181 183 180 179 179 180 179 178 179 179 179 175 180 180 180 178 178 180 180 178 178 179 178 178 177 177 178 178 176 175 175 174 172 165 155 165 161 113 16 1 0 -1 10 103 141 173 173 186 183 168 118 18 7 2 1 0 2 0 2 1 1 0 1 0 1 1 0 4 2 0 0 1 0 1 1 0 1 0 1 1 2 2 -5 0 0 0 2 2 1 0 0 1 2 0 5 9 1 0 0 4 2 0 1 0 0 1 -1 0 0 2 1 0 0 0 0 0 0 0 1 0 1 1 1 1 0 1 -2 0 1 1 1 1 0 0 0 0 0 0 1 1 0 0 -1 1 -2 0 1 4 5 1 0 0 1 3 2 1 1 4 -1 0 1 0 1 1 2 0 -1 1 0 -1 0 1 0 0 0 1 0 0 1 1 1 0 4 2 1 5 1 1 0 -1 1 1 0 -6 0 1 0 -1 0 1 0 1 -1 0 1 2 0 1 2 1 0 0 0 0 -1 -1 -4 1 1 0 0 1 0 -3 2 1 0 0 1 1 0 0 0 1 1 1 -4 0 0 0 1 2 1 
1 -1 1 2 0 1 0 3 1 0 1 0 1 0 1 0 1 0 -1 0 -2 0 -3 -1 1 0 1 2 1 1 -1 1 0 1 -1 -1 5 4 7 2 0 0 4 4 3 0 2 -1 -2 0 -3 -1 0 -2 1 3 1 1 0 1 2 0 0 1 1 0 2 2 3 2 0 3 0 1 0 1 3 0 -1 1 -4 0 3 1 1 0 0 1 1 0 -1 0 0 1 0 1 0 2 1 1 0 0 0 2 1 0 1 1 2 1 -1 -2 -1 -2 1 2 0 0 1 0 1 -4 2 0 0 0 -5 1 0 1 0 3 14 46 73 95 110 120 117 130 137 142 145 149 149 153 154 155 157 153 155 162 162 163 164 165 166 157 158 164 167 168 168 167 167 165 164 162 151 154 152 124 39 11 1 0 1 1 1 1 0 1 2 1 0 1 1 0 1 0 1 -1 -1 -2 0 0 1 0 -1 2 1 0 1 1 3 1 2 1 2 1 4 52 162 192 193 195 190 197 189 197 198 199 199 191 200 199 195 199 200 201 200 200 201 200 193 200 202 202 200 202 200 201 201 202 202 203 200 182 177 189 201 204 201 200 201 198 197 187 127 52 16 0 1 -1 8 106 186 197 187 195 198 193 195 196 195 196 195 193 192 191 193 179 175 179 193 195 194 192 193 193 192 192 187 192 192 190 191 192 192 192 190 192 191 191 192 190 190 190 190 174 181 189 183 189 190 190 187 177 182 179 176 173 172 173 173 169 172 171 171 171 171 172 173 172 172 173 169 174 174 176 174 175 175 176 177 179 179 181 185 188 189 191 192 192 184 191 190 177 190 189 189 190 190 190 189 189 188 189 187 188 182 182 186 187 187 188 186 187 179 174 185 186 186 185 185 184 184 186 184 183 176 182 180 180 175 181 184 183 183 179 181 173 171 173 181 179 179 178 175 179 180 179 179 174 180 179 179 178 179 174 178 178 178 177 175 178 176 175 174 174 170 164 161 165 148 58 2 -4 0 4 65 143 167 170 186 177 177 152 64 5 0 -4 0 1 0 1 1 0 0 -4 -1 1 1 0 1 0 -1 0 2 -2 0 1 3 1 0 3 1 2 1 2 -1 -1 1 0 1 1 -1 1 0 -1 0 3 2 0 0 0 1 -1 2 0 0 0 1 0 0 -1 1 0 1 1 -1 1 -1 1 2 0 -1 1 1 1 0 -1 -1 -4 1 -1 0 1 1 0 0 3 1 0 0 1 -1 1 0 1 -1 0 0 1 0 -2 -2 0 1 2 1 -1 0 1 1 1 0 1 0 2 5 2 2 1 0 2 0 0 0 1 -1 -5 -2 2 1 2 7 0 0 1 5 1 0 1 1 1 0 1 2 0 -1 0 0 -2 1 -1 0 -5 -2 -2 -1 1 1 0 0 0 -1 2 0 0 0 0 2 1 1 2 1 0 0 -2 -1 -1 0 1 0 0 3 -1 1 1 1 2 0 -2 0 0 2 -1 2 2 
3 0 0 -1 2 0 0 0 0 1 0 1 1 0 -1 1 0 1 1 0 -3 0 4 -1 1 0 1 1 -1 1 0 -3 -1 1 2 1 0 6 6 0 1 0 1 0 5 1 0 -1 -2 0 0 0 0 -1 0 0 1 0 -2 0 4 1 0 1 -1 1 1 0 -1 0 -1 0 1 1 1 1 0 1 1 -1 -1 0 1 1 1 0 1 5 1 -1 0 -2 0 0 0 0 0 -1 -2 -1 2 1 1 5 1 0 0 2 0 1 -1 2 2 0 -1 2 0 -1 1 1 1 4 2 1 0 2 -2 0 0 1 -2 -2 0 5 24 57 85 101 105 115 116 123 139 139 146 150 151 153 156 157 158 156 160 161 162 162 162 165 165 160 166 163 169 166 167 167 160 163 162 159 154 144 91 11 -1 1 2 1 2 1 -1 2 0 1 1 0 0 -1 1 2 0 1 -2 0 1 1 1 1 2 5 -1 1 0 1 -1 4 1 1 -1 1 20 132 164 192 196 196 197 196 197 199 198 201 200 199 199 199 199 186 199 199 200 201 201 200 199 201 201 201 202 201 200 202 201 201 201 202 200 186 187 201 202 201 201 200 199 197 195 172 150 42 3 1 1 0 13 114 187 199 197 195 187 197 196 196 198 194 196 195 196 194 185 192 193 179 192 194 193 193 193 193 191 193 194 192 191 192 184 193 193 193 191 191 191 192 188 187 191 183 176 179 190 182 189 190 190 190 191 190 189 184 182 178 175 175 173 173 174 174 166 156 163 172 172 173 173 174 174 174 175 173 159 175 177 177 176 180 181 182 183 184 189 191 191 193 197 192 184 180 190 183 191 190 190 190 189 189 190 188 185 189 186 179 184 187 188 187 186 187 179 185 186 185 187 181 185 185 186 187 185 182 184 183 173 181 170 183 184 186 184 179 179 180 169 178 180 180 180 180 179 180 180 180 178 179 179 180 175 178 178 173 179 178 177 174 176 177 175 172 174 175 168 172 169 168 160 110 12 0 -1 1 13 109 162 171 174 186 181 167 108 44 1 1 1 0 1 1 2 1 -7 -4 0 0 2 1 0 -1 0 2 1 -1 1 0 0 0 1 1 1 4 2 2 -1 0 2 0 3 1 -1 1 -2 1 0 2 0 1 1 1 1 0 0 0 -1 -1 -1 0 -1 -1 1 1 -1 0 2 0 0 0 -1 3 1 2 -1 0 -1 1 0 1 2 1 1 0 1 -1 2 1 6 5 2 0 0 1 1 1 0 -1 1 1 1 0 0 -1 0 1 0 0 0 1 0 3 -1 0 1 1 5 1 -1 0 -4 0 1 0 1 1 0 1 1 1 1 0 1 2 0 1 2 1 0 0 0 -3 0 1 1 -1 0 1 2 0 0 -7 -3 0 -1 0 2 1 0 2 -5 0 3 1 0 -5 1 1 -1 0 0 0 1 1 1 2 0 0 0 1 0 0 0 1 0 -1 0 0 0 0 0 0 0 1 5 0 
6 0 1 0 0 2 -1 0 1 2 0 0 1 0 -5 0 0 1 1 0 1 2 1 -1 -1 1 1 0 1 -1 0 0 0 2 1 -1 0 1 1 0 -2 0 -2 0 -1 -1 2 0 0 -1 0 1 -1 -2 -2 0 -5 -3 -2 1 3 0 1 1 0 0 3 1 -1 0 1 2 3 0 0 0 1 0 0 1 1 0 0 1 2 0 4 2 -1 -1 1 4 1 1 -1 0 0 -1 -1 -3 -2 0 1 4 0 0 1 1 1 -5 2 1 -1 0 1 0 -2 -4 0 0 0 1 1 1 6 0 1 -1 6 2 0 1 2 -3 2 26 41 72 95 108 120 127 133 138 144 146 148 152 153 155 157 157 160 157 161 164 165 165 161 165 159 166 167 154 165 167 165 165 162 161 156 151 130 55 4 2 1 1 0 1 1 1 1 0 1 4 2 1 0 6 1 -1 0 0 0 0 1 2 1 4 0 1 1 0 0 0 1 2 1 6 81 175 191 195 195 196 198 196 197 197 197 200 199 199 199 199 189 199 188 186 200 200 199 191 201 202 200 196 193 202 203 200 202 196 203 202 202 201 203 199 194 203 201 200 200 199 197 187 155 46 4 0 1 2 48 110 154 197 199 198 197 189 196 196 197 195 186 195 195 193 186 182 193 192 193 195 193 193 195 192 193 191 192 192 192 187 190 193 190 192 192 191 192 191 191 191 191 190 177 191 190 191 191 190 191 189 189 191 189 189 188 183 181 178 177 176 174 169 174 171 172 172 173 174 173 173 173 168 169 174 175 176 177 178 180 180 181 184 178 185 186 190 193 192 193 193 193 191 180 191 191 179 190 190 190 190 190 189 189 188 184 187 187 189 186 182 180 186 188 186 177 186 186 185 181 186 187 185 185 183 183 183 179 182 181 184 178 185 183 181 179 180 179 179 180 180 180 180 179 179 179 180 179 180 180 181 173 178 181 179 178 180 178 177 177 169 172 177 176 172 174 172 171 168 148 113 54 2 0 -3 3 61 145 168 167 172 179 178 155 68 6 1 1 1 1 1 5 0 -2 1 0 0 0 1 2 0 1 0 -1 1 1 1 1 2 -1 1 2 1 0 0 0 0 0 0 0 2 1 0 1 1 -1 0 -1 1 0 3 4 2 0 0 1 1 1 1 0 1 0 0 2 2 0 0 1 -1 1 2 0 0 0 1 0 0 1 1 -8 0 1 0 0 0 1 2 1 1 0 1 2 1 1 1 2 2 1 3 0 1 1 1 3 2 0 0 -1 1 3 1 1 2 1 2 6 1 0 0 1 0 0 1 1 0 0 2 1 1 0 -1 0 0 0 0 0 0 1 0 -1 0 1 1 0 0 0 1 0 0 0 0 1 0 0 -1 0 1 0 0 0 1 1 2 0 -4 -1 -4 0 0 0 0 1 1 -1 0 1 0 1 0 0 1 0 1 2 1 1 0 -1 0 -2 0 -1 1 1 1 
0 2 2 1 0 7 0 0 2 1 0 1 1 -1 1 0 1 1 0 -4 -1 0 2 0 -1 -1 1 1 1 -4 -1 0 0 1 0 0 0 0 0 2 0 1 0 1 -1 1 0 6 0 0 -1 -2 0 0 0 -5 -1 0 1 0 0 -5 0 1 0 0 0 0 0 0 0 1 -1 1 1 0 0 -1 -1 1 0 -7 -8 1 0 1 0 1 1 -1 1 1 1 0 1 1 0 0 1 -1 0 0 0 1 0 1 0 1 1 -1 0 0 1 3 1 0 1 1 0 1 -1 1 1 0 3 0 0 -1 1 1 0 2 1 0 0 3 19 36 67 91 106 117 125 133 137 140 144 147 150 153 155 156 158 158 161 162 159 164 166 162 166 167 167 158 158 166 167 164 163 162 158 155 145 113 49 5 6 2 3 2 1 1 0 0 1 2 2 1 1 2 1 1 0 -3 -1 2 1 2 0 0 2 2 1 1 0 0 -3 -1 2 40 154 192 193 194 197 197 198 196 198 198 196 199 192 200 199 201 200 200 199 201 201 201 199 190 200 202 202 200 201 202 204 201 201 201 201 202 202 200 202 191 201 200 198 199 201 199 196 189 157 81 25 8 0 0 33 157 171 196 199 198 197 196 197 195 196 186 194 196 194 194 194 190 193 194 194 194 194 191 193 193 193 192 192 194 193 193 191 192 193 192 191 190 190 192 192 192 190 191 192 191 193 190 182 191 192 191 190 190 181 191 185 189 180 186 182 173 177 175 175 167 174 168 174 174 175 174 175 175 175 176 176 169 177 178 181 181 177 184 182 181 183 187 190 192 192 193 193 192 181 191 191 192 192 192 188 182 188 187 189 190 189 182 188 188 187 178 187 187 188 187 181 186 187 179 185 187 186 186 185 184 183 182 183 184 185 184 186 187 182 182 180 180 180 179 180 179 180 180 177 179 181 180 180 180 180 180 174 180 180 179 180 173 178 179 172 177 178 177 176 174 175 173 172 170 166 160 112 13 0 0 0 11 103 158 169 180 186 183 170 121 19 1 0 0 1 4 2 6 0 1 -1 0 1 1 1 0 1 0 1 -1 0 1 0 0 2 0 2 0 2 0 1 1 -4 0 -1 0 0 0 0 0 1 0 0 1 1 8 9 3 -1 0 -1 2 1 3 0 0 -2 0 0 0 -1 -4 0 -1 -1 1 0 0 0 1 0 0 0 1 -1 0 0 0 0 0 1 2 -3 -1 0 0 0 0 0 0 2 1 3 0 0 -1 1 0 -1 1 -3 -1 1 -1 2 1 7 2 6 2 2 1 0 0 0 0 2 2 0 0 1 0 0 2 1 -7 -7 -1 3 2 0 0 1 4 -1 0 1 1 -1 -1 0 0 1 3 4 -8 -1 2 0 -10 2 1 0 4 1 0 1 0 0 0 0 1 6 2 0 -1 1 0 1 -1 0 -1 -3 1 0 0 3 5 5 1 2 1 1 0 1 -1 -1 1 -1 -1 
0 1 4 3 0 0 1 0 -1 0 1 0 0 2 4 2 1 0 1 -4 0 0 2 0 -2 -1 0 5 2 -1 2 0 1 -5 1 0 1 2 1 1 0 0 1 -3 1 1 1 1 0 1 1 1 2 2 1 -1 -1 1 0 0 0 -1 -1 0 0 1 0 0 -1 1 2 1 1 1 1 0 1 0 -1 0 0 -9 0 0 1 1 -6 -1 1 0 0 2 1 0 0 -1 8 1 1 1 0 0 0 0 1 0 -1 -2 6 0 -1 -2 -1 0 0 0 -1 -3 -2 1 3 0 -6 0 1 0 -1 2 9 1 0 2 2 2 0 1 1 6 34 61 89 105 114 124 124 124 141 145 147 151 152 148 156 158 160 160 163 164 164 164 167 168 167 168 166 167 166 166 157 154 158 155 151 138 100 29 2 1 1 0 3 2 0 -1 1 6 1 4 0 0 1 1 1 1 1 2 1 1 0 1 1 0 -1 -1 2 1 0 1 12 119 183 189 195 196 197 197 197 195 199 197 199 197 194 199 200 200 200 202 200 198 201 201 202 201 201 201 202 202 203 202 201 202 202 201 203 202 202 202 201 201 200 201 200 200 196 198 184 174 158 57 4 1 2 3 36 164 196 199 198 197 196 197 198 196 196 195 193 194 195 194 194 189 194 181 190 193 195 191 188 193 188 185 193 193 193 193 193 191 182 191 192 191 190 192 190 191 191 191 190 192 192 189 190 190 186 189 185 189 190 184 182 189 190 189 180 178 185 183 181 177 177 175 175 174 173 174 173 172 174 169 168 176 177 181 180 182 184 184 187 183 176 184 188 191 193 193 193 193 185 181 192 192 192 191 191 190 182 188 189 188 189 182 188 188 188 183 187 180 180 187 188 185 187 186 188 181 185 186 185 185 184 182 184 184 181 186 188 186 183 181 180 179 170 172 180 174 180 180 174 180 171 181 180 181 181 181 180 179 178 175 179 178 176 178 177 179 178 177 176 177 174 175 172 173 165 168 148 53 2 1 0 3 45 108 152 174 175 187 175 130 65 3 0 4 2 1 2 1 8 1 0 2 1 0 0 0 0 1 -1 0 0 2 2 0 0 5 1 2 5 0 1 0 0 2 1 0 -1 1 0 1 1 0 1 0 0 1 0 0 -1 -1 0 0 0 1 0 1 -1 2 6 1 -3 0 0 0 2 0 2 1 -1 0 -1 -1 0 0 1 0 1 1 0 0 1 -7 -1 1 -1 1 -3 -1 0 2 0 1 -2 2 1 -1 1 -1 0 1 -1 -1 -1 0 0 0 2 0 0 1 2 0 0 2 0 -2 -2 0 0 1 1 1 2 2 0 0 -1 2 2 0 0 1 -1 2 0 5 2 2 0 1 1 0 2 0 7 1 1 2 1 1 0 0 1 0 0 -1 2 1 0 0 0 0 2 -3 -1 1 1 1 0 0 1 0 -2 1 2 8 4 2 0 1 2 1 0 0 -1 -4 -1 2 2 1 
0 0 0 0 2 -4 0 1 1 6 2 0 1 3 0 1 1 0 1 -1 1 2 3 0 0 1 -1 1 -1 1 0 0 0 1 1 1 0 1 1 0 0 1 2 0 1 1 0 1 1 1 3 1 1 0 1 -1 0 1 1 2 0 1 0 0 1 -4 1 -1 0 -1 0 0 0 3 2 -1 1 0 1 1 0 -1 0 2 1 1 -1 0 0 1 0 0 0 0 0 2 6 2 0 0 1 1 0 -1 1 1 0 0 4 0 0 -1 0 0 1 0 0 0 1 -1 -5 0 1 1 1 -1 -3 2 2 1 4 0 0 1 0 2 1 1 7 35 71 93 105 108 123 123 136 140 144 148 151 148 154 158 158 155 161 163 163 165 166 166 166 168 166 167 166 158 164 163 160 155 149 145 134 80 28 5 1 2 1 5 2 1 4 0 2 1 2 1 1 1 0 0 1 0 -2 -7 -1 0 0 1 1 1 5 1 3 37 68 167 192 192 189 197 195 197 197 198 198 194 198 192 199 201 199 199 194 201 201 201 201 201 202 202 202 201 201 202 202 201 202 201 201 202 203 201 194 202 202 201 201 197 200 199 198 201 197 190 160 56 3 0 0 2 42 163 197 201 200 197 197 198 197 196 193 195 194 195 195 195 194 194 186 177 192 193 195 192 192 193 192 194 193 192 192 193 193 183 192 191 192 189 191 190 192 192 191 192 191 191 189 190 189 183 177 190 190 184 186 189 192 190 190 189 180 190 188 189 186 184 181 173 177 157 165 175 175 176 175 177 176 178 178 178 182 183 184 185 187 187 181 177 185 187 190 192 188 192 191 182 192 191 187 191 192 190 189 191 190 189 189 190 189 188 188 188 188 188 187 186 174 163 168 186 187 186 184 186 178 184 185 185 184 185 186 188 188 186 182 181 180 182 180 181 179 180 181 180 180 182 181 180 181 181 181 182 179 172 180 180 179 181 178 179 176 179 176 178 176 169 177 176 174 173 171 169 139 86 11 0 1 0 10 103 162 173 167 185 183 167 121 19 0 0 0 3 1 2 9 0 0 1 1 1 1 1 1 1 1 0 0 2 1 1 1 1 0 1 0 0 0 0 0 1 1 2 -1 1 1 1 1 -1 1 0 2 0 0 0 0 -1 -5 0 2 0 0 1 1 6 1 0 -1 1 0 1 1 3 0 2 0 1 1 1 -1 1 2 0 2 -1 0 0 -1 -5 -1 0 0 -3 1 0 0 3 1 1 4 1 0 2 1 0 1 2 1 -1 0 1 -1 3 0 1 1 1 1 3 1 -1 1 -1 0 2 1 0 1 -1 0 1 -1 1 1 0 0 1 1 0 2 -3 2 0 1 0 -4 1 2 0 -1 1 3 -1 0 -1 1 0 2 1 1 1 1 2 1 2 0 0 0 0 1 0 -2 1 0 2 6 6 2 0 -1 1 2 1 1 0 1 1 1 0 -1 1 0 0 0 0 0 -1 
1 0 0 1 -1 -1 1 1 2 0 1 2 1 1 0 0 1 1 2 1 -2 1 1 1 0 0 0 1 2 1 1 0 1 1 1 2 1 1 0 1 1 1 -2 0 1 1 1 4 0 0 -1 -2 2 0 2 0 -2 0 1 0 -1 -1 0 -1 -6 0 4 0 0 -7 1 0 1 1 1 1 1 1 1 1 5 0 1 1 1 2 0 0 2 0 1 0 0 1 -4 -1 0 0 1 0 0 0 0 0 1 1 2 9 2 0 -4 1 1 1 0 -1 -4 1 1 1 -1 0 1 -1 0 -1 1 8 5 1 1 1 0 0 1 1 0 1 11 8 41 74 93 104 116 126 133 136 142 145 149 152 154 153 158 159 161 163 163 164 164 166 167 161 165 160 167 165 160 161 161 157 153 150 141 129 85 42 25 22 3 1 0 0 2 0 1 1 0 2 -1 -3 1 0 -1 0 -1 -1 -1 -5 2 1 6 1 1 0 5 67 146 171 193 195 196 196 197 198 197 196 198 198 199 199 199 201 199 203 201 201 201 200 202 202 202 201 201 201 201 202 202 202 195 201 194 201 201 202 202 200 195 202 201 202 201 195 200 198 198 190 163 62 17 1 1 1 36 157 194 199 198 189 196 198 194 196 195 195 191 195 196 195 192 194 194 192 187 192 193 193 193 193 193 191 192 192 195 192 193 193 192 190 192 190 191 191 192 192 191 191 191 188 191 191 192 190 191 192 191 190 191 190 190 191 190 190 184 190 184 190 188 189 187 185 182 168 179 170 171 178 177 178 173 177 174 178 179 182 184 185 187 186 177 178 172 176 187 190 190 190 193 193 193 192 181 191 191 191 184 191 182 190 190 189 189 187 179 182 189 187 190 186 186 161 161 185 187 184 187 186 185 185 184 186 184 182 188 187 189 185 182 180 182 181 181 181 175 181 181 180 176 181 181 181 175 180 180 181 182 180 179 180 180 179 173 179 180 175 178 177 171 176 177 171 173 174 173 170 167 147 54 5 11 2 3 47 143 168 175 177 186 168 154 63 3 0 0 1 1 0 1 0 -1 0 2 2 1 -1 1 2 0 1 0 4 -1 0 1 -1 0 -3 -2 1 0 0 -1 6 1 0 0 1 0 0 1 2 0 5 7 6 1 1 2 1 0 -1 0 1 1 1 0 1 0 1 1 4 1 0 1 3 1 0 0 -1 -1 5 -3 1 0 0 0 0 1 1 0 -2 0 2 -1 1 0 2 0 0 0 3 1 2 0 -1 0 -1 0 1 1 0 0 0 0 2 0 0 0 1 0 0 2 1 0 0 2 0 3 3 0 1 1 0 0 1 0 0 -1 1 0 0 -1 1 5 0 0 1 0 0 0 1 0 1 0 -1 -1 -1 -1 1 0 1 1 0 -1 5 3 1 0 2 1 0 1 0 1 1 0 4 1 -1 1 1 5 0 1 -5 1 0 1 0 1 0 0 0 -1 0 -1 -2 0 1 
2 1 5 0 0 0 1 1 0 0 1 -1 0 0 1 2 1 1 2 2 1 2 0 -1 0 3 0 -2 0 2 1 0 -1 0 1 0 0 0 0 1 -1 -5 1 0 0 1 0 1 0 1 -1 -1 -1 1 2 0 -3 1 -1 -3 -1 1 0 0 -3 2 0 0 -6 -1 0 0 1 0 -1 0 0 1 1 0 0 -7 2 1 -1 1 1 1 0 1 0 0 0 1 -1 0 0 -2 -1 1 3 0 1 0 1 0 2 2 2 1 0 0 1 1 0 3 0 0 1 1 1 -1 0 0 2 0 1 2 2 2 1 1 -1 -2 0 1 1 5 0 2 10 48 78 95 108 119 126 133 137 142 145 150 152 155 157 159 160 161 150 150 156 165 166 167 167 167 166 165 164 163 160 158 156 152 149 142 126 80 53 49 38 5 6 3 2 2 1 2 2 6 2 0 7 0 1 0 1 -5 -1 -1 2 -1 1 0 1 3 9 100 180 181 194 195 197 197 197 197 198 197 192 199 200 200 195 201 200 201 201 200 200 201 202 200 201 197 201 202 200 198 203 201 197 200 201 201 201 202 202 201 203 201 201 201 201 199 199 199 196 180 165 80 6 4 1 14 38 157 195 192 187 187 197 196 196 188 195 198 195 194 195 196 195 195 192 195 194 194 194 192 193 186 183 184 184 186 192 192 193 193 192 191 192 191 191 184 191 192 191 190 191 186 192 193 191 188 191 190 191 190 190 190 187 191 181 181 190 190 191 191 187 191 190 190 188 188 187 182 183 183 180 177 175 178 178 170 178 162 165 176 187 179 187 181 174 176 178 189 189 192 193 191 192 192 193 192 192 190 190 181 190 190 185 184 190 189 189 187 189 189 189 189 187 166 165 185 187 187 188 187 186 186 186 184 181 186 189 189 183 183 180 181 181 181 181 180 181 174 181 181 180 181 181 181 180 181 180 180 181 181 181 180 180 181 178 167 179 179 179 179 178 179 178 176 175 174 173 167 164 163 95 45 23 13 1 11 106 161 168 181 186 179 167 111 11 0 0 0 -1 0 1 0 -2 0 1 -2 2 -1 0 0 0 0 0 1 1 0 0 -1 -1 0 -1 -1 -2 -1 1 2 0 1 -1 0 2 1 1 1 0 1 5 2 1 1 0 1 2 -1 0 2 0 -1 0 -1 -1 0 1 1 2 0 -2 2 1 1 0 1 1 1 3 -1 1 0 1 1 1 0 1 0 0 0 -1 0 0 0 1 -1 0 1 0 0 -6 -1 1 0 0 1 1 0 -1 0 1 1 0 1 1 0 0 2 1 0 1 2 2 0 3 1 0 2 4 1 6 1 1 1 -1 0 2 0 0 0 1 1 0 0 3 1 0 1 2 1 1 1 0 0 2 -1 2 0 0 1 1 3 2 -1 -1 1 0 0 1 0 0 0 2 1 -1 0 -5 0 1 1 -1 1 0 1 -1 -3 -1 2 1 0 2 1 1 2 1 2 
0 1 0 0 1 0 2 0 1 2 0 0 6 1 1 2 0 2 1 0 -1 1 1 -1 3 1 0 0 0 0 2 2 1 0 0 0 0 0 1 1 0 0 0 4 0 1 0 1 -1 -2 -1 0 2 1 0 1 1 -1 -5 0 1 0 -1 0 1 0 -5 0 1 0 0 0 1 1 1 0 -1 0 -1 0 -1 -2 0 1 1 0 -1 -1 -3 1 1 -1 -1 0 -4 1 2 1 0 1 -1 1 0 0 0 -4 -1 1 -1 0 5 1 6 2 2 0 1 1 0 1 2 1 1 0 0 0 -1 2 10 0 1 1 0 0 0 0 1 0 1 2 4 17 47 81 97 111 120 129 133 133 144 147 150 154 155 156 160 161 160 151 163 165 166 165 166 164 158 158 164 161 161 147 156 154 150 146 138 103 48 63 76 55 26 30 3 0 3 1 2 2 0 -1 0 0 1 2 1 1 1 6 1 0 0 0 0 4 54 163 191 195 192 188 196 197 197 199 197 199 199 200 199 200 200 199 199 202 201 200 198 201 202 201 201 198 200 201 201 200 201 202 202 201 191 201 203 201 202 201 191 200 201 195 202 199 198 200 199 192 168 74 28 0 2 24 33 153 194 197 197 197 190 197 196 185 195 192 195 195 196 195 195 195 190 194 194 193 194 194 193 193 188 193 193 193 191 187 187 193 188 193 191 191 182 192 192 193 189 191 191 191 192 190 192 191 190 191 190 192 190 189 190 191 191 189 191 191 191 190 190 191 191 192 189 188 190 182 183 189 187 185 183 184 183 182 180 162 164 184 179 187 190 188 180 172 178 184 189 190 191 191 193 192 191 191 192 192 190 191 191 193 191 189 178 189 183 190 190 190 189 189 188 186 185 188 188 187 182 187 185 186 186 184 190 188 191 190 188 182 180 179 180 174 180 181 181 181 182 182 181 174 180 181 181 180 180 180 179 180 181 180 181 181 174 181 181 181 179 180 174 180 177 178 174 176 163 173 172 168 116 47 4 5 1 4 52 146 172 181 188 185 173 144 55 4 -1 1 0 1 0 1 0 2 0 0 0 1 0 2 -1 0 1 0 -1 1 2 -1 1 0 2 0 0 1 1 1 -3 -5 -1 -1 0 0 0 0 1 1 1 3 2 6 2 2 0 -1 0 1 -1 0 1 0 0 0 1 0 1 0 1 0 -1 1 -1 0 0 2 1 -1 1 -1 1 0 0 0 -1 -1 0 0 0 2 -1 1 -3 0 -1 4 5 0 1 0 -1 -2 -1 1 0 0 0 1 2 0 1 0 0 0 -1 1 2 0 0 0 1 2 1 1 -1 1 2 1 1 1 0 5 0 -2 -1 1 0 1 0 2 -1 0 -1 0 1 0 2 1 1 1 1 1 0 1 1 2 1 -1 0 4 1 0 -1 0 1 -9 -12 1 0 0 0 -1 0 0 0 1 2 3 1 1 1 1 2 2 0 0 0 0 0 1 0 2 5 1 
4 2 1 2 1 0 2 0 0 1 1 1 1 -1 1 1 0 1 1 0 3 0 1 0 0 3 0 0 1 0 -1 2 0 0 -1 1 0 0 5 2 0 0 0 0 1 2 1 0 0 0 0 2 2 4 1 0 2 2 1 -5 0 2 0 0 0 0 -1 0 1 0 0 0 2 2 0 -1 -2 0 1 1 -1 0 0 2 -1 0 0 -1 1 2 0 0 4 0 1 1 0 1 2 1 1 0 0 0 1 0 0 1 1 0 0 2 1 1 6 1 -1 0 1 2 0 0 1 0 0 0 0 0 1 1 1 1 3 0 1 0 2 0 0 5 2 7 25 58 84 100 111 120 129 134 140 143 142 152 154 156 157 160 156 162 164 164 166 168 167 167 167 167 164 164 163 159 156 151 152 150 145 120 62 36 65 97 79 80 46 15 6 1 -1 1 1 -3 -2 0 0 0 3 0 2 1 -1 0 1 0 0 18 135 186 187 194 195 198 197 193 197 194 199 195 199 195 198 199 192 200 200 201 199 200 200 202 202 202 201 197 200 202 203 198 201 202 192 201 201 203 199 190 193 201 193 201 190 199 200 200 200 198 197 191 164 81 43 3 4 32 64 145 176 189 198 198 190 196 197 195 196 196 196 196 196 195 194 195 193 194 194 193 194 193 193 194 194 193 195 191 192 193 191 193 190 191 192 193 190 190 192 191 190 192 192 191 191 191 190 191 191 193 185 185 192 191 191 190 190 191 193 190 191 191 190 192 190 190 178 180 183 190 191 190 191 190 187 189 186 186 176 184 185 186 185 187 189 190 185 173 169 177 176 188 190 190 190 188 191 183 191 192 190 191 191 191 190 190 190 190 190 189 189 188 189 188 186 181 187 187 188 187 183 187 186 180 186 188 189 189 191 189 182 181 180 180 181 181 173 180 182 181 181 179 179 181 179 181 181 181 180 181 182 183 179 181 179 170 179 182 180 180 180 176 176 178 178 178 170 174 168 174 173 167 161 88 5 0 0 0 13 116 167 176 186 185 161 156 66 4 1 3 1 1 3 2 0 3 1 0 0 0 1 0 -2 0 3 -1 0 1 1 -1 -1 0 1 0 0 1 0 1 2 1 0 -1 1 2 0 0 3 0 2 8 1 1 -1 0 1 1 1 0 0 1 0 1 1 0 -1 1 1 -1 1 1 0 -1 2 1 0 -1 0 -1 0 0 1 1 1 0 1 0 0 0 -1 1 2 1 -1 -9 -2 0 0 -1 0 1 -1 -4 1 0 4 0 0 0 0 4 0 0 2 3 0 1 2 0 0 0 2 4 1 0 -1 2 0 0 0 -2 0 0 0 1 2 -1 0 3 1 0 1 0 -4 -3 2 0 -1 0 0 1 -1 -1 -3 0 4 2 0 0 1 0 1 1 0 1 -1 -9 -9 0 1 -1 -1 0 0 0 0 1 0 0 0 0 1 0 -1 1 4 2 -2 1 0 1 -1 1 2 1 
0 5 1 6 9 0 0 1 0 2 2 1 0 -1 0 -1 1 0 0 1 4 1 0 -1 1 3 6 0 2 0 -1 0 1 0 1 0 0 2 2 -1 1 1 1 2 6 4 2 1 0 1 0 0 2 3 0 1 2 0 0 -1 1 3 1 2 0 1 -3 -2 2 -1 0 1 0 1 2 2 -1 1 0 0 1 1 1 0 0 -1 0 1 0 1 -3 0 1 0 0 3 0 0 -1 1 0 0 -2 0 5 0 4 1 0 0 1 -1 0 2 -2 -2 -1 1 1 1 0 0 3 2 1 1 0 1 2 -1 0 0 1 1 -1 1 0 0 0 -1 2 9 16 35 60 87 103 109 121 130 135 141 144 139 152 156 156 159 159 162 162 164 165 167 166 161 167 167 160 163 163 159 154 156 154 150 147 117 82 31 17 60 100 120 120 99 61 30 7 3 1 -1 0 1 0 2 1 1 0 1 -1 -2 -5 -1 6 80 175 192 193 185 196 197 197 197 198 196 193 197 199 200 199 200 199 192 199 194 200 200 202 201 198 201 201 196 201 201 202 200 201 200 201 202 201 201 200 200 202 199 203 200 201 200 202 200 200 190 196 168 138 86 45 20 14 4 21 113 189 198 199 199 197 189 196 194 193 187 191 194 195 194 194 193 195 195 193 193 194 194 190 193 193 193 186 191 194 192 194 191 192 192 191 192 192 191 191 192 192 192 191 187 190 193 191 191 191 191 182 189 191 192 191 191 193 191 191 190 192 192 191 191 190 192 192 189 190 191 185 185 190 192 192 191 190 190 190 189 190 186 187 186 187 191 188 184 171 164 174 182 188 188 189 191 185 191 183 192 192 191 192 191 190 191 190 190 190 190 190 190 189 189 188 188 188 189 186 186 187 186 188 186 189 189 190 191 190 184 176 169 168 177 179 167 169 179 168 166 181 182 181 182 182 182 182 180 178 181 180 181 175 166 178 181 181 181 177 180 179 180 180 181 179 178 171 176 175 176 174 173 168 97 16 0 0 1 5 79 158 174 176 169 150 123 69 8 0 1 0 1 1 0 1 1 6 0 1 3 0 2 1 -1 1 0 -2 0 -1 -3 0 1 0 0 1 1 1 -1 0 1 0 1 0 6 -1 0 0 0 -1 1 1 5 1 -1 -4 0 1 3 0 1 2 0 2 1 0 0 0 -3 2 -2 1 0 1 1 1 0 0 0 1 -1 0 0 1 2 0 0 -1 0 8 8 0 4 0 0 0 2 0 -1 2 0 -4 0 1 2 1 -1 1 0 0 -1 0 2 0 2 0 -4 -2 1 -1 1 1 0 -5 1 -1 2 1 0 -3 -1 -1 0 1 0 0 0 3 2 -1 3 0 0 0 1 0 -1 0 1 0 1 -1 -4 1 2 3 1 2 0 1 0 1 0 1 1 1 0 -1 -7 -1 1 0 1 -1 0 0 0 0 0 0 0 1 1 -2 1 2 2 1 0 -4 0 0 0 1 0 
0 1 0 0 1 0 0 0 1 1 6 2 0 1 1 -1 1 0 0 0 1 1 1 0 1 0 1 2 0 1 1 1 0 -1 1 2 1 1 1 1 0 2 3 4 2 1 0 0 1 -1 1 0 1 0 2 0 1 0 0 0 1 1 0 -6 0 1 -2 0 1 -2 -5 2 1 1 2 0 1 0 2 1 -1 1 1 0 -1 1 1 1 -1 -4 0 1 1 -1 -1 1 0 2 1 0 2 -2 1 7 1 1 1 -1 0 0 3 0 2 1 0 1 -2 0 1 1 0 0 1 0 2 -1 0 -2 1 -1 1 1 1 0 1 1 0 0 1 -2 1 16 23 17 30 68 86 103 115 123 125 136 143 146 149 153 155 156 153 160 162 163 158 165 167 166 166 167 166 160 162 151 158 157 154 152 150 145 111 52 27 15 52 90 117 132 111 118 86 45 18 7 4 1 0 0 1 1 1 0 3 0 1 3 58 132 187 193 193 195 197 197 197 198 199 198 199 200 199 198 198 200 199 191 201 200 201 202 201 193 200 202 201 201 201 201 202 199 202 201 199 201 201 194 201 201 201 202 201 201 200 196 200 200 198 198 199 191 169 89 8 8 2 1 17 130 190 198 197 198 199 197 195 183 182 194 195 196 195 193 193 194 194 194 193 195 192 194 193 187 192 183 192 192 193 191 192 189 192 191 190 184 191 186 189 192 192 192 191 192 188 189 193 190 191 191 190 192 185 190 191 190 191 191 192 191 190 191 191 190 188 191 183 190 191 190 189 185 191 184 185 192 185 191 192 185 191 192 191 189 188 188 182 184 179 164 161 169 180 186 186 188 189 191 180 190 192 190 191 191 189 191 191 190 191 190 191 189 189 191 189 189 188 187 187 188 188 187 188 184 190 192 189 190 186 175 171 173 165 173 167 176 177 178 178 179 173 179 180 180 181 180 181 182 181 180 181 182 181 180 181 183 180 181 181 182 184 181 179 180 175 179 179 178 176 175 173 164 172 150 46 14 1 0 3 40 109 169 180 185 169 168 97 29 0 1 0 -2 0 2 0 2 2 2 0 0 1 0 -1 1 3 1 1 0 0 1 1 -1 0 -5 0 1 1 1 0 2 0 1 -8 0 1 0 1 1 2 2 1 7 0 -1 4 2 -1 -1 -1 0 0 0 -1 1 2 -2 1 3 0 -1 0 0 1 0 -8 -4 -1 0 1 5 0 0 2 1 1 7 0 1 2 1 0 2 1 -1 1 0 -3 -2 0 0 2 1 3 -1 1 0 0 0 0 2 1 5 2 0 -1 -1 0 0 0 -8 -1 0 -1 1 -1 0 1 -1 0 0 -4 -5 0 0 0 -1 2 1 1 1 1 -2 1 0 0 1 4 1 1 6 1 0 0 0 3 2 2 0 -1 2 0 -2 1 4 1 -1 0 0 0 -6 0 2 0 1 0 1 1 1 1 1 1 0 0 -1 -1 1 0 1 -1 0 1 1 0 -1 
0 0 0 0 -2 -1 0 0 0 -1 0 4 2 6 1 -5 0 2 0 2 1 0 1 1 1 -4 2 4 1 0 -1 0 -2 0 2 0 0 5 1 0 1 0 2 1 1 0 0 -1 -2 1 -1 0 1 0 6 1 1 -1 0 0 1 0 -2 -1 1 -1 3 0 0 0 -1 5 1 1 0 0 0 0 2 1 -5 1 1 1 2 1 2 -1 0 -4 -1 1 0 1 0 1 3 0 0 0 1 0 -1 0 0 0 0 -2 3 1 1 1 0 3 1 -1 0 0 0 -1 0 0 1 1 0 0 1 0 0 0 0 0 4 2 4 0 1 0 1 1 6 9 21 33 40 49 74 86 105 117 124 132 137 143 148 149 155 157 158 160 162 163 163 166 166 161 168 166 166 165 162 159 158 157 150 155 153 150 136 82 25 22 29 39 71 111 133 141 107 94 87 95 65 35 11 6 13 0 0 1 6 2 1 9 102 179 192 187 194 196 196 197 197 197 197 190 200 201 203 199 200 197 201 199 201 190 200 200 191 188 194 203 201 200 201 202 201 201 199 201 193 201 201 196 200 201 200 200 201 200 200 201 199 201 200 199 198 194 173 91 7 3 12 1 13 101 159 196 197 197 196 198 196 196 195 197 197 195 194 182 194 185 193 193 194 193 194 195 193 193 186 181 192 178 182 192 192 193 193 191 191 191 191 190 191 191 192 193 193 192 191 192 192 191 191 190 191 191 191 191 192 192 192 192 190 187 192 191 191 191 192 190 184 190 191 191 191 192 191 181 192 191 191 184 191 186 193 193 193 192 191 183 188 187 184 175 160 153 165 175 183 186 185 189 189 178 192 191 192 192 184 190 190 190 190 191 191 190 189 188 188 185 188 188 188 187 182 187 190 190 185 187 184 187 176 172 173 173 173 167 172 174 169 176 175 174 168 171 177 176 178 179 179 180 179 171 170 179 181 181 180 181 181 172 180 180 180 178 162 165 178 170 177 178 176 170 175 166 173 164 90 6 0 0 1 13 116 166 166 185 186 178 158 72 4 0 -1 0 1 1 0 1 1 1 1 -1 0 0 2 0 1 4 -1 0 0 0 2 0 0 -1 1 5 1 0 -7 1 -1 0 1 6 1 2 1 0 1 8 9 2 0 1 0 0 3 1 0 1 0 0 0 -2 1 -2 0 7 1 1 1 1 1 0 2 1 0 -1 1 1 0 1 1 0 0 0 1 0 2 0 -1 5 1 -1 -1 3 1 1 1 -1 -1 0 -1 0 -1 0 0 2 0 1 2 2 0 1 0 1 1 -1 0 0 1 -1 0 1 2 2 0 1 -1 1 1 1 0 0 0 1 0 7 0 0 0 0 0 1 2 0 0 0 -1 0 1 1 0 -1 1 0 0 1 0 0 0 0 1 0 -1 1 0 -1 0 0 -3 0 0 0 2 -3 -1 2 -1 0 1 1 0 1 0 0 0 1 -1 0 -1 -1 1 0 
1 0 0 1 -1 1 1 0 0 1 -1 0 -1 2 1 1 1 -1 1 0 0 2 1 6 0 0 0 0 -2 0 2 0 0 -1 0 0 -1 3 3 1 1 1 4 0 0 0 1 1 2 1 0 0 1 1 1 1 -1 -5 2 -2 1 1 -1 0 1 -1 2 0 -2 1 2 1 0 1 1 1 0 5 8 6 -1 -4 0 1 0 1 0 0 -1 -7 -1 -1 1 1 1 1 0 1 1 0 1 1 1 0 -1 0 1 1 0 1 10 1 0 0 -1 2 0 0 0 0 -1 0 0 2 0 1 -1 0 0 0 1 0 0 0 0 1 0 1 0 1 0 11 28 53 46 46 61 79 99 110 119 120 134 140 144 149 154 155 157 160 161 163 164 165 166 165 166 167 166 166 164 162 159 159 157 154 150 152 146 110 43 5 2 7 31 63 101 125 118 145 147 135 144 134 112 76 49 23 9 16 2 -1 6 64 154 188 184 189 196 197 196 196 199 199 198 189 199 199 199 198 199 199 200 201 201 200 199 201 200 199 201 200 196 200 200 201 201 201 202 201 202 200 195 200 202 200 203 189 200 201 201 200 200 198 199 200 198 194 174 97 7 1 13 3 12 104 188 197 195 199 188 185 189 196 195 195 195 195 195 195 195 192 186 188 194 193 194 193 194 194 192 192 191 180 177 191 192 192 192 193 191 193 192 192 192 192 192 190 184 188 191 192 192 192 190 190 192 192 192 191 191 190 191 190 190 191 192 190 187 189 192 192 186 190 192 192 191 186 191 191 191 192 191 192 191 193 193 193 193 193 192 192 191 189 185 182 167 153 147 159 170 179 184 187 188 189 189 190 190 190 191 191 190 191 190 190 190 191 189 189 185 187 190 187 188 188 189 191 190 191 187 188 186 178 171 173 172 173 173 173 173 174 173 174 173 175 175 175 175 174 176 176 176 177 178 176 178 176 179 179 179 178 180 179 180 179 180 179 163 170 179 166 162 177 177 165 175 170 173 154 127 17 1 0 2 6 80 158 166 183 179 179 154 114 11 1 -1 0 2 2 -1 0 2 0 1 -3 0 1 2 3 1 0 -1 1 0 -1 0 0 1 1 5 2 5 -1 1 3 0 -2 1 2 0 -1 2 0 2 2 1 0 0 -1 0 1 0 2 1 1 2 0 1 1 1 6 2 1 4 0 1 1 -1 -1 0 3 0 0 0 7 0 2 2 2 1 0 -2 -1 0 0 1 1 0 1 -4 0 1 0 0 0 1 0 0 2 0 1 6 3 0 -1 0 -1 1 0 2 0 0 1 6 0 5 1 -1 0 4 1 -1 -1 1 -4 0 0 0 0 1 0 1 1 0 0 6 1 0 0 1 -1 0 0 1 -1 2 1 1 0 0 0 0 1 0 1 1 2 0 -1 -4 0 0 0 0 -3 -5 -8 -1 1 1 2 0 -1 -1 0 0 2 1 1 1 2 1 1 0 0 0 2 0 1 
0 1 1 0 0 -1 0 0 1 0 -1 0 0 -1 0 1 0 1 0 3 1 4 1 1 1 0 1 0 0 1 1 1 1 0 1 1 -2 -1 1 3 0 -2 0 0 1 0 1 -1 1 1 1 -1 -2 0 1 1 0 -1 1 0 1 1 0 -2 1 0 1 0 -3 1 -1 1 1 1 0 0 0 1 2 1 0 0 1 1 0 1 1 0 0 -2 1 1 1 0 -2 0 1 -1 0 1 0 4 1 0 4 1 -2 1 2 0 1 0 1 2 -1 2 1 0 0 0 1 0 0 1 2 -1 -2 2 1 1 1 0 1 0 2 -2 2 0 -1 2 1 1 29 71 54 41 57 77 94 106 115 122 130 132 142 140 151 155 155 158 162 162 163 164 164 167 167 166 166 164 163 162 161 159 157 156 145 141 150 129 67 25 2 1 7 26 59 80 95 139 141 153 154 156 153 133 143 129 104 70 38 15 53 84 175 179 193 195 197 196 194 196 190 198 199 198 199 200 199 191 199 199 200 199 201 201 197 200 200 201 201 202 199 194 201 201 201 202 201 201 201 193 201 196 201 202 202 200 193 200 195 200 202 199 201 198 198 193 176 102 9 1 14 33 69 150 194 197 194 198 195 184 195 191 197 196 196 187 195 194 195 183 192 194 192 180 193 194 193 194 193 193 194 191 172 181 187 184 192 193 191 192 192 192 192 193 193 190 191 190 180 180 191 190 192 191 192 187 190 191 191 191 192 190 191 191 191 186 191 191 186 190 192 182 190 190 191 184 192 192 192 192 191 192 187 189 192 194 194 193 192 193 194 191 188 183 181 174 161 143 149 163 172 181 183 186 186 188 189 187 189 189 190 189 189 189 182 189 189 188 187 189 188 188 189 190 190 190 189 189 189 185 177 174 173 174 173 172 174 174 173 173 172 173 173 172 174 173 175 175 174 174 175 175 175 175 161 165 167 175 177 178 178 177 176 179 178 177 178 179 169 178 178 171 178 176 177 176 173 171 126 45 12 1 7 5 65 147 167 178 182 169 175 144 33 1 0 1 1 -4 -1 1 1 1 1 -1 1 1 1 1 4 1 -1 0 2 0 0 1 1 1 1 1 3 0 0 0 -1 0 1 0 -1 1 1 -4 0 1 1 1 1 0 0 0 0 3 3 1 1 0 1 -1 1 0 0 1 5 0 5 1 0 1 1 2 0 1 0 0 0 1 1 0 2 1 -1 1 6 0 -1 0 0 0 -1 1 0 0 -4 -4 2 0 -1 1 0 1 1 8 1 -2 -4 0 1 1 2 1 1 0 1 3 1 1 -1 1 1 2 0 -2 1 -1 -1 -5 -5 -2 6 1 0 1 -1 -2 2 1 -1 1 1 0 2 1 -3 0 1 1 1 2 0 -7 0 3 -1 0 0 0 -1 1 -1 -5 1 0 0 -2 -1 -1 1 0 0 2 -4 -3 -1 1 -1 1 4 0 0 1 0 1 0 0 0 -3 -1 1 
1 1 0 1 2 0 0 0 0 1 2 0 1 0 1 0 1 0 1 1 1 1 0 -1 1 0 1 0 -1 -1 0 0 1 0 0 -1 0 1 0 1 3 2 1 -3 0 1 1 2 1 0 0 0 0 1 -1 -1 0 0 3 1 2 0 1 0 0 0 0 3 0 0 0 0 1 2 0 -1 1 7 1 0 1 1 0 1 1 2 1 1 3 0 -1 1 1 1 0 1 1 0 -4 1 1 0 2 2 -1 0 0 1 2 1 3 0 0 1 0 1 3 0 0 0 1 1 0 2 0 0 1 0 1 1 1 1 1 0 -3 0 1 1 1 2 4 1 4 43 77 53 51 79 90 102 110 120 126 134 140 145 150 154 154 153 160 153 162 165 165 166 166 167 165 154 157 163 159 152 159 147 156 155 152 137 87 29 2 2 2 8 19 44 79 116 138 149 153 155 148 158 160 159 139 127 139 120 115 145 183 191 193 196 196 197 196 194 197 198 198 199 200 200 198 187 185 200 200 200 201 200 190 191 201 201 201 202 201 201 200 201 201 201 201 201 201 201 201 200 200 200 202 201 201 200 200 199 201 199 191 198 200 195 179 110 8 2 0 2 27 144 192 198 199 198 197 197 189 196 194 196 195 190 195 188 195 187 189 195 193 179 182 184 192 193 193 194 192 193 192 191 191 192 193 193 192 192 192 192 191 192 193 192 190 191 191 190 185 190 192 191 191 191 192 191 191 190 190 191 190 192 191 192 191 191 190 186 192 191 191 187 191 190 191 193 191 190 183 190 193 192 192 193 193 194 193 193 193 192 191 187 184 182 177 162 150 137 148 161 171 177 181 184 183 187 188 187 188 188 189 188 189 188 188 188 186 181 188 188 186 191 190 190 190 189 183 177 175 174 174 173 173 174 172 173 173 174 172 172 165 175 173 173 173 173 174 175 174 174 174 174 174 163 175 175 175 177 176 175 169 177 178 178 178 168 167 178 178 178 177 177 178 176 175 176 162 82 6 1 2 0 20 122 165 171 176 177 176 162 75 3 0 1 0 2 0 -1 -1 2 1 0 0 0 0 2 1 2 1 1 1 0 1 1 -1 2 1 1 0 0 0 0 1 -1 0 0 0 -1 -1 0 1 0 0 1 0 2 1 1 -1 1 3 1 0 -1 0 0 0 1 1 0 0 0 1 1 1 0 -1 2 0 0 -4 -8 0 0 -1 -2 1 1 1 1 1 1 1 0 5 4 0 1 1 3 0 -4 2 0 0 0 -4 -1 0 2 -2 1 0 -4 0 -1 7 1 1 1 1 1 0 0 1 0 2 3 1 0 1 0 0 0 0 0 1 0 2 1 0 0 1 0 1 -1 1 1 -1 1 0 0 1 7 1 0 1 -2 2 -1 0 -3 0 0 -6 2 -1 -2 0 1 0 -4 -1 1 0 4 4 1 1 0 0 2 0 0 -4 1 2 1 1 1 1 -1 3 2 -1 0 
0 -4 1 0 1 1 0 -1 0 1 0 0 0 2 1 0 1 -1 0 0 -1 1 -1 -1 0 0 -1 2 0 1 1 -1 0 1 -1 0 0 0 1 1 1 0 1 0 -1 -4 1 1 8 0 0 1 1 0 0 1 0 0 -7 -1 -3 1 2 -1 0 2 1 0 3 0 1 1 1 1 2 2 1 2 0 0 0 0 1 0 1 1 1 1 1 2 1 2 1 0 0 1 2 0 0 -1 -1 1 5 0 1 1 3 1 1 1 0 1 0 1 2 -1 1 0 1 1 0 1 0 0 0 0 0 0 2 3 -2 1 0 1 1 6 0 0 -5 1 5 1 1 27 89 78 61 77 87 98 106 116 126 132 138 137 148 151 154 157 160 160 163 165 165 166 165 166 166 165 164 162 161 159 148 158 158 157 154 144 98 42 5 1 1 2 3 13 28 56 100 119 148 154 157 160 161 163 164 162 164 160 145 163 169 179 191 196 196 197 198 198 196 199 198 199 195 199 200 199 201 199 200 200 201 200 199 200 199 201 201 192 202 198 201 201 186 200 202 202 199 201 199 200 194 201 200 198 200 200 199 199 194 198 197 187 198 195 182 120 13 -1 0 0 16 132 169 196 198 196 197 199 198 198 194 195 196 196 195 194 193 194 195 193 186 192 194 194 193 186 193 189 186 192 192 184 191 193 193 194 192 191 190 193 191 191 192 193 191 191 186 190 183 189 190 191 192 191 189 191 192 191 192 192 192 186 192 193 191 191 192 185 191 192 192 190 184 186 192 193 188 191 192 193 193 195 194 197 193 194 192 189 193 192 193 191 188 186 182 174 172 162 143 136 148 150 149 163 177 181 184 183 179 185 186 186 181 185 187 187 188 186 188 179 188 182 188 189 185 176 176 173 174 175 176 175 174 172 173 165 174 174 172 174 175 174 173 164 165 174 174 171 174 174 175 171 168 165 175 175 175 174 176 176 173 176 175 176 177 177 177 177 177 173 177 177 177 177 175 174 153 95 14 2 7 2 6 78 157 165 163 172 165 171 115 10 0 1 0 1 0 1 1 -1 1 1 1 0 -1 -1 0 0 1 2 -1 4 2 2 -1 0 1 1 1 0 2 0 0 2 0 0 -3 1 1 0 1 0 1 2 -2 0 0 0 0 -4 0 0 1 0 -1 2 0 0 0 2 1 1 -1 2 1 1 1 0 0 1 -1 0 0 0 -4 0 0 0 1 1 2 1 0 1 0 0 0 0 -1 4 1 0 1 0 1 -1 0 0 -1 1 3 0 0 0 1 1 1 0 0 -1 0 1 1 0 -1 2 0 -1 1 6 1 1 0 1 1 0 2 0 0 0 -1 0 1 1 1 -2 1 1 1 -1 0 2 2 3 1 -1 0 1 0 -1 1 -1 0 1 -1 3 0 1 -3 -1 0 -4 -1 -5 0 1 1 1 0 0 2 1 0 0 0 1 -1 0 0 2 0 1 1 0 0 1 
1 0 0 -1 0 0 0 1 1 0 1 -1 0 0 9 1 0 1 0 -2 -1 1 -2 -1 1 1 0 2 2 0 1 1 1 0 1 0 -1 0 -4 -2 -1 0 1 0 1 -1 2 0 1 1 0 1 0 1 1 1 1 1 -1 0 3 1 -2 0 1 -1 -6 1 -1 0 1 0 2 0 0 5 0 1 -1 1 2 1 1 3 1 9 1 1 0 1 0 0 1 0 1 1 5 1 2 1 0 0 1 1 1 1 2 -1 2 1 -1 1 0 0 -1 1 0 0 1 1 1 1 -1 0 1 -3 0 -1 0 0 0 0 1 2 0 3 1 0 0 1 -1 1 0 6 79 92 84 83 85 95 104 114 122 130 127 140 145 151 155 155 158 161 159 163 159 165 166 166 167 164 165 164 161 160 160 160 159 158 155 145 108 48 6 1 0 0 1 2 18 21 56 86 117 131 135 158 161 163 163 165 159 166 166 165 166 169 188 195 197 196 196 194 198 197 197 198 193 197 197 200 199 201 200 200 200 200 202 201 201 202 201 192 195 201 199 185 181 200 201 201 201 192 201 192 200 201 200 202 202 200 200 200 200 201 199 182 190 197 185 102 24 0 0 4 49 130 189 197 198 197 197 197 191 196 195 180 195 197 196 196 194 195 193 189 185 189 193 194 194 194 193 192 194 194 193 192 191 193 192 192 187 192 185 191 189 192 191 192 191 191 192 193 191 192 191 191 191 192 182 191 192 191 190 192 190 189 191 192 191 193 192 185 192 193 193 181 182 191 191 193 193 193 192 195 193 194 194 194 193 193 192 193 193 193 192 191 190 190 186 182 181 177 170 161 154 142 143 152 162 167 171 174 177 180 181 182 181 174 182 186 183 187 187 187 184 174 182 180 177 175 169 175 175 175 175 176 174 176 174 173 169 174 174 174 173 174 175 170 169 175 175 172 174 175 175 174 174 174 176 175 175 176 175 176 176 176 173 172 176 177 176 176 176 177 176 178 177 176 173 175 173 150 46 13 2 1 16 43 143 156 144 163 159 174 146 33 2 0 6 0 0 1 0 0 1 1 0 1 0 0 1 1 1 1 0 1 1 1 -1 0 1 1 1 2 1 1 0 -1 -2 1 2 0 1 0 1 3 0 1 2 1 2 0 1 0 0 2 1 0 1 -1 -5 -1 1 2 5 0 0 -1 0 0 -1 0 0 -1 0 2 3 0 0 0 0 1 0 0 -1 1 2 1 0 -1 1 1 0 2 1 0 0 1 0 2 -1 1 1 1 1 0 -2 0 0 0 0 2 -1 -1 -1 -5 0 0 0 0 2 0 0 2 1 1 0 1 -2 1 0 1 0 0 2 0 -1 -1 0 1 -2 0 0 1 2 1 0 1 1 1 -3 0 0 0 1 1 1 0 0 -5 -1 0 1 0 0 0 0 1 1 0 0 1 0 1 2 0 1 0 0 2 -1 0 0 2 -2 0 2 1 1 2 
0 1 1 0 0 -1 1 0 1 0 0 1 1 0 5 3 -2 3 1 1 2 0 0 -1 2 1 1 1 1 -1 0 -1 1 1 -1 -7 0 0 -1 -6 -2 0 0 0 -1 1 2 0 4 1 2 1 1 -4 0 0 1 2 -1 -1 1 1 -1 0 0 2 0 1 2 0 1 0 0 0 0 1 -1 0 1 -1 0 0 -2 1 1 1 1 0 -1 -1 1 0 1 0 -1 -2 0 0 1 0 0 1 0 1 1 -3 0 1 1 1 -1 1 0 0 1 0 0 2 -1 1 1 0 -1 1 0 1 0 1 -1 0 -1 0 3 3 -1 1 4 0 -1 0 1 5 2 3 65 134 107 91 87 95 104 111 118 119 131 138 145 151 152 157 157 160 162 153 163 166 165 167 166 164 165 164 162 161 161 161 160 146 155 143 118 66 24 1 5 0 -1 1 2 15 27 46 74 101 131 145 156 156 164 166 166 167 169 167 168 172 186 194 196 197 190 197 188 199 200 198 199 199 190 199 199 201 199 194 199 200 200 200 197 200 201 199 202 200 202 199 186 188 200 202 201 194 199 199 200 192 194 202 199 200 201 199 199 198 199 197 198 198 187 121 47 4 2 -1 11 122 190 198 198 197 196 198 197 187 183 176 195 195 195 195 195 193 190 195 193 193 193 185 194 192 193 194 195 192 193 193 192 192 189 186 190 185 192 191 192 191 180 183 192 192 191 192 192 188 192 191 192 193 192 191 193 191 189 191 192 189 191 192 191 191 189 193 192 191 193 191 191 181 192 192 192 192 192 192 192 194 193 192 193 193 194 193 194 193 193 192 193 191 189 182 185 181 181 176 173 171 168 164 161 161 158 163 166 166 169 176 176 178 180 181 181 181 181 179 178 174 177 177 176 175 175 175 175 175 170 176 174 176 176 174 175 174 174 174 174 175 174 174 175 176 174 175 173 168 175 175 174 175 169 175 175 176 175 175 176 176 167 172 177 176 164 164 177 177 171 178 177 169 175 177 176 166 87 7 0 6 1 19 122 131 123 147 170 163 162 73 3 1 6 0 0 0 0 0 4 1 -1 1 0 1 1 1 2 -1 1 2 1 0 0 0 -1 -2 1 0 0 0 0 0 0 0 0 1 1 0 0 1 0 1 0 0 4 1 0 1 0 0 4 2 2 1 -2 -5 -5 0 1 0 1 1 -1 -2 5 2 0 0 1 0 1 0 0 0 1 2 -1 -1 0 3 1 0 -2 -1 0 1 2 1 -1 -1 -1 0 2 0 0 1 0 1 1 3 2 1 0 1 1 1 0 0 1 0 -2 1 0 1 0 0 0 0 0 2 -1 1 0 1 -1 2 0 0 1 0 0 1 0 1 1 1 3 1 -1 -2 0 0 0 1 0 -1 1 1 1 3 1 1 2 0 1 2 1 0 0 0 2 1 0 1 0 1 1 3 0 0 -1 0 1 1 3 -1 0 0 1 3 2 0 2 2 
0 0 0 0 2 1 1 1 -1 -1 0 0 1 0 0 1 -1 0 1 1 1 0 0 0 1 0 0 3 2 2 2 1 0 1 0 -1 0 1 -3 -3 -1 0 2 1 0 0 1 0 3 0 1 1 0 1 2 0 1 0 1 -1 -2 -1 0 0 0 0 0 1 1 0 -1 1 0 1 1 1 0 -1 2 1 0 2 1 -1 0 1 0 0 0 0 1 0 1 0 1 1 0 0 1 1 1 1 1 1 1 0 1 1 0 1 0 4 1 -3 1 0 0 -1 0 0 -1 0 5 1 -1 4 2 1 1 2 0 0 0 1 -1 0 1 -1 -1 0 0 1 1 2 30 137 141 111 87 93 103 109 116 122 129 137 142 147 148 155 157 154 160 162 164 165 161 159 166 165 164 164 163 161 160 161 160 159 158 154 129 79 38 7 1 0 1 0 0 2 2 17 37 64 88 107 134 152 161 164 167 163 164 171 169 170 184 179 195 196 198 199 198 199 199 200 198 192 185 199 199 200 202 199 194 201 202 194 201 201 201 201 196 200 193 194 200 200 199 200 200 200 200 201 199 199 201 197 199 200 200 199 199 199 199 187 187 199 193 168 79 30 0 1 9 101 186 196 187 197 198 197 198 196 194 189 194 192 193 195 194 193 195 194 191 193 194 184 183 194 194 195 188 192 192 193 192 194 193 192 192 192 193 191 193 183 175 180 191 189 192 186 191 192 191 192 190 184 191 191 193 190 191 192 188 191 190 192 191 192 191 191 188 191 185 191 192 185 186 192 192 194 187 192 192 193 192 191 193 194 191 185 192 191 192 193 192 193 190 188 186 186 184 182 180 178 176 179 171 181 179 177 177 172 174 175 175 176 177 177 176 178 178 179 178 180 178 177 177 177 177 176 177 175 175 176 176 175 175 168 165 175 175 176 175 174 175 174 175 175 175 174 170 175 176 175 173 175 175 174 175 175 173 161 163 175 177 176 177 176 174 171 177 175 177 176 177 169 176 177 177 173 124 15 6 0 -1 4 85 137 104 123 147 176 172 115 10 0 1 0 0 0 5 1 1 5 2 4 0 -1 6 0 1 0 2 1 9 2 1 2 -4 -1 2 0 0 1 1 1 2 3 0 0 0 1 0 0 -2 2 0 1 1 0 0 1 3 0 2 0 2 -1 0 -4 0 0 2 2 1 0 0 1 4 2 -2 -4 -1 1 0 0 1 0 -1 1 1 -1 1 1 1 0 1 1 1 -1 0 0 -4 -1 1 0 -2 1 1 0 1 0 2 2 2 0 1 3 0 2 -1 1 1 0 0 1 -1 1 1 0 0 3 5 1 -4 1 1 6 0 0 1 0 0 0 2 1 0 -1 0 0 2 3 1 0 0 -4 2 2 1 2 1 1 1 0 1 0 1 1 0 -2 -1 -1 0 0 0 1 -1 -1 -6 0 -3 1 2 0 2 0 0 1 1 0 -1 0 -1 -2 1 1 0 1 
1 0 1 2 0 -6 0 0 1 0 0 0 1 1 -1 1 5 1 1 2 0 -1 1 1 1 2 -1 0 1 0 1 6 1 0 0 0 2 0 0 2 2 1 1 1 0 1 1 0 1 -1 -2 0 1 0 1 0 0 0 1 1 0 -1 0 -1 -1 0 1 1 2 0 -1 0 2 4 2 1 0 -1 0 -1 0 1 -1 1 0 3 1 1 3 2 0 0 -2 1 -1 -6 0 0 0 0 1 0 1 2 -1 -1 1 1 2 2 0 1 3 1 1 5 1 2 1 1 1 0 1 1 0 0 1 3 0 4 2 -1 2 -1 -1 0 -1 1 1 1 0 0 2 0 8 109 157 132 106 98 104 110 114 121 124 133 139 147 149 147 155 160 161 162 156 163 165 164 165 163 165 164 162 163 161 161 160 158 159 157 136 88 36 2 2 1 -1 1 0 1 1 1 8 26 41 60 89 117 139 156 162 167 169 160 169 171 181 194 197 196 197 198 200 199 198 199 200 200 199 200 200 201 201 201 200 201 202 200 200 201 202 197 200 199 200 189 201 202 199 201 204 200 200 200 197 199 200 193 200 202 200 201 197 200 201 198 198 195 195 178 106 9 1 2 25 69 177 196 186 196 198 198 197 197 191 196 195 191 194 193 195 194 195 195 195 183 193 193 188 185 193 193 192 191 195 193 192 194 192 189 192 193 192 193 193 190 190 191 192 192 191 187 192 192 192 192 192 193 192 193 190 191 187 191 183 190 190 191 192 192 186 191 193 190 192 189 192 191 191 192 189 192 192 192 185 191 194 193 192 186 192 192 178 177 187 191 192 186 184 187 190 189 188 183 184 182 178 183 184 185 179 186 179 185 185 186 184 176 183 182 179 180 180 181 179 179 178 178 177 178 176 170 176 177 176 177 174 165 174 175 174 174 175 167 170 174 175 176 175 175 175 174 175 174 176 176 176 167 164 175 178 176 167 175 167 166 176 174 176 177 176 177 178 175 176 178 178 172 176 177 178 177 150 41 2 -6 0 3 47 125 99 113 162 176 175 145 31 1 0 1 -1 -1 0 1 1 1 0 1 0 1 2 1 0 0 -1 1 1 0 -1 0 0 -4 1 5 -1 0 -2 0 0 -1 1 1 -1 2 0 1 2 3 2 -1 2 1 2 -1 0 0 1 2 0 0 0 0 -1 0 0 1 1 1 1 1 0 0 0 -2 1 2 5 3 2 0 2 1 1 1 0 0 -1 2 -3 0 0 0 0 1 0 1 1 -3 -7 0 5 2 1 1 1 1 1 0 2 0 0 1 1 0 0 1 1 1 0 0 1 0 0 0 1 1 1 0 3 0 0 2 0 -1 0 2 0 1 1 -2 0 1 1 2 -1 2 1 0 1 8 0 1 -1 1 4 1 0 -1 1 0 3 -1 2 0 1 0 -1 0 1 -1 0 1 0 1 1 3 5 -3 -6 0 7 1 2 1 0 1 1 -6 -4 1 
0 0 2 0 1 1 1 1 -4 0 -1 0 -1 0 2 0 4 0 0 1 1 -2 0 1 1 0 0 -5 -1 0 -1 2 2 1 2 3 0 0 8 2 2 0 2 1 0 -2 0 0 1 0 -1 1 0 0 0 1 2 1 4 0 0 -3 1 0 0 0 2 1 5 0 0 1 2 0 0 0 0 -1 0 -2 1 0 1 0 1 0 1 0 0 1 1 -1 1 0 1 -3 0 0 1 0 0 1 1 3 0 1 0 1 9 5 -1 0 -1 0 -1 0 -1 1 1 -1 -2 0 0 1 -1 0 0 1 0 -2 0 -1 0 0 1 -3 -1 2 -1 -1 0 1 -3 -1 5 70 158 154 127 112 109 114 114 122 127 126 135 142 148 150 157 157 160 162 162 156 166 166 165 166 166 164 164 163 161 161 152 160 160 158 131 94 38 4 0 -1 1 0 2 7 1 0 0 3 16 25 46 71 96 122 145 160 156 169 172 171 179 196 197 197 197 198 199 187 198 200 195 201 200 200 198 200 200 196 200 201 200 200 200 200 201 201 189 194 198 200 200 200 200 203 202 201 200 200 199 200 202 198 199 200 194 199 200 200 199 199 198 198 197 185 133 17 0 -1 4 34 153 193 196 182 197 198 197 197 197 195 195 195 195 191 195 195 190 188 195 194 194 193 193 193 193 192 194 191 193 193 192 192 193 192 193 188 191 192 192 193 193 192 193 192 192 191 192 191 186 191 189 191 192 191 183 191 191 190 181 191 193 192 191 191 192 191 191 191 192 192 191 190 191 188 192 193 194 192 182 182 191 191 194 193 183 191 183 190 191 189 192 190 192 192 183 189 189 188 188 187 185 186 186 187 177 186 182 187 187 187 186 186 184 184 183 182 180 181 179 180 179 179 175 176 173 176 177 177 176 177 174 163 175 177 176 177 176 175 174 176 175 166 169 175 175 176 176 177 175 175 176 173 175 176 175 176 176 176 174 175 170 175 176 178 177 176 169 177 178 178 178 177 172 178 176 178 165 82 4 -1 0 5 15 93 81 94 154 174 176 162 63 3 0 0 0 2 0 8 1 1 -1 2 1 1 0 5 0 -1 -1 0 0 -3 -4 0 -2 -1 1 1 0 3 1 0 0 -1 3 0 0 -1 2 2 2 8 0 2 1 1 3 1 2 1 1 1 0 -7 0 1 2 2 0 1 1 1 1 1 1 0 2 1 3 0 2 0 0 -1 0 7 -1 1 0 0 1 0 0 0 -4 -1 0 0 0 -1 1 1 0 1 1 1 1 -2 1 1 1 -1 1 0 1 0 0 0 2 0 1 -1 0 0 0 0 0 -1 -1 0 1 0 1 0 -3 0 0 1 0 3 0 1 2 0 1 1 0 -1 0 0 0 0 1 1 1 2 -1 1 -5 0 -1 0 3 1 -1 0 0 -1 0 -1 1 0 0 -1 1 4 6 2 1 1 2 0 -3 1 0 0 -1 -1 0 0 0 2 0 -2 
1 2 1 0 0 0 0 1 0 -1 -1 0 -3 2 0 1 1 -1 0 1 0 1 0 0 0 -5 0 -4 1 0 2 0 0 0 1 0 -1 2 1 0 -1 0 0 -1 0 -4 0 0 1 6 0 0 1 1 6 2 0 1 1 -1 1 1 0 1 -1 1 2 1 1 -1 1 0 1 -5 0 0 1 0 1 1 0 1 1 0 1 1 0 -1 -1 1 1 1 0 0 1 0 1 -1 0 0 0 1 0 1 0 0 1 1 5 1 0 0 0 -3 0 0 2 1 1 0 -2 0 2 0 0 2 2 2 2 -1 3 0 0 0 0 -1 0 0 2 0 0 1 1 0 2 62 146 151 148 126 115 117 118 120 126 131 133 141 145 150 153 157 160 161 155 155 166 166 165 166 165 164 152 161 162 161 156 159 161 159 149 99 39 13 1 0 1 0 0 1 -1 2 0 3 9 17 23 40 56 86 105 129 141 162 169 172 178 193 196 196 197 193 194 187 195 200 197 199 200 200 200 200 200 201 200 200 201 201 194 193 200 201 200 199 202 201 201 199 200 201 200 201 200 200 198 200 200 201 199 200 195 198 199 199 199 201 199 197 197 189 150 36 2 1 1 20 103 159 196 199 198 197 191 197 194 196 195 196 195 196 194 192 193 183 195 194 194 192 195 191 193 192 192 193 193 191 194 186 192 193 193 191 193 192 193 192 191 191 192 192 191 191 190 191 192 186 186 190 191 192 191 189 193 191 185 191 192 190 191 191 192 190 192 191 193 191 188 191 182 191 192 192 192 192 191 192 193 191 193 192 193 193 186 193 193 192 192 192 193 193 186 180 189 189 188 187 188 179 185 187 186 187 187 186 187 183 186 185 185 184 182 181 180 180 171 179 179 179 178 178 177 177 178 176 176 167 175 175 175 171 176 177 176 175 176 175 174 175 175 164 168 174 172 176 176 172 177 175 170 167 176 175 175 175 170 168 176 177 176 177 177 174 177 177 176 176 177 178 177 177 169 176 174 117 9 2 1 0 4 50 60 78 145 161 178 168 90 5 -1 2 1 1 0 1 1 2 2 5 0 5 0 0 -1 0 1 2 -1 -8 0 0 0 -1 2 -1 -5 2 2 1 0 1 0 0 0 1 1 0 0 0 0 0 0 2 2 4 -1 1 0 -3 1 0 -1 0 2 2 2 0 0 0 0 1 2 2 2 0 2 1 1 0 0 2 1 0 0 1 0 1 1 2 0 1 1 0 0 0 0 0 0 0 1 1 1 -1 -1 -3 -1 1 0 0 0 -4 0 0 1 1 0 1 0 0 0 5 0 -3 0 1 1 2 1 0 0 0 0 1 0 3 0 0 0 1 0 -1 1 0 1 -1 1 0 1 1 -1 0 -1 1 0 0 0 -3 0 -1 1 1 0 0 -3 0 -1 2 0 0 0 -2 2 2 1 0 0 0 0 2 0 1 1 1 0 1 -1 0 0 1 5 0 
-1 0 1 0 0 1 1 0 0 2 0 0 1 0 -1 1 1 0 1 0 0 1 2 -3 0 2 0 0 0 0 0 1 2 1 0 1 -1 0 1 1 2 1 0 0 0 0 3 1 -2 1 -1 0 1 1 2 1 0 6 0 1 2 4 3 1 0 0 1 0 1 0 -1 0 0 0 1 0 1 -1 -6 1 1 1 2 -3 0 1 0 0 0 0 1 2 1 0 -1 -1 1 0 1 1 -1 0 0 1 0 5 1 1 0 0 -1 0 -1 1 4 0 6 1 1 0 1 1 1 1 0 0 0 2 1 -5 3 2 -1 0 0 1 1 0 1 2 1 0 -1 1 0 15 124 168 160 142 131 124 123 123 127 131 133 134 145 151 154 157 152 161 163 164 165 161 165 164 164 164 162 158 161 153 152 161 162 160 152 111 54 20 2 4 0 0 1 -1 1 1 0 1 6 6 3 9 20 51 67 91 116 131 142 166 174 177 189 191 188 190 191 193 195 197 199 198 196 201 200 200 200 197 200 201 203 200 200 201 199 199 194 200 199 202 201 199 197 200 198 200 200 200 201 200 201 201 200 200 201 196 200 198 189 198 194 198 197 193 164 59 1 0 0 22 120 154 193 197 198 197 184 196 195 195 195 196 195 195 195 194 186 194 193 193 187 194 195 192 193 195 194 195 193 193 191 189 193 192 186 191 193 192 192 192 192 192 191 193 192 191 184 180 191 191 191 186 192 192 191 191 191 191 192 191 186 190 192 192 191 192 192 191 184 191 192 192 191 191 190 190 192 192 192 192 192 194 189 193 194 193 193 193 194 192 191 192 188 193 191 176 176 174 186 189 184 183 186 187 186 185 186 179 184 184 185 178 184 182 182 182 181 180 179 180 179 178 180 174 177 178 178 176 173 177 167 175 169 175 175 177 177 177 175 176 176 177 174 175 175 165 176 176 172 171 177 176 175 170 176 176 176 175 175 175 173 177 176 177 177 177 176 177 176 177 178 178 179 179 172 172 176 136 19 1 1 -1 5 25 43 78 140 171 177 173 113 8 1 0 -3 0 1 0 1 1 2 3 2 1 -7 1 0 1 1 0 -2 0 0 2 0 1 -1 0 0 1 0 0 1 0 0 2 1 1 2 4 -1 -1 2 1 -1 0 0 1 -2 -1 1 1 2 -1 1 0 0 0 1 -1 0 1 2 -1 0 2 1 -1 -1 1 1 -1 -2 3 0 0 0 0 5 1 1 -2 0 -1 0 0 -1 1 2 1 0 2 -1 1 1 1 -1 0 1 1 0 0 0 1 1 1 0 1 2 2 1 0 -2 1 -7 0 -1 0 2 1 1 -2 0 0 1 0 0 0 0 0 1 0 0 1 0 0 1 -5 1 0 0 -1 1 1 1 0 0 0 -4 -1 1 1 0 0 -1 1 0 -2 -3 0 1 0 1 1 1 1 0 0 0 1 1 0 0 1 2 3 1 0 1 0 0 1 1 0 
-2 -2 0 0 -1 -1 1 5 1 2 1 1 0 1 0 1 0 0 0 0 1 0 1 1 0 1 -1 0 1 1 2 3 -1 1 5 0 1 -1 0 0 0 0 0 1 1 1 1 2 -1 -4 0 1 0 0 0 -4 0 -2 0 1 4 0 1 4 -1 0 0 1 3 0 -1 -1 0 2 1 3 0 -1 0 0 0 1 1 1 0 1 0 0 0 0 2 0 -3 1 0 1 1 1 1 0 0 -7 -1 2 -1 1 1 0 1 1 1 5 0 2 1 0 2 1 1 -1 1 1 0 1 4 0 1 1 1 -4 0 0 -1 0 3 2 1 1 2 4 0 0 0 1 0 6 91 168 167 148 143 133 131 127 129 129 135 138 144 150 152 148 158 141 152 164 165 164 166 166 161 165 166 164 165 161 148 161 163 154 155 126 69 18 9 0 1 2 1 -1 1 0 2 2 4 0 3 0 5 28 38 56 84 95 120 139 155 170 176 172 169 170 177 180 187 196 198 199 193 198 197 200 200 198 200 199 196 199 200 198 200 202 199 200 200 201 200 200 199 200 200 202 201 192 199 199 199 198 199 198 200 200 190 197 194 197 199 200 199 193 175 91 6 2 1 8 93 146 193 191 199 197 197 198 197 189 195 194 195 195 194 194 194 194 193 193 193 194 193 191 194 195 194 193 194 191 194 192 192 192 183 192 192 192 192 192 192 191 193 192 192 192 191 184 182 191 193 192 178 191 192 192 192 192 191 191 190 181 191 191 191 193 190 191 192 192 191 191 192 187 192 192 192 193 192 191 192 191 193 191 192 194 193 191 185 193 193 190 182 190 191 190 189 181 172 180 189 190 188 184 186 186 185 186 186 181 183 185 186 183 182 183 181 182 179 174 173 171 179 178 178 178 177 177 177 167 174 167 176 177 176 177 175 177 176 175 177 169 172 175 174 175 171 175 176 175 175 175 176 174 177 176 177 176 178 176 170 177 177 178 178 175 172 177 178 179 176 177 171 180 177 180 178 152 34 9 1 -3 1 2 15 34 125 169 179 174 131 17 3 0 0 0 -1 -1 0 1 0 1 3 0 0 1 0 0 0 -1 1 1 1 -3 0 2 0 2 2 1 -1 2 1 1 1 -1 -5 -3 2 1 2 0 0 1 0 0 1 0 0 5 2 0 0 0 -1 1 1 7 0 -2 2 1 0 0 0 0 0 1 -1 0 -1 -3 0 3 1 1 1 1 4 2 1 -1 -1 0 0 -4 -1 1 0 1 0 1 0 1 0 0 0 0 1 1 0 0 0 0 1 0 -4 1 0 1 2 0 0 1 -1 -7 1 1 1 -3 3 0 0 3 1 -2 -1 2 1 0 0 0 0 1 2 1 0 -1 1 -3 1 0 1 0 2 0 0 1 1 0 1 2 1 1 0 0 1 -3 1 1 0 1 -2 0 0 1 0 -1 0 2 2 -4 -1 1 0 1 0 -1 0 1 0 -1 -2 -1 
0 -1 1 -3 -1 -5 -1 1 2 0 2 0 0 1 1 1 1 0 -1 0 2 2 1 0 0 -4 1 0 0 0 0 2 -3 0 2 1 2 5 0 2 0 1 1 0 1 2 0 1 0 -1 0 -1 2 0 0 -3 0 -1 0 0 0 0 0 2 -1 0 2 -1 1 1 0 -1 1 1 1 1 -1 0 1 1 0 1 0 1 0 0 0 -1 0 0 0 0 0 0 1 1 0 -3 0 0 -6 -6 0 -3 0 2 0 0 1 1 1 4 0 2 0 -1 3 -1 0 -1 0 1 -1 0 -3 -1 1 2 0 2 2 0 0 1 0 0 0 1 1 2 0 -1 1 0 0 5 76 158 170 163 154 148 142 135 133 131 133 136 138 146 151 144 155 144 142 149 153 158 166 166 164 164 165 163 164 162 162 159 162 160 147 128 75 30 12 2 2 2 0 1 2 -1 1 0 -3 0 1 1 2 17 18 20 38 65 84 105 121 145 151 150 153 155 155 163 177 191 197 186 199 200 199 195 200 201 201 199 199 200 201 200 200 200 200 201 200 200 195 195 200 200 195 200 200 196 198 189 188 196 199 194 191 200 199 199 198 198 198 199 198 184 182 121 39 2 0 2 60 132 194 198 198 192 197 197 196 195 194 185 192 194 189 191 194 194 182 193 191 193 193 194 194 193 193 194 194 193 194 193 193 193 192 192 192 191 191 191 185 192 191 192 192 183 192 192 191 188 192 190 178 191 192 192 191 191 192 193 192 190 191 191 192 191 192 190 192 191 195 190 192 192 185 191 191 191 190 194 192 185 184 191 193 195 193 192 192 193 190 190 191 191 192 191 190 191 184 189 189 189 188 191 188 185 187 187 185 173 183 184 184 176 176 183 181 181 182 178 180 179 180 174 172 178 176 178 178 176 168 176 176 179 178 176 176 175 176 176 177 176 176 176 171 176 176 175 172 177 177 176 176 176 176 177 175 177 177 176 177 177 178 176 176 178 177 176 179 178 169 177 178 180 179 180 180 162 51 3 0 0 1 2 14 27 111 165 178 177 149 56 3 0 1 0 0 -5 -2 1 1 1 2 0 0 0 0 -1 1 2 0 0 0 1 1 1 0 -1 1 -1 -1 0 -1 0 2 -1 -1 1 2 1 0 1 0 0 1 -1 0 -2 1 1 -1 0 0 0 0 0 1 1 1 0 1 0 0 0 0 1 0 4 1 -4 1 0 2 0 1 0 0 2 -1 2 -4 1 0 -1 0 0 0 2 1 1 -1 0 1 -2 2 1 1 0 0 1 0 0 1 1 5 7 0 2 1 0 3 0 0 1 1 -1 0 1 2 1 0 -4 0 0 -1 0 1 1 0 0 0 1 0 5 2 1 -7 0 0 -1 1 0 -1 0 1 1 2 1 2 0 -1 1 1 7 1 3 0 0 0 0 5 0 -4 -7 0 0 1 -1 -1 0 0 1 1 0 1 0 1 0 -1 -3 0 -2 0 0 
-1 0 -1 1 1 -1 -1 1 0 2 0 1 0 0 0 0 0 0 1 2 1 0 -3 1 0 0 6 1 2 0 1 0 -3 -4 0 1 0 1 1 -1 2 0 -1 1 0 4 0 2 1 0 -1 1 1 0 -1 0 1 1 0 3 0 0 2 0 0 -5 0 0 1 1 0 0 0 1 0 0 2 0 0 1 0 0 2 -1 0 0 -3 0 1 0 0 -1 -1 -3 -2 1 0 1 0 1 0 1 -1 0 1 2 0 0 1 0 2 -2 1 2 1 0 2 -1 -1 2 0 -1 2 -1 0 0 0 1 1 1 -1 0 3 0 1 2 0 -1 2 9 0 1 1 0 0 0 22 138 171 168 159 153 147 143 137 131 133 133 136 144 139 148 157 160 147 162 164 160 166 164 166 164 165 163 165 164 165 163 163 156 158 130 75 35 7 0 0 -1 0 1 1 1 0 0 0 1 0 1 0 0 3 7 19 30 53 71 89 108 129 118 124 128 134 144 158 171 178 187 198 199 199 201 199 199 200 201 199 201 198 200 200 200 201 200 196 200 189 198 192 198 199 200 200 199 198 199 198 198 198 199 190 197 191 198 199 198 195 199 196 187 186 141 26 1 -1 2 40 150 193 196 197 197 199 197 196 196 192 196 194 194 196 196 194 185 181 194 195 195 194 193 192 193 194 193 194 193 192 192 194 193 193 191 192 185 191 193 192 191 192 192 192 192 191 191 191 190 191 188 191 184 190 192 191 192 192 192 186 191 183 193 192 190 193 193 191 193 192 191 188 191 193 192 191 186 192 192 192 191 193 192 192 193 192 192 191 192 190 191 190 191 192 191 192 190 191 190 189 188 190 189 187 188 187 186 185 172 172 167 177 184 182 182 181 182 180 181 178 180 180 179 178 178 178 178 177 177 177 176 178 178 176 177 176 170 176 178 177 178 177 177 175 176 174 164 176 174 176 177 177 177 177 177 178 176 176 177 178 178 179 174 177 172 177 167 175 178 177 167 178 180 180 180 179 167 85 8 -6 -1 0 0 13 45 97 159 177 179 156 48 4 1 0 1 0 1 2 5 1 -1 1 0 1 2 0 -3 0 2 0 0 0 1 -1 -1 0 1 1 0 3 2 0 1 1 1 5 1 0 -2 0 1 1 -5 -2 0 -1 1 1 0 0 3 2 0 0 -1 0 1 0 -1 2 0 0 2 3 0 -4 1 -1 0 0 1 2 0 0 0 1 1 2 0 -5 -4 -1 2 0 -1 0 0 1 0 2 0 -1 1 0 1 0 1 0 0 1 0 1 1 1 1 0 0 1 2 3 1 1 -1 0 -1 0 -1 0 2 0 0 0 3 0 1 0 1 0 0 1 1 -1 1 -1 1 -1 1 0 0 1 0 1 0 4 0 0 7 2 0 -7 0 0 1 0 1 0 1 1 0 1 2 0 -5 0 -4 0 0 0 2 1 1 1 -1 -1 0 1 0 0 2 1 -1 1 0 
1 0 -1 0 0 0 2 1 0 -1 0 1 3 0 1 0 0 -4 0 0 2 2 0 1 -1 0 1 0 0 0 1 0 -1 0 0 1 0 2 -1 2 0 -2 -1 1 -1 0 0 -6 0 2 1 1 0 0 -5 0 0 1 0 1 0 -3 0 -1 0 0 0 1 0 -1 1 0 -3 2 0 -1 -1 -1 1 0 0 1 0 0 3 1 0 -1 -1 1 1 1 1 0 0 0 1 0 0 -1 1 1 -1 0 0 5 1 1 0 1 1 0 2 2 0 1 0 -1 0 -1 1 3 1 0 0 -2 0 0 1 1 -1 5 0 1 2 11 0 1 1 0 2 5 -1 0 1 8 9 108 169 168 162 157 146 137 130 140 138 138 140 133 133 153 157 150 152 162 165 165 166 165 167 165 165 165 163 161 163 163 162 163 158 127 76 30 4 -3 0 2 4 1 0 1 3 0 1 -1 1 1 -1 3 1 1 5 14 33 39 61 63 87 82 90 97 117 131 159 175 182 197 199 200 199 196 199 199 200 198 200 199 201 200 201 200 200 199 200 199 188 200 198 192 194 199 200 198 199 199 198 190 198 199 198 182 185 199 200 198 197 199 198 197 187 121 44 2 2 17 36 132 190 197 197 197 198 197 197 196 196 197 195 196 195 195 195 194 192 194 190 194 194 193 195 193 194 194 193 193 191 193 193 192 193 192 191 178 190 193 192 192 191 191 192 190 192 191 185 192 191 192 192 191 192 190 191 193 190 188 191 191 186 191 192 188 192 191 192 191 192 191 191 194 191 184 191 192 187 191 191 193 188 193 193 191 192 191 192 194 192 192 191 192 191 191 189 191 190 190 190 190 190 190 187 183 183 187 187 187 186 173 184 183 187 185 184 180 173 180 180 181 179 179 180 178 178 169 177 177 170 177 171 176 176 173 177 167 166 168 177 177 177 177 176 170 175 156 175 176 166 162 171 175 178 177 178 176 178 177 174 177 178 178 179 179 178 178 172 177 179 179 178 179 181 179 181 170 96 35 2 0 0 0 0 7 74 140 176 179 138 68 25 5 2 -7 -1 1 6 0 2 0 3 0 1 3 3 0 0 1 4 0 0 1 0 2 0 1 1 0 0 1 1 1 0 1 0 0 -4 1 0 -1 -4 0 0 1 0 0 6 1 0 1 1 0 0 1 0 0 1 0 1 1 -1 1 1 0 1 3 0 0 1 1 1 5 1 1 0 2 0 0 1 0 1 0 0 1 -1 0 0 0 2 -1 2 4 1 0 0 1 0 0 0 0 1 -1 1 1 0 2 1 1 1 1 3 2 0 0 0 1 3 0 0 1 0 0 2 1 0 0 0 -1 1 0 -5 1 2 0 2 -1 -1 0 0 -1 0 0 4 1 0 0 0 0 -5 0 0 0 0 3 -3 1 2 2 1 0 -1 0 2 0 1 5 -1 0 0 -1 0 1 -3 -1 0 -1 1 2 -2 1 1 0 
0 1 -4 1 -1 0 1 -1 2 1 -1 -2 0 0 0 0 2 2 0 0 -2 0 0 0 1 0 1 0 1 1 1 2 1 -3 -1 0 1 1 1 0 -4 0 0 2 -1 0 2 -2 1 1 0 0 2 1 0 0 0 0 -1 -1 -1 -1 1 1 1 -1 1 1 -1 0 1 1 0 0 -1 2 0 2 0 1 1 0 0 1 2 0 2 -1 1 1 1 0 0 1 1 1 1 1 -1 0 0 2 0 0 4 2 0 -3 1 1 0 0 -1 -4 0 0 0 -4 -1 0 2 1 -1 -1 1 0 0 -1 1 1 5 5 3 -1 0 4 3 1 2 -2 0 2 0 1 1 2 3 69 163 158 165 159 153 151 137 145 140 138 139 143 147 153 156 158 147 161 160 165 166 166 166 164 165 165 159 164 164 165 164 163 156 119 85 36 13 4 5 2 11 3 1 1 10 1 2 0 1 10 0 0 0 1 4 18 16 15 23 51 56 62 56 78 97 121 143 163 185 196 199 199 199 200 199 200 199 199 200 199 201 200 200 194 190 197 200 200 200 198 196 199 200 198 199 198 200 197 200 199 198 199 199 188 196 198 199 198 198 200 198 197 190 134 71 4 -1 1 11 104 184 197 193 198 197 198 196 190 196 196 196 195 195 195 195 194 187 193 195 194 187 194 193 190 192 191 193 191 193 189 192 194 193 192 180 173 180 193 193 191 191 193 193 188 190 192 191 189 191 193 192 192 191 188 191 191 190 190 192 191 191 190 187 193 190 191 184 182 191 192 192 192 193 193 192 193 185 192 190 192 191 192 192 192 191 184 191 192 193 191 191 193 190 180 190 189 190 191 189 189 189 189 189 190 186 188 188 189 187 187 186 187 181 185 185 175 175 182 181 179 179 180 179 179 178 179 177 178 178 177 165 167 176 177 176 176 176 166 176 172 176 177 176 177 176 168 176 178 178 165 167 178 177 177 178 177 169 177 178 172 177 178 178 175 170 178 179 176 179 180 180 180 180 181 179 175 100 10 -1 -1 4 0 1 3 59 145 176 180 169 92 7 0 -1 -1 0 1 3 0 5 2 1 0 1 0 1 1 1 5 1 1 1 2 0 -1 1 -3 1 0 0 0 2 1 2 0 1 0 2 -1 -1 1 0 2 -1 1 -2 1 0 2 2 1 0 -4 1 0 -1 0 -2 1 4 0 1 1 1 2 1 0 -5 1 2 0 0 2 0 0 0 1 0 2 1 0 2 1 -2 1 0 1 0 0 0 -4 -1 1 -2 0 -1 0 2 0 -1 1 1 0 0 0 6 5 1 -3 0 3 6 0 1 0 1 0 1 0 1 1 1 0 -1 4 -1 3 2 1 1 2 0 1 1 0 0 0 0 1 0 0 0 1 -7 -6 0 -1 1 -1 0 -1 1 -1 2 0 -3 -1 1 0 1 2 1 -1 1 3 0 1 1 0 1 -1 1 2 -1 -1 0 -2 1 2 2 0 1 -1 
0 0 -2 -1 1 -1 -2 3 0 0 -1 -1 0 1 0 0 -1 2 0 3 -1 1 3 0 0 0 0 1 -1 1 0 0 0 2 -1 0 0 -1 -1 1 1 1 4 2 4 2 1 1 0 0 1 2 -1 1 -1 0 0 0 1 0 -2 1 0 -1 -1 0 -1 1 1 2 -2 0 -1 1 1 2 1 0 0 0 -1 -3 3 0 1 0 0 2 0 0 1 0 1 1 1 1 1 0 1 -1 -2 1 0 0 4 1 0 3 -1 1 1 0 -2 -1 1 1 0 -1 0 1 -1 0 1 1 2 -2 0 1 1 0 0 0 7 -1 0 0 0 1 1 0 -1 0 1 0 1 0 2 41 152 172 169 161 150 146 150 149 145 141 134 142 141 152 157 158 147 149 164 165 158 165 166 166 166 166 164 165 165 161 165 163 140 125 91 45 17 3 3 3 5 3 1 1 3 8 6 6 0 2 0 -1 1 2 0 6 3 11 21 39 40 49 60 52 88 92 109 153 184 196 198 199 197 199 200 201 200 200 201 200 200 196 199 200 186 189 198 200 199 199 200 199 199 198 199 198 199 198 199 189 191 198 196 199 198 189 197 198 196 197 189 192 194 176 102 9 1 -1 8 74 174 195 199 197 196 196 195 191 195 192 190 195 196 196 188 193 194 195 193 194 195 194 195 194 194 191 193 193 193 192 193 192 193 193 192 191 190 187 193 192 191 192 191 192 191 192 193 192 191 191 191 190 191 192 191 190 184 182 187 192 193 191 192 191 192 191 192 191 191 192 183 186 191 192 192 190 190 181 190 192 192 187 191 190 191 193 193 192 191 192 191 191 190 189 182 190 191 190 190 189 186 189 190 190 188 187 189 190 180 186 186 187 188 187 187 185 184 184 177 171 180 180 175 179 176 167 178 179 177 177 177 178 178 177 178 170 177 176 177 171 175 168 177 178 174 176 177 177 174 176 177 178 176 177 176 176 180 179 178 178 172 178 178 179 179 179 179 180 177 178 180 180 180 180 175 178 134 16 1 -1 1 1 1 4 57 138 172 179 175 116 10 0 1 1 0 5 0 2 5 0 -1 0 1 -1 0 0 0 0 1 1 1 0 0 0 1 1 0 -1 1 0 0 0 2 1 -1 -4 3 1 2 1 2 1 0 2 -1 0 2 3 0 0 0 -1 0 0 1 1 1 0 2 -2 1 0 0 2 -1 -3 -3 -1 1 1 1 0 1 0 0 1 1 -1 2 0 -1 -1 1 0 1 0 2 0 2 0 0 2 1 -1 0 0 -1 0 0 1 0 1 0 1 3 1 2 -1 1 3 3 1 -1 -2 -1 -2 0 0 0 0 -1 1 1 -1 -5 1 1 0 0 1 1 2 0 0 -2 1 0 1 0 -2 -7 -8 -2 0 1 1 2 0 0 1 1 2 2 0 -4 -3 -3 2 -1 1 0 1 0 0 1 1 0 2 -1 0 0 1 0 -1 0 -5 0 0 0 0 -1 0 
0 0 0 -1 1 0 -1 0 1 -1 -2 0 2 1 -1 -2 1 0 0 2 0 0 4 1 1 1 0 0 0 0 0 -1 1 0 0 0 1 1 -1 0 0 1 2 1 1 1 2 0 -6 3 1 0 1 0 2 -1 1 0 0 1 0 -1 -4 0 0 0 0 0 2 0 2 1 0 1 1 1 0 -1 1 1 0 -3 0 0 1 0 1 1 -1 1 1 -2 1 1 2 0 0 1 4 0 0 0 1 0 0 1 0 7 0 1 3 -1 0 0 2 0 -2 0 0 1 1 1 -1 -1 1 -2 -3 0 1 -1 1 -1 -1 0 -1 1 1 1 -4 0 1 2 1 -1 0 0 0 17 134 173 168 164 154 154 145 149 146 142 139 141 146 150 154 158 160 162 163 164 165 165 165 164 167 165 165 165 165 165 165 162 159 137 90 50 20 2 2 3 4 5 2 5 10 8 8 5 1 3 6 0 0 1 0 1 4 0 5 12 12 19 40 26 49 64 97 146 177 194 198 199 190 198 199 199 199 199 198 193 200 200 200 199 198 200 198 190 188 196 190 199 188 189 199 200 201 198 199 198 199 197 198 198 189 198 197 199 198 199 199 198 189 185 121 48 8 1 1 34 155 194 197 197 196 199 198 195 195 197 195 195 196 196 193 195 195 195 196 193 193 194 189 194 194 193 193 192 192 193 192 192 194 193 194 191 181 179 192 192 192 193 192 188 191 191 191 189 191 191 191 193 192 189 192 192 191 191 190 192 187 192 192 189 191 189 192 192 192 191 185 190 192 192 191 186 183 190 192 191 193 191 190 191 191 192 191 192 193 190 191 191 191 190 190 192 190 191 191 193 190 188 189 189 190 188 185 195 188 187 181 188 187 186 187 189 187 185 178 182 183 184 179 179 179 178 179 179 169 178 179 179 178 172 177 176 171 177 177 175 168 177 178 178 177 177 176 177 178 178 178 177 178 178 178 172 178 179 178 179 178 178 177 176 179 180 180 180 178 174 169 170 181 179 170 180 147 27 15 2 2 0 0 0 28 122 149 180 178 135 15 1 1 -2 -2 0 1 1 0 1 1 0 1 0 0 0 2 0 2 0 0 -1 1 -1 1 2 -1 1 0 2 2 1 -1 1 1 0 1 1 1 0 8 0 0 1 6 -1 0 5 0 0 1 0 -1 -2 -6 0 0 1 2 1 0 0 0 1 -2 -1 -4 -2 1 -2 0 -1 0 0 2 1 1 -1 -1 0 1 0 1 0 0 1 2 1 1 -1 1 1 1 -6 -5 -1 2 0 0 -3 0 -3 0 0 0 1 1 1 1 0 0 1 0 1 0 2 2 1 3 1 0 2 1 0 -2 2 -1 1 0 1 1 0 2 1 -1 0 -1 -1 0 0 0 1 0 -2 1 0 1 3 1 1 1 -1 -1 -7 0 0 2 1 2 1 0 0 1 2 2 -1 1 -1 1 0 -2 0 0 0 0 -1 -3 1 0 0 1 -1 
0 1 1 0 0 -4 0 1 1 0 1 2 1 2 -2 1 1 1 1 1 1 0 0 0 2 2 1 2 1 -1 -3 0 1 1 0 0 -2 -1 0 1 1 -1 1 1 0 0 1 -1 -4 1 2 2 0 0 2 0 1 1 2 -1 0 -3 0 0 0 0 0 0 7 2 1 1 0 1 2 5 -1 0 0 -2 0 -2 -2 4 0 1 0 -3 1 -2 -1 -4 0 5 0 -2 1 2 0 1 1 0 -1 0 0 0 0 4 1 1 2 1 1 1 2 0 1 0 1 1 -1 -1 -2 1 0 3 3 1 0 2 1 1 2 0 0 1 1 0 0 0 -1 1 1 -3 -1 1 1 7 103 168 162 165 160 155 142 139 148 144 141 142 142 147 154 157 158 161 156 151 164 161 159 160 165 165 166 163 165 161 165 165 163 144 99 63 25 6 2 3 7 5 2 2 5 2 8 15 11 6 4 10 2 0 2 0 2 5 2 14 24 5 3 3 11 50 106 137 171 192 191 200 200 199 199 199 200 195 199 200 199 198 198 200 198 192 190 198 188 192 198 199 188 197 189 191 199 199 199 199 197 198 199 194 198 198 197 197 196 198 199 198 183 189 157 53 2 3 1 19 137 192 197 198 196 196 197 198 197 197 193 195 195 197 195 188 194 194 193 194 194 194 194 192 193 193 193 193 190 193 193 192 193 192 192 186 191 190 185 191 193 192 192 192 191 192 192 191 191 193 192 191 192 191 191 191 191 191 185 191 191 191 192 192 191 191 192 191 192 190 193 192 192 187 192 190 191 191 191 191 191 190 190 181 191 190 192 193 191 191 192 192 191 177 191 189 187 192 191 190 189 189 188 187 188 188 187 189 187 188 187 188 186 187 188 186 186 187 186 185 186 185 183 182 182 179 177 176 179 178 178 178 179 179 172 177 167 177 170 177 176 178 177 178 178 177 177 178 178 179 178 178 178 177 178 179 180 179 178 179 180 180 178 178 179 180 171 179 179 181 180 180 181 179 170 172 158 42 16 1 -1 0 0 0 13 108 145 177 180 148 27 1 0 1 -1 0 1 0 1 1 1 -2 -1 0 1 -2 -1 1 0 1 0 1 1 1 0 1 1 3 0 -2 1 2 1 3 0 7 2 2 -4 0 3 1 1 2 0 0 0 -3 0 1 -4 0 0 1 1 0 0 0 1 0 0 0 0 2 0 4 -1 1 1 0 -1 -1 -1 2 0 1 1 1 0 0 -2 0 2 0 0 1 1 0 0 0 1 -1 1 -1 -5 0 -2 1 0 1 0 2 1 1 1 -1 1 -1 1 1 0 1 1 -1 1 2 0 2 0 0 0 -4 -1 1 -1 2 0 -1 4 1 1 0 -1 -2 0 -1 1 1 -1 -1 0 0 -1 0 0 1 1 0 1 1 0 -1 0 1 0 -6 0 1 1 1 0 0 1 0 1 1 1 0 -1 -2 0 0 0 -1 1 0 0 0 1 0 1 0 
1 0 -1 1 1 0 -3 2 1 -2 0 0 1 0 0 4 -1 1 0 1 0 0 0 1 1 1 0 1 1 2 0 0 2 1 0 3 0 1 0 0 -1 2 6 1 -2 -2 2 1 1 -1 1 0 0 -1 2 0 0 0 1 1 1 2 3 5 1 0 1 1 1 4 2 1 0 1 6 1 1 1 0 1 0 1 1 1 1 1 0 -1 0 -1 0 -1 -1 0 1 -1 0 0 1 0 -6 -6 -2 0 1 0 -1 0 2 0 1 1 -1 1 2 2 0 1 0 1 2 -5 0 1 1 2 2 4 4 1 8 0 1 3 -1 1 7 1 -1 2 0 1 1 -1 0 1 0 5 69 163 172 166 162 157 154 150 149 144 138 140 144 148 153 156 159 163 163 162 165 165 166 165 163 159 164 165 164 165 158 163 163 150 107 74 33 7 3 6 7 4 6 3 10 11 5 11 2 0 1 6 3 1 1 1 2 3 0 1 3 0 -1 0 3 48 99 133 170 191 199 200 199 199 199 199 194 199 200 200 199 188 200 200 188 199 198 195 198 198 199 199 201 198 199 199 198 198 198 198 198 198 198 196 198 198 198 198 196 198 197 184 197 195 177 96 11 1 1 11 107 186 195 197 195 188 190 197 195 195 196 196 194 192 196 194 195 194 195 194 194 194 195 193 194 193 194 193 192 193 194 193 194 192 193 192 192 192 192 192 192 192 192 192 190 189 192 179 191 191 191 191 192 182 190 192 192 186 191 190 191 191 192 192 191 189 192 192 192 191 191 192 192 190 191 179 182 190 192 193 193 189 183 192 192 192 192 192 192 192 191 190 192 190 191 184 191 190 190 184 189 190 189 188 178 189 187 190 188 189 189 188 184 189 188 185 176 187 186 186 183 187 186 185 183 183 179 180 179 179 179 170 178 179 179 173 175 178 177 177 178 178 171 170 172 178 176 177 175 180 178 179 178 174 179 177 178 178 179 178 180 180 178 180 174 177 178 179 181 171 175 181 180 183 182 181 165 59 4 1 1 2 -1 0 7 91 161 178 180 157 46 1 0 -1 -1 1 2 0 0 0 2 1 0 1 2 -1 -5 1 4 0 0 2 0 -1 0 2 0 1 7 2 0 1 1 0 2 0 1 1 0 1 1 1 -1 0 1 1 -1 3 0 0 -2 1 0 1 1 2 1 0 2 0 0 1 1 1 -2 1 -1 -1 0 2 0 0 0 -1 1 1 1 2 1 0 2 1 0 -1 0 0 -1 0 0 -3 1 -3 1 -11 -4 -1 1 1 2 -6 -2 0 1 -1 -4 0 1 0 1 -1 0 1 0 1 1 0 -1 0 -1 1 1 2 1 0 0 0 1 0 0 -1 0 0 0 -2 -1 -1 0 1 1 0 0 -1 1 1 -1 1 0 5 0 0 -1 0 1 -1 -1 0 1 1 -1 1 3 0 5 1 2 0 1 -1 0 0 1 0 1 0 -2 0 2 -1 1 4 1 1 
-1 0 1 0 1 2 4 -1 -1 0 0 -1 -2 -1 -4 1 1 7 3 -1 1 4 1 0 1 1 -1 0 1 0 0 0 1 -1 1 1 0 0 0 0 0 1 2 1 1 0 -1 0 2 0 2 0 0 0 1 1 1 1 0 0 1 2 1 3 1 -1 0 0 1 0 1 1 0 -1 1 0 0 0 -1 1 4 0 1 0 -1 0 1 0 1 -1 0 1 0 1 1 2 1 1 0 1 0 0 1 0 0 -2 1 0 0 0 2 1 0 4 1 0 2 0 0 1 1 2 1 1 0 1 0 0 2 0 1 0 2 1 1 0 1 1 -1 0 0 1 0 1 2 2 8 3 61 153 171 166 164 158 155 153 150 148 142 140 142 140 141 156 159 162 163 163 165 166 166 166 166 166 166 164 167 166 164 155 163 155 112 76 35 14 2 6 4 10 9 4 11 8 3 2 5 1 5 14 5 2 4 0 1 0 1 1 1 1 2 1 6 49 97 138 172 192 194 197 199 192 187 198 193 200 199 200 199 199 200 198 200 199 199 200 199 198 199 198 199 198 192 198 199 197 197 192 198 199 197 197 198 197 197 196 196 197 198 199 199 195 185 146 64 4 2 7 84 172 195 196 198 197 194 190 194 188 195 196 195 195 190 195 192 194 194 193 193 194 194 182 192 193 192 192 193 194 192 192 189 192 193 192 191 193 185 192 191 193 191 187 191 192 191 181 191 190 192 191 192 184 185 191 191 191 185 190 188 193 189 191 193 191 190 184 192 191 190 192 192 191 191 191 185 191 192 183 183 190 184 191 192 181 190 190 190 187 191 191 191 191 191 189 190 191 191 190 189 190 189 188 188 190 188 189 189 188 187 188 188 188 189 188 187 187 185 187 187 187 187 187 185 185 178 181 181 168 180 174 169 178 179 175 178 177 177 179 178 177 178 177 179 178 178 178 177 178 179 179 179 178 178 180 177 179 177 179 179 178 178 174 181 180 180 179 181 180 180 182 178 181 182 183 170 89 4 1 8 -1 1 -1 7 78 157 179 179 138 79 9 3 11 1 1 2 1 1 0 -1 1 0 0 1 0 -1 2 0 1 0 1 1 -1 1 1 1 0 1 2 1 -1 4 0 1 6 1 1 1 2 0 1 1 1 -1 1 0 1 1 0 3 4 1 1 -2 0 1 1 5 7 0 1 1 0 1 5 0 -2 -1 -1 1 -1 0 0 -3 -4 0 4 1 1 1 1 0 1 0 0 0 0 1 -1 1 -1 2 0 3 -1 1 2 -1 0 1 1 2 -2 1 0 -1 1 3 0 0 0 1 0 -1 1 1 1 0 1 1 0 0 -1 -1 1 1 1 2 0 1 2 -2 0 1 -2 1 1 -1 4 -1 0 2 1 0 0 1 2 1 3 0 1 0 0 2 1 1 0 1 1 1 1 0 0 0 0 1 -1 0 1 5 0 1 0 0 -5 -3 2 8 0 -1 1 
1 2 2 0 1 1 0 1 0 1 0 0 1 0 2 1 1 1 -1 -1 0 1 1 0 -1 1 2 -1 1 0 -1 0 2 -1 0 2 0 -3 2 1 1 1 -1 1 3 2 -2 0 0 -5 1 0 2 1 1 1 0 2 -1 0 -1 1 0 1 -2 0 0 0 -1 -1 0 1 1 -1 1 1 0 1 0 0 1 0 0 0 0 0 -1 0 1 0 0 0 0 1 0 1 1 -2 0 0 1 1 0 1 1 2 1 0 0 -1 1 1 0 0 1 0 0 -6 0 1 1 3 0 -1 1 1 -1 1 1 3 1 0 1 -1 1 -1 -1 1 1 0 0 1 1 0 0 0 0 1 16 132 171 168 163 158 155 154 150 148 146 141 140 139 148 156 158 159 162 163 160 164 166 165 166 166 164 165 166 166 149 150 163 156 120 80 45 16 1 -1 1 3 4 2 8 9 5 6 9 7 8 1 3 1 0 1 2 3 -1 0 1 -4 2 8 19 41 89 137 173 195 199 197 192 200 200 198 199 199 200 199 200 198 198 198 200 201 198 199 199 197 198 199 199 199 199 199 199 196 197 192 198 197 197 198 195 188 196 197 197 198 197 199 198 196 167 137 77 6 0 2 35 145 191 199 199 198 196 188 196 194 195 194 196 195 195 195 194 195 194 193 192 193 193 194 194 193 194 193 192 193 193 193 189 194 193 192 192 187 190 191 192 192 193 192 188 187 186 191 192 182 182 191 186 190 193 191 192 192 192 191 192 192 187 192 191 190 179 190 184 191 188 191 191 191 191 191 192 192 190 190 192 190 176 179 190 191 190 190 190 192 193 192 190 190 191 190 188 190 190 190 190 183 189 181 190 188 189 190 189 189 188 189 184 182 188 188 187 182 187 183 187 185 186 186 187 187 187 186 184 176 181 180 178 179 178 180 178 172 179 179 177 178 180 178 178 177 179 177 177 172 177 179 177 179 179 180 177 175 179 181 179 179 174 180 178 179 180 181 180 181 184 181 181 182 182 180 149 109 10 1 1 0 0 7 5 76 157 179 182 173 124 80 61 48 43 24 12 7 2 3 1 2 2 0 2 5 10 10 2 0 0 0 3 0 1 1 3 -4 0 -1 0 2 1 1 0 6 3 0 1 0 -2 0 0 1 -1 -2 -1 -1 0 -1 1 0 0 1 -3 1 4 1 1 0 2 2 2 4 5 1 -1 0 1 0 0 0 0 1 4 2 0 1 -1 3 0 0 1 0 -1 1 0 0 0 0 1 1 -1 1 0 0 1 -1 1 2 1 2 1 0 0 0 -1 1 0 0 0 1 0 0 0 0 0 -1 0 -1 2 3 -1 -1 1 0 0 4 0 0 0 0 1 -1 0 0 0 2 0 2 0 0 0 0 -1 3 3 1 0 0 1 0 0 0 0 0 1 -3 2 0 1 1 4 1 -1 0 2 2 0 2 0 0 1 1 0 0 1 2 -1 1 1 1 
0 1 1 1 2 0 0 0 1 1 1 1 0 2 2 1 1 -1 0 0 1 0 1 2 1 1 0 -1 0 0 1 0 1 2 1 3 3 1 1 1 1 1 0 -1 0 2 3 -3 0 1 1 3 2 0 0 1 -3 0 -1 -1 0 0 1 0 -4 0 1 -1 1 0 1 0 1 2 1 0 0 1 4 1 1 5 0 1 1 0 1 1 4 1 4 5 2 1 0 0 0 -1 0 0 0 1 1 1 2 5 0 -1 1 -1 1 1 1 0 -1 0 0 0 -6 1 0 0 1 -2 0 -1 4 0 0 0 -1 -2 0 -1 0 -4 0 0 0 0 0 0 0 -1 0 1 0 1 6 103 168 168 157 159 157 151 151 149 142 140 141 144 151 150 156 150 161 157 164 166 167 166 166 165 157 165 167 167 164 155 163 141 120 92 58 16 0 0 2 -1 2 1 4 2 -1 2 6 4 2 1 2 2 0 2 5 7 0 2 0 0 0 0 7 48 84 138 175 193 199 199 199 198 200 200 199 196 192 197 199 200 199 200 198 199 198 199 198 199 194 198 199 198 198 198 198 198 197 196 196 198 198 198 197 196 196 196 195 197 196 193 198 199 191 150 122 16 4 1 11 91 183 198 196 198 198 197 197 195 188 195 196 194 191 195 195 194 195 193 192 188 194 193 194 194 193 194 192 193 192 186 193 191 192 194 190 187 192 192 190 192 192 191 191 192 191 192 191 190 191 192 190 191 190 192 190 193 191 190 191 191 192 192 192 191 184 191 192 191 192 183 190 180 190 191 193 190 191 186 191 191 175 190 192 191 191 191 185 190 192 191 191 191 190 185 190 190 189 190 190 190 189 189 188 189 189 189 189 188 188 188 189 184 189 187 188 188 187 187 185 181 188 187 185 187 188 186 185 185 183 183 181 181 181 184 176 179 178 177 179 179 181 177 179 167 178 177 168 178 175 179 177 178 179 180 180 180 178 174 180 180 179 180 181 168 181 182 181 182 182 172 181 182 183 167 152 126 49 10 1 0 2 -1 7 76 158 179 182 178 156 132 109 103 112 104 91 78 64 52 36 32 13 22 5 3 1 2 1 0 -1 -3 0 1 1 1 1 1 1 -1 0 0 1 2 0 0 1 2 1 1 0 2 4 0 2 0 1 0 -1 0 1 -2 0 1 0 0 1 2 1 1 1 4 2 2 1 2 1 1 0 0 1 0 1 1 1 0 0 0 2 1 3 -1 -1 -1 -1 0 1 0 0 0 2 1 2 2 3 1 1 -1 0 0 0 1 2 -1 0 0 -7 0 0 1 0 1 0 0 -1 0 1 -1 0 0 1 1 0 -4 0 1 0 2 0 1 1 1 -1 -2 0 1 1 0 5 1 0 0 1 1 0 -2 1 -1 -1 0 6 0 1 1 1 1 -1 1 0 -1 1 3 2 1 0 1 0 0 1 0 2 3 8 1 0 1 0 0 1 -1 -5 -1 
1 1 0 1 -1 1 2 0 2 1 1 0 0 0 1 0 0 1 0 0 1 2 2 0 0 1 0 0 1 0 1 1 0 -1 0 0 -1 0 0 0 0 4 -1 2 -8 1 3 0 1 -1 -4 -1 0 1 1 0 0 2 1 0 2 1 -1 1 0 0 0 3 0 1 2 0 1 0 0 -1 -2 -1 0 0 0 -1 0 1 9 6 2 0 0 0 1 3 4 1 0 1 1 -1 -1 -1 0 0 1 0 2 0 1 1 0 1 3 0 -5 0 -1 1 0 1 0 0 0 -1 2 1 1 0 0 0 -2 1 -1 -1 1 2 0 -1 -5 2 0 -2 1 0 5 1 -2 0 3 2 5 70 163 170 156 160 155 152 152 147 147 142 141 142 147 150 154 148 161 162 157 165 166 166 165 154 158 165 166 167 165 159 165 142 116 103 64 18 3 1 2 0 -1 -1 0 0 1 0 0 1 6 1 2 -1 0 2 0 0 1 9 2 1 -1 2 14 51 98 145 176 195 199 197 197 191 198 199 198 199 198 199 199 199 198 198 199 200 199 199 198 198 198 199 194 197 197 198 197 188 197 197 198 196 193 198 196 184 185 196 196 195 196 197 198 198 196 165 126 48 3 2 4 63 169 194 196 197 198 196 196 182 194 194 196 196 195 195 195 195 195 193 194 193 195 195 193 192 193 192 193 194 194 192 190 193 193 193 185 192 186 188 191 191 193 192 185 192 192 191 192 191 192 190 176 180 192 192 192 192 192 186 191 186 192 193 191 185 191 191 187 192 192 190 192 186 190 191 190 191 192 192 191 183 192 190 191 191 180 181 190 190 184 183 182 190 191 191 191 189 186 190 189 190 189 185 189 189 190 191 190 188 188 188 178 188 190 186 187 180 187 189 187 188 188 188 187 187 177 181 187 187 185 185 183 181 181 180 180 170 179 180 178 178 178 180 180 178 177 179 179 176 178 179 180 179 179 180 181 179 179 180 180 179 180 181 180 172 172 181 181 181 178 182 183 183 183 182 178 128 16 1 1 1 0 0 22 78 157 179 183 169 166 154 140 146 134 134 140 134 128 124 113 85 77 79 65 49 35 23 11 4 3 2 6 1 2 -1 -1 0 1 1 1 0 2 1 1 0 3 1 3 0 1 -2 1 0 3 1 0 1 0 0 1 0 1 -1 1 1 1 0 7 0 1 1 2 0 1 1 1 -1 1 1 4 0 1 0 1 1 0 1 0 -1 1 1 0 1 0 1 -2 0 0 1 0 1 0 4 0 0 -3 -3 0 -7 1 -1 0 0 0 0 0 0 -1 -1 0 0 0 0 1 -4 -1 0 1 0 2 2 0 -5 0 0 0 1 0 -1 0 0 1 0 0 0 0 1 4 2 4 0 -1 1 3 2 0 0 1 1 0 -2 0 -1 2 3 0 0 2 0 2 2 2 1 0 0 1 0 0 0 1 0 1 5 1 1 -1 -2 1 0 -10 0 
1 -1 0 -3 -8 -1 2 1 1 1 1 -1 0 1 4 0 1 2 7 1 1 0 1 -5 0 -1 -2 0 2 0 1 2 0 -1 0 1 0 0 1 1 0 1 0 -1 -5 0 1 -1 1 0 0 -2 -2 0 0 1 0 1 0 0 1 5 1 2 0 0 -2 1 0 1 3 1 1 0 -3 -1 0 0 1 0 0 2 -3 2 8 2 2 0 1 1 1 1 1 -1 6 1 0 1 1 -1 -1 1 4 0 1 1 1 0 1 -4 0 -4 -1 -1 1 0 1 0 2 1 2 2 0 0 0 0 0 0 -5 -2 0 1 1 1 0 -6 1 2 -3 0 0 0 0 0 0 0 4 1 7 43 149 170 160 162 156 153 151 150 146 143 140 130 130 134 141 157 160 162 161 164 165 166 163 153 163 167 166 156 166 166 165 160 136 102 71 37 8 3 3 0 1 1 0 1 0 1 2 1 9 7 1 0 0 0 1 1 1 0 8 2 0 2 23 48 99 149 180 196 198 197 189 188 197 198 191 198 198 199 199 198 189 198 197 199 197 199 198 197 198 198 198 199 197 192 190 198 198 196 197 196 198 196 197 194 188 195 191 188 196 197 198 197 196 191 176 86 7 1 3 34 142 170 188 195 196 197 197 179 182 186 195 195 194 195 193 195 193 194 195 193 194 196 193 188 194 192 193 194 193 193 193 193 192 194 189 192 191 191 187 193 192 192 190 192 192 192 187 192 192 192 192 192 190 191 191 192 191 191 193 192 192 193 191 190 190 192 191 188 192 189 181 191 192 190 190 190 192 186 192 190 191 191 190 192 190 190 192 189 192 190 180 191 191 191 189 192 190 189 189 181 178 190 190 190 188 190 190 189 188 174 188 182 183 188 188 188 189 187 188 186 189 187 187 188 187 182 187 189 188 187 185 186 184 181 170 179 179 180 179 179 180 179 179 180 178 179 179 179 180 181 180 179 179 180 178 180 181 180 178 171 181 179 181 180 181 181 182 181 182 184 183 184 182 184 181 129 46 2 1 1 1 1 8 77 157 178 184 183 167 162 158 158 157 154 154 153 142 149 148 143 139 116 116 122 115 104 93 79 58 55 40 22 30 6 4 1 1 0 0 0 2 7 -1 2 4 1 1 1 2 2 0 4 2 0 1 -1 1 -1 1 0 1 0 5 0 2 -1 1 4 2 2 0 0 1 -3 0 -3 0 1 1 0 0 1 1 0 0 0 1 1 1 -1 0 1 1 0 0 1 -1 -2 1 0 0 2 -1 0 0 2 -3 -1 0 0 0 0 1 0 0 1 2 -1 -3 0 1 2 1 -1 0 -2 1 -1 0 3 0 0 -1 0 1 0 1 1 1 1 -1 2 -1 0 1 0 2 0 0 0 1 2 0 -1 3 0 0 1 0 0 -1 0 1 0 0 5 1 -1 1 0 1 0 1 0 1 -1 0 0 0 0 0 -4 -2 1 1 0 0 1 0 1 
-1 0 0 -1 -5 0 1 0 4 0 0 1 1 -1 1 0 0 0 3 0 1 2 2 0 1 1 0 -1 1 1 2 2 1 -1 -4 1 1 0 0 0 -1 0 0 1 0 0 2 1 2 0 1 0 0 1 1 1 0 1 -1 1 1 1 0 0 -1 -1 -1 0 1 0 0 1 0 0 1 2 -1 0 0 -2 2 0 0 0 2 1 4 0 0 0 1 4 4 0 -4 -1 4 1 1 -1 1 1 2 -1 1 1 0 0 0 0 1 0 1 1 0 0 -1 0 2 3 1 -2 1 2 -1 -1 0 0 1 0 2 2 5 -2 0 0 0 -1 -1 1 -1 1 1 3 0 0 0 2 1 19 103 169 167 162 158 153 152 150 147 144 137 141 144 139 141 157 159 162 155 153 165 165 155 163 165 163 161 164 164 165 165 161 139 106 81 38 8 1 0 1 1 5 4 2 2 0 -1 3 13 9 4 0 -1 1 1 1 0 1 1 0 0 2 10 49 103 147 180 197 197 199 199 197 196 195 198 197 200 197 192 197 199 198 198 190 190 199 198 199 197 198 198 199 198 197 198 196 196 197 197 197 197 197 195 195 194 183 194 194 183 190 190 199 197 196 188 142 29 0 4 51 107 180 195 196 199 198 197 185 193 185 186 196 195 193 195 192 190 193 190 194 194 194 192 194 192 192 193 194 193 186 193 194 191 191 191 193 192 192 192 192 192 192 192 188 192 193 191 191 190 192 191 191 190 188 192 191 192 191 191 191 191 184 192 192 192 191 192 192 191 183 190 191 192 191 191 189 192 192 192 192 191 184 190 190 192 190 190 182 191 191 183 191 190 182 190 191 190 190 190 190 189 189 189 189 188 190 190 188 173 178 188 188 189 188 188 189 188 188 188 188 188 187 190 183 185 187 181 188 188 188 188 187 186 185 183 182 182 170 178 169 178 179 179 179 180 178 175 180 180 180 179 180 179 180 180 179 179 181 180 171 180 181 182 181 180 181 182 181 184 182 181 182 185 183 179 125 12 2 1 0 2 12 30 80 158 180 184 181 174 165 164 163 161 159 157 161 156 159 158 156 156 153 152 150 148 145 141 134 118 122 115 104 91 77 61 44 30 16 9 4 20 11 2 2 3 1 -1 0 1 7 1 1 3 1 0 1 0 1 2 -1 1 1 2 1 0 1 0 1 1 0 1 4 0 0 0 6 0 1 1 1 0 -1 0 0 -2 0 0 2 0 1 -1 0 1 -1 1 0 1 1 0 0 0 0 0 -1 0 0 0 -1 0 1 -1 0 2 7 0 0 -1 -1 0 0 0 2 0 -1 0 0 0 0 1 2 -1 1 0 2 1 -1 0 3 0 -3 0 1 0 0 -2 -1 0 0 1 -1 1 0 1 -5 1 1 -1 3 0 0 -1 1 2 1 1 3 0 1 2 0 0 0 1 -1 1 1 0 1 -6 -1 0 -1 0 1 -1 0 0 3 2 0 
0 2 0 1 0 -1 -1 -2 0 1 0 -1 0 -1 0 -1 -1 0 -1 1 1 6 1 0 1 0 0 2 5 2 -3 -1 0 0 1 1 0 1 0 1 0 1 0 1 0 0 1 0 1 7 1 0 1 -4 -1 4 2 1 -4 0 2 -1 -1 -3 0 0 0 0 0 1 0 2 1 5 0 0 0 -1 -1 1 -2 1 -2 2 1 1 0 -1 -4 1 1 2 3 0 0 0 0 1 0 -1 1 0 2 1 0 1 -3 -1 1 4 1 1 -5 2 0 -3 1 0 1 2 4 0 5 1 0 -1 -1 1 0 1 3 0 2 8 1 1 0 1 1 0 0 1 1 0 1 1 0 1 3 28 98 162 155 163 159 154 151 150 147 140 142 142 143 148 153 155 154 160 162 163 164 165 164 152 162 162 158 164 151 165 166 160 131 106 75 48 23 3 1 0 0 4 1 -1 0 0 1 5 25 16 15 1 1 1 0 0 2 1 1 2 2 2 26 47 108 158 186 197 198 189 191 198 198 198 198 199 199 198 198 199 198 199 197 199 198 199 199 198 199 197 197 198 198 199 197 196 188 195 196 197 196 198 196 197 180 192 180 195 195 195 198 197 199 197 192 170 77 7 16 33 56 162 191 197 193 196 198 196 195 196 195 195 195 195 184 194 193 194 194 194 194 193 194 192 194 193 193 193 192 192 194 192 176 180 180 191 191 182 180 191 191 192 192 192 188 191 192 188 191 192 192 184 193 191 193 191 191 191 186 190 192 190 190 191 192 190 191 190 190 186 190 187 191 192 191 191 192 188 190 181 189 187 192 191 190 182 186 190 191 189 190 181 182 190 185 191 181 189 190 191 190 189 190 190 188 189 190 188 189 188 190 188 188 188 182 188 189 188 189 188 187 188 188 187 187 173 186 188 188 184 188 189 186 189 185 185 185 170 170 181 180 180 180 179 181 180 180 179 180 181 180 180 180 179 179 181 180 173 182 180 181 181 182 181 181 181 181 183 180 184 181 182 183 185 180 125 10 0 1 0 0 8 8 79 157 180 177 183 175 170 168 168 160 165 165 166 165 164 160 164 158 161 160 161 159 158 157 155 152 142 148 140 141 136 121 122 112 79 69 70 62 38 23 35 8 14 1 0 1 1 6 5 2 9 1 1 0 2 0 -1 -1 1 1 1 -1 0 4 1 6 1 1 3 2 2 -1 -1 3 1 -1 1 0 -1 -4 2 2 1 -4 1 0 -5 0 1 0 0 2 -1 -3 0 2 0 0 1 1 -1 0 2 1 1 1 1 0 2 1 0 0 -5 -3 0 8 0 1 4 1 -5 0 0 0 1 1 1 1 3 0 0 -1 1 1 0 -3 -2 0 4 0 0 -1 0 0 1 1 0 -1 0 3 0 0 2 1 -1 0 2 1 2 -3 -1 0 2 -7 -5 0 0 0 2 1 0 -1 1 1 0 1 0 1 3 0 1 -1 -2 1 0 1 0 
0 0 1 1 0 1 0 0 -1 -3 -1 0 1 -1 0 0 -1 -1 1 3 1 6 2 0 1 -1 2 1 4 4 1 0 0 1 1 1 1 1 0 4 2 0 4 1 0 -1 2 2 1 2 3 1 2 -4 1 2 0 -1 0 0 0 -2 1 2 1 0 1 1 0 1 2 1 1 0 -3 -1 -1 1 0 0 0 1 0 1 0 1 1 -1 1 1 1 0 1 0 -1 -1 -1 2 -1 -3 1 1 0 0 1 -1 -13 -8 0 1 -1 0 1 1 1 -1 -1 0 0 1 8 2 6 1 -1 -6 0 -1 0 1 0 2 2 12 11 2 0 1 0 0 -3 2 3 1 8 1 0 0 1 4 54 153 158 164 159 153 152 150 148 146 145 142 140 147 152 150 157 160 162 164 165 166 165 165 162 165 165 166 157 155 164 161 140 109 77 55 21 9 0 0 1 5 0 0 1 2 -2 1 13 15 16 1 -1 2 1 0 1 2 4 1 2 2 24 58 116 163 188 197 199 198 193 198 198 199 197 200 200 198 198 198 198 197 199 197 198 198 197 194 197 198 196 196 197 197 197 195 197 197 196 197 197 196 196 196 181 184 195 196 196 196 196 193 193 197 193 165 128 50 3 4 44 125 185 185 196 196 195 193 183 195 195 196 196 194 195 194 196 194 195 193 187 193 193 187 194 193 193 193 194 192 193 192 177 179 191 191 192 191 182 191 193 191 192 192 192 192 190 183 192 192 193 191 192 192 191 184 191 190 190 192 191 186 192 192 191 191 192 192 193 191 190 191 191 182 189 179 189 185 190 188 190 191 191 191 191 190 183 190 191 190 190 191 191 189 190 189 192 189 190 190 191 190 190 191 189 190 190 191 185 188 176 187 189 190 188 190 188 184 188 179 178 188 189 189 189 177 188 188 188 182 187 187 188 186 176 187 187 184 183 184 182 181 181 181 180 181 181 180 180 181 180 180 177 181 181 180 173 174 182 181 182 181 182 180 173 181 175 183 183 183 184 177 176 186 180 124 10 -1 2 -1 1 2 5 74 132 179 185 182 177 171 172 170 170 169 169 169 168 163 167 167 167 166 158 164 164 162 163 157 149 159 160 157 157 155 153 151 148 141 121 133 127 118 106 96 76 61 54 30 15 6 3 3 3 2 0 1 0 0 1 1 0 2 -1 0 2 2 3 2 1 0 1 1 1 1 2 -1 2 1 1 1 -1 -5 1 -1 0 1 1 0 1 -1 0 0 1 0 0 0 -2 -3 0 2 0 1 -1 -1 3 0 2 5 5 1 0 1 1 1 0 0 0 1 1 2 3 0 -1 0 -4 0 2 2 1 0 1 4 1 0 1 0 0 0 1 0 1 1 0 1 -1 2 1 1 1 -1 2 2 0 2 1 -1 1 -2 1 -3 1 1 0 0 -1 1 1 2 0 1 0 -1 1 1 0 0 1 0 2 0 0 4 1 1 0 1 0 0 -1 0 
-10 0 0 1 5 2 0 0 1 1 4 0 1 0 0 0 0 2 0 1 0 0 2 0 0 -1 0 1 1 0 0 2 0 0 1 0 0 0 0 2 1 6 2 0 1 0 0 0 1 1 0 2 1 -1 1 1 0 1 -1 3 2 0 1 -3 0 0 0 1 2 1 0 0 1 0 0 -3 1 0 -1 0 2 1 1 1 1 -1 1 0 0 3 0 1 2 -1 0 0 1 1 0 0 1 2 0 0 1 -1 -10 -1 1 -1 1 3 1 1 0 -8 -1 1 1 1 1 1 0 1 -1 0 1 2 6 0 1 0 0 1 1 0 1 0 2 0 0 -3 0 0 2 0 0 1 0 0 19 130 165 164 160 156 151 147 148 145 145 141 141 144 150 153 157 159 163 164 166 162 166 167 165 166 164 159 165 165 155 162 143 111 86 55 22 2 2 0 0 2 -2 0 0 0 -2 1 1 10 23 9 -3 0 0 2 0 1 11 1 1 1 29 75 122 166 192 196 193 198 199 197 197 198 194 197 198 198 198 199 197 198 197 199 196 198 199 198 197 196 196 196 196 194 185 185 195 196 195 196 197 191 192 195 195 194 194 194 194 195 196 197 197 195 196 190 159 51 5 2 10 76 142 190 193 197 196 187 184 196 196 195 194 184 192 193 186 193 195 193 194 195 193 194 192 188 191 194 193 193 195 192 192 192 193 189 192 192 192 192 193 191 191 191 192 190 193 178 191 192 192 193 191 192 191 192 190 191 191 192 190 192 192 191 191 192 192 191 174 171 176 191 191 189 181 173 176 191 191 191 190 185 191 190 189 190 182 192 192 191 182 191 190 190 192 191 191 191 190 190 186 190 190 190 190 183 188 189 189 185 188 183 185 187 188 188 187 189 187 188 189 187 187 189 188 188 189 187 188 185 188 187 172 181 187 187 188 187 187 185 183 174 181 182 181 180 181 181 180 181 181 180 180 181 180 181 180 180 180 184 181 181 182 180 169 181 174 183 182 176 183 185 184 183 163 122 9 0 1 0 1 2 6 75 133 180 184 182 178 174 172 173 171 170 173 172 171 167 162 170 170 170 168 170 169 168 163 166 167 165 160 163 159 162 162 160 161 159 156 155 152 149 146 142 119 130 125 112 98 82 64 46 41 12 4 2 2 1 2 0 0 7 2 1 0 1 1 1 5 1 1 3 1 2 1 0 -1 0 2 0 0 1 0 0 1 1 1 2 -1 2 -1 0 5 0 0 0 0 2 -6 0 -1 0 1 -1 1 1 1 0 0 0 1 0 1 1 1 -1 1 0 0 -1 -1 -1 0 1 1 1 2 1 0 2 1 3 -1 -3 0 1 0 0 0 1 1 0 -1 1 1 9 1 4 -1 0 1 0 0 0 1 1 0 0 0 0 2 0 0 1 0 1 -1 0 1 0 1 0 1 0 1 2 -4 1 0 0 1 1 -1 1 0 1 7 0 0 1 
0 0 1 6 4 0 1 0 0 1 0 1 0 1 0 1 -3 1 3 1 -1 -1 0 5 1 0 0 0 0 1 0 -1 0 3 -1 -3 1 0 0 1 2 0 2 2 1 -1 1 1 0 1 2 1 -1 -1 0 0 1 -1 0 0 1 4 1 1 -4 -3 0 6 9 2 1 1 0 1 0 0 1 -1 0 7 0 1 1 -2 -4 0 1 -1 1 1 1 -1 0 0 -7 -1 0 0 -1 -1 2 -1 1 1 0 0 0 -1 0 1 1 1 0 0 0 1 1 0 1 1 -1 1 0 -1 0 1 -1 1 -1 1 1 0 2 0 0 0 2 0 1 1 0 1 1 2 2 -3 -3 -1 4 1 6 86 138 164 161 148 149 151 147 137 144 143 142 142 147 154 159 159 160 164 166 162 164 164 165 165 161 165 167 165 164 162 148 119 85 49 29 4 2 1 0 1 1 1 0 0 2 1 0 9 19 19 2 2 1 0 1 2 0 1 1 5 31 86 142 168 192 196 191 199 193 199 198 198 198 198 194 199 197 198 199 198 198 191 197 199 196 198 197 196 197 193 196 197 195 184 182 188 197 196 196 196 194 196 191 194 181 178 194 195 196 196 196 198 196 193 178 104 43 3 5 66 145 189 196 195 196 194 197 196 196 187 184 184 194 194 195 195 194 195 193 188 193 189 194 193 193 194 193 193 191 184 188 193 191 192 193 192 193 191 193 193 191 193 191 184 191 183 190 191 191 191 188 191 191 191 192 192 189 190 192 191 192 192 191 191 190 190 174 168 174 191 192 192 191 191 184 192 191 186 179 190 192 190 192 186 183 190 191 192 190 181 176 179 189 191 191 192 190 190 190 189 187 190 190 190 189 189 190 190 189 190 189 188 182 178 189 186 189 188 189 187 188 189 188 189 187 182 183 189 188 178 173 186 188 188 189 189 188 187 187 184 184 182 174 181 182 182 182 181 181 182 182 180 180 182 180 174 181 182 181 183 183 177 176 182 182 184 183 183 183 180 179 185 180 120 9 -1 1 1 -1 -5 5 76 156 182 185 184 175 175 170 175 174 173 174 172 174 173 173 174 173 173 173 174 172 172 172 171 170 170 170 169 166 168 169 167 165 165 164 163 162 161 160 158 149 153 153 148 133 129 133 125 112 94 75 58 48 21 26 5 3 1 1 -1 0 0 1 0 1 -1 3 1 0 0 0 0 1 0 1 1 -4 1 -1 0 1 0 1 1 1 0 -1 2 0 1 0 0 1 3 3 1 1 1 0 2 0 1 6 2 0 2 0 0 -3 0 1 0 0 -1 2 1 1 -2 4 1 -1 -1 1 1 1 0 0 0 0 -1 -1 1 0 0 0 0 0 0 0 1 1 1 3 1 -5 -1 0 0 -2 1 1 1 0 0 2 4 0 0 0 0 0 0 0 1 -3 0 1 0 2 -1 1 0 -3 0 -1 0 3 1 1 1 0 0 2 -1 1 0 
1 0 1 5 2 -1 -1 0 0 1 0 1 -4 -2 1 1 2 0 0 0 0 -1 1 1 -1 0 2 0 1 1 0 2 1 1 1 -1 0 0 1 2 1 1 1 -1 -1 0 9 1 -1 -6 -1 0 -1 1 1 3 1 0 0 -8 -1 -2 1 0 3 0 1 2 1 1 2 0 1 1 1 0 1 0 0 1 3 0 0 0 0 2 0 0 0 0 0 0 0 1 0 -6 1 -3 0 0 0 1 0 1 0 1 0 1 0 1 0 1 -4 0 0 1 0 2 0 0 0 0 1 -4 -2 4 -1 1 -1 1 -1 -1 0 0 1 1 -1 1 0 4 0 1 0 0 0 -5 1 0 2 3 1 43 145 164 162 155 152 148 133 129 144 143 141 142 147 154 155 155 160 162 162 165 160 166 165 165 166 165 167 165 165 162 147 116 83 45 20 4 1 1 1 1 -1 1 0 2 1 2 6 3 25 26 11 10 1 1 1 1 0 -1 0 2 36 114 155 182 196 197 197 197 196 198 197 198 198 192 198 198 198 198 197 197 189 197 200 197 197 198 198 197 196 197 191 196 196 194 181 193 195 195 189 196 196 195 193 179 172 193 196 194 195 197 198 197 197 195 188 148 62 3 3 23 101 175 185 196 196 193 198 196 187 195 192 193 195 192 195 195 195 194 194 193 194 193 194 194 192 193 192 192 194 193 192 193 192 193 192 191 193 193 192 192 190 192 192 192 192 191 191 192 192 192 191 192 191 190 193 192 191 183 192 191 191 191 191 187 183 186 191 190 190 185 190 190 188 191 191 192 191 191 189 191 191 191 192 191 190 192 191 191 190 188 181 189 189 192 191 190 190 192 188 190 190 189 190 189 188 190 190 190 189 188 188 180 188 187 181 188 188 189 189 189 189 188 185 188 183 188 188 189 185 188 188 188 186 189 190 188 187 187 188 187 181 184 183 182 184 182 182 180 181 181 181 181 181 182 181 181 181 180 170 180 182 182 182 182 182 184 184 184 180 185 186 186 178 98 10 1 1 1 1 1 7 75 141 180 185 183 180 177 176 177 176 170 175 166 175 175 176 175 175 175 167 175 173 174 167 173 173 172 173 171 171 173 171 171 170 169 169 169 169 167 164 164 164 162 150 151 157 158 155 154 149 133 138 116 119 106 90 72 57 23 7 3 1 8 8 3 1 4 2 1 6 6 1 -1 1 0 1 7 -2 0 2 0 1 -2 1 1 0 0 -3 -1 1 4 1 3 -1 -1 0 1 5 0 3 0 -1 0 0 -6 0 1 0 -1 -1 0 0 1 -2 0 0 1 -6 0 3 0 1 7 2 1 1 2 0 -1 0 0 -8 1 0 3 1 1 0 1 1 1 1 0 -1 0 -1 2 -2 -1 2 0 1 -1 1 0 2 1 1 -1 0 0 0 -1 0 1 3 0 1 -4 -2 0 1 0 0 0 1 0 1 0 -4 -2 -2 1 -1 0 0 1 
0 1 1 7 1 0 5 1 -2 0 0 1 0 -1 1 1 1 1 1 1 4 0 0 3 0 0 1 0 -1 0 -1 0 0 1 1 1 -1 0 -1 -3 -2 -2 0 -1 0 0 0 -1 0 1 2 0 0 0 0 1 1 2 0 0 1 -5 -1 1 -1 0 1 1 0 1 0 0 2 1 0 0 0 -4 0 -2 1 1 1 2 1 1 1 -1 -1 0 0 0 0 2 0 0 0 0 0 1 8 1 1 0 1 0 0 -3 0 2 1 2 -1 -7 0 3 1 1 0 0 2 1 2 -1 0 2 -1 1 -7 1 0 0 -5 0 0 0 0 5 4 2 1 0 0 1 1 2 1 -1 0 0 1 15 119 160 160 161 151 148 146 145 145 143 140 141 143 149 153 155 160 161 162 165 156 165 163 164 167 161 166 160 165 162 147 119 91 51 17 7 4 0 0 0 0 1 0 1 7 2 10 3 14 12 8 10 7 1 -1 1 1 0 0 4 49 114 159 186 196 198 198 198 197 198 197 199 197 196 188 197 196 197 191 197 198 199 200 197 196 195 196 197 198 186 196 196 195 184 180 194 196 195 194 195 194 195 190 184 193 195 195 191 196 195 195 198 198 196 194 171 78 7 1 9 67 157 192 194 189 196 196 196 195 193 195 194 197 194 195 195 196 194 193 192 194 193 194 194 193 192 192 193 192 193 191 193 193 191 191 192 191 191 191 192 192 181 184 191 193 192 188 190 191 192 191 183 191 190 190 192 191 192 191 191 190 193 192 191 191 191 192 191 191 192 190 192 191 191 192 190 191 191 191 187 190 192 191 191 192 190 180 189 191 190 192 191 190 185 189 190 190 181 189 190 192 191 191 191 189 191 190 190 190 185 189 189 189 189 189 189 189 189 188 189 190 189 189 190 189 188 187 189 189 188 190 188 189 187 187 188 188 189 188 188 188 182 185 185 182 181 182 182 182 183 176 182 182 181 181 184 183 183 182 181 176 177 183 182 176 175 185 184 184 185 186 186 180 118 32 1 1 0 -6 6 29 77 157 179 185 186 179 177 178 175 178 177 178 176 171 173 177 177 172 176 175 174 177 174 176 176 174 164 165 173 173 174 174 171 173 172 174 171 171 172 171 169 168 155 153 166 155 165 164 164 161 161 158 155 137 149 145 136 128 108 80 62 39 18 29 5 9 10 2 0 0 1 1 1 0 0 1 2 1 -2 1 1 1 0 0 1 1 -5 0 -1 -3 1 0 0 0 1 0 1 0 5 -1 1 0 1 0 -1 1 3 1 2 -1 0 0 3 1 1 0 -4 2 -1 0 0 1 3 3 -3 2 1 1 0 0 0 1 1 2 0 -1 0 0 0 0 1 0 0 0 1 -1 1 0 0 1 0 0 0 -3 0 -1 0 1 0 5 0 1 1 1 1 1 1 -1 -3 0 -1 0 1 0 0 0 1 2 0 1 1 -1 1 2 1 0 0 
1 1 1 1 1 1 1 0 0 2 1 0 -1 0 0 -3 -1 -1 1 0 -1 0 1 0 1 2 0 1 -1 0 -1 3 2 2 1 -1 0 -4 0 0 -1 0 1 0 -2 -5 1 -1 -3 0 1 -1 0 1 1 1 1 1 -1 0 1 1 -1 1 -1 -2 0 0 2 4 1 -1 0 4 -1 -3 0 0 1 4 1 -1 0 -1 1 -1 1 2 1 5 5 1 1 1 1 0 0 0 0 2 7 3 7 2 0 1 0 -2 1 1 0 4 1 -1 0 1 -1 3 0 1 1 0 1 -1 0 1 1 -1 0 1 0 -1 -7 -1 2 0 1 1 1 1 0 -3 1 1 6 3 1 1 0 2 1 5 77 155 161 156 151 146 146 145 137 141 140 140 142 143 152 155 159 159 161 164 165 164 164 165 164 165 165 166 159 162 144 114 91 53 27 9 9 9 6 2 2 0 2 2 1 2 1 1 8 21 4 5 1 0 2 1 1 0 1 6 67 115 170 192 198 196 197 198 197 193 197 198 196 197 196 197 190 196 196 191 196 197 195 198 197 196 198 198 195 188 195 179 186 184 195 195 195 195 195 196 196 193 195 193 188 193 193 192 188 194 193 197 188 196 194 185 136 25 0 3 41 132 183 176 195 197 197 196 195 185 195 195 193 187 194 193 195 194 193 193 193 184 193 193 194 195 193 192 193 192 193 190 195 193 192 183 180 186 192 189 192 191 192 192 192 192 191 192 192 192 191 191 189 192 191 191 191 191 190 191 189 192 192 191 181 191 190 187 192 190 185 190 185 190 190 191 192 191 190 192 190 185 192 186 192 191 185 191 191 188 191 191 191 189 177 175 189 190 191 190 190 189 190 189 190 190 189 189 188 190 189 189 180 184 189 189 188 184 188 190 190 188 189 189 185 190 189 188 188 189 189 189 188 188 189 190 189 188 179 189 188 188 187 186 181 185 184 183 182 181 181 181 182 182 182 181 176 181 181 182 181 183 182 184 183 184 185 183 184 185 185 186 182 100 8 2 2 1 -1 9 8 76 136 179 185 179 180 178 181 179 179 179 178 179 178 178 179 177 175 172 178 176 176 177 178 178 176 171 175 175 177 169 175 175 171 174 174 171 165 161 173 174 173 170 161 171 160 162 169 156 167 167 165 159 161 153 160 158 155 151 145 136 124 105 79 55 46 10 3 1 0 0 1 0 0 0 0 0 1 4 2 2 1 1 2 1 1 1 0 1 0 -4 0 1 0 0 0 1 -1 1 -1 1 0 1 2 2 -1 -1 -1 0 1 1 1 -1 2 2 -1 0 1 0 1 1 0 1 0 1 1 1 -1 1 2 0 2 5 -3 2 3 -1 1 1 0 2 1 0 1 1 2 0 1 1 1 2 0 2 -1 0 0 -3 1 1 1 0 -1 1 3 1 0 1 -1 1 0 2 0 0 0 1 1 1 1 1 0 0 1 0 0 1 0 1 
0 1 2 -2 0 -1 -2 0 2 0 1 0 -1 0 1 -1 0 0 0 2 0 1 1 0 -1 0 -1 -1 0 0 0 0 2 0 1 -5 -4 -1 -1 1 1 1 -1 0 -1 1 -1 0 -4 1 1 0 0 2 2 0 0 0 1 0 -1 0 -3 -1 1 -1 0 2 1 1 0 0 -1 0 0 0 1 0 2 1 4 1 -1 1 -10 0 1 0 7 2 -1 0 1 1 0 1 1 1 -1 3 2 2 7 -1 2 6 1 1 -1 1 0 2 1 -1 0 -1 1 1 1 1 1 1 0 -1 1 1 1 1 0 0 -1 2 0 1 1 0 1 -1 0 0 0 -1 0 1 3 0 -4 -7 0 4 1 1 38 139 160 157 151 138 131 136 142 143 140 140 142 144 149 154 155 159 161 162 160 162 165 164 165 164 164 165 164 164 150 127 100 66 35 21 10 4 0 8 0 2 2 0 0 1 1 1 8 17 24 25 11 7 4 -1 2 0 2 37 99 147 177 195 197 186 197 197 197 197 197 196 197 197 196 193 197 197 198 196 197 188 197 197 191 191 195 196 196 197 195 187 195 194 188 196 196 195 194 194 196 194 194 193 194 193 194 193 188 193 197 193 195 195 196 191 146 90 6 6 21 84 147 189 195 195 195 196 195 195 194 195 187 194 194 194 195 195 186 193 194 192 192 194 194 192 194 194 193 193 192 193 193 192 193 191 191 192 193 192 192 191 192 191 191 191 188 191 192 191 192 180 190 180 182 182 191 190 191 190 193 191 186 191 191 186 190 191 192 191 191 186 191 191 192 191 191 191 190 191 192 191 190 186 191 190 190 190 190 191 191 190 190 191 180 175 188 190 191 191 190 191 191 191 191 189 190 189 190 191 190 189 190 189 183 177 177 188 189 189 189 188 190 189 188 190 189 189 187 189 189 190 189 188 189 187 188 189 183 188 188 188 189 188 182 180 185 184 184 173 173 172 182 184 177 182 182 182 183 182 179 183 184 183 184 183 184 184 185 187 185 182 180 115 8 0 4 1 0 0 6 78 158 181 175 184 174 180 180 180 181 178 178 176 180 180 180 180 179 181 178 179 177 173 179 178 178 178 178 177 177 173 176 176 165 176 176 177 176 167 175 175 170 169 174 174 173 164 172 165 173 172 170 170 169 167 166 166 165 153 160 148 156 148 126 131 116 80 57 24 6 1 1 1 0 1 1 -1 -4 -2 3 1 1 1 1 0 1 1 1 -1 -5 0 0 0 1 1 0 1 0 1 1 0 0 0 2 1 0 -2 0 -1 2 5 0 0 1 0 5 1 1 0 2 -1 1 1 0 2 0 0 0 0 1 0 -2 1 0 2 0 0 -2 2 1 1 0 0 1 0 1 3 0 1 1 1 0 1 1 0 -4 -5 0 1 0 2 0 -2 1 1 0 1 1 2 1 7 1 0 1 0 2 0 2 3 0 0 1 -1 2 2 -2 -1 
0 1 2 -1 -1 1 2 0 3 -1 1 -2 -3 0 0 0 0 1 0 2 1 5 1 0 2 1 0 -1 1 2 -1 -4 5 -1 1 -1 0 1 1 1 1 4 0 -6 2 1 0 -1 0 0 1 -1 0 -1 0 0 -4 1 1 -1 7 1 -3 -6 0 -3 0 2 0 3 1 3 -2 0 -4 -1 1 0 1 2 0 1 1 -1 0 0 0 1 0 0 1 1 -1 1 0 3 0 1 0 0 5 7 1 -1 0 2 0 1 1 1 2 0 13 1 0 1 2 1 3 -1 0 0 0 0 -1 1 1 0 1 1 0 0 -2 1 0 0 1 2 -1 2 0 0 -1 0 1 0 0 1 1 1 -1 0 11 107 156 155 149 146 128 131 139 142 140 140 142 144 148 153 157 157 159 163 161 154 163 164 163 164 164 166 164 164 145 122 102 70 43 31 20 11 3 4 0 0 3 0 1 2 0 2 1 10 31 32 18 5 0 0 2 0 5 59 117 158 184 195 197 181 196 197 197 197 195 197 197 197 197 197 192 192 185 191 197 196 196 197 196 196 196 196 191 197 195 196 195 195 195 195 196 194 196 195 195 194 193 195 194 195 191 194 193 193 193 195 196 197 196 196 189 153 44 6 4 42 123 181 194 193 195 196 195 195 195 196 190 196 194 195 187 194 195 194 194 192 187 194 193 192 193 193 193 192 193 191 192 191 191 192 190 192 191 191 192 194 192 193 192 191 184 192 191 192 183 190 186 191 191 191 192 183 191 189 192 182 191 192 192 190 191 184 191 191 190 188 190 188 191 190 190 190 190 191 192 191 181 191 190 192 190 191 190 191 192 191 187 189 182 190 183 190 189 190 187 179 188 190 189 189 185 190 190 189 190 190 188 181 189 180 190 189 190 190 189 190 186 188 185 190 189 187 173 188 189 187 179 188 188 182 189 191 187 190 190 188 188 189 188 186 187 186 175 184 183 181 182 183 183 183 183 182 184 183 182 183 183 183 185 185 178 179 186 186 186 187 181 117 8 0 0 0 -1 -1 8 92 162 180 186 185 181 180 181 181 181 181 179 171 181 181 180 180 181 181 180 180 181 180 180 181 180 180 179 179 175 178 177 179 178 179 177 178 177 177 173 171 177 176 176 176 176 175 175 175 175 175 174 173 172 165 171 171 168 156 153 166 165 163 160 158 151 127 134 110 69 45 18 17 2 1 3 -4 0 1 0 1 0 1 2 0 1 -1 0 1 2 1 1 1 0 0 1 -1 0 1 0 1 0 0 1 1 -1 -5 0 -4 2 7 0 0 4 6 1 -1 0 2 -1 2 0 1 0 0 2 1 0 1 1 -1 -1 1 0 0 -1 0 0 1 2 3 0 -1 -2 1 1 1 2 -1 1 -1 1 2 0 -3 0 2 0 -1 1 1 0 -1 1 0 0 0 1 1 1 0 1 0 1 0 -1 0 3 6 0 -1 0 0 1 -2 -1 0 
1 1 4 0 -4 0 2 1 0 -1 1 0 -1 0 1 -1 0 0 -4 -2 1 1 5 0 -1 0 0 1 0 0 -1 0 0 0 0 1 0 -1 0 0 0 2 -2 0 1 0 0 1 0 0 2 0 1 -1 2 1 1 1 1 0 2 0 2 0 1 0 1 -1 1 -1 1 1 1 0 1 0 2 0 -1 -3 0 1 0 0 3 3 1 0 6 1 -4 0 0 2 1 0 0 0 1 1 1 1 1 4 2 1 1 -9 -1 0 1 1 8 6 1 3 1 -1 1 2 -2 -1 -1 2 0 0 -2 0 1 0 -1 0 0 -1 -1 1 7 1 1 0 0 0 1 0 1 1 1 0 2 0 1 0 5 66 147 156 150 144 141 138 142 141 139 139 140 143 146 150 153 155 158 160 155 160 157 163 165 162 163 164 161 162 156 128 99 72 54 30 25 15 2 1 0 1 0 0 0 0 1 1 1 9 29 34 26 4 3 4 3 1 22 87 136 166 187 194 198 191 198 197 198 196 197 197 197 197 195 197 198 197 197 197 197 197 196 197 194 197 196 197 196 194 196 196 194 195 196 195 194 193 194 194 196 193 193 188 193 193 195 192 193 187 195 194 191 195 196 197 192 178 117 50 4 20 80 122 186 193 196 195 195 196 196 193 194 184 194 193 194 193 192 195 194 194 193 194 193 193 182 192 194 192 192 194 191 192 191 193 191 192 186 192 191 191 193 192 192 191 191 191 192 190 192 184 191 192 191 191 191 191 191 194 191 191 188 190 192 190 192 191 190 191 192 191 191 192 182 179 188 184 189 190 191 181 189 192 192 190 190 191 191 189 191 192 190 183 181 191 191 189 187 190 189 169 168 183 189 189 189 191 191 190 190 184 189 182 189 190 189 189 190 188 189 189 189 189 190 188 190 188 174 185 188 189 179 177 190 189 189 189 189 189 189 190 189 188 189 189 187 186 186 186 186 185 185 184 184 180 182 171 182 184 183 185 184 184 185 185 186 185 185 188 187 189 182 110 8 -3 1 -1 1 1 11 105 167 183 187 182 181 181 173 181 182 182 183 181 181 182 181 182 181 182 181 181 181 181 180 181 181 180 182 181 180 171 179 175 178 178 172 178 178 175 179 179 178 178 178 178 178 177 170 169 177 176 176 177 175 174 174 173 174 173 172 173 171 166 168 164 159 161 160 154 131 127 101 67 25 4 2 -1 0 0 2 0 1 1 -1 0 0 -1 1 0 2 1 -2 2 0 1 1 0 0 1 -3 -1 2 -1 1 -1 0 0 -3 -1 1 1 2 3 0 0 4 -2 2 -3 -1 2 1 3 0 2 0 0 1 0 0 0 1 0 1 -1 0 0 1 0 0 0 0 -6 0 1 0 1 1 3 0 1 1 3 1 -1 1 -4 -1 0 2 -1 1 0 -1 1 0 1 3 1 1 -1 1 0 0 0 0 3 6 0 0 0 1 1 -1 2 1 1 
1 1 1 0 0 -4 2 5 0 -2 1 1 0 0 1 0 -1 0 0 0 0 0 -1 0 -1 1 0 2 1 0 1 1 0 -1 2 0 0 0 1 0 1 0 1 0 2 1 1 1 -1 1 -1 1 0 0 0 0 1 -2 -6 0 0 0 0 1 0 1 1 1 -2 -3 -1 -1 1 1 4 8 0 -1 -2 1 1 0 0 0 1 0 1 1 1 1 -1 -5 1 3 -1 0 0 -1 3 0 0 0 0 1 -3 1 -1 0 0 -1 1 1 0 1 0 1 1 1 -1 1 0 0 1 1 2 0 -1 0 0 0 -6 0 0 0 0 5 7 3 0 1 -3 3 0 0 1 -1 0 0 2 0 -3 2 18 53 119 150 150 137 139 138 141 140 139 139 140 142 146 147 151 148 155 155 159 156 162 161 160 163 162 159 165 163 141 127 109 87 61 42 29 17 3 1 3 1 0 1 1 5 2 2 1 3 18 42 36 4 0 0 2 14 47 103 143 163 189 196 197 196 198 197 196 196 188 193 197 196 186 196 195 197 197 196 196 195 191 196 188 188 197 196 195 196 192 185 193 196 196 196 194 194 195 193 193 187 193 192 184 192 192 193 191 192 194 195 194 195 187 195 187 190 165 86 6 6 43 95 134 167 192 187 195 195 196 194 189 193 194 188 190 194 194 193 194 194 187 194 193 193 180 190 194 192 183 191 193 192 192 192 187 192 195 191 192 192 192 192 191 193 193 184 191 192 192 191 192 191 186 186 191 191 191 190 192 192 191 191 193 192 192 191 190 190 192 195 191 192 191 189 192 194 192 190 192 191 183 191 191 191 190 190 190 191 191 190 190 190 190 189 184 191 190 191 181 188 179 189 190 191 190 185 190 184 188 189 183 190 190 190 189 186 189 190 191 188 190 189 188 189 190 189 178 189 190 190 189 189 185 188 189 191 183 186 188 188 190 190 185 188 189 189 189 181 174 185 178 180 184 184 173 168 176 184 183 185 183 178 173 185 185 186 188 188 186 187 174 84 5 4 1 1 1 1 21 123 160 184 186 174 181 183 183 175 184 183 183 183 181 183 182 182 182 181 182 175 181 181 182 183 182 178 181 182 181 181 182 181 178 181 181 183 180 176 181 180 180 179 179 181 179 179 180 179 177 172 178 177 178 178 178 177 177 170 175 175 174 175 165 171 167 169 167 167 163 157 134 136 111 62 14 2 1 4 1 -2 -1 -3 -4 -2 -1 0 1 1 3 3 0 1 0 2 1 1 0 0 0 0 1 1 0 1 0 0 -1 2 0 0 0 1 -1 1 1 0 0 1 0 1 2 6 -1 2 -1 1 1 0 2 0 0 1 2 1 1 0 0 2 1 2 0 1 0 0 2 1 0 -1 2 1 1 0 -1 -4 -1 1 -1 -7 0 -3 0 1 0 0 0 1 0 1 1 4 1 1 4 1 0 1 1 1 1 0 -6 0 0 -1 -1 -4 
0 0 0 0 0 1 0 4 1 -1 0 -5 0 1 0 1 0 1 -1 1 0 0 -1 -1 -3 0 1 1 1 0 1 1 1 2 0 0 1 0 -2 0 0 1 1 1 1 0 1 2 1 1 2 -1 0 0 0 0 2 1 -1 1 0 1 0 -8 -4 -2 1 0 1 -2 1 1 1 1 0 0 1 -4 0 0 0 1 1 -2 0 0 1 0 1 -1 0 0 -1 1 -2 1 -1 1 2 1 -1 1 1 1 1 1 1 1 1 1 1 -3 -2 1 1 8 0 2 0 1 -1 0 -1 0 2 0 -1 1 1 2 0 0 0 0 -3 5 0 1 -4 4 0 1 0 0 0 -4 1 -2 0 1 0 1 9 5 52 109 148 142 139 136 138 139 140 137 135 135 144 146 149 152 155 157 159 160 157 161 163 158 162 163 163 162 146 126 106 82 59 43 27 17 4 7 6 4 4 0 1 2 2 0 1 2 25 46 42 5 0 0 22 55 81 120 153 176 193 193 197 197 197 196 196 196 196 197 198 196 197 188 197 196 195 185 195 195 191 196 195 187 194 196 196 195 195 189 194 195 194 196 194 194 192 182 193 193 193 184 179 192 192 185 193 191 191 194 186 195 194 193 196 174 157 131 26 21 21 81 159 167 191 185 196 196 195 190 195 195 196 195 193 196 194 193 193 194 192 186 193 193 194 193 192 178 183 193 193 192 192 192 192 192 193 193 192 193 192 191 193 192 192 192 185 192 192 192 191 192 191 191 191 192 192 191 190 189 193 191 187 191 191 190 191 185 191 191 192 187 191 190 193 191 191 190 191 192 191 190 187 191 187 192 190 192 191 190 190 190 190 191 190 191 190 190 190 190 188 190 189 191 191 190 189 183 182 189 190 190 190 189 190 189 189 191 190 190 190 191 190 190 191 189 190 189 183 188 190 190 189 189 190 189 189 189 189 190 190 189 187 189 187 189 190 188 187 189 188 187 184 184 183 170 183 185 182 184 185 185 183 185 186 186 186 187 188 178 168 58 17 5 0 0 0 1 37 139 177 187 187 187 178 182 177 178 182 184 184 184 184 184 184 181 184 185 183 175 172 179 182 183 185 177 184 182 184 184 182 182 182 181 183 181 183 182 182 182 182 181 181 182 180 181 180 182 179 181 180 180 179 179 178 177 177 178 178 177 178 178 175 175 174 174 171 171 165 155 162 143 153 138 96 39 8 9 7 0 0 -1 -2 1 -3 0 5 4 0 1 1 1 1 2 1 1 1 0 0 0 1 0 -1 2 0 0 0 1 -1 0 1 0 0 -1 1 1 0 0 1 1 2 -1 0 -1 -3 0 0 2 0 0 0 1 1 0 1 3 1 0 3 1 0 6 1 2 0 0 -2 -5 1 0 1 1 1 0 0 0 0 -1 1 1 0 0 -2 -3 -1 -3 0 2 1 1 1 8 1 1 1 -1 0 -1 0 1 -2 4 0 0 -5 0 
0 0 2 1 0 0 1 3 1 1 0 -1 -1 0 0 0 0 1 0 0 1 0 0 -1 -5 1 2 -1 -2 -1 1 0 1 -1 1 1 -1 0 0 2 0 1 0 1 0 1 -1 0 0 2 1 0 2 0 -4 2 0 -2 1 0 0 -1 0 -1 -2 1 0 0 1 0 1 2 0 -1 -1 -1 1 -1 0 1 1 0 2 1 2 0 1 1 0 0 0 1 1 -1 3 1 0 1 0 -1 1 1 0 -1 1 1 3 0 -1 0 1 -6 -1 1 1 2 0 -1 0 0 1 -1 0 1 1 1 1 1 0 1 -1 1 0 1 -1 2 6 1 2 0 0 1 1 1 1 1 1 2 0 0 4 0 0 -1 10 88 140 144 132 135 135 139 138 139 139 140 141 144 141 146 149 156 157 158 160 161 161 163 162 158 162 151 148 122 106 87 58 43 30 15 13 12 10 5 5 1 1 2 0 -1 2 2 13 39 36 3 -1 2 23 51 107 134 163 186 195 196 189 197 198 197 197 190 195 197 197 196 195 195 196 195 193 194 186 194 192 195 196 184 184 182 186 195 195 194 194 194 184 191 194 194 186 192 192 193 193 182 191 194 192 191 191 192 192 193 194 192 194 196 197 192 164 131 83 8 18 53 128 181 193 194 196 195 197 195 195 194 194 193 194 194 195 196 193 193 193 193 194 193 193 192 191 181 191 194 193 192 192 194 191 194 193 192 191 192 190 193 192 192 192 190 191 192 192 192 192 192 191 184 192 191 192 191 190 185 191 184 191 191 191 185 190 192 191 189 184 190 190 190 190 191 187 184 192 191 191 191 189 177 188 191 191 186 192 192 191 191 189 190 190 190 190 190 189 192 191 191 190 190 191 192 187 189 191 190 189 190 190 189 191 190 190 189 189 190 189 189 189 189 189 191 190 189 188 186 190 189 183 189 188 189 186 188 188 189 189 189 190 186 187 183 188 189 190 190 188 186 186 186 186 185 185 184 185 185 177 181 185 185 184 186 188 187 188 185 157 33 3 1 0 1 0 3 55 151 182 188 187 183 183 185 185 184 186 185 184 178 184 185 185 184 185 184 184 178 183 184 184 183 184 174 177 184 186 185 184 183 184 183 182 175 177 184 184 182 178 182 180 183 184 184 183 180 173 181 177 180 182 176 179 177 173 181 180 180 179 179 177 179 177 176 176 173 174 173 170 154 161 162 152 127 70 15 2 1 0 1 0 0 0 1 5 2 1 -1 0 -4 1 0 1 0 -1 -2 -1 0 2 0 1 1 0 -1 0 7 2 1 0 -2 1 -1 0 -1 2 0 1 3 1 2 1 0 0 1 1 0 1 1 0 -2 -4 0 -1 1 2 2 1 2 1 1 0 5 4 1 1 -1 0 0 6 0 0 0 1 2 1 1 0 1 0 0 3 0 -1 -1 5 2 1 2 0 1 1 1 0 0 0 -4 -2 1 0 5 8 1 -1 1 
0 -1 -1 0 1 0 1 0 1 0 1 2 0 1 4 -1 1 0 2 5 1 1 -3 -3 0 0 0 1 0 1 1 1 -5 1 1 1 4 3 0 3 0 0 -1 -1 1 0 0 5 0 0 1 -2 0 0 0 0 1 3 -1 0 1 0 1 0 0 -1 0 1 2 0 1 1 0 0 0 1 5 1 0 0 0 -1 0 0 2 2 -1 -3 0 -1 0 0 1 1 0 1 -2 1 -1 0 1 -1 1 0 2 1 -2 -1 0 0 5 1 2 6 0 3 1 2 7 3 0 5 -2 4 1 0 2 0 1 1 0 0 1 1 1 0 0 1 2 0 2 0 0 2 1 1 1 0 0 0 2 1 2 8 2 27 87 140 135 132 135 136 137 137 138 138 139 141 144 146 151 153 147 153 157 160 160 162 162 164 163 159 147 124 102 76 58 44 31 24 26 24 23 18 7 1 1 9 2 1 3 4 21 49 33 2 0 6 47 63 113 149 169 187 196 197 194 196 197 196 195 196 196 197 189 196 197 196 196 196 196 194 181 194 187 185 193 194 193 194 187 195 194 194 187 184 191 187 193 195 193 193 193 192 193 185 191 188 192 194 191 192 192 191 192 193 194 186 196 196 192 161 148 38 3 17 76 154 187 193 191 195 192 196 195 188 194 194 183 194 194 193 193 184 193 195 194 194 192 194 191 194 192 178 192 193 193 192 191 193 188 181 183 191 192 190 192 191 187 192 192 191 191 192 190 191 192 191 186 191 191 192 191 191 192 192 185 181 191 191 191 192 192 190 190 189 192 191 190 191 189 190 188 189 192 187 191 192 190 191 192 191 191 186 190 191 191 191 189 178 171 177 175 188 186 190 190 190 190 189 190 189 189 183 189 190 190 192 187 183 190 189 191 190 189 189 191 189 188 179 190 191 190 190 190 189 189 188 190 190 188 188 190 189 189 188 188 188 190 188 179 184 188 184 187 179 179 184 186 178 187 187 185 175 176 184 185 187 186 188 188 180 183 183 115 15 1 1 0 1 2 5 76 159 183 187 188 182 175 183 186 185 189 186 185 187 186 186 186 187 185 187 187 187 185 179 184 174 183 174 184 185 185 184 185 185 186 184 183 185 183 184 183 184 184 183 184 183 183 183 183 183 184 183 178 182 182 178 182 181 181 181 181 181 182 177 180 179 179 179 178 177 174 177 166 174 172 164 166 160 142 91 25 2 1 2 1 2 -3 1 1 2 2 -1 0 0 3 0 0 1 0 1 -1 1 1 -1 0 1 0 2 1 0 1 0 -1 0 1 4 1 2 0 2 0 5 2 -1 -5 -4 0 -1 0 0 1 1 -4 -1 0 0 0 1 1 0 -1 2 3 2 2 1 0 0 -1 0 0 2 5 2 -2 1 -3 -2 1 4 -1 0 0 -1 0 1 1 -3 1 8 1 2 0 0 6 1 0 1 -2 -1 2 1 0 1 2 2 0 0 
0 1 1 1 0 -1 0 -1 0 0 0 1 0 0 -2 -2 0 -1 1 1 0 0 3 0 -1 1 2 1 1 0 0 -1 -3 4 -1 1 2 5 0 4 0 1 1 1 1 2 -1 1 0 1 2 1 1 0 0 1 2 4 1 1 1 1 1 2 -1 2 1 3 5 1 1 0 1 0 1 1 6 0 1 0 1 -2 0 1 1 1 0 1 0 1 0 -1 1 1 4 -1 1 0 2 0 3 3 1 1 7 1 0 0 -4 0 2 2 1 1 0 1 1 0 5 1 0 1 1 -1 2 2 1 1 2 1 1 -1 1 1 1 0 1 7 6 1 2 -2 -1 0 1 1 0 1 0 0 2 0 2 1 0 3 55 126 137 132 129 132 134 136 136 137 138 138 137 145 150 152 148 156 157 152 150 160 163 161 161 160 140 124 98 73 55 46 44 41 44 36 35 24 16 9 8 7 0 0 2 5 15 35 17 7 9 33 58 83 122 155 180 193 194 196 198 196 196 197 197 196 196 195 195 195 196 197 194 190 196 196 183 194 195 195 192 195 195 195 194 196 195 195 194 194 185 193 190 192 192 189 191 188 187 191 190 192 193 192 193 192 191 190 193 192 194 193 196 196 194 180 178 110 11 2 38 102 174 182 192 194 195 195 195 195 194 191 194 187 196 194 195 193 194 190 195 193 188 192 193 192 192 182 191 193 192 188 193 193 192 192 191 191 192 192 194 193 193 191 191 188 191 192 192 191 191 191 190 192 191 191 192 194 191 192 190 183 190 191 191 191 191 189 192 191 192 190 175 179 190 186 190 191 191 189 191 191 190 187 192 191 190 190 191 190 190 190 189 186 190 178 174 189 190 189 190 191 179 176 190 190 191 189 189 190 190 189 190 190 190 191 190 191 190 189 189 191 190 189 186 189 189 190 191 189 190 190 191 189 189 189 188 190 190 190 190 190 190 184 190 188 188 189 189 179 188 189 189 184 187 186 180 187 185 175 187 185 185 188 186 188 187 181 120 8 0 1 2 0 6 9 97 147 184 187 188 186 182 186 186 179 187 187 187 187 187 171 172 187 188 187 186 186 187 176 183 167 177 186 186 186 187 186 186 186 178 175 185 187 184 186 180 186 185 185 184 186 185 181 183 184 183 183 183 183 182 183 183 183 182 184 179 182 182 182 182 181 181 174 180 180 178 173 177 177 176 174 172 171 163 128 106 31 2 1 1 0 1 0 0 1 6 1 1 0 0 1 -2 1 -4 1 0 0 0 1 -1 -1 0 -1 -1 0 1 0 0 0 1 1 0 1 0 -3 0 0 -1 1 1 -1 0 0 1 0 -1 0 -6 0 1 2 0 -1 0 2 3 4 0 -1 6 2 0 0 0 -1 0 3 6 0 1 -1 -3 1 2 1 0 -1 -4 -2 0 -1 1 0 2 4 2 0 -2 -4 0 0 0 -1 -1 0 0 -1 2 0 2 1 0 2 
1 0 0 3 1 -1 0 -1 2 0 0 1 1 1 -1 0 0 0 2 0 1 0 1 0 0 0 2 1 1 1 1 1 1 2 0 0 1 4 0 1 1 0 0 4 0 0 0 0 -1 1 5 2 1 0 0 0 2 4 0 1 -1 1 1 0 2 7 0 0 1 0 0 0 1 0 1 1 0 0 0 1 1 0 -4 1 0 1 4 2 0 1 2 0 -3 1 4 0 2 1 1 1 0 2 1 1 0 1 1 -1 0 1 1 0 -1 -4 0 -1 0 -1 0 -1 1 3 1 1 -1 3 0 0 -1 -3 1 1 0 0 0 -2 0 2 0 1 1 0 2 2 1 1 0 1 2 1 0 0 0 1 0 2 36 86 100 110 124 128 128 131 133 130 135 137 141 143 148 151 151 155 157 157 157 156 162 163 163 159 145 118 97 71 52 49 46 51 49 38 33 19 19 13 10 12 3 2 4 3 4 29 11 15 23 42 74 109 135 164 186 195 187 194 196 196 196 196 196 196 197 197 193 195 197 194 196 194 197 195 195 195 186 194 193 189 195 194 195 194 194 195 195 194 193 194 193 193 192 193 194 192 192 191 191 191 191 190 192 190 191 189 191 192 194 194 196 196 187 194 189 160 57 4 12 66 130 186 194 194 194 195 196 193 190 195 194 194 194 195 195 194 194 193 193 193 193 193 194 193 194 192 193 193 191 190 192 192 192 192 193 193 192 191 190 192 191 193 185 189 191 192 192 184 192 193 192 192 188 192 190 192 192 192 192 190 191 192 192 191 182 190 190 187 185 192 181 186 190 191 190 181 190 183 191 191 189 191 191 191 191 191 187 180 167 175 191 191 191 187 191 185 189 190 190 189 189 178 189 183 191 190 190 190 192 190 189 190 189 191 190 190 191 191 190 190 191 189 180 189 190 187 188 190 190 184 189 190 190 190 190 191 188 188 187 189 178 176 189 190 189 189 189 188 189 188 189 188 189 187 187 187 187 186 187 182 186 188 188 188 188 178 93 6 0 1 1 0 1 18 99 171 186 188 188 184 182 186 187 187 187 188 187 188 188 173 172 187 185 188 183 188 184 186 170 171 186 187 187 179 187 188 187 186 187 185 185 187 186 187 186 180 185 187 187 185 185 185 181 185 182 185 178 184 180 185 183 175 183 184 184 184 183 183 177 182 183 181 183 182 181 180 175 178 171 178 177 175 172 155 154 103 16 0 1 0 1 0 0 1 2 -1 0 1 2 1 1 0 -1 1 1 1 1 1 -1 -6 2 0 1 -2 -1 -3 1 0 1 -1 -2 1 -1 -1 0 1 0 1 1 0 0 0 1 0 1 0 0 -1 -4 1 -2 0 3 1 1 0 0 1 1 1 2 1 -3 1 -1 0 1 7 1 -3 -4 -4 0 1 1 -2 0 0 0 1 1 -1 1 1 0 0 0 -3 2 -3 0 -1 0 0 -1 3 1 -2 0 0 -1 -1 
2 1 0 0 -2 1 1 7 1 0 0 1 1 0 1 1 1 2 1 5 1 -1 1 8 3 0 0 0 1 -1 2 -1 -7 1 0 -1 1 1 0 1 1 -1 1 2 0 1 1 0 -3 1 2 1 1 0 1 0 3 1 0 -1 0 0 3 0 -4 0 2 1 1 0 1 -1 6 -1 1 1 2 2 -3 -1 0 2 -1 2 3 7 0 1 -1 1 1 0 0 1 1 1 2 1 1 -1 -2 -3 1 0 -1 -1 0 0 0 -1 1 1 0 0 0 1 1 0 0 -1 0 0 -1 1 -1 0 0 -1 -4 1 2 0 0 -4 1 1 1 0 0 3 1 1 0 1 5 2 2 0 1 1 0 1 0 1 -1 1 4 31 72 102 117 120 123 125 130 133 135 135 137 142 146 147 151 151 156 155 151 159 160 161 162 159 142 117 89 71 60 41 41 44 46 44 41 39 24 24 10 17 20 16 10 2 12 39 9 19 49 67 102 123 153 174 190 195 195 197 193 195 197 196 196 197 195 195 194 196 195 196 193 194 191 195 194 196 193 184 185 193 189 186 194 189 193 193 194 193 192 193 192 192 192 192 192 185 190 185 190 193 191 190 191 186 189 175 178 182 192 194 195 195 195 192 162 156 128 24 29 37 102 166 189 194 194 194 195 195 194 190 192 194 195 195 194 194 193 190 193 194 193 194 185 193 193 192 193 193 182 179 191 193 191 192 192 191 185 186 182 191 192 191 191 192 186 192 191 191 191 190 189 191 191 186 180 187 191 192 191 190 192 190 191 192 189 191 191 190 191 191 191 192 193 190 190 180 179 190 191 191 180 191 192 191 191 191 190 189 172 172 179 184 190 192 192 190 193 191 183 188 191 189 190 190 189 192 190 189 184 192 190 189 190 190 191 191 190 189 186 191 189 183 189 183 184 190 191 191 190 186 190 190 189 188 189 188 191 190 188 184 188 183 189 190 189 188 190 189 189 182 188 188 190 187 182 187 186 187 181 175 187 189 181 187 189 172 60 17 2 1 1 -2 3 52 135 178 186 189 188 186 182 186 188 188 182 189 189 182 190 188 187 187 189 188 190 189 187 179 187 188 188 188 179 173 182 188 187 179 187 188 188 187 188 183 181 187 186 186 187 183 186 187 186 187 181 185 186 186 185 185 186 185 184 185 184 185 185 184 184 184 184 183 183 182 182 182 181 180 173 178 179 177 176 173 171 152 77 6 0 2 0 -1 3 0 1 0 -1 1 1 2 0 -5 0 2 1 1 -2 0 1 0 -3 0 1 -3 1 0 0 0 3 0 0 2 -1 0 0 1 2 1 2 -2 1 0 1 0 1 0 -1 1 0 1 0 1 1 -1 -2 5 0 1 0 0 1 3 0 0 7 1 0 0 0 0 3 2 1 0 2 -1 1 0 0 1 -1 -2 1 1 -1 0 3 4 -1 1 0 0 1 -1 1 0 0 0 -1 1 -1 -3 
1 1 0 0 0 0 0 1 1 0 0 1 1 0 0 5 3 2 1 0 -3 -1 2 0 0 1 0 -4 -7 -6 0 -1 0 1 1 3 0 0 -2 1 0 1 0 1 0 1 1 1 0 0 -1 1 1 0 0 1 1 0 1 2 0 0 0 0 -1 -4 -1 1 1 1 0 0 4 1 0 0 3 0 -1 0 1 0 2 1 2 0 1 -1 1 2 1 0 0 4 1 1 -1 0 0 0 1 -1 1 0 0 -3 0 -1 0 0 1 6 0 0 0 -1 1 0 0 1 0 -1 0 0 0 0 0 0 0 2 1 2 0 -2 1 0 8 1 0 -1 0 -2 1 0 0 1 0 1 0 1 4 1 5 1 -1 1 4 4 55 114 119 116 116 118 124 131 131 133 136 141 143 145 150 152 155 155 157 158 160 151 160 158 142 107 90 67 48 41 41 45 48 51 51 53 42 32 21 23 24 27 23 13 28 49 17 44 66 92 118 142 163 182 184 195 197 196 195 197 196 195 194 195 195 196 194 196 190 190 195 195 195 196 195 196 194 194 195 194 194 194 193 193 194 193 193 194 191 192 192 192 192 192 192 187 191 190 181 191 189 189 192 191 190 190 189 191 193 192 194 189 195 185 174 188 171 85 40 8 58 129 157 192 193 194 194 194 194 195 192 194 192 195 196 192 194 193 195 189 194 193 192 194 194 192 193 191 179 177 192 194 191 190 193 182 191 193 191 179 189 193 192 192 190 184 192 191 191 189 190 193 190 190 191 190 192 191 192 191 191 192 191 191 191 191 190 185 191 191 192 192 190 192 191 186 191 190 191 190 183 190 192 192 192 188 191 184 182 190 190 190 190 190 190 190 190 190 192 192 188 176 188 190 190 191 191 186 190 189 187 190 191 190 191 192 193 191 192 190 189 190 190 190 189 191 190 190 190 189 190 190 188 177 184 189 190 190 189 189 191 188 189 189 181 190 188 190 190 190 188 190 189 188 188 185 181 188 186 186 186 190 188 183 183 162 39 4 8 1 0 0 4 48 146 175 188 188 189 184 183 187 189 185 184 188 190 189 189 189 187 190 188 189 190 193 189 182 188 189 188 189 188 187 188 189 184 181 189 187 188 188 189 188 181 187 189 188 188 188 188 188 188 182 187 187 187 186 188 187 182 185 187 185 185 178 178 187 187 184 184 178 177 184 184 183 183 180 165 165 179 181 177 166 174 169 137 44 15 1 2 0 -1 1 0 5 2 0 0 0 6 0 0 0 1 -1 -1 1 1 0 -4 1 1 0 0 0 0 0 0 0 2 1 -2 0 1 2 1 0 1 0 2 1 3 0 -3 1 0 1 0 0 0 1 -1 1 3 2 5 1 1 0 0 1 0 0 3 0 1 -2 1 0 1 1 0 2 1 -1 1 -1 0 0 0 1 2 1 0 -8 0 0 2 4 1 -1 -5 0 0 0 -4 1 0 0 0 1 
0 0 1 0 0 1 1 2 0 1 0 2 -1 -1 1 0 1 1 0 -1 0 0 0 -1 1 1 0 0 -1 1 1 1 1 -1 1 4 1 2 0 0 0 1 2 -1 0 0 0 1 -1 0 1 -1 0 -1 2 0 1 1 0 0 0 -4 2 -2 -1 -8 0 1 -1 0 1 1 0 0 2 -1 0 1 -1 1 0 1 2 -1 2 1 2 2 0 1 1 -4 -2 0 2 0 2 6 1 1 0 1 1 1 1 1 0 1 2 1 0 0 0 1 1 0 -1 4 0 1 0 1 0 1 0 0 1 1 0 0 1 0 -1 1 2 0 2 1 1 1 -2 1 -6 -1 -1 -1 -1 0 -2 -1 0 2 0 0 1 3 2 1 13 81 114 113 108 111 113 124 128 128 133 138 140 145 147 149 152 154 155 157 158 159 155 157 139 109 93 70 48 40 42 43 48 47 50 56 44 38 31 32 31 30 32 34 50 66 41 59 90 103 130 154 171 182 194 192 195 196 194 195 195 191 194 195 195 195 188 194 194 194 194 196 193 194 194 195 194 195 194 193 194 194 189 193 188 188 191 193 192 192 192 191 193 192 192 190 185 185 191 190 193 190 190 190 188 189 188 190 190 192 194 194 195 191 194 195 174 147 37 4 26 93 154 187 193 193 195 195 193 188 195 194 193 194 195 192 186 194 194 192 193 194 193 193 193 193 191 183 191 191 188 192 192 193 192 191 191 193 192 192 184 182 191 192 191 191 191 192 191 191 192 182 184 190 191 184 182 190 185 186 191 191 190 183 190 190 190 190 191 191 191 192 191 191 191 184 191 190 189 192 179 190 191 191 191 188 191 190 190 191 192 191 189 189 192 190 191 191 191 191 190 178 180 191 191 191 191 190 177 190 190 191 190 191 189 190 191 189 190 190 190 189 191 186 191 191 190 190 189 191 185 179 176 178 189 192 190 190 190 180 190 188 178 183 189 189 191 188 189 188 189 191 190 189 189 188 182 187 188 187 188 188 188 188 187 145 19 0 0 1 5 2 14 70 129 182 189 190 188 184 182 187 189 189 189 188 190 189 189 188 182 189 190 182 188 189 181 189 189 190 182 182 190 190 190 189 190 189 189 191 188 188 190 189 189 189 189 189 188 188 188 184 188 188 189 189 184 187 187 183 187 182 188 188 187 186 187 187 187 187 188 186 186 186 184 185 186 183 159 162 183 181 181 180 178 174 147 110 15 1 1 2 0 0 -3 1 0 -1 -1 1 1 0 0 1 1 0 0 0 0 1 1 0 -1 2 1 0 3 1 1 0 -1 -1 0 0 0 0 1 1 -1 2 0 1 1 0 0 1 -1 1 2 3 1 0 0 2 0 -1 1 0 0 0 0 1 1 2 0 1 6 0 -1 0 0 2 3 1 1 0 1 0 -1 -4 0 0 1 0 0 0 -1 0 1 1 0 -7 1 1 1 1 1 0 0 2 1 1 
1 1 0 4 0 4 2 0 0 1 0 0 1 2 0 0 0 2 3 1 0 0 1 4 1 -1 -1 -1 1 0 1 0 0 1 2 3 -2 -1 1 4 1 1 0 4 7 2 1 0 -1 0 3 4 1 1 0 0 1 0 5 1 0 0 1 1 0 -7 0 1 0 1 2 0 0 0 0 1 1 -1 0 2 1 0 -2 0 2 0 0 1 0 1 0 -1 -5 -1 0 1 0 2 3 0 2 -2 1 1 -2 -6 -2 -1 -3 0 0 1 1 1 0 0 1 0 0 -1 1 1 -1 1 1 0 1 2 1 1 3 0 -2 2 0 0 0 1 0 -3 1 2 -1 1 1 -1 1 0 2 -1 1 1 0 0 0 1 1 2 1 30 93 100 104 103 109 117 123 123 129 134 140 140 146 150 149 151 153 154 157 160 160 152 137 115 94 73 54 46 52 46 46 46 61 56 47 41 39 43 37 39 30 27 61 68 69 87 96 117 144 157 174 191 195 194 194 185 195 178 182 194 194 196 194 184 181 185 195 195 190 195 192 195 194 193 194 194 193 194 180 193 193 193 194 192 189 191 192 187 191 192 192 183 190 190 189 186 190 190 190 189 190 189 185 185 189 189 191 191 192 194 194 195 194 194 192 177 111 18 30 53 113 170 191 188 192 194 194 187 185 187 194 194 192 193 195 195 193 194 194 193 194 193 192 184 192 192 192 193 193 183 187 192 192 192 184 194 190 193 192 190 179 190 191 191 191 191 192 191 192 192 191 191 191 192 191 191 191 186 191 191 191 191 191 192 192 190 191 192 192 191 190 191 191 190 191 192 192 185 189 191 191 191 191 192 190 184 181 186 191 191 191 191 185 191 191 191 191 191 191 190 191 191 190 190 190 191 190 191 182 190 189 190 182 192 193 191 190 179 189 191 191 191 189 190 190 190 187 189 191 192 188 174 189 188 190 188 191 189 190 189 189 189 186 179 190 175 188 190 185 190 189 189 189 188 180 189 188 187 182 189 190 179 182 101 10 0 1 1 6 3 30 91 133 182 178 190 190 185 182 186 188 187 183 184 190 189 184 188 190 190 191 190 190 189 186 190 186 191 191 181 190 189 189 191 190 189 191 189 190 190 190 191 189 190 190 189 189 184 189 191 189 188 184 178 188 189 183 190 188 188 178 187 188 187 188 185 184 187 187 187 186 188 185 186 181 187 184 175 184 184 183 181 178 178 174 154 64 4 0 2 1 -2 2 0 1 0 -1 3 2 -2 -1 0 1 2 0 -4 -1 1 0 -1 0 1 0 1 0 2 0 1 1 -1 -2 1 1 0 0 -1 0 0 -4 0 -6 -1 1 0 0 1 1 1 2 1 0 4 2 1 1 0 1 -1 0 1 2 1 1 0 6 4 0 0 0 1 0 1 1 3 0 2 0 0 0 1 0 0 6 2 0 1 0 0 1 0 0 1 3 2 2 2 1 1 2 2 
1 0 1 0 0 1 0 1 -3 2 0 1 0 0 1 -1 1 1 1 1 3 0 1 6 5 0 -4 1 -1 1 0 2 0 0 -1 1 0 -1 2 1 1 0 0 -1 0 2 1 0 0 2 0 0 0 0 2 -1 1 -2 -1 0 2 0 0 -1 -2 1 1 -1 -7 0 5 0 6 1 1 1 1 -7 -1 0 1 0 -1 0 0 1 0 1 2 1 2 2 0 -5 1 1 5 0 1 0 1 5 1 0 0 1 1 0 -5 0 1 1 0 2 1 4 8 1 2 0 0 -1 1 0 0 0 0 0 1 1 3 0 2 4 3 1 -2 0 0 2 1 1 0 0 0 3 0 0 4 0 1 1 0 1 0 7 1 1 0 5 53 94 100 94 99 108 118 123 124 128 123 138 142 144 147 150 151 154 156 157 156 149 132 114 98 81 70 56 56 54 53 54 53 50 53 48 48 51 48 48 42 47 69 70 75 99 123 137 154 172 189 193 194 194 195 183 181 193 194 195 194 193 195 190 194 194 195 185 193 192 194 194 193 195 194 188 193 194 184 192 194 194 194 186 192 187 192 191 191 192 190 178 189 190 189 190 188 185 189 183 189 188 188 189 189 190 189 190 192 193 194 196 195 195 193 171 138 88 49 18 69 135 181 190 184 192 193 193 195 194 193 194 194 193 193 194 194 193 194 193 195 193 181 192 193 191 192 194 192 193 192 192 193 188 192 192 193 192 191 192 183 177 179 191 193 192 193 188 191 192 191 191 193 192 191 192 189 191 189 191 192 192 191 178 189 192 191 191 192 191 185 191 191 187 191 192 192 189 190 191 189 183 189 192 190 192 189 180 189 191 192 190 191 192 191 189 190 191 191 190 190 184 191 192 180 190 191 190 182 190 182 181 191 189 191 192 189 190 189 192 190 191 191 190 191 191 185 190 192 188 190 191 190 189 190 190 187 191 188 190 190 190 190 190 189 184 189 190 190 191 188 189 189 185 189 186 189 186 189 189 188 183 179 90 28 3 -1 2 5 14 60 112 129 161 189 190 187 183 176 182 188 186 190 188 188 189 189 189 191 191 189 186 190 190 189 190 191 190 180 190 190 190 190 190 191 191 190 185 191 191 190 189 183 188 191 190 190 190 191 190 189 188 190 190 187 189 189 190 189 188 175 187 189 190 189 191 187 190 183 188 184 188 188 189 187 183 187 186 185 184 180 184 172 180 176 144 93 21 10 2 0 -2 0 0 0 1 1 1 2 0 1 2 1 1 1 0 1 -1 0 0 0 0 0 2 1 6 1 1 0 0 -1 2 0 0 1 0 2 1 1 0 0 -2 0 1 0 1 -1 2 3 0 2 0 -1 0 0 0 0 1 -1 1 0 -1 2 -1 1 -1 -2 1 1 0 1 -1 2 0 -1 0 -2 0 4 0 1 -1 1 1 0 0 0 2 0 -1 1 4 1 -1 6 0 1 0 1 9 
0 -2 -4 0 2 0 0 2 0 2 1 0 1 1 1 2 0 0 -1 -1 0 1 1 1 3 -1 1 0 2 1 2 5 2 1 1 1 0 1 0 0 0 2 -1 0 0 -6 0 0 1 3 1 0 1 1 1 -1 2 0 -6 0 4 0 1 2 0 1 0 -2 0 1 2 0 1 1 2 0 -6 0 1 0 -2 0 0 0 1 1 1 0 1 1 1 1 1 0 -4 -1 1 0 1 0 0 2 4 0 1 1 0 1 1 0 2 0 2 1 0 1 7 1 -1 -1 -1 0 1 0 -2 0 0 1 3 2 1 1 -1 2 1 0 0 6 2 0 0 2 1 3 1 0 1 1 2 0 0 0 2 2 0 2 1 0 1 1 14 70 92 90 90 98 108 118 121 104 111 134 137 135 144 148 150 152 154 156 155 146 120 114 98 85 79 75 70 63 61 61 62 55 51 58 58 58 56 53 53 64 88 81 92 122 135 147 164 167 191 195 195 195 194 193 194 195 194 195 195 195 194 194 194 194 194 194 190 194 194 194 194 193 187 192 194 193 194 186 193 193 192 192 191 178 191 189 191 191 190 174 179 190 185 189 189 189 190 189 189 188 189 187 187 189 189 189 190 190 192 192 194 190 194 192 187 159 66 7 25 88 138 159 190 194 194 188 193 192 182 193 194 194 194 194 195 194 192 190 194 192 185 191 193 194 193 192 193 191 192 192 193 191 193 192 187 192 191 192 191 191 186 190 192 191 190 192 193 191 191 193 190 192 191 191 188 190 190 191 192 191 191 191 181 191 194 192 193 192 186 192 190 191 193 191 188 191 190 189 191 192 190 192 191 191 180 186 190 191 191 186 190 192 189 191 191 191 186 191 191 186 192 191 191 190 184 182 190 187 190 191 191 192 189 186 182 186 191 185 190 190 190 186 190 189 190 190 189 189 179 190 187 189 192 191 190 190 189 189 190 191 189 190 191 189 181 189 190 189 190 190 191 190 190 188 188 189 184 173 171 188 168 57 5 0 2 0 0 32 77 117 150 184 182 192 186 176 181 182 184 182 184 184 186 187 186 187 187 189 189 188 189 189 191 189 191 189 189 186 191 184 186 191 190 191 191 192 191 184 191 190 191 192 192 190 192 190 191 191 190 175 180 190 189 191 190 191 190 189 183 183 190 189 193 189 189 189 181 180 189 189 189 189 181 187 184 187 175 185 187 185 173 181 170 174 156 75 3 0 0 0 -1 0 2 1 -1 0 0 1 1 0 4 4 1 0 0 3 0 0 1 0 0 1 1 1 1 1 1 2 1 1 0 0 1 0 -1 0 3 1 1 0 -1 1 1 1 0 1 0 -1 0 1 0 -4 1 0 -2 1 0 0 -1 2 1 1 -1 0 0 0 1 0 0 0 1 0 0 1 0 4 0 2 2 1 0 0 1 -1 1 0 0 -4 0 0 0 1 1 -2 1 1 1 2 
1 3 2 1 1 1 0 0 -1 0 0 1 1 0 1 1 0 0 1 1 2 -1 2 1 3 1 1 1 0 0 0 1 0 1 0 1 1 -1 1 -1 0 -1 -1 -1 0 1 -1 -5 0 4 0 3 1 0 1 1 -1 1 -3 1 1 1 3 1 -1 -1 0 0 1 -1 2 1 1 4 1 -1 -3 1 0 -4 1 1 0 -1 0 1 1 -1 1 2 -1 -1 1 0 -1 0 0 1 1 3 0 0 0 -2 0 0 0 -1 3 1 -3 -1 1 1 -2 1 2 1 -2 1 -3 -1 0 -1 1 0 2 1 2 2 2 0 -1 1 2 1 2 0 0 0 -1 1 2 1 0 0 0 -1 1 1 0 1 1 -1 0 0 4 1 3 1 1 29 73 76 81 85 99 109 105 100 110 129 133 129 140 140 148 150 146 153 145 136 121 103 97 93 87 83 72 73 67 62 67 67 68 62 62 66 56 65 56 65 99 106 116 129 144 162 175 175 184 193 193 194 185 194 195 195 193 193 195 192 195 194 195 192 194 192 194 194 193 193 194 193 193 193 192 194 191 192 193 192 191 191 191 185 192 191 191 191 191 190 189 191 189 178 190 179 189 189 189 187 187 186 187 188 188 190 190 191 192 193 194 194 187 192 195 185 115 42 6 43 117 148 188 192 189 194 191 194 193 194 194 193 194 187 193 194 193 191 185 189 192 186 192 191 192 194 193 192 191 193 193 194 192 191 193 191 186 192 192 194 191 185 182 191 182 191 192 191 192 194 192 191 191 190 191 192 192 191 190 192 192 191 185 190 191 191 191 191 191 191 191 192 192 192 189 191 191 187 191 191 192 190 192 190 185 189 191 191 191 183 189 191 190 191 191 187 185 188 187 191 191 190 183 187 191 184 191 190 190 191 192 190 190 189 189 190 191 191 191 190 191 189 189 191 191 190 189 189 187 190 190 188 189 192 190 182 182 180 190 191 190 191 185 190 186 190 190 190 189 189 189 185 188 185 189 190 189 176 176 185 106 25 9 0 1 -2 3 48 116 162 183 189 193 190 186 183 179 172 174 177 176 158 168 181 185 186 178 186 186 188 181 187 182 187 189 190 189 190 190 190 191 191 192 191 190 191 192 193 186 192 193 192 191 180 191 192 192 185 191 188 190 191 187 191 189 190 192 190 190 182 190 190 191 191 190 190 190 186 191 188 190 189 187 190 190 188 176 186 186 184 185 173 171 179 150 110 9 0 1 -1 1 2 0 1 0 1 1 1 0 0 0 2 -4 0 0 0 0 0 -1 1 2 3 1 0 0 5 -1 0 0 0 0 4 -1 0 0 0 0 1 1 1 2 -2 0 0 1 1 0 -1 0 1 -1 1 0 0 0 0 0 -1 2 1 0 1 0 -1 1 0 1 0 0 1 0 -1 0 0 0 0 2 1 0 -1 0 0 0 0 1 1 2 1 1 0 0 0 0 0 2 0 -1 0 
2 3 0 2 0 -1 1 1 -1 1 0 -1 -1 -3 0 1 -2 2 1 1 -1 1 0 1 -1 0 1 1 -1 0 1 1 0 1 4 1 0 2 0 3 1 0 1 0 -1 -2 -4 0 1 1 1 -1 0 -8 -2 -1 2 0 1 0 0 2 1 0 -3 0 1 1 -1 0 1 0 0 0 -6 -1 0 2 0 -2 0 1 2 0 2 1 1 0 2 0 -1 1 3 -1 2 2 1 0 1 0 0 0 0 0 -1 3 0 0 -3 -1 -1 0 1 1 1 1 1 3 0 0 0 1 2 -1 1 0 1 1 0 1 0 3 3 1 0 1 1 -2 -4 4 1 1 0 1 0 1 0 1 1 1 1 0 2 1 2 2 1 0 2 -1 0 4 37 67 72 73 84 91 104 114 115 124 128 132 136 140 144 147 151 147 137 126 112 107 98 88 82 81 74 78 80 78 74 78 75 74 68 71 64 67 63 73 103 123 133 145 160 170 186 191 191 188 192 180 186 193 193 194 194 193 181 182 186 194 195 194 188 193 195 194 194 191 194 194 192 194 193 193 193 192 192 191 193 193 193 191 190 187 190 191 190 190 191 190 190 188 180 175 187 189 188 188 188 187 187 187 187 186 189 190 190 192 192 193 193 184 195 192 182 131 29 10 65 137 178 191 190 194 193 193 194 194 194 194 191 192 192 196 194 195 192 193 192 193 193 180 192 194 193 192 193 193 192 191 186 193 194 193 192 193 191 193 191 192 191 182 189 190 189 193 191 195 192 179 190 190 189 191 192 191 191 181 178 182 190 192 191 191 182 182 192 191 192 191 191 189 190 192 191 182 191 189 190 180 191 188 190 191 191 190 191 186 191 182 189 185 191 191 191 191 182 191 184 190 190 191 191 190 178 165 181 190 192 191 190 191 191 188 190 190 191 192 181 184 184 191 190 190 191 184 191 192 188 191 190 191 191 189 191 190 190 190 190 190 187 189 190 189 189 189 190 179 188 184 178 188 190 190 191 190 191 179 103 7 2 3 -4 5 20 97 148 177 185 190 192 190 188 181 160 141 124 136 145 125 157 147 171 176 178 179 182 182 177 184 186 186 186 188 186 183 187 190 189 191 191 191 191 191 192 192 193 193 191 186 181 190 178 191 191 188 183 190 192 192 192 192 191 191 192 192 192 192 192 190 190 191 191 191 191 190 191 191 191 190 191 190 189 189 189 188 188 188 188 185 183 180 148 102 25 1 0 0 1 0 1 0 1 0 1 1 3 0 0 0 0 2 0 -1 1 -4 0 1 -1 0 0 -1 1 1 1 0 1 0 2 0 2 1 2 0 2 5 0 0 -1 0 0 -1 1 -3 -6 -1 1 1 1 0 0 0 1 1 10 1 -1 1 0 1 1 0 -1 1 1 1 0 0 0 -3 0 1 0 2 0 1 1 -1 0 2 1 1 1 0 -1 1 0 -2 0 0 2 -1 2 0 -1 2 
0 1 7 0 0 1 -1 0 2 5 1 1 1 3 0 -2 -7 -1 -7 -1 1 1 1 1 1 1 1 1 0 -1 2 2 1 2 1 1 0 0 -1 1 0 -1 2 1 0 -1 -1 1 0 4 0 1 -1 -4 -6 0 1 0 3 1 0 0 0 -1 1 1 2 5 0 -1 0 2 -1 -1 0 -1 1 0 1 0 1 0 0 1 -1 1 0 -1 1 0 -1 1 0 0 1 1 1 1 0 0 -1 1 0 0 -1 -1 -1 1 1 1 0 2 2 -1 1 0 0 0 2 1 0 0 1 3 2 1 0 1 0 1 0 2 1 0 0 1 0 1 0 1 -1 0 2 1 1 1 0 0 1 0 2 1 0 1 2 5 1 1 -4 0 1 1 3 36 52 61 66 77 89 101 110 116 121 117 131 136 139 135 137 135 133 115 106 97 92 87 79 80 79 82 85 87 83 88 86 84 78 76 71 70 69 82 99 131 146 155 166 179 191 194 193 193 186 194 193 194 185 193 195 193 182 192 180 192 195 194 184 193 188 192 194 195 193 193 193 192 193 193 193 192 186 187 190 192 192 192 191 190 192 190 186 188 189 190 188 190 189 183 188 186 187 188 188 182 186 187 188 183 189 188 189 190 193 192 193 194 194 194 194 177 116 57 19 82 134 184 191 192 191 193 192 184 188 192 180 194 190 193 195 191 193 192 193 192 174 181 192 192 194 190 191 194 193 191 192 191 193 192 192 192 192 193 192 192 184 191 190 191 190 193 195 192 190 191 191 190 190 182 190 186 189 179 190 192 192 191 191 187 191 191 191 192 191 192 190 192 192 193 191 191 192 191 190 191 190 190 182 190 192 190 191 191 193 191 191 191 191 191 191 190 186 191 190 191 192 191 182 181 170 173 189 186 191 191 187 191 191 187 190 191 192 194 190 191 189 190 190 191 190 189 191 191 191 190 190 192 191 191 191 191 192 190 192 191 191 190 190 190 187 190 189 179 172 189 187 190 187 190 191 192 189 121 51 4 -1 2 0 3 66 140 155 183 188 190 191 190 186 182 174 108 22 44 39 55 74 85 114 131 132 152 162 168 171 161 178 179 183 184 184 185 179 187 188 188 189 189 189 191 191 191 191 189 190 190 191 192 185 185 192 191 192 179 192 192 194 192 193 193 192 192 190 192 184 192 184 185 192 193 191 191 191 188 191 191 191 188 191 191 190 190 189 188 187 187 184 184 163 157 57 2 1 0 1 1 -1 5 0 0 3 1 0 1 1 1 1 0 0 0 1 2 1 2 0 0 1 -1 -1 -3 1 0 1 -1 6 8 2 2 2 0 0 1 0 0 2 0 0 1 0 0 -1 0 0 2 0 1 1 1 0 0 2 0 0 4 0 -2 1 0 -1 -3 0 0 1 0 0 -1 0 2 -2 0 0 0 0 0 1 1 0 1 0 0 -1 1 0 0 1 2 0 -3 -6 -1 1 0 
0 4 0 1 2 -1 1 2 9 0 2 -1 -3 1 -1 -3 0 0 0 -2 0 0 0 0 1 2 0 1 1 0 1 1 0 1 0 0 0 2 1 6 4 1 0 3 1 -5 1 0 1 1 7 6 0 -1 0 1 1 1 1 1 -4 -1 2 3 -1 0 2 0 -3 1 -1 1 0 1 1 1 1 -2 0 0 2 3 1 1 0 1 0 0 1 -1 -7 0 -1 4 1 0 0 1 1 0 1 1 0 1 0 3 2 0 2 0 -5 1 0 2 0 2 1 1 0 1 -2 4 9 6 3 1 1 0 0 2 1 0 1 1 -2 0 1 1 0 0 0 1 1 2 -1 1 1 2 1 -1 1 1 0 0 4 2 1 0 3 0 -4 1 -1 3 13 32 42 54 66 81 93 106 118 120 122 129 133 128 140 138 125 111 101 88 84 78 78 75 76 82 83 87 91 92 95 93 86 77 82 76 83 93 120 138 154 164 176 186 191 194 194 193 192 194 194 193 194 193 194 195 193 185 182 184 194 193 192 193 194 193 193 193 192 192 186 191 183 192 192 192 192 190 190 192 194 191 190 190 191 190 190 178 182 188 188 190 188 187 190 188 185 187 187 186 185 186 186 188 186 187 188 189 191 191 194 189 186 194 194 190 142 94 11 27 92 167 180 191 192 193 192 192 187 179 179 193 194 194 194 193 193 184 192 179 174 191 186 192 193 194 184 192 193 187 193 193 189 192 191 187 191 192 192 191 184 181 192 191 190 191 193 193 190 191 190 193 192 191 191 179 191 191 192 193 191 191 190 176 180 191 191 191 192 191 191 184 190 191 192 192 190 192 192 191 191 186 190 192 191 191 190 191 190 192 192 190 185 191 191 185 189 191 191 191 189 190 183 191 190 179 191 190 190 191 191 191 191 190 190 192 189 192 192 191 191 190 190 191 190 189 191 191 190 189 190 190 190 191 191 191 192 181 189 192 190 191 191 185 190 190 188 189 188 180 189 190 190 187 191 192 184 94 9 2 0 5 2 18 123 156 181 185 191 191 180 174 169 182 175 114 8 1 1 2 3 7 11 20 32 51 75 89 113 129 143 153 160 168 172 175 170 181 179 184 185 185 186 187 187 184 190 183 189 180 178 190 191 192 193 192 192 192 192 193 194 192 193 190 194 194 193 194 193 192 181 191 193 193 182 191 192 191 192 191 192 188 192 192 191 190 190 188 189 189 181 186 181 170 93 6 1 1 1 0 1 6 1 -1 2 1 0 0 0 1 0 0 0 2 0 1 1 1 2 -2 -1 0 0 -3 2 1 0 2 1 -1 0 5 -1 -1 -1 2 1 -1 3 1 1 1 1 -2 2 1 -1 1 -1 0 1 1 -1 0 1 5 0 0 1 -1 1 0 5 0 0 -1 0 1 1 0 1 -2 0 1 0 0 -1 0 0 0 6 3 1 1 -3 0 1 1 1 2 0 0 1 -1 0 -1 
0 0 0 -5 0 3 0 1 0 -1 -1 1 0 -1 0 1 1 1 0 2 0 0 -1 0 1 -1 1 3 0 0 0 0 2 1 0 -5 0 0 0 1 2 1 -1 -1 2 0 1 5 0 0 1 0 -1 2 0 0 -1 1 1 -5 1 2 4 0 -1 1 0 -1 -2 5 1 0 1 0 1 0 0 -6 1 -2 0 1 2 1 1 1 0 1 1 0 0 1 1 0 0 0 2 6 2 0 -1 0 0 1 1 1 0 1 0 0 0 5 5 11 1 0 1 0 3 0 0 1 12 3 0 0 0 1 1 4 0 1 0 1 -5 -1 0 1 1 1 -1 1 2 3 2 3 0 2 1 2 -4 0 0 1 1 0 0 3 1 -4 0 0 2 0 1 5 15 26 40 60 77 93 104 113 114 124 128 129 122 123 110 102 92 81 75 73 71 69 73 77 80 84 93 95 101 100 94 88 96 88 96 114 139 155 163 174 183 190 192 193 193 186 193 183 186 192 193 194 194 194 194 192 193 193 193 192 192 186 193 192 191 193 193 194 193 191 182 192 191 191 190 180 191 191 191 190 186 185 191 190 190 189 188 185 188 189 188 188 188 187 186 189 187 187 186 186 187 186 178 175 187 189 190 190 184 192 193 194 192 193 189 161 72 51 67 112 175 189 192 188 191 193 193 193 193 193 188 194 194 193 193 192 192 193 186 183 191 182 190 192 192 188 192 192 192 193 194 192 191 189 186 191 192 193 190 180 193 193 195 191 191 191 191 191 192 192 193 192 191 190 191 192 191 192 191 191 176 167 191 191 189 190 192 191 192 192 191 193 192 191 191 192 191 192 190 189 192 193 191 191 188 191 192 191 190 187 190 190 189 186 190 192 191 186 182 191 191 191 191 190 190 193 191 188 191 191 190 181 180 190 191 192 192 190 191 190 191 191 185 190 192 188 192 190 191 192 191 190 190 191 190 178 173 172 189 189 189 190 191 191 179 189 190 187 189 190 191 190 191 191 176 80 3 -1 1 1 3 58 156 181 188 190 190 191 190 188 172 181 175 114 8 0 1 0 0 -1 0 0 2 3 5 5 24 17 32 47 67 89 110 128 142 153 161 168 172 177 178 180 183 184 185 186 187 189 188 188 182 191 190 191 185 192 189 191 193 193 194 193 188 192 193 192 193 192 193 193 194 193 193 193 192 190 193 192 192 191 193 191 183 190 189 184 177 179 187 186 184 175 121 39 4 -1 1 1 0 3 -4 0 1 1 2 1 1 4 2 0 5 6 1 1 0 1 -1 1 0 4 -1 0 0 0 1 2 0 1 -4 0 0 0 2 1 1 1 5 1 1 1 0 1 -1 1 0 0 2 3 0 1 0 0 0 0 1 0 1 1 0 0 -1 1 1 0 1 -6 1 1 0 1 1 1 1 1 0 -1 0 -5 2 0 5 1 -3 0 3 0 1 0 0 -1 -6 0 1 1 
-1 -1 -1 -1 0 1 1 -1 0 1 -1 -1 1 0 0 1 0 0 2 -1 -5 1 1 -1 0 -4 0 0 1 -1 2 7 0 1 1 0 -1 0 0 1 0 -1 -2 0 1 4 6 -1 -1 -3 2 1 1 1 3 0 1 -1 -2 0 3 0 0 0 -4 0 0 2 1 2 -1 0 0 0 0 1 0 0 1 0 -7 0 0 -2 1 -1 -1 -1 0 -1 1 1 0 -1 3 0 0 1 -2 -4 -1 0 5 1 0 1 1 2 1 1 1 2 0 1 0 1 4 1 1 0 3 1 0 1 1 1 1 0 -1 1 1 0 1 2 0 0 -1 0 0 -1 0 1 0 1 0 0 0 2 2 7 -1 0 0 1 2 1 2 1 0 -2 -1 1 0 1 3 7 1 3 10 31 55 74 89 102 111 118 114 107 112 100 93 87 78 75 66 67 61 61 66 70 76 81 89 96 103 101 103 100 103 101 110 124 152 161 175 184 189 185 192 188 193 193 193 192 176 192 193 194 194 193 193 193 193 193 194 192 188 184 192 193 193 193 193 192 191 186 191 193 190 191 191 182 189 184 192 189 189 189 191 189 189 189 189 190 188 188 190 187 188 188 186 183 187 186 186 187 185 186 176 185 177 186 189 187 190 191 191 190 194 194 194 187 151 50 8 65 142 183 190 189 191 194 193 193 193 187 193 193 193 193 191 193 193 188 192 193 193 181 193 193 194 192 192 193 193 193 192 192 192 186 192 190 192 192 193 192 192 191 192 191 192 189 191 192 194 191 192 191 185 192 191 190 191 190 191 192 190 177 191 191 191 192 191 191 191 192 191 192 192 191 194 191 190 191 192 189 191 191 191 192 192 184 191 191 190 189 178 192 192 192 192 191 191 191 190 189 191 191 191 191 192 193 193 187 191 192 191 186 190 191 191 191 190 193 191 189 191 190 190 192 190 190 191 191 191 191 193 191 191 191 191 190 190 174 189 182 180 190 189 191 189 190 188 190 190 189 190 192 192 178 152 29 3 0 1 -1 10 107 173 189 189 170 165 175 190 187 171 183 175 113 10 1 1 3 1 1 2 0 2 2 1 -2 1 -3 0 3 4 5 7 18 52 64 67 87 107 125 121 152 163 170 173 177 174 182 184 187 186 187 189 188 188 190 183 180 192 192 192 193 194 192 195 194 192 193 195 192 193 184 192 186 193 193 192 193 193 187 193 191 179 180 192 190 191 189 189 188 186 177 125 14 2 1 0 1 -1 -3 2 1 -1 0 -1 0 2 2 0 -1 2 1 0 2 1 1 0 0 1 1 3 0 1 0 0 0 0 0 -1 -1 0 1 1 0 0 -1 -1 3 0 0 1 -1 0 6 0 0 3 2 0 -1 1 1 -1 1 0 1 0 1 -1 1 0 6 1 1 0 0 0 9 0 -2 1 0 1 1 1 2 -1 1 0 0 0 1 0 1 1 -1 1 2 1 -1 0 0 0 0 
1 0 1 4 1 0 6 0 1 2 -1 -4 1 2 0 1 2 0 1 0 0 0 0 0 1 0 3 0 -1 1 0 0 0 1 1 1 0 1 5 1 0 0 -2 0 1 1 0 -1 4 0 -1 -1 1 0 0 2 1 1 0 0 4 2 3 0 -1 1 4 0 0 0 2 1 1 1 0 -1 1 -3 0 -1 -8 0 1 0 1 -1 0 0 2 2 1 2 0 1 2 -1 1 -2 -8 -4 0 2 2 8 -1 -1 1 -1 -1 0 1 1 0 0 0 1 1 2 0 2 9 6 1 0 2 1 1 2 0 0 0 0 2 1 1 1 2 1 0 -4 0 2 -2 1 2 -4 -2 0 0 2 2 2 0 0 -1 1 0 1 0 1 1 0 3 7 2 1 2 0 -1 5 23 47 63 87 98 106 105 100 89 80 71 64 60 62 52 54 54 58 61 65 69 75 81 90 96 103 107 108 107 105 113 143 166 176 181 188 192 190 192 192 193 192 190 179 181 192 193 194 193 193 190 192 193 193 194 194 191 191 191 194 192 190 191 192 185 192 192 191 180 181 188 190 184 189 182 189 190 191 188 185 189 189 189 186 182 189 186 189 187 187 185 187 183 179 172 183 186 184 186 173 183 176 182 189 190 186 190 196 191 194 189 193 181 97 28 10 78 157 186 190 190 193 192 193 193 193 193 193 192 186 194 192 185 192 195 192 192 193 192 194 192 192 193 191 193 193 191 192 193 192 192 186 193 192 191 193 191 193 192 193 191 179 179 192 193 191 182 191 192 191 192 190 190 185 192 193 192 190 191 184 179 190 192 191 192 192 191 191 191 191 187 192 192 192 190 188 191 192 191 191 191 190 191 190 191 191 191 191 191 192 192 190 182 192 193 192 192 191 192 192 185 192 192 183 184 191 189 191 190 192 192 191 191 191 191 190 190 193 193 190 188 190 190 192 191 192 191 192 192 191 183 190 190 190 190 190 190 190 188 191 191 190 190 189 190 191 186 193 190 182 110 33 2 0 0 1 34 117 178 190 191 169 167 188 170 169 170 181 174 112 30 0 1 1 0 5 1 1 1 0 1 2 2 0 0 1 2 0 0 -1 3 3 4 26 9 14 29 47 70 89 98 131 144 135 162 170 175 168 181 183 178 186 186 188 189 190 191 192 191 179 190 193 188 193 192 194 194 192 193 193 195 189 194 195 193 194 192 187 192 193 192 193 182 190 189 181 185 179 128 43 3 0 2 0 1 0 1 0 1 1 0 0 8 1 -2 3 7 1 0 0 0 1 0 1 0 -4 1 0 1 -1 -1 0 -7 0 1 1 4 1 2 1 0 0 1 2 0 0 2 0 1 4 1 0 1 3 1 0 0 1 -1 0 0 0 -4 1 1 1 2 0 3 2 0 0 -2 1 1 0 4 0 0 0 3 1 0 1 0 0 1 0 0 2 -3 1 1 1 2 1 3 -1 1 0 
1 1 0 6 0 1 0 -2 0 0 -7 0 2 0 -3 1 5 1 1 1 1 0 0 -1 0 1 0 0 1 0 -3 1 0 0 2 1 -1 1 2 0 -4 0 3 0 1 3 0 0 1 1 0 4 2 0 4 1 -2 0 0 1 -1 0 1 0 0 -3 -1 -3 0 1 1 2 -1 -1 0 3 1 -1 -1 -11 0 -1 2 -1 1 1 1 0 1 2 6 1 1 -1 -2 0 -1 -1 -3 0 1 2 1 1 0 -1 0 2 1 1 1 0 0 4 -1 0 0 0 1 1 1 -1 1 2 1 0 1 1 0 0 1 0 5 -1 -1 1 0 2 4 -3 0 1 0 0 0 1 -10 -1 1 1 0 4 2 1 2 4 1 1 -2 0 0 1 1 2 0 -1 0 3 0 1 4 22 44 61 71 80 82 79 71 59 50 44 40 39 33 33 41 47 52 59 63 68 73 80 89 99 106 92 103 110 121 159 175 179 179 191 192 192 191 179 192 191 175 191 191 184 193 187 193 184 192 192 191 191 193 193 192 192 192 191 192 191 192 193 191 192 192 191 182 190 183 189 190 190 191 190 190 190 189 188 188 189 189 188 182 186 186 182 179 185 184 186 178 185 184 175 186 185 184 170 184 186 185 188 189 187 191 192 192 193 193 193 189 149 117 22 22 98 164 166 186 185 182 192 182 193 193 190 193 193 193 193 191 191 192 192 194 193 192 191 192 192 191 193 193 191 191 192 192 192 192 191 192 187 193 196 193 192 192 192 192 192 191 191 190 178 180 191 186 190 192 191 191 186 191 192 187 190 192 191 191 187 192 190 191 191 190 192 191 192 191 192 190 193 190 190 190 191 192 191 191 191 191 190 190 191 191 191 184 183 191 191 184 190 191 192 192 191 191 192 188 191 192 190 190 192 190 191 192 190 188 191 192 192 190 187 192 186 191 190 185 192 191 192 191 184 190 191 192 191 190 191 183 190 192 192 191 190 190 183 190 191 189 191 192 190 190 188 190 167 47 3 0 1 2 24 84 165 185 190 192 176 176 173 176 185 172 182 174 93 9 1 2 1 0 -1 0 0 0 0 0 2 2 2 1 4 2 1 0 -2 3 1 0 3 -3 1 1 2 4 4 9 19 35 52 77 103 124 143 155 163 171 176 172 183 185 184 176 188 189 189 182 192 192 191 193 187 193 194 194 194 193 194 193 194 191 194 194 193 193 192 192 185 187 191 185 188 185 180 129 16 6 1 1 0 0 -3 1 1 1 1 2 0 1 2 0 3 1 -2 0 1 3 0 6 7 0 1 -1 3 2 0 2 1 -2 0 0 0 -1 0 1 1 1 1 0 6 0 1 1 0 1 1 2 1 0 -1 0 1 1 1 1 2 0 0 1 3 -1 0 1 1 2 1 1 -1 1 0 0 1 1 -2 -1 0 2 0 5 1 0 0 0 -4 1 0 1 0 1 -4 0 -2 0 0 0 0 
1 0 0 0 0 2 -1 0 0 -1 3 1 0 1 -2 -1 2 3 1 0 0 0 4 2 0 2 0 0 0 1 1 1 0 1 -1 0 0 -1 0 -1 -1 1 0 0 0 1 1 0 6 1 6 2 1 2 1 0 0 1 1 3 -1 0 0 0 0 1 0 -1 0 2 1 2 1 2 1 -1 2 0 0 -2 0 1 1 -1 1 0 -2 1 0 1 -2 0 1 1 0 2 -6 -3 1 1 2 7 0 1 1 0 0 1 1 -1 -1 0 2 1 3 7 1 0 3 2 1 0 1 1 1 -2 1 6 1 1 0 0 5 1 1 1 1 3 0 2 7 1 1 -1 -1 1 -3 -1 0 0 1 0 0 0 2 2 2 0 1 -1 3 0 1 0 1 -2 1 1 1 1 -2 3 26 28 38 45 54 58 53 43 35 26 24 16 21 15 23 31 40 50 54 60 63 60 71 90 85 88 100 115 146 180 183 188 190 192 193 193 190 178 192 191 181 194 192 190 193 191 185 192 193 191 183 192 192 191 192 193 193 192 193 193 193 192 192 190 191 190 190 191 185 190 190 190 187 189 189 181 188 190 187 189 186 187 187 188 187 186 186 179 176 186 186 184 184 173 183 185 185 176 185 181 185 187 189 190 185 191 193 193 192 190 193 191 171 101 66 71 111 132 165 187 191 187 191 193 199 193 193 190 190 180 191 187 192 189 194 193 192 193 196 193 193 193 178 176 191 187 191 192 191 193 194 192 191 192 192 192 190 190 192 192 193 192 192 185 190 191 192 192 190 191 189 192 190 181 184 186 191 191 192 191 192 191 191 191 183 184 191 193 190 190 192 191 192 190 191 191 192 192 192 191 191 191 187 191 192 191 191 189 191 190 191 192 186 192 192 182 191 192 192 191 194 190 189 191 175 183 187 192 190 193 190 190 191 193 191 190 183 191 192 190 190 191 191 186 190 193 191 193 192 190 190 185 192 191 190 190 191 191 190 191 190 190 191 193 192 191 188 131 14 -4 2 1 1 20 130 175 184 192 190 192 191 190 189 188 186 184 173 86 5 -1 1 3 -1 3 1 2 1 1 5 2 1 0 1 2 1 0 0 1 2 1 1 1 0 0 1 0 0 2 0 1 1 3 27 50 57 66 73 72 98 121 140 154 162 153 173 179 183 185 186 187 189 190 192 191 191 193 192 191 176 171 192 195 191 184 194 194 194 188 193 191 192 191 185 188 186 160 111 49 2 1 1 -1 1 1 1 4 0 1 4 1 0 -1 1 0 1 0 2 -2 -1 3 11 2 -1 3 1 1 1 0 3 -1 -1 3 1 0 4 0 -3 0 0 2 1 1 -1 2 0 -1 0 0 1 0 1 1 1 0 3 0 0 0 2 0 0 1 1 1 2 1 2 0 0 -1 1 0 0 0 1 1 0 0 1 -1 1 1 2 1 0 0 -3 1 1 -1 -1 0 1 0 -2 -1 5 -1 
1 0 -1 -1 0 1 -2 0 1 1 2 1 1 2 1 0 -1 0 1 1 1 1 1 1 5 2 0 1 2 1 1 2 1 2 0 -3 -3 -1 0 1 2 0 0 0 2 1 0 1 -1 -3 0 1 2 1 0 1 1 1 0 1 0 1 1 -1 1 -1 -3 0 0 1 2 0 2 0 0 0 0 0 1 -2 1 1 0 0 -1 0 -3 1 1 1 4 3 1 1 -2 0 -1 -2 5 1 2 2 0 0 1 1 1 1 1 0 -2 0 -1 2 7 0 0 0 0 2 0 1 1 1 2 0 -1 2 2 0 0 0 0 1 1 0 0 -1 1 0 1 1 0 1 0 0 0 0 1 0 -6 -1 2 2 1 1 5 1 0 1 0 0 -3 0 0 -1 -1 -7 -5 0 0 1 2 7 17 26 31 32 35 35 27 11 7 8 7 3 5 21 22 31 41 46 54 53 69 78 73 85 93 106 164 186 186 181 190 191 191 187 191 177 191 191 183 189 193 193 191 192 188 192 186 181 179 178 192 192 192 193 190 191 192 190 192 192 186 191 190 191 191 189 184 188 189 188 189 188 189 189 187 188 188 177 188 188 187 187 184 186 186 186 185 187 184 178 184 184 184 181 184 185 185 180 184 179 186 187 189 183 192 192 192 188 193 191 167 135 83 14 40 106 170 187 188 175 190 191 193 194 193 190 191 194 186 192 193 193 193 193 194 193 189 193 193 191 181 182 191 192 193 192 191 193 192 193 193 192 192 181 175 191 192 189 193 191 191 190 192 192 187 184 192 191 191 185 192 191 192 191 184 191 192 191 191 178 184 190 184 191 191 185 190 192 191 192 189 191 191 185 191 192 191 191 193 191 191 192 193 192 187 192 183 192 192 190 191 192 192 187 192 192 192 191 193 191 192 180 180 191 191 191 193 187 185 187 192 183 190 192 192 192 182 178 182 191 191 191 179 191 191 192 192 191 190 191 191 190 183 191 194 191 190 189 190 187 192 191 192 193 177 73 4 -1 7 -1 2 58 156 163 171 190 190 193 193 190 188 177 184 182 173 86 6 0 1 -1 0 4 5 2 2 0 1 6 0 1 1 2 1 2 0 0 0 -5 5 2 0 1 -1 1 -1 2 2 2 0 0 1 2 4 23 23 6 5 13 28 49 72 98 123 132 158 169 175 179 184 184 174 188 188 185 190 177 174 175 188 192 193 192 193 193 189 193 193 193 193 192 192 191 188 181 129 47 3 1 1 0 1 -4 2 4 0 0 2 -2 0 1 -1 1 0 -1 1 1 0 2 1 1 0 0 5 -1 2 1 1 0 -1 0 1 2 4 0 0 -3 -1 0 2 0 -2 -1 0 -1 0 1 0 1 -1 1 0 -5 1 0 1 1 1 0 1 1 2 -3 1 1 0 0 2 1 1 0 1 2 1 0 0 1 1 3 -1 0 1 1 2 1 0 -1 0 0 0 0 1 0 0 -2 0 4 
1 0 0 -1 -1 1 1 1 0 1 1 -1 0 7 0 -1 -1 0 1 1 1 0 -1 0 0 0 3 1 1 3 0 0 0 0 2 0 0 4 4 0 0 -1 1 0 1 1 0 0 -1 0 2 2 0 -1 0 1 -4 0 -1 -1 0 4 0 -1 0 0 0 0 1 -1 0 0 2 0 -1 -1 0 0 1 -1 0 -1 2 0 2 1 1 2 1 1 0 1 1 0 -3 0 0 -2 1 2 1 -1 1 3 0 -1 2 0 2 1 -1 5 1 2 -1 -3 -5 1 -1 0 0 0 0 0 1 1 1 1 2 1 0 1 0 0 0 3 -3 0 0 1 -2 2 2 1 1 1 2 -1 -1 0 -5 -1 0 2 -1 1 0 1 -1 0 -1 -1 0 0 0 -5 2 0 -1 -1 1 1 0 0 4 7 8 8 11 17 10 7 3 1 3 2 7 8 5 13 23 31 42 48 56 64 73 74 84 111 178 176 177 189 185 192 190 192 192 182 191 192 191 192 192 191 191 193 193 192 192 193 190 178 190 191 194 192 193 193 192 192 190 191 190 189 189 189 189 188 182 188 185 190 189 189 188 188 188 188 180 183 186 186 186 185 187 187 186 186 185 185 185 184 176 185 185 185 181 186 184 184 184 183 186 186 188 189 190 190 191 192 193 195 192 184 121 74 14 49 130 177 169 170 175 190 188 194 186 183 193 193 193 192 192 195 193 194 193 193 192 191 193 192 191 184 192 191 192 191 193 192 187 192 192 184 191 190 182 193 197 192 191 193 192 192 191 191 191 190 192 190 192 192 193 192 191 192 192 193 191 188 179 190 191 191 186 192 186 191 190 192 191 192 192 191 182 191 192 191 190 187 190 186 190 190 192 192 191 192 191 189 192 191 191 192 187 189 193 192 193 191 191 192 191 191 181 181 193 192 191 191 191 193 191 183 191 187 191 192 192 190 191 192 192 192 191 190 192 190 189 191 191 191 193 191 191 192 191 180 176 182 190 191 192 193 192 188 151 60 5 0 1 3 12 107 171 172 189 181 179 179 191 189 188 187 184 166 145 107 8 -1 9 1 2 2 2 11 8 2 -1 3 1 2 1 0 1 -1 0 0 1 0 4 1 1 -1 0 1 0 4 2 -1 0 0 0 1 1 1 2 0 -3 0 2 3 4 6 17 59 84 94 119 141 157 165 157 178 183 186 187 187 188 191 188 191 191 193 190 193 194 193 192 192 193 192 191 189 183 179 113 11 0 0 0 -1 0 0 0 4 1 1 4 2 1 1 1 1 1 1 2 0 -2 -1 0 0 1 2 1 3 8 2 2 -3 1 1 0 0 1 0 0 1 1 1 0 -3 -3 2 0 -6 0 -1 1 1 0 0 1 2 -1 0 -1 1 1 -2 0 3 2 2 1 1 2 1 -1 0 0 0 1 -1 0 0 -3 0 0 0 -1 1 0 5 0 1 0 0 0 2 0 -1 0 2 1 0 1 1 
1 1 -1 2 0 1 -1 2 2 1 -1 0 1 1 -1 1 0 1 1 1 0 -1 -1 2 1 0 0 -1 1 1 3 1 0 0 0 1 -1 2 9 2 -5 0 2 0 -1 0 0 -1 0 1 3 0 -2 -8 0 1 2 -2 -1 1 0 -1 0 0 0 1 2 1 1 0 0 1 0 2 1 0 -1 0 1 0 1 2 1 0 0 -3 0 0 1 0 1 1 -1 2 -1 0 2 0 1 0 0 -1 0 0 2 -1 1 -1 0 -1 2 1 0 1 1 0 -5 1 2 0 1 1 2 0 1 0 2 1 6 -2 1 0 -1 0 0 1 1 1 1 2 0 1 1 1 2 2 0 1 0 1 0 2 -1 0 0 3 1 0 1 0 0 1 0 1 2 -4 0 3 5 7 0 0 0 0 0 1 5 2 1 1 0 0 1 1 0 4 2 -1 0 1 6 13 22 33 39 48 53 58 81 126 185 189 177 190 185 191 190 190 187 192 190 188 184 185 192 188 190 190 192 191 192 192 192 191 191 192 191 187 189 190 192 191 190 190 189 189 192 190 189 190 188 180 188 188 190 189 189 188 189 187 188 190 187 186 180 181 185 185 187 186 185 184 183 184 183 184 185 183 185 184 184 185 183 185 185 186 184 186 188 188 191 192 193 192 193 191 184 128 83 17 53 136 173 186 187 191 190 192 191 191 191 194 192 193 193 193 193 193 192 191 194 193 194 192 193 192 193 193 190 192 192 192 193 192 190 192 193 193 192 193 191 192 192 192 184 187 192 190 193 190 187 190 192 191 192 191 182 191 192 183 191 192 192 187 191 191 191 192 190 191 191 187 191 191 194 192 190 190 191 192 191 190 191 183 192 190 191 187 191 192 191 192 191 190 192 192 190 191 192 189 191 192 192 191 184 191 187 189 191 192 190 185 192 191 191 191 192 181 192 193 190 190 191 192 191 192 191 193 190 190 191 191 188 192 191 191 191 190 192 191 191 191 191 188 194 194 192 174 78 8 1 3 2 28 76 147 181 181 191 191 192 191 191 189 186 186 183 180 173 109 8 -1 10 8 1 0 1 2 2 6 1 1 0 2 3 1 2 1 2 2 0 0 1 1 1 1 -1 -1 0 3 1 -6 -10 -1 1 1 0 1 1 3 1 0 0 1 1 -1 4 5 34 36 14 32 56 82 119 145 162 173 177 170 176 187 182 188 192 191 191 190 193 193 191 192 192 193 192 190 187 176 95 28 8 1 0 0 0 1 -1 1 1 1 1 0 -1 -1 -3 0 1 0 0 1 0 0 1 1 0 -2 3 2 0 0 1 1 1 0 -3 1 0 1 0 0 0 -1 0 1 0 1 0 -1 -1 0 1 0 1 1 4 0 1 1 0 2 -2 -4 0 0 0 0 0 0 -1 1 2 -1 -1 1 1 0 0 0 0 2 2 0 -3 1 -1 0 0 -1 1 1 0 0 0 1 1 -1 2 1 0 -1 
6 0 -1 0 0 -1 2 1 1 3 3 0 2 -1 0 1 1 5 0 0 2 0 -4 0 0 0 -1 0 1 1 0 -2 1 1 1 2 1 1 5 1 3 1 -1 1 1 -3 -1 1 1 0 1 4 2 0 0 -1 1 0 0 1 0 2 0 0 0 0 0 2 -1 -1 1 1 0 2 0 0 0 1 0 0 1 1 1 0 1 0 0 0 1 1 0 5 1 1 -1 0 0 0 1 0 1 1 3 2 4 0 -1 0 -1 -1 0 1 0 0 1 1 -1 1 0 1 1 -3 1 -1 1 0 0 0 0 0 1 -1 -1 0 0 0 0 1 -1 2 4 1 -1 1 0 0 0 0 1 0 1 1 -1 0 1 0 0 2 0 0 1 -2 1 1 7 1 1 0 2 1 0 0 3 3 0 0 0 0 0 0 -4 -1 0 1 3 1 2 -4 0 2 -1 1 5 12 23 32 38 45 66 160 176 184 187 188 190 190 185 191 190 191 193 190 192 192 192 192 192 183 180 183 182 190 190 191 191 191 182 191 191 190 191 190 191 190 190 182 190 189 188 190 188 189 189 187 188 188 189 188 188 186 187 185 188 186 186 184 185 178 185 185 184 180 184 184 181 185 184 184 185 184 183 185 182 183 185 184 179 186 188 188 191 188 192 191 192 194 184 188 166 92 17 47 106 176 187 188 189 192 190 190 193 193 192 185 193 192 193 192 187 192 193 192 192 192 191 191 192 192 184 192 192 192 192 192 191 192 193 192 192 192 192 188 193 192 191 191 193 190 191 191 190 191 194 192 191 192 187 192 191 191 191 193 191 192 194 188 192 192 190 191 191 190 191 192 192 192 190 192 189 181 190 190 182 182 191 192 192 192 192 191 191 192 191 192 191 193 191 192 192 192 191 192 192 191 191 191 191 191 190 192 192 191 192 191 192 193 191 185 191 192 191 192 192 192 192 192 193 193 188 190 191 185 190 192 191 192 191 191 191 193 193 192 193 192 194 191 184 127 14 3 1 0 -1 14 112 173 187 191 191 193 194 193 190 185 188 186 178 181 156 107 8 1 1 1 0 1 1 1 0 1 2 0 1 0 -2 0 1 -1 1 2 0 0 0 1 1 0 1 1 0 1 1 -1 1 1 2 0 2 2 2 4 3 5 9 10 17 15 8 8 19 7 3 3 2 5 17 59 80 115 142 140 171 179 182 184 188 189 191 192 194 187 193 191 191 193 190 179 178 171 69 5 1 8 1 -2 0 0 1 1 -1 1 -7 -1 2 1 1 1 0 0 1 0 1 3 0 0 2 0 0 1 0 3 2 1 -1 0 0 -2 4 1 0 1 1 1 0 1 0 1 1 0 1 0 0 0 0 -2 0 -1 0 0 -1 1 1 -1 1 1 0 1 0 1 0 0 3 1 -3 -1 1 0 2 0 -1 -3 0 2 1 0 0 1 1 0 0 0 3 3 7 2 1 2 1 0 0 0 
-2 1 -1 3 0 3 1 0 1 3 1 2 1 0 1 1 -1 1 3 1 1 0 -1 1 -1 1 1 0 -1 0 0 0 0 0 0 -1 2 -1 1 -1 1 -1 0 0 0 1 -3 2 1 0 0 2 3 1 2 3 0 1 1 -1 2 0 1 -1 0 0 3 2 1 2 1 2 2 0 2 0 0 1 -1 0 2 0 0 0 1 -1 2 0 4 0 0 1 1 0 0 2 0 1 2 7 0 0 0 1 1 0 0 1 0 1 2 0 1 1 0 0 -6 1 1 2 0 0 0 2 -3 1 0 0 2 1 -1 0 0 -3 0 0 5 1 1 1 5 0 0 1 -1 1 1 1 1 -1 0 0 -1 0 -1 1 0 1 0 1 1 1 0 1 0 0 0 -1 1 0 -1 -1 0 0 1 -4 2 0 0 1 2 0 1 1 1 2 1 0 -1 2 2 1 1 1 4 8 16 22 101 177 178 190 190 180 190 190 189 182 189 185 191 182 190 184 182 192 191 191 190 191 191 191 184 187 190 191 190 191 191 190 190 190 190 189 190 180 190 189 180 187 188 188 188 188 188 188 189 188 187 186 186 186 186 186 186 186 183 184 185 184 183 183 184 180 181 185 183 180 176 184 183 179 169 175 182 185 176 184 185 187 188 190 191 191 192 193 192 192 191 170 93 20 50 121 177 176 189 190 189 191 187 189 191 192 187 192 193 192 193 193 193 192 193 193 193 193 192 191 191 193 191 192 191 192 191 192 192 192 193 189 192 192 193 189 190 190 187 192 182 191 192 191 186 191 192 191 188 191 191 191 192 192 185 191 192 192 184 190 188 192 193 193 192 194 194 193 185 190 192 191 190 190 191 191 192 191 191 191 191 193 188 192 192 191 192 191 194 193 191 192 184 193 193 192 192 192 192 192 192 193 192 186 190 192 193 185 191 189 191 194 191 192 192 193 191 190 193 192 191 192 190 191 192 191 191 191 190 191 189 190 191 193 193 193 194 188 128 46 2 0 3 -1 4 65 157 185 191 193 188 192 183 189 189 189 187 186 183 182 170 101 6 0 4 0 1 0 1 3 3 1 1 0 0 0 -1 1 -2 1 0 2 1 -1 0 1 3 3 1 1 1 0 3 3 2 7 13 14 15 24 23 26 30 34 34 33 35 34 31 30 30 28 22 19 11 9 3 3 19 14 40 79 123 150 166 175 180 183 187 188 190 190 193 187 190 191 191 190 187 158 41 2 1 -4 1 1 0 0 0 0 0 1 1 -1 4 1 1 1 0 1 -1 1 1 0 1 0 1 0 0 -1 3 5 0 2 0 0 0 0 1 2 1 -1 0 7 1 3 0 2 0 -1 1 -1 1 0 0 7 0 1 0 1 1 1 -1 -1 -5 0 2 0 1 1 0 -1 0 1 1 0 0 0 0 -4 -1 1 0 1 0 -2 -1 1 0 -3 -1 0 2 1 2 1 -1 0 1 0 0 0 
2 1 0 -1 0 0 0 1 1 0 2 1 1 1 1 5 2 1 5 0 3 -1 1 1 0 -1 2 0 -1 1 0 1 0 0 1 2 3 0 1 6 1 2 1 1 1 -1 -5 -1 0 0 2 0 1 0 1 1 0 -1 1 1 1 2 2 0 3 1 2 2 1 0 1 0 0 -1 1 1 1 2 3 0 -1 0 1 5 0 0 0 0 -1 0 1 1 1 1 -1 0 1 0 -4 0 1 0 0 1 -1 1 -4 -1 1 1 1 0 1 0 0 0 -1 -1 1 1 2 1 0 1 0 0 -1 -1 1 0 1 0 2 1 -4 0 0 4 1 1 1 6 2 0 -4 0 1 -1 0 1 1 4 0 -5 0 1 -1 0 0 -2 -1 1 0 1 5 3 1 0 1 1 0 1 1 -1 0 1 2 -4 0 1 2 0 0 0 1 2 2 0 1 2 1 -1 -3 0 1 1 1 23 142 184 189 189 189 190 189 189 189 182 177 189 190 191 191 190 179 191 192 192 190 190 192 191 191 189 192 190 190 190 190 192 189 189 181 183 189 188 188 186 180 189 187 188 187 179 182 188 188 186 187 186 188 188 187 185 181 186 185 183 182 184 180 182 184 183 182 179 183 182 183 184 183 182 183 182 182 182 182 183 176 187 188 190 188 190 191 192 191 182 185 189 145 107 81 57 144 179 188 188 189 191 189 191 192 192 190 186 193 193 193 192 192 188 192 185 187 193 192 193 192 194 190 192 192 191 182 191 190 192 192 193 192 182 191 181 174 178 192 188 191 192 192 192 191 192 190 190 192 191 190 191 191 192 188 193 191 192 191 190 192 192 191 192 190 192 191 192 193 193 192 190 186 192 192 193 193 191 192 191 192 192 192 181 191 193 191 192 193 191 188 192 182 192 192 192 191 186 190 192 192 192 190 191 181 191 191 192 192 190 191 191 193 192 192 193 192 193 188 192 191 191 193 187 191 191 191 192 191 189 185 191 194 192 195 194 193 178 89 34 1 1 3 19 33 134 165 190 193 192 192 181 191 191 191 188 186 186 177 181 147 95 7 0 6 3 0 0 1 1 0 0 0 2 1 0 0 0 0 0 1 1 0 1 0 3 1 2 13 7 12 19 26 32 34 36 41 45 46 46 53 54 56 54 54 53 53 53 52 51 49 48 45 40 34 30 22 9 2 0 2 5 27 71 105 153 168 164 179 184 187 189 190 185 191 191 189 185 181 136 16 1 0 1 1 0 -1 -2 1 2 0 1 0 1 -1 0 1 2 1 2 1 0 -1 -4 -1 0 1 -1 0 1 1 2 -1 1 0 1 1 1 1 -1 1 0 0 0 1 3 1 2 2 0 1 -1 -1 0 1 0 1 1 -1 2 0 -1 0 1 -4 -3 1 2 4 1 0 -1 1 0 0 2 0 0 1 -1 0 1 0 0 5 1 0 0 0 0 0 1 0 3 5 5 3 0 -1 0 4 0 
2 -1 0 -1 -2 1 0 0 1 0 -1 1 1 4 2 1 -1 2 2 1 0 1 0 2 1 2 4 2 1 1 0 -1 1 0 1 4 8 0 0 2 0 0 0 1 2 3 -4 0 1 0 0 2 0 1 6 0 1 3 0 2 0 0 1 0 1 2 9 0 0 -1 0 1 0 0 -1 0 1 3 2 -1 1 0 1 1 0 -2 5 -1 0 1 0 1 1 0 0 0 -1 1 1 2 -1 1 -1 1 0 1 0 0 -1 0 2 0 0 1 -2 1 1 0 0 1 -1 0 7 0 -3 0 0 0 -1 1 -1 1 0 0 1 -1 3 -1 0 1 0 0 0 3 1 1 1 1 -2 -1 1 1 0 -3 1 -3 0 1 0 0 1 1 2 2 0 1 2 2 3 0 5 3 1 0 -8 0 2 -1 0 3 0 -1 -1 1 5 1 0 1 0 1 0 1 -9 -10 -1 1 4 65 141 186 184 188 189 190 188 188 189 189 179 187 189 190 191 183 190 191 191 192 190 189 190 184 191 190 190 190 190 190 187 189 190 188 188 188 189 190 190 189 188 188 180 187 182 187 186 187 185 186 186 186 186 186 185 186 185 183 184 185 185 183 183 183 181 182 178 182 182 182 183 182 183 183 182 179 170 161 162 169 171 186 187 186 188 189 190 190 189 191 192 192 189 151 116 31 86 145 180 173 187 190 190 182 190 179 191 191 192 190 193 185 191 182 193 192 193 193 193 193 191 192 185 192 192 192 193 191 191 193 191 192 191 191 192 191 191 191 191 191 187 191 192 192 193 192 193 192 192 184 178 179 190 191 192 192 192 191 177 190 185 191 192 192 193 192 191 191 192 191 183 191 192 191 193 193 190 182 191 192 192 190 191 192 192 191 191 190 192 193 192 191 192 191 192 192 192 191 191 190 192 189 191 192 193 192 186 187 192 192 184 191 192 193 191 191 192 191 192 189 190 192 194 188 192 192 193 191 192 191 193 190 191 195 194 194 188 135 24 2 1 2 1 14 103 168 182 193 194 192 194 192 193 186 189 188 187 186 184 180 168 92 7 -1 1 0 1 0 1 5 1 0 4 6 0 1 4 1 1 1 8 2 2 6 10 15 24 31 43 46 50 55 58 62 63 63 66 56 57 69 71 71 70 64 69 69 70 69 68 66 66 65 64 59 55 51 45 35 24 16 9 2 9 6 36 95 136 158 166 177 182 183 188 188 187 189 189 180 120 67 6 0 0 0 2 1 1 0 1 1 1 1 1 -1 0 0 -2 0 1 4 1 0 -10 -1 1 -2 0 0 1 1 0 1 0 2 -1 0 0 1 -1 0 1 -3 0 -2 0 1 2 0 -3 1 0 0 1 0 0 6 6 0 0 2 0 0 1 1 -2 1 0 0 3 0 2 0 0 1 2 1 0 -3 -1 0 1 1 1 2 0 1 0 0 -2 1 0 1 6 1 -2 0 0 0 -1 -5 1 1 
0 1 -1 0 0 2 0 1 1 3 0 0 0 1 1 4 2 0 1 2 0 0 1 1 1 0 0 0 1 2 0 0 1 2 0 5 8 2 0 1 0 0 0 0 1 6 0 1 7 1 -4 -2 -2 -1 0 -1 -1 2 1 1 -1 0 -1 0 2 1 0 1 1 3 1 1 0 1 0 -1 0 0 0 0 1 0 1 2 0 -1 1 0 0 1 -1 -1 0 0 1 0 2 1 1 -3 2 1 0 -1 1 1 2 1 -1 -1 0 -1 -1 1 1 1 1 0 -3 0 0 0 0 -3 0 1 0 1 0 1 1 0 1 -1 0 -1 0 1 -1 -2 0 0 1 0 1 0 0 1 2 1 0 0 -4 -1 -1 0 1 0 1 5 2 1 0 1 0 0 1 1 1 0 0 1 1 1 0 0 1 0 1 1 0 1 -1 1 -1 2 0 0 1 0 0 7 0 -1 0 0 18 121 178 185 174 177 189 190 174 180 190 191 189 177 188 190 183 191 184 190 190 191 190 189 186 189 189 190 189 189 189 191 185 190 189 188 188 190 187 188 187 188 187 187 178 187 187 186 181 186 188 186 186 186 186 186 186 185 184 184 184 184 185 183 172 166 173 181 183 184 182 181 183 183 183 176 175 182 181 171 181 181 183 185 185 186 184 187 188 188 190 190 192 192 191 190 177 117 33 54 143 150 184 188 189 180 189 191 194 192 191 187 191 181 192 192 192 192 192 191 186 192 193 192 192 187 192 189 193 192 191 192 189 192 192 194 192 192 179 192 191 191 190 179 190 192 190 191 192 189 192 191 179 187 192 192 192 192 193 187 190 192 190 187 192 192 191 192 192 193 193 192 190 191 192 193 191 193 191 185 192 192 191 192 192 191 185 178 190 193 193 185 187 192 192 190 182 191 192 187 192 192 192 192 189 192 191 193 191 184 192 191 191 190 193 193 192 192 194 191 193 190 182 192 193 191 192 192 192 181 191 192 193 192 194 194 194 189 164 58 25 10 7 8 6 61 156 183 192 193 193 194 186 192 191 196 189 188 188 186 185 179 140 88 6 0 0 0 -1 1 0 2 2 1 4 3 2 11 6 6 11 18 33 33 42 49 57 58 66 71 73 76 78 79 80 82 83 84 83 76 69 72 74 83 83 82 83 83 81 82 76 80 80 84 76 73 72 68 63 62 57 47 40 28 13 10 18 52 99 139 159 170 176 182 185 189 187 189 187 146 84 34 5 1 0 1 1 4 2 0 1 0 1 -1 0 -3 0 0 -3 0 0 0 1 -5 0 2 1 -1 1 0 2 1 0 -1 1 -1 1 0 -1 0 -1 -1 1 -2 0 1 4 1 0 -1 0 -1 1 5 3 -1 1 0 2 0 0 0 1 1 2 0 -1 0 1 1 -3 1 0 0 1 0 -3 1 -1 1 1 1 0 1 0 0 0 0 1 -2 -2 2 2 4 1 1 1 1 -1 0 0 1 1 1 
3 -1 1 0 1 -1 0 0 0 -3 -1 0 0 7 2 1 -1 0 0 2 2 -1 1 -1 -1 2 0 0 0 -1 -1 1 1 0 0 2 6 0 1 -1 0 -3 -4 0 0 3 -1 1 8 1 0 0 2 1 1 -1 -1 0 1 0 1 1 0 -1 0 0 1 0 -1 1 1 1 5 6 1 0 1 0 0 0 0 -2 2 1 -4 -4 0 -1 0 0 0 0 1 0 2 -1 2 1 0 0 0 2 1 1 0 0 5 1 -1 0 1 0 2 0 -1 1 0 -1 1 -2 0 1 0 0 1 0 -1 0 1 4 1 4 1 1 -3 -2 1 0 0 1 0 6 2 -2 0 1 0 0 0 2 2 0 -4 1 -2 0 2 6 1 9 1 1 1 0 0 0 0 4 0 1 2 0 0 0 0 1 -1 -1 1 2 1 0 0 1 2 1 0 0 -1 1 2 2 6 0 1 8 65 130 184 185 176 176 188 188 188 187 187 189 189 191 190 176 188 189 190 190 190 191 190 189 186 190 190 191 190 189 190 188 189 189 190 186 189 188 187 188 189 188 188 189 186 184 188 187 187 189 185 186 184 186 185 186 184 179 183 184 184 184 183 181 169 180 182 183 183 184 182 182 182 182 184 181 182 183 182 179 181 183 180 178 182 185 174 169 173 180 189 190 192 193 196 193 190 156 124 35 49 119 178 187 187 188 191 189 192 191 192 190 173 175 191 193 193 191 191 191 190 179 192 192 191 183 183 192 193 191 192 192 192 193 192 192 193 191 172 171 191 186 191 183 187 192 191 192 192 186 192 193 191 191 192 192 192 190 191 192 189 186 176 190 192 191 183 192 191 191 194 192 187 191 192 191 191 192 192 191 185 192 191 191 192 192 191 193 191 193 193 192 191 192 186 181 190 186 192 193 191 190 192 192 192 194 192 192 191 191 191 184 193 192 193 192 192 192 192 193 192 184 190 193 191 192 192 193 192 190 193 192 185 194 193 191 191 149 93 43 24 3 0 2 26 128 177 189 193 193 191 195 193 193 190 190 190 188 187 185 182 170 166 83 6 0 2 1 2 2 4 6 11 17 23 30 37 43 49 56 61 66 66 78 80 86 87 88 89 90 91 93 94 95 89 96 96 97 87 90 93 88 94 94 92 94 94 94 93 92 92 88 90 89 89 78 84 77 82 83 75 70 70 63 54 60 62 77 103 128 147 161 171 173 181 185 184 187 184 165 66 6 0 1 0 -1 0 -1 0 1 2 2 1 2 3 0 0 0 1 0 1 0 1 -1 6 1 1 0 1 -2 0 0 -1 0 1 2 1 1 1 0 0 0 -1 0 0 1 1 1 1 0 0 0 0 1 2 -1 0 1 0 -1 1 1 1 0 0 2 0 0 1 -1 -1 1 2 0 -1 -1 0 0 -1 -3 0 -4 1 1 0 2 -1 -1 1 -2 0 0 1 0 1 1 1 0 1 0 0 0 4 -1 
2 0 0 0 -1 0 1 0 0 1 0 0 0 6 3 1 -1 2 1 1 9 1 1 0 1 0 0 1 0 -1 -1 1 1 2 1 -2 1 0 1 0 1 0 0 1 0 1 1 1 0 2 1 0 0 0 0 0 -1 1 0 0 1 0 1 -1 1 0 1 0 2 0 2 2 2 2 0 0 4 2 1 0 -1 -1 0 1 0 0 2 0 1 1 -1 1 1 1 -4 1 1 2 0 1 -1 4 0 1 1 1 1 0 2 1 0 1 -3 1 -1 2 1 0 0 0 -1 -2 0 1 1 -1 0 0 2 2 0 2 0 -1 1 0 1 2 5 1 1 1 -1 0 -1 -3 1 0 0 7 7 1 0 -1 -3 -1 0 1 1 1 1 1 -1 0 1 0 0 3 0 1 2 0 0 0 2 -1 1 -5 1 1 -1 0 0 1 2 1 1 1 1 3 0 1 -1 -1 2 51 112 147 185 179 186 187 189 188 187 189 189 191 190 189 187 188 189 188 178 190 187 189 189 190 190 190 189 189 189 188 189 189 189 186 189 189 189 189 188 189 188 188 189 187 185 188 186 187 187 187 185 184 185 185 185 185 179 173 182 176 183 185 183 183 182 184 183 176 181 182 182 183 183 182 182 178 182 183 182 183 182 182 182 183 182 182 182 183 186 187 187 189 190 192 192 192 192 190 178 128 41 100 140 177 185 183 189 188 190 190 189 190 177 189 190 191 192 192 192 190 182 191 192 192 193 192 192 192 191 196 192 193 192 192 193 190 184 176 171 177 191 186 193 186 191 189 192 188 192 193 194 192 186 192 185 191 190 179 192 193 190 192 190 185 193 191 191 192 193 192 193 192 192 191 190 193 191 187 191 191 192 192 185 191 191 191 193 189 192 193 192 185 194 191 192 191 193 193 193 192 192 189 185 187 191 190 180 192 192 192 192 181 192 192 190 192 189 193 192 193 192 191 194 194 192 192 192 191 193 192 193 199 193 189 193 193 165 135 22 4 2 1 4 9 92 166 186 192 194 195 195 196 194 191 190 190 189 188 187 180 168 179 146 81 19 20 29 36 43 46 49 56 61 67 74 78 84 89 84 94 95 98 100 101 100 101 102 103 104 106 106 104 105 105 106 100 105 104 103 95 100 104 104 103 103 101 102 104 103 103 100 96 92 99 99 90 99 99 99 97 97 94 91 92 94 96 98 105 117 130 147 159 168 175 182 183 180 184 176 97 17 0 2 1 1 1 0 0 1 0 0 0 0 5 0 1 2 1 2 0 0 1 0 -1 0 0 0 0 1 0 1 1 1 -1 0 2 -1 -1 0 -1 0 0 -1 2 2 1 1 1 0 -4 0 -4 0 1 0 1 0 -1 0 -4 1 0 1 0 0 0 1 2 1 1 1 1 0 0 0 1 0 3 0 0 -2 -1 1 1 -1 -1 -9 -4 0 1 0 1 2 1 1 0 -1 1 -1 3 0 1 2 0 
1 0 2 1 1 0 3 0 1 1 -1 3 -1 0 0 1 1 3 1 1 0 1 -1 0 1 4 0 2 0 -1 2 1 -1 0 0 0 0 0 0 2 1 1 3 -1 1 0 1 1 1 4 0 2 1 -1 0 0 -1 0 1 0 -1 1 0 1 0 1 2 0 0 0 2 0 1 6 1 1 2 1 1 0 0 1 1 1 11 1 2 1 1 0 1 1 0 1 0 0 0 0 1 1 1 1 3 5 4 3 0 0 1 -1 1 1 -1 0 2 0 0 -1 0 1 0 1 1 1 1 -1 1 3 1 -1 1 1 -2 -4 0 1 -2 -1 0 4 0 0 1 -5 -2 0 -1 2 1 2 1 0 0 2 1 0 1 0 -1 0 2 1 0 1 -1 0 1 2 -1 1 1 -1 0 0 -2 5 1 1 1 1 -2 1 1 -2 1 1 -2 0 0 0 1 -1 -1 0 8 71 143 179 169 168 188 188 185 187 189 189 188 189 189 189 190 190 177 181 187 189 190 185 182 189 190 189 190 190 187 182 186 188 189 187 188 190 188 188 188 187 188 187 188 187 186 187 186 186 184 185 184 187 186 185 184 183 183 183 183 182 181 183 183 180 184 183 183 181 181 181 181 182 181 182 182 177 181 182 181 181 182 175 181 180 175 184 182 184 177 186 187 188 190 189 191 192 187 191 192 179 134 105 47 133 179 184 187 185 188 189 191 190 188 191 184 183 189 192 190 189 193 194 192 192 193 193 193 193 192 193 192 192 193 191 192 193 191 192 191 192 192 178 191 191 180 181 184 191 191 192 192 194 191 181 181 191 182 190 191 191 189 194 191 189 190 185 192 193 191 189 192 193 191 187 191 183 193 191 183 191 192 192 194 188 193 191 182 193 192 192 193 192 192 193 186 187 193 192 191 193 193 193 193 191 192 183 182 192 192 193 193 191 189 192 193 194 192 193 193 192 191 194 193 191 193 190 170 177 192 192 193 194 193 194 194 191 162 57 3 0 -1 1 3 49 148 181 181 193 194 195 193 193 192 192 191 190 188 189 185 185 178 179 166 100 77 79 83 87 89 90 96 98 100 97 106 107 111 109 111 110 111 112 112 112 113 108 107 115 113 115 113 107 114 105 112 113 114 107 112 110 111 112 112 112 112 111 111 111 111 110 110 109 108 109 109 108 110 111 110 112 111 107 110 113 114 116 119 126 124 142 151 159 167 173 177 181 183 178 145 38 2 0 1 1 -1 1 1 -4 0 1 -1 2 1 0 0 1 1 5 0 0 1 0 0 2 0 -6 1 -1 0 1 1 1 1 0 1 1 -4 1 -1 1 0 1 1 5 2 1 2 -1 -1 0 1 0 1 1 -1 -1 -1 1 -1 0 0 1 0 0 0 -3 0 3 2 4 0 0 1 6 0 0 0 0 1 0 0 -3 1 2 -1 1 0 -1 0 3 0 1 1 0 0 -1 -1 1 0 -2 0 0 0 4 
1 1 0 0 -2 1 1 0 3 0 0 2 0 0 -3 0 1 1 -1 0 1 2 1 1 0 6 0 1 1 1 1 0 0 1 1 0 1 2 1 1 0 1 0 0 1 0 0 2 1 1 3 1 0 0 0 0 1 2 8 1 0 0 0 1 0 0 0 -2 -1 0 1 2 -1 -1 0 1 2 0 1 0 1 0 0 11 9 1 -3 1 0 -1 -1 -1 0 0 0 1 1 0 2 2 1 0 0 2 1 0 1 0 1 -1 0 2 -1 0 0 1 4 1 2 0 1 1 -1 1 1 1 2 1 -1 0 1 0 1 0 0 1 0 2 0 1 0 0 0 -1 -1 1 0 0 1 1 3 0 3 2 -1 1 0 0 0 2 1 0 -1 0 0 0 -2 0 0 0 0 2 0 0 0 1 1 -7 -3 3 0 -1 0 0 0 0 -1 0 1 1 0 0 2 0 16 90 162 184 185 185 187 177 184 188 188 188 180 187 190 188 187 189 188 190 189 188 185 189 189 190 188 190 190 188 188 187 189 188 188 187 187 188 189 188 187 187 187 186 186 187 186 187 185 183 185 186 181 184 185 185 184 184 185 183 182 183 182 182 182 183 181 182 183 174 169 182 182 181 182 180 181 182 181 181 182 181 180 179 177 181 181 180 181 183 178 183 185 188 192 189 190 191 190 183 192 190 182 140 51 80 123 169 183 187 187 188 188 189 188 189 191 192 192 191 188 192 192 191 193 192 192 192 192 188 193 191 193 188 192 185 191 193 191 191 182 191 186 191 191 191 176 193 192 192 192 192 191 191 192 179 177 190 191 192 193 192 192 192 193 190 192 192 192 192 193 191 192 192 193 191 193 190 192 186 192 193 191 192 193 190 192 191 192 192 192 193 186 191 192 187 191 193 192 192 193 191 192 194 192 192 191 191 193 192 193 193 193 192 191 193 192 192 191 192 193 193 192 192 193 193 193 192 175 182 192 193 188 194 193 194 192 143 88 7 0 1 0 3 49 125 173 189 192 181 194 196 192 183 191 191 190 189 182 186 186 185 184 179 154 122 111 113 115 116 113 118 116 118 118 119 120 121 120 121 114 123 122 121 123 123 122 115 122 121 123 121 122 120 122 120 111 120 112 118 119 119 119 118 119 118 119 119 118 119 117 116 118 116 116 118 118 119 119 117 119 122 123 123 126 127 118 132 135 132 145 151 157 164 169 167 167 178 179 155 63 6 1 1 0 0 -2 4 -1 -1 1 0 0 4 0 1 1 -1 4 3 1 1 1 1 7 2 -1 -6 0 1 0 1 2 -2 0 -3 -1 1 -1 1 -2 9 1 1 0 0 5 1 0 0 0 0 1 1 0 1 -1 0 -1 2 2 2 1 1 0 0 1 -1 2 0 2 0 1 0 1 1 -3 2 0 1 2 1 1 2 0 1 0 1 2 2 -3 -2 2 2 7 1 0 1 0 2 1 -1 2 1 1 1 
1 2 0 -1 0 0 2 2 1 1 0 2 1 -2 -1 -1 0 0 0 1 1 -1 0 -1 0 0 2 0 0 0 -1 -1 -1 0 0 -1 0 3 7 1 1 -3 1 2 -4 0 1 0 1 1 2 1 0 0 0 0 3 -1 1 2 -1 -8 -1 1 0 1 0 1 1 0 1 2 1 -1 -1 1 0 0 0 0 0 0 1 0 1 -1 5 2 -1 1 1 0 0 1 0 -1 -1 0 2 0 -1 0 -1 1 0 1 0 0 -1 -1 -5 1 -1 1 1 0 1 0 0 0 1 0 -1 2 0 1 0 0 0 -1 0 0 2 0 -1 0 1 0 -1 -3 0 3 0 1 0 0 0 -1 1 0 1 -2 2 0 1 1 3 -1 0 0 0 -3 -1 1 2 0 0 3 0 0 2 3 0 1 0 0 1 0 -1 2 2 0 0 1 3 0 -1 3 0 1 0 2 1 1 32 102 173 184 180 188 187 187 187 188 188 187 188 188 189 185 183 186 187 188 189 183 187 189 189 187 188 187 188 185 189 189 185 189 188 187 177 187 188 186 187 187 187 185 186 187 185 186 186 185 186 185 184 185 185 184 184 182 177 179 182 181 184 183 182 182 183 180 183 175 180 181 182 181 179 182 182 180 182 180 178 180 179 179 179 180 181 178 180 182 182 181 184 187 186 186 189 190 189 183 190 193 191 183 148 76 30 85 156 180 185 187 188 188 189 191 191 188 190 192 192 191 192 193 193 192 191 193 191 191 189 192 191 192 192 191 192 193 193 189 192 191 189 192 193 191 192 193 192 186 191 192 193 193 192 191 190 184 191 191 188 193 185 179 191 191 194 191 193 192 192 192 192 192 193 185 191 182 191 193 193 192 193 191 192 194 191 192 193 192 192 193 192 193 192 191 191 192 193 187 192 181 191 192 182 182 183 192 192 194 193 193 193 194 193 194 193 193 192 193 192 188 193 191 193 192 192 189 191 193 193 192 192 192 194 193 180 118 19 9 1 0 1 8 87 164 186 192 191 192 189 194 184 182 192 192 189 188 188 186 187 183 182 179 166 133 127 127 127 128 128 128 129 128 127 129 128 128 128 129 130 130 130 128 128 127 129 127 130 127 127 126 125 126 123 125 124 125 124 117 119 124 124 121 126 124 118 124 125 124 123 125 123 127 126 126 128 127 124 129 129 132 133 133 137 138 139 142 145 150 154 158 164 167 172 168 176 178 162 86 35 2 5 2 -1 -3 0 0 1 0 0 2 2 1 0 4 -1 2 2 0 0 0 0 0 6 1 0 1 3 4 2 1 2 1 -1 -1 0 0 1 1 1 1 1 0 -3 1 5 2 1 0 0 0 0 -3 -1 2 5 8 0 0 0 -1 -2 1 0 1 -1 1 0 -1 0 -6 1 1 6 3 0 2 1 0 -4 0 1 8 0 1 -1 1 2 0 -1 0 0 1 1 1 1 0 0 0 -2 0 1 0 1 2 
1 -1 -1 0 1 1 2 2 0 0 0 0 0 0 0 2 0 0 3 7 1 0 -1 -1 1 -1 0 1 1 1 0 1 0 -1 -10 -2 0 1 1 -1 1 1 -1 -3 -4 1 0 -6 0 1 1 2 -3 0 2 0 0 1 2 1 1 0 -1 2 0 1 2 0 0 3 0 -1 -1 -1 -5 0 0 -1 0 1 0 0 2 0 1 2 1 1 1 1 1 4 1 0 1 1 0 0 2 2 2 -1 1 0 3 1 -3 0 1 1 -1 -1 0 0 -1 1 -4 1 -1 0 0 1 1 1 0 1 0 1 1 -1 1 0 0 0 0 1 0 2 0 0 2 2 1 2 1 1 2 1 0 1 -1 0 -1 0 1 2 0 1 -1 0 1 1 1 0 0 1 0 1 7 8 1 0 0 3 -4 1 2 0 1 2 0 0 3 3 1 0 1 1 1 0 1 1 0 3 45 140 181 183 185 184 186 187 187 187 187 186 175 187 180 187 190 189 189 190 189 189 189 190 181 188 188 187 188 184 189 188 187 186 182 187 179 186 188 187 187 188 187 181 184 186 186 185 174 185 183 179 176 184 185 184 183 183 183 183 183 174 183 184 182 174 182 181 181 180 180 182 182 181 182 177 181 180 179 181 181 181 180 181 181 179 177 180 180 180 180 181 183 185 188 185 187 189 190 189 190 191 183 175 188 168 111 36 56 131 172 183 184 186 188 189 188 176 176 190 182 176 190 192 192 192 190 192 192 192 193 193 192 191 193 192 193 193 192 191 192 192 192 189 192 190 192 192 184 182 193 192 191 189 192 192 192 182 192 192 192 193 191 186 192 191 191 193 191 185 192 193 194 193 194 192 191 190 191 193 183 188 192 191 192 192 188 192 194 192 190 192 192 192 192 192 191 193 194 192 193 188 191 189 191 191 192 191 184 193 187 192 193 193 193 193 192 193 194 188 192 193 192 191 192 192 191 191 193 195 194 188 193 191 192 182 123 24 0 1 1 1 5 57 148 183 185 193 194 196 194 194 193 183 191 181 189 181 177 179 185 184 176 179 167 139 134 135 135 135 135 135 136 133 121 135 134 135 135 134 136 135 134 134 134 126 129 132 133 137 131 128 130 125 131 131 130 130 130 128 130 130 131 130 129 123 129 129 130 125 130 131 131 130 132 129 134 134 133 135 137 138 142 143 143 147 149 140 138 156 160 163 167 171 173 174 173 161 104 17 2 5 0 -2 1 0 0 3 2 1 2 0 0 1 0 0 2 1 3 0 0 0 0 1 0 4 -2 0 1 2 0 0 -1 2 0 1 -1 0 2 0 1 1 1 2 1 0 0 -1 -2 0 -1 0 1 0 0 1 6 3 2 1 1 0 1 2 0 6 1 0 1 1 2 0 1 1 1 1 2 10 1 -1 0 2 1 0 1 1 -1 1 0 -1 1 1 1 0 1 4 -3 0 1 -1 0 3 0 -1 1 1 
0 1 0 1 1 1 1 1 1 1 -1 4 1 -5 1 -1 0 1 0 1 -4 -1 1 -2 1 0 0 1 1 0 0 2 0 -1 1 2 5 0 -2 2 2 1 0 -2 0 4 0 1 0 1 2 3 1 0 1 -2 2 0 1 0 0 1 -1 0 -4 -4 2 0 1 -1 3 0 1 1 0 1 1 0 0 1 0 -3 0 0 0 0 1 0 -1 1 1 0 0 1 2 0 1 0 1 1 3 2 2 -6 1 -1 1 1 1 1 1 -4 -1 2 1 -1 3 1 0 0 0 -1 0 0 0 -1 2 0 1 1 1 0 1 1 0 2 0 3 -1 0 1 0 0 2 1 0 -1 0 1 0 0 1 2 1 1 2 1 3 1 -1 1 4 0 1 0 0 0 3 0 1 2 0 0 0 0 1 0 1 1 0 2 1 2 -1 1 2 0 -5 0 1 1 1 -6 2 61 154 180 182 184 185 186 186 187 186 186 185 181 187 187 186 188 189 188 186 189 185 188 187 189 189 187 188 190 188 187 189 189 188 187 188 187 186 187 178 185 187 183 185 186 185 186 186 184 182 184 183 184 185 187 185 182 183 177 183 182 181 181 182 183 172 180 181 182 181 175 179 181 182 181 180 182 179 178 179 182 180 180 179 179 180 179 179 181 179 173 172 182 183 185 183 185 186 188 188 191 192 192 180 191 189 179 137 57 32 101 162 182 185 186 188 187 189 189 181 190 179 188 192 191 191 192 187 191 193 184 191 193 191 192 188 191 193 190 190 192 191 192 190 191 192 191 191 187 191 192 192 192 180 190 192 183 190 193 193 191 191 193 193 192 188 193 192 191 182 193 195 192 192 193 191 180 179 191 194 191 193 192 193 192 191 192 192 190 192 192 193 193 190 188 192 192 192 193 192 192 193 181 191 192 193 192 188 193 193 191 193 192 185 192 193 187 192 191 179 192 193 191 181 191 192 192 193 194 194 193 189 192 192 180 119 22 1 1 1 0 5 52 108 177 191 188 192 194 196 195 194 194 193 191 185 192 188 188 181 184 183 181 177 162 144 141 141 141 141 135 142 140 141 139 141 141 138 138 140 138 137 133 137 137 137 137 131 136 137 127 124 128 135 136 134 127 135 133 135 135 134 135 136 134 133 134 135 134 136 136 137 133 128 137 138 135 140 131 143 145 147 148 150 150 153 156 158 159 160 162 168 168 161 158 151 152 88 18 2 1 -1 0 2 0 0 4 0 0 8 12 2 0 -6 0 -2 -1 1 1 -1 1 0 0 0 0 3 1 0 2 0 0 1 1 1 0 2 1 0 2 1 1 0 0 1 5 1 0 2 0 1 -1 0 0 0 1 1 -2 1 0 0 0 0 -2 1 1 1 0 1 0 1 2 1 1 3 1 1 0 1 0 0 -1 1 1 0 1 -1 0 1 0 2 1 2 0 1 0 -1 5 -1 1 1 -1 -1 1 0 0 1 
0 1 1 0 0 1 0 2 0 0 1 0 0 -1 1 1 0 0 1 0 0 2 -2 1 1 2 10 6 0 -2 2 2 0 0 2 1 0 0 1 3 0 -1 0 1 0 -2 1 2 -1 0 0 1 2 -1 1 2 0 -1 1 -1 1 -1 -1 -2 -7 0 0 5 0 -1 0 1 -1 -1 1 0 2 0 0 -1 -1 0 3 2 -1 0 1 0 0 -1 -1 0 1 0 1 0 0 -2 0 1 0 6 0 0 6 5 1 1 0 1 -1 0 1 3 -1 0 1 1 0 4 0 0 1 2 0 0 7 1 1 0 1 1 1 -1 4 1 1 0 1 0 1 1 2 1 1 1 1 1 -1 0 0 -2 0 0 3 1 0 1 1 0 2 1 6 5 2 1 -2 -3 -1 1 2 1 0 0 -1 1 1 -1 0 1 0 1 1 1 0 0 0 1 2 2 2 0 -1 5 76 160 162 180 183 186 186 184 186 180 187 186 186 186 186 177 188 187 189 188 187 189 190 189 187 187 188 188 188 189 187 184 186 188 187 187 187 182 185 185 182 181 186 189 185 185 187 185 177 184 183 174 183 181 184 184 182 182 182 182 182 183 182 181 182 181 181 177 180 179 170 180 181 181 181 172 181 178 178 166 174 179 180 180 180 181 180 179 177 166 172 180 180 180 181 183 183 181 181 186 189 189 191 190 193 191 190 164 155 83 30 92 146 177 182 184 177 187 196 191 189 190 191 189 187 190 191 191 191 192 189 192 191 190 193 194 192 190 191 181 176 190 179 184 190 186 184 191 192 192 191 192 192 191 192 192 191 191 192 192 191 189 193 193 182 192 193 193 191 193 193 193 193 192 188 191 183 191 193 190 192 192 193 191 192 191 193 192 193 193 193 193 184 191 180 183 192 193 192 187 191 185 180 179 193 192 194 193 192 192 192 193 193 193 192 190 192 193 193 192 192 181 182 193 192 187 192 193 193 193 191 173 169 180 125 28 2 1 2 0 6 57 141 154 177 193 192 194 195 196 194 193 189 190 191 191 190 189 188 188 185 183 175 176 164 148 145 146 146 145 140 145 145 145 145 144 142 143 142 141 143 136 141 133 141 141 140 134 140 140 138 138 139 134 137 139 136 139 137 136 138 139 140 140 137 138 139 137 141 140 141 140 140 142 143 143 145 146 147 149 150 152 153 154 157 158 160 161 163 165 168 169 158 169 168 141 66 35 2 0 0 -1 3 1 0 0 4 0 0 1 0 1 0 1 0 -1 1 4 2 -2 0 3 2 -1 1 0 0 0 0 1 0 0 1 1 -1 -1 1 0 1 1 0 0 1 0 1 1 1 0 0 2 2 1 1 1 1 3 0 0 3 1 0 1 0 0 0 1 -1 1 0 1 0 0 0 1 3 1 1 0 0 1 0 0 -1 -1 0 1 0 1 5 1 3 2 6 1 0 1 1 1 0 -1 4 -1 0 1 0 -7 
1 1 1 0 -1 0 -1 0 0 0 -1 0 0 1 -1 0 1 0 -9 -2 1 0 -1 -1 0 0 1 1 0 1 2 0 0 1 1 0 1 1 1 1 0 0 1 0 0 1 1 1 0 1 1 0 1 4 -2 1 1 2 -1 -1 0 1 4 0 -1 2 2 -1 1 0 2 0 0 -1 0 0 1 1 1 0 -1 0 1 0 1 0 -1 0 -3 0 1 -1 3 0 0 0 -7 -1 0 0 5 0 1 1 1 0 2 0 1 1 1 -8 0 2 -2 1 1 1 1 14 3 0 2 2 0 -1 0 1 1 3 2 -1 0 0 1 -1 0 -1 1 2 1 2 2 3 -1 1 -1 2 1 -1 -1 1 0 -1 0 0 1 -1 0 1 0 3 -1 0 0 2 4 1 1 2 1 0 0 0 4 0 1 1 0 0 -1 1 3 -5 -1 2 0 0 3 5 0 2 1 10 87 135 155 165 182 185 184 186 184 186 181 187 187 187 187 188 176 182 188 183 187 189 188 188 183 176 188 188 186 188 185 183 187 181 180 188 186 186 187 187 185 186 186 185 186 186 183 175 182 181 183 173 171 182 181 181 180 182 181 182 182 181 181 180 175 180 180 182 180 180 180 180 180 182 172 178 176 168 170 178 180 180 180 174 180 180 178 171 163 166 179 180 180 179 181 182 182 174 184 186 185 189 182 189 190 194 191 190 159 128 124 49 44 117 140 165 184 186 186 188 189 189 190 190 189 191 191 192 192 191 193 192 191 192 192 192 193 192 192 192 183 178 179 192 191 175 192 191 192 183 192 193 195 192 192 193 192 193 194 193 192 194 193 191 193 192 193 191 194 192 191 193 193 191 193 192 192 191 192 192 192 193 192 192 195 193 194 193 193 193 188 193 194 191 193 188 193 194 183 184 192 193 192 191 188 189 193 192 180 187 193 194 193 193 194 193 192 189 192 192 192 192 192 193 193 186 194 192 192 191 184 188 147 93 30 22 0 5 1 5 53 142 179 189 191 192 196 195 196 195 194 194 192 188 190 188 188 180 186 186 184 182 181 175 162 151 149 149 149 149 148 148 147 147 146 145 146 146 140 145 146 144 140 136 144 143 142 143 143 143 143 138 143 144 142 143 142 131 141 141 143 137 142 142 137 144 144 146 141 145 145 138 146 141 141 149 149 143 152 148 154 156 157 160 161 162 149 154 153 152 169 170 148 125 123 46 7 1 1 3 -1 -2 1 2 0 4 2 0 1 1 0 0 -1 -1 1 -4 -2 1 -1 -1 -1 1 1 0 0 1 0 1 -1 1 -3 0 1 -1 -3 1 2 1 1 0 1 1 1 1 -1 0 -1 1 -1 1 1 0 -1 0 1 1 -1 1 -1 1 0 1 0 2 2 0 1 0 0 -1 2 -2 -5 0 0 1 0 0 -2 0 0 0 0 1 1 0 1 1 -1 0 1 2 0 -3 0 1 0 1 -1 2 -1 1 -1 1 0 -5 
0 0 0 0 3 4 4 0 0 1 3 0 3 3 1 0 1 0 0 0 0 -4 1 1 2 0 -1 -2 -1 0 0 0 1 1 1 0 1 1 2 1 1 2 0 0 1 5 1 0 0 1 0 1 2 0 0 0 -1 -1 0 -3 0 0 1 0 1 5 3 1 -1 0 2 0 0 -7 1 0 2 0 0 0 1 -2 0 0 -1 1 -1 0 1 0 1 1 0 1 1 1 -3 2 -1 5 3 1 0 0 1 0 4 2 2 8 0 0 0 2 -1 1 2 0 3 1 -2 1 1 1 0 -1 2 1 1 1 2 1 -1 4 2 3 0 0 1 3 1 0 1 0 4 1 0 1 3 1 0 0 2 0 -2 2 2 1 2 0 1 2 1 -8 0 0 0 -1 1 0 -2 -1 -1 1 1 1 0 0 2 1 0 0 6 -3 0 -1 0 0 0 0 1 2 -1 8 92 167 179 181 182 182 184 185 185 185 186 186 183 186 187 188 183 181 187 188 181 187 186 185 187 187 186 182 187 179 186 186 187 186 185 187 185 186 186 185 186 186 184 180 185 184 184 185 183 183 182 178 169 172 178 182 182 182 182 182 181 181 181 181 172 167 180 182 179 173 179 179 180 179 181 180 172 174 177 179 179 180 178 180 178 180 178 177 177 178 179 178 180 180 180 181 180 182 183 184 184 189 187 188 185 191 191 192 189 171 181 149 75 32 106 154 178 184 184 188 190 187 182 189 190 191 191 193 190 190 191 192 186 191 189 192 192 187 193 192 191 191 193 192 191 184 189 180 182 192 192 192 193 193 192 189 193 196 190 190 192 191 192 192 193 191 192 190 192 191 180 194 193 187 193 192 191 192 191 190 191 191 188 192 194 198 194 195 193 194 191 192 182 188 192 193 192 192 193 191 184 194 193 193 193 194 192 189 183 191 194 193 193 194 192 193 193 192 193 192 191 194 193 193 193 188 193 182 191 188 192 184 128 27 16 8 2 0 3 50 141 179 191 193 190 195 194 195 187 194 195 193 191 191 191 189 188 180 188 186 185 182 178 174 160 152 151 151 152 151 141 148 139 148 150 151 149 149 149 149 148 147 148 145 147 147 147 146 145 146 145 146 146 145 145 146 138 131 134 145 147 146 147 147 141 147 149 148 148 150 149 150 150 150 144 153 154 154 156 157 148 160 161 161 164 165 165 166 143 149 169 166 144 70 26 3 1 0 1 0 -1 0 1 1 1 0 1 0 1 0 -4 0 1 1 1 0 1 2 1 -1 2 -1 0 2 0 1 0 0 0 2 0 -1 0 2 -1 -2 0 -1 1 1 1 0 1 1 0 0 1 1 0 -3 -2 0 2 -1 1 0 1 1 2 1 1 0 1 2 1 1 0 -1 1 1 4 1 1 -1 0 0 0 -5 1 0 -1 0 0 0 0 1 1 1 -1 1 -1 1 1 0 0 0 0 1 0 0 1 0 0 1 1 -1 
1 1 0 0 -1 1 1 0 0 1 1 5 2 2 2 0 3 1 4 0 1 2 1 1 4 1 0 0 1 0 1 1 0 3 1 0 2 5 0 0 1 3 1 1 1 5 2 1 4 1 2 0 0 0 2 0 -1 0 0 1 1 0 -1 0 0 1 0 1 0 0 0 0 1 0 0 1 0 0 0 2 0 -1 -1 1 0 -5 1 1 1 0 1 1 0 1 0 1 2 2 1 1 1 0 0 1 0 1 0 1 1 0 0 0 -2 -2 -1 -1 1 2 -1 0 0 1 0 -2 -1 -1 1 0 1 1 0 1 -3 0 0 0 1 1 1 0 0 1 6 0 1 1 1 5 0 5 2 2 2 0 1 1 -1 1 0 2 -1 -1 1 0 0 0 0 2 -1 -1 1 0 1 1 2 0 -2 1 0 0 1 0 1 -1 0 0 1 0 1 -1 0 1 0 10 96 169 181 183 177 183 184 176 184 181 185 187 187 186 186 187 186 187 179 188 181 187 188 188 187 186 189 186 186 183 186 186 186 185 185 187 185 179 180 185 180 176 183 184 183 183 180 184 185 179 183 183 183 182 182 181 182 181 181 181 181 170 179 182 180 181 181 181 180 171 180 180 174 175 179 176 180 178 179 179 179 177 171 178 178 174 180 179 179 177 176 178 177 177 176 180 181 181 183 184 184 185 180 177 188 189 190 190 190 191 193 188 136 113 98 60 128 171 183 184 185 187 187 188 184 189 190 190 189 181 187 190 180 190 181 192 190 185 191 191 192 188 191 192 192 191 190 192 191 191 184 191 192 193 192 193 192 191 193 188 192 193 191 191 192 183 183 193 192 184 178 192 188 193 192 192 194 192 191 177 191 182 192 192 194 193 192 193 193 192 193 194 193 191 192 193 193 193 192 192 193 192 192 192 193 188 193 193 193 186 194 191 193 193 192 193 193 193 192 192 192 193 187 192 189 193 191 177 187 189 184 139 38 18 2 1 0 4 46 136 178 190 184 192 194 195 196 194 184 194 193 192 190 185 189 189 179 183 187 186 185 183 180 174 162 154 154 153 152 153 154 150 127 134 152 153 153 150 151 150 151 151 153 150 150 149 150 150 148 149 149 148 148 145 148 148 148 148 147 150 151 150 151 150 151 151 152 152 152 153 153 153 156 157 157 156 151 159 160 164 162 163 166 166 166 164 169 168 149 164 124 116 49 6 1 1 0 1 0 1 1 1 6 8 1 -1 0 1 3 1 -1 3 1 1 3 1 0 0 -1 0 -3 -4 -3 -1 1 1 1 0 1 -1 0 -3 0 0 -1 0 0 1 3 0 1 1 -2 0 1 -1 0 -1 -1 0 0 -2 1 0 0 1 1 2 6 4 1 1 1 2 0 1 2 0 1 0 0 1 0 0 0 0 0 -4 1 3 1 -2 1 1 1 0 0 1 0 -1 -2 0 1 2 0 0 1 0 -1 0 -1 -6 0 1 0 0 
-1 -2 -1 0 1 -5 -2 0 -1 0 -1 -1 1 0 0 6 1 1 -1 1 0 4 -1 0 0 4 1 -1 -1 1 1 0 1 0 0 -1 -1 1 0 2 7 1 4 1 1 -1 1 0 0 0 -1 -3 0 -2 1 0 0 0 0 1 1 0 -1 4 0 1 1 1 1 0 0 -1 0 -1 2 -1 2 1 3 1 1 0 0 8 -1 0 -1 -1 1 0 1 -1 -1 5 0 -1 2 1 2 0 0 -4 1 -1 0 -1 0 0 1 0 1 1 0 0 0 1 2 5 2 4 1 0 -1 0 3 -1 1 1 -1 1 1 1 0 -3 0 1 0 0 1 -1 -1 0 1 1 -1 0 2 0 1 1 1 1 1 1 0 -1 -1 2 0 0 0 0 0 0 1 0 -1 0 -2 0 4 -1 -1 0 0 0 0 1 4 1 1 0 1 0 1 1 1 0 3 0 -1 1 -1 7 94 168 178 181 183 184 182 184 184 183 181 184 186 187 185 187 185 185 179 186 186 188 188 187 186 185 187 182 185 181 186 186 187 186 181 186 185 186 185 185 183 185 184 183 174 171 184 183 183 183 182 177 183 181 180 181 181 181 172 181 181 181 181 179 175 181 180 180 179 179 180 179 180 179 178 177 179 177 179 179 179 177 177 177 178 177 179 179 176 171 177 174 168 178 178 174 179 181 181 180 182 183 173 184 186 187 189 186 191 190 191 192 189 179 140 58 30 98 160 178 183 185 180 186 187 187 189 189 183 184 190 189 183 190 171 190 190 183 185 192 192 191 194 191 191 185 191 190 191 180 178 191 194 192 192 190 193 191 192 187 193 193 192 191 192 193 192 192 191 192 190 192 191 188 185 185 189 188 193 180 183 191 192 193 193 193 193 194 193 193 189 193 187 192 194 192 192 192 194 192 193 193 195 193 194 193 193 192 193 192 193 187 194 193 193 193 191 194 194 192 192 191 193 194 192 191 189 189 184 186 141 32 4 1 6 0 3 45 134 177 190 187 186 181 193 195 196 196 189 193 193 193 191 192 189 188 189 188 188 181 184 173 179 174 160 156 157 156 156 155 150 153 130 133 152 155 153 156 153 153 153 154 153 152 143 144 151 152 152 152 150 147 151 150 152 151 150 151 147 153 152 154 153 150 155 154 155 154 156 157 157 158 157 160 160 161 161 162 161 165 165 167 166 166 165 168 169 167 156 104 69 18 2 3 4 0 0 2 4 1 1 4 2 1 1 1 -1 -6 1 0 0 1 -2 1 0 2 0 0 2 0 0 0 -1 0 1 1 -1 -4 -1 1 -4 1 -1 0 0 1 1 0 1 0 -1 0 0 0 1 0 0 0 1 1 0 0 1 0 0 -2 0 1 0 0 2 0 1 0 -1 -1 1 1 1 0 -1 0 1 2 -2 2 1 0 0 -1 0 2 4 0 -1 0 0 -1 1 0 0 0 1 1 1 0 2 0 -1 1 1 1 0 -1 0 -2 
0 0 1 0 -1 1 0 1 -1 1 1 1 0 -1 1 0 0 1 0 1 1 0 -2 1 0 5 0 1 1 0 0 0 -1 0 2 0 1 1 -1 0 1 0 -1 1 0 1 0 2 2 0 1 0 -6 -1 0 2 1 0 1 0 0 0 2 5 0 1 -4 1 1 1 1 -1 0 0 2 1 1 1 1 0 -1 1 2 0 0 0 1 1 1 1 0 -4 1 0 1 -1 1 0 0 1 0 0 0 1 0 2 0 -6 1 1 1 1 0 0 1 0 1 1 3 1 -1 -1 -2 0 1 1 0 1 1 1 1 -2 0 1 2 1 0 0 0 -1 1 0 1 4 2 1 0 4 0 1 -1 2 1 1 1 1 0 0 0 0 0 0 1 2 0 -1 0 1 -4 1 -1 0 -1 -3 1 2 3 0 0 1 1 0 2 2 1 0 4 0 1 0 0 1 -1 5 84 166 177 179 181 184 181 182 184 185 184 184 180 184 186 186 186 186 186 185 185 185 178 177 186 185 186 185 186 185 186 187 186 185 178 184 184 186 185 185 183 185 184 184 183 174 182 183 183 183 182 182 182 182 181 181 180 180 180 182 182 181 181 180 180 181 180 180 177 172 179 180 176 177 169 178 178 179 177 179 178 179 178 179 179 177 178 177 177 178 178 176 177 177 178 178 177 177 178 180 182 182 181 169 184 187 187 188 189 185 189 178 190 184 186 160 97 30 63 108 168 180 183 174 185 186 182 188 189 189 190 191 191 185 182 193 193 191 192 191 194 194 192 192 188 182 181 192 191 190 193 192 193 193 193 192 192 192 192 192 191 186 190 180 182 193 193 193 193 193 193 185 184 191 192 192 192 192 183 190 192 193 193 193 193 192 194 187 197 192 193 192 192 184 193 193 194 193 194 191 194 194 193 189 193 192 189 192 193 193 193 183 192 193 191 193 193 193 193 192 193 190 188 193 194 189 191 193 181 142 73 6 2 0 1 2 41 131 175 190 194 194 195 196 196 195 195 194 194 193 190 192 192 191 182 189 188 188 186 178 184 182 180 170 159 159 157 158 158 159 156 149 155 155 155 157 155 152 155 154 155 155 154 155 154 154 154 155 154 148 153 153 148 154 156 155 155 155 155 155 155 147 156 155 157 159 153 153 158 160 161 160 151 163 165 164 165 166 165 167 166 159 168 169 160 162 124 136 84 51 6 0 0 1 0 0 0 1 1 0 2 0 -1 1 0 -1 1 0 0 -1 0 0 1 1 1 6 0 0 -1 0 -1 -1 -1 -4 1 -2 0 -7 1 1 0 1 1 -4 1 -1 5 1 0 -5 0 0 2 1 0 1 1 0 1 2 -1 0 1 -1 -2 2 1 0 2 1 0 0 -1 1 1 0 0 1 0 -2 1 0 2 2 0 1 1 1 0 0 0 0 2 1 0 0 -1 -2 -1 0 -1 1 1 1 0 1 0 -1 1 0 -1 1 1 0 0 0 
1 0 1 3 0 0 1 2 1 1 1 0 -1 -5 1 0 0 -1 0 2 1 1 1 1 1 3 0 0 0 0 0 0 0 3 0 1 -1 3 0 1 0 -1 0 -1 1 0 1 0 1 2 1 1 -1 1 1 1 -1 1 -1 1 5 1 0 0 -1 -2 -1 1 -1 1 0 1 0 0 1 2 1 0 0 -6 -1 0 1 0 3 0 1 0 -1 -1 0 1 -3 0 1 -4 0 1 1 5 1 0 0 1 0 0 1 1 -1 2 0 0 1 0 -1 0 0 0 -1 1 1 0 0 0 0 -1 0 1 1 0 1 1 0 2 0 0 0 1 0 0 1 1 -1 1 2 -1 0 -1 1 1 6 1 0 -1 1 0 0 1 -1 0 1 1 0 1 0 0 1 1 1 0 1 0 1 -8 -8 -1 2 1 0 1 0 9 1 1 0 2 2 1 0 1 0 0 1 5 58 157 170 178 181 181 177 182 182 183 185 183 183 178 185 185 185 186 184 186 186 185 185 186 186 187 184 186 181 185 186 185 185 184 184 179 184 184 184 182 174 173 184 184 183 183 182 181 183 183 182 181 180 181 181 181 177 170 180 182 180 181 180 179 181 179 172 179 178 178 178 166 169 178 178 175 175 177 178 178 176 177 179 179 178 177 178 175 176 176 178 177 178 176 177 167 173 175 177 178 180 181 180 169 183 183 185 187 183 188 188 178 177 188 193 189 174 127 50 30 97 144 170 180 184 185 186 187 188 189 187 186 191 189 189 191 190 190 177 191 191 191 192 193 192 189 192 192 193 194 192 190 191 193 192 192 194 194 194 192 182 192 192 182 190 192 192 192 186 191 188 192 192 193 182 192 187 192 192 194 192 193 192 191 192 193 192 194 194 193 192 193 192 193 193 193 193 193 192 189 192 193 194 186 193 191 193 193 187 193 194 193 193 194 192 193 192 193 192 192 194 193 192 194 192 190 190 165 95 29 25 2 2 12 4 37 130 175 189 194 194 195 196 194 195 194 190 194 193 185 182 191 192 190 182 190 188 188 188 186 174 168 177 169 162 160 161 160 159 159 158 154 158 157 157 158 157 158 157 158 157 157 158 157 158 157 157 156 156 157 152 155 150 157 151 152 151 158 157 157 158 158 159 160 160 161 161 162 161 164 164 163 163 166 165 168 166 167 167 168 168 168 169 167 157 95 56 33 37 22 3 2 0 1 -1 0 -3 1 1 -3 1 2 1 0 1 0 0 0 1 0 1 2 0 1 4 0 1 -1 0 -1 -1 0 0 0 1 0 1 0 1 0 -1 1 0 1 1 0 0 0 0 0 1 -1 0 0 1 1 4 0 -1 3 0 1 0 0 0 0 1 2 1 2 0 1 1 1 1 1 1 2 0 -2 -1 1 1 1 3 1 0 1 1 0 0 1 1 1 0 1 1 0 2 0 -4 -8 -1 0 0 0 1 1 0 1 0 3 0 1 1 0 
1 0 0 0 1 -1 1 0 0 0 0 1 -1 0 0 -2 -7 1 1 0 0 1 0 0 1 1 -1 0 5 1 1 0 2 1 3 0 -2 1 0 0 -7 -1 0 1 4 -1 0 0 -1 1 0 2 1 1 1 0 -5 0 -1 -5 0 1 -1 1 -1 0 0 1 1 1 -3 -1 0 -5 -3 2 4 1 0 1 0 3 3 0 1 1 -1 0 0 1 1 -2 1 2 1 2 1 1 0 1 -1 -3 1 -1 0 1 -1 1 1 -1 1 5 0 1 -1 0 0 -1 0 1 0 -2 1 -1 2 1 1 0 0 1 -1 0 1 0 0 -3 3 1 0 0 1 2 1 0 2 0 1 1 1 0 0 0 0 1 1 -1 -1 0 0 2 0 0 0 0 0 3 3 2 2 0 0 1 1 0 1 0 1 0 1 1 0 0 0 0 0 1 1 -1 -5 1 -1 5 0 14 39 148 173 179 177 178 180 181 183 183 184 183 177 183 181 183 186 185 185 185 186 187 185 184 185 184 185 184 185 184 185 184 172 172 185 185 183 185 176 183 183 181 183 175 182 183 182 182 183 181 181 181 180 173 181 178 180 179 180 178 180 180 178 171 177 180 174 179 178 178 179 178 178 178 174 175 168 177 179 178 178 171 177 177 166 176 176 178 177 176 176 172 177 177 177 176 177 177 175 168 176 177 180 181 182 182 184 185 185 181 188 189 189 190 191 192 191 158 130 109 49 33 88 147 171 180 182 176 185 184 186 187 179 189 189 190 176 172 176 183 190 192 191 192 191 192 192 192 192 192 191 184 177 191 192 193 191 193 187 192 190 193 191 193 192 193 192 190 194 192 191 192 191 188 192 193 193 192 184 186 193 192 192 191 186 193 192 192 193 193 194 193 192 185 193 193 192 193 193 193 194 194 192 193 192 180 193 192 192 192 193 195 193 191 184 191 192 194 193 195 194 192 193 192 192 183 150 84 8 1 9 0 2 33 58 106 174 189 194 194 189 195 195 196 194 194 193 193 191 191 192 191 191 190 188 180 187 187 185 187 183 179 174 168 162 162 156 160 160 161 162 160 159 154 159 155 159 150 159 154 158 158 159 158 158 157 159 160 159 160 161 159 159 156 160 158 161 160 160 162 160 155 160 163 164 164 164 165 166 165 164 166 159 162 167 167 164 167 168 168 161 165 158 134 83 28 4 2 3 3 1 1 3 0 -6 0 0 1 1 0 1 6 1 1 1 0 0 1 -2 -1 0 1 -4 1 1 0 1 -2 0 -1 1 0 0 2 1 0 0 0 0 0 1 1 0 -1 0 1 1 1 0 2 0 -1 0 1 0 0 0 1 2 0 1 1 0 1 4 1 1 -1 1 0 7 1 3 -1 2 0 7 0 0 0 0 -1 1 0 0 0 1 0 -6 -1 1 1 1 -4 -1 -2 0 0 0 0 0 -1 1 0 -1 0 1 1 0 -1 0 1 -2 -1 0 -1 
-1 -2 0 0 -1 0 1 1 1 0 0 -1 0 1 0 -2 0 3 1 4 3 2 0 0 0 1 0 1 0 1 1 0 0 1 0 1 0 1 1 0 1 0 0 2 7 2 -1 0 0 1 1 0 0 0 0 0 1 0 1 0 -1 1 0 11 1 0 0 1 0 1 0 0 -1 1 5 8 1 1 1 0 0 0 -1 -5 0 0 2 1 1 0 0 1 -1 1 1 0 1 1 1 0 1 1 0 1 1 1 0 2 7 1 1 1 1 0 0 -1 1 -1 -1 1 0 0 0 0 1 1 0 0 2 -1 0 0 1 1 0 0 2 -3 0 0 0 2 -1 0 1 0 1 1 -1 0 0 0 0 0 0 -1 -2 1 -1 -1 0 0 1 -2 1 1 0 1 1 1 1 1 1 3 1 1 0 1 0 4 -4 0 4 0 0 0 1 1 0 1 0 0 0 0 22 134 156 176 173 179 177 182 184 182 183 185 184 183 171 175 183 185 182 184 185 185 184 176 185 185 185 182 185 184 180 186 174 172 175 183 184 185 185 182 184 185 184 183 182 179 182 182 179 181 180 179 180 180 180 180 180 181 175 180 181 174 179 179 179 178 178 166 177 179 176 176 178 178 177 179 177 178 178 178 179 178 177 172 169 176 170 177 173 179 177 177 176 177 177 168 175 177 176 176 172 178 178 176 180 181 181 179 183 185 188 187 188 190 189 191 193 190 188 181 158 103 41 37 77 117 170 165 181 184 185 185 186 182 188 182 187 178 187 190 189 190 191 191 189 191 192 192 192 192 191 191 180 190 190 192 193 191 191 192 191 193 193 192 193 193 193 192 192 189 193 185 175 189 186 186 194 194 193 192 184 192 182 184 193 193 193 191 189 193 193 189 193 193 193 193 194 194 194 193 192 192 193 193 191 176 181 185 192 189 191 193 183 191 183 192 194 194 193 193 186 192 192 175 171 113 34 4 -1 0 1 4 20 92 119 178 190 181 193 193 196 196 196 196 195 194 187 188 192 192 191 191 191 190 190 177 188 188 185 179 184 181 177 168 163 163 163 162 162 162 162 161 161 163 162 161 160 161 161 160 161 161 161 160 161 163 161 160 162 161 160 161 159 161 156 162 162 163 163 163 153 153 164 166 166 165 164 163 166 154 157 167 169 168 169 165 160 168 165 162 152 127 78 26 5 1 1 1 0 3 0 -1 4 0 -1 0 1 1 0 0 1 0 6 0 0 -1 -4 0 0 1 0 0 1 1 1 1 1 -1 0 0 1 0 0 1 -1 1 1 0 2 3 1 2 -4 1 -4 0 -3 1 2 1 -1 0 1 1 0 0 1 0 1 1 0 0 0 -1 2 2 2 0 0 2 0 2 0 -1 -2 0 3 1 1 1 3 1 1 0 1 2 0 1 -1 1 8 2 0 -3 -3 0 0 1 1 0 0 -1 1 -1 0 2 0 0 1 1 -3 0 0 -3 0 0 
-1 1 0 1 1 1 1 0 1 0 1 0 1 1 1 1 0 0 0 2 5 1 1 0 1 0 1 1 1 0 0 -1 0 1 2 1 0 1 0 -3 1 0 -1 1 0 2 1 0 0 1 1 0 1 0 1 0 1 0 -1 -1 1 3 0 7 0 1 -4 0 2 -1 1 1 0 0 2 2 7 1 1 1 -3 0 -5 -7 1 0 -1 1 7 -1 1 1 -1 -1 0 1 0 1 0 1 1 1 1 0 0 1 0 8 2 1 1 0 0 1 0 0 10 1 -1 0 1 0 -1 -1 0 1 5 0 6 0 0 1 1 -1 0 0 0 1 0 1 2 2 -2 -5 0 1 3 1 1 1 0 0 1 1 1 -1 0 0 1 5 0 0 2 -1 0 1 1 1 -1 1 1 1 -2 4 1 1 0 0 0 -1 0 0 3 6 0 0 4 1 -1 -2 0 -3 1 1 37 117 169 176 178 179 179 182 181 182 182 182 184 173 184 182 175 185 177 184 184 185 186 184 185 184 186 182 184 184 184 185 183 184 184 183 183 184 183 182 183 183 182 183 182 182 182 175 173 181 180 180 179 181 175 180 180 179 180 177 180 179 178 178 180 179 179 170 179 179 166 176 179 176 178 179 177 176 173 178 177 177 177 176 175 173 176 176 177 178 177 178 178 176 171 176 177 174 178 177 174 176 177 177 178 178 180 181 181 181 184 186 188 187 190 189 192 192 191 192 189 181 153 97 35 37 97 151 176 181 182 185 180 187 188 188 189 189 187 189 190 186 190 190 185 191 191 179 190 191 191 188 192 190 192 182 190 192 192 192 184 191 192 192 191 188 192 193 192 192 191 193 194 194 191 193 192 192 194 191 194 193 184 181 192 194 193 193 191 192 193 191 194 192 193 192 193 191 193 192 187 193 185 193 191 193 193 193 185 191 191 181 191 192 185 193 193 193 194 193 193 192 185 150 82 11 7 3 1 1 5 48 124 167 162 192 194 194 186 190 195 197 196 193 196 195 193 193 192 191 187 191 190 191 188 174 176 183 185 184 182 172 175 168 166 153 159 163 165 160 151 164 162 163 162 159 163 164 163 162 158 159 162 165 161 164 162 163 163 163 150 152 159 163 159 164 166 171 167 166 167 161 166 167 168 168 168 168 169 166 161 168 167 169 169 165 162 155 116 112 67 24 5 1 6 1 0 1 1 0 4 2 0 0 -1 0 2 0 0 1 3 0 1 2 1 0 -4 0 0 1 2 0 0 0 0 0 1 1 2 1 0 0 1 1 0 0 0 0 2 4 2 1 1 0 1 0 0 2 0 1 0 0 0 2 1 1 1 -2 0 1 1 1 1 1 0 0 -3 1 0 3 1 0 2 1 0 0 0 0 1 0 2 1 0 1 1 -2 0 0 2 0 2 4 1 0 0 0 0 2 0 0 1 1 -1 0 0 0 -3 -1 1 0 1 0 0 -1 0 0 
0 0 1 0 -1 0 3 1 1 0 2 2 -2 1 0 1 0 1 0 7 -1 1 -1 -5 0 -2 -4 -1 1 3 0 1 1 0 0 -1 1 0 -3 -7 0 0 2 1 0 1 1 2 -1 2 2 0 1 0 1 0 1 2 2 1 0 0 -2 -1 0 1 -1 0 1 0 -4 1 0 0 1 0 1 0 1 0 0 0 0 -4 1 0 0 -1 1 1 0 2 -1 -5 0 0 -1 1 0 0 1 1 2 -3 0 0 1 7 1 -1 2 2 0 1 1 0 3 1 1 1 1 1 0 -1 0 0 1 0 -3 1 3 0 2 1 1 2 1 0 -1 0 0 -1 1 -1 0 1 -1 1 0 0 0 1 1 -1 1 1 1 -1 1 1 1 1 0 1 2 1 1 1 -1 2 5 1 0 1 4 5 1 0 0 2 -1 0 -2 1 0 1 1 1 1 1 0 -1 1 0 6 95 164 173 177 179 179 170 179 182 182 182 183 184 179 175 175 184 184 185 184 184 184 178 184 186 184 183 184 184 183 184 183 184 184 183 182 180 182 182 183 182 182 182 171 169 180 181 181 180 180 180 178 179 179 179 177 179 178 171 172 178 171 178 179 179 180 178 178 178 170 177 178 176 177 179 180 178 172 177 178 176 174 159 175 176 168 176 176 176 176 175 176 177 176 174 177 178 178 177 176 175 167 176 176 166 170 179 181 182 182 184 185 179 187 188 180 190 179 190 190 191 189 180 149 90 32 44 97 155 177 183 184 184 186 186 187 188 187 187 188 189 185 189 186 186 191 190 190 191 191 188 191 194 191 190 180 184 193 187 191 191 192 192 191 192 186 181 192 191 191 194 197 195 194 186 191 191 192 191 193 193 188 193 193 194 192 193 184 186 193 192 194 192 192 193 193 193 193 193 193 193 190 191 193 193 192 193 192 191 192 192 193 193 193 190 182 192 175 178 190 176 126 38 4 0 1 4 6 16 69 121 178 170 179 193 195 193 193 195 187 196 196 195 195 193 188 193 193 191 192 190 186 187 189 178 187 187 184 185 175 180 175 168 162 152 152 150 165 163 165 165 165 159 165 165 165 163 163 154 164 164 165 166 164 165 164 165 165 166 164 166 166 167 166 167 164 169 168 168 168 168 167 168 170 167 168 169 169 169 167 168 149 163 157 119 98 83 38 11 3 6 1 4 1 1 0 0 1 2 2 1 1 0 -1 0 3 2 0 1 0 3 7 7 -2 0 1 2 7 2 0 0 0 0 3 1 0 0 1 0 0 -6 1 6 0 1 1 1 1 1 2 0 2 2 0 1 1 -3 1 1 1 1 0 1 0 -1 1 1 0 1 2 -1 2 0 1 2 0 1 0 1 1 -1 0 1 0 1 2 0 2 -1 0 1 1 1 4 1 -1 1 0 1 1 1 0 0 4 1 1 5 0 2 0 0 -2 -1 1 -1 0 -1 0 1 -1 -1 0 0 -3 0 
0 0 0 0 1 0 1 1 1 1 1 -1 -8 -1 1 2 0 1 0 1 1 1 -1 0 1 2 1 0 0 2 1 0 1 2 4 0 1 1 0 1 0 0 1 2 0 -1 1 0 1 15 2 0 0 1 0 0 1 0 0 1 0 1 0 2 1 0 2 0 1 -2 0 1 -1 1 -1 0 1 2 2 0 5 5 0 -1 -1 1 0 1 1 0 0 0 1 -1 0 0 0 -5 1 2 1 1 0 -1 1 0 5 1 0 1 1 2 0 1 0 0 2 0 0 0 1 1 0 1 0 0 2 -1 0 1 1 1 0 1 1 2 0 0 0 0 2 2 0 -1 0 0 0 2 1 1 1 -1 0 1 2 1 0 -1 1 1 1 1 1 2 2 9 0 -2 1 1 1 1 1 1 0 0 0 0 -1 0 1 0 0 1 1 1 1 0 -1 0 1 0 2 1 7 75 157 172 176 177 179 170 179 181 181 181 183 184 183 184 182 184 182 173 182 183 182 174 183 184 183 183 183 183 177 183 180 183 182 183 184 182 182 180 177 183 181 179 170 179 182 180 183 181 179 180 178 174 179 181 178 168 170 179 179 180 172 168 177 178 174 179 178 177 177 176 178 178 178 178 179 176 177 173 178 177 166 157 155 159 176 175 171 175 177 176 177 176 170 170 176 173 175 176 175 175 166 175 176 175 177 179 179 180 179 182 182 176 185 186 175 186 188 190 191 190 187 187 187 152 143 82 31 54 116 158 176 182 183 183 184 182 187 187 189 185 189 189 189 189 190 191 190 191 191 191 188 191 190 192 193 192 192 193 192 194 190 192 192 191 191 191 192 193 193 193 193 193 194 190 191 191 192 191 180 192 192 184 193 193 192 193 182 191 183 193 192 193 192 192 193 194 192 193 189 192 192 184 191 185 192 191 193 192 192 192 192 192 193 193 179 173 176 185 156 86 50 4 0 2 3 35 68 104 166 185 193 194 193 195 194 185 185 182 194 195 195 193 193 191 192 192 192 190 182 181 191 189 189 188 187 186 175 183 182 178 173 170 168 166 167 166 161 166 168 165 154 164 165 166 167 166 166 164 154 165 166 166 167 167 164 167 168 167 168 168 168 169 168 168 161 159 168 164 169 169 168 170 169 169 170 169 169 167 164 160 150 106 98 54 20 4 2 1 -1 0 1 -1 1 2 0 0 -2 0 -1 1 0 2 1 1 0 4 0 2 1 1 2 1 1 1 0 5 4 -1 1 0 0 0 1 0 0 1 4 0 1 1 0 1 2 1 0 0 0 0 0 0 1 1 0 0 -1 0 0 3 1 0 2 1 2 0 -1 1 -1 0 2 -1 1 0 1 0 0 2 1 0 1 1 0 1 -1 0 6 2 -1 1 1 0 0 7 0 2 0 0 1 0 0 -2 -1 1 0 1 0 1 2 0 -1 1 0 0 1 -1 2 0 0 1 0 0 -1 -3 2 1 
0 0 0 -6 2 1 1 2 1 1 1 2 -7 0 1 1 1 0 -2 0 1 0 1 0 -1 0 1 0 1 0 -2 -1 2 1 1 0 0 0 -1 0 -2 -1 0 0 2 2 0 0 2 5 1 0 0 1 6 1 2 0 0 1 1 1 1 1 1 1 0 0 1 -3 1 1 4 1 1 0 1 1 1 2 0 0 1 1 1 1 0 0 0 0 -1 0 -1 0 1 -5 -3 1 0 0 0 2 0 1 0 1 2 2 0 0 1 1 0 2 2 -1 3 1 1 1 0 1 0 0 -1 -3 1 1 1 0 0 0 0 0 1 0 -1 0 1 0 -1 0 -1 1 3 1 0 1 1 2 0 1 0 -1 1 0 1 1 0 2 0 1 0 -1 1 2 2 1 1 0 1 -1 2 0 0 1 3 0 2 4 1 -1 -1 2 1 0 1 -3 -2 1 2 1 1 1 14 60 141 170 174 176 179 179 179 179 180 180 184 181 183 183 183 172 175 174 181 171 169 172 182 183 175 183 181 170 168 181 183 182 180 184 183 181 175 178 179 181 181 180 178 181 176 180 180 180 174 178 179 179 179 180 180 179 178 167 178 179 176 167 177 179 178 179 177 179 177 178 176 178 176 174 169 177 176 177 176 176 175 175 175 175 175 175 176 176 174 175 173 175 175 177 171 165 174 171 173 169 176 176 175 175 176 176 177 178 173 181 180 181 184 183 185 186 187 188 188 186 185 191 193 189 188 174 142 94 31 55 121 158 171 169 180 183 185 185 185 186 186 177 186 188 189 190 192 191 191 188 190 189 187 191 190 193 192 189 193 191 191 190 195 192 193 191 191 191 193 193 193 193 191 193 193 193 194 192 186 191 192 180 192 191 192 184 191 176 190 191 192 193 194 193 192 189 194 193 192 185 185 190 191 183 193 187 192 191 192 185 175 182 193 192 192 185 169 123 43 7 10 3 17 8 42 68 126 177 189 195 195 195 196 194 190 196 195 195 196 193 194 193 191 193 187 192 192 193 190 190 181 189 189 187 187 189 186 184 182 178 172 169 169 168 168 168 169 167 168 168 167 167 168 167 169 168 166 169 168 167 167 169 168 170 169 167 164 168 170 170 171 170 169 170 157 154 170 170 161 169 169 165 169 168 166 156 158 147 129 103 65 25 7 5 1 0 2 1 1 1 -2 -5 0 3 3 -1 1 1 0 -1 0 2 0 0 -2 -1 1 1 0 1 1 2 -1 1 1 3 0 1 0 0 1 0 0 2 2 0 3 0 1 -1 -2 0 5 2 0 0 -1 -1 0 0 1 1 0 0 1 0 0 0 0 -2 1 1 1 -1 1 0 1 1 0 2 1 -1 0 1 -1 1 0 0 1 -9 -1 -1 0 0 1 1 -3 0 0 2 0 1 5 0 0 4 2 0 1 2 7 -1 0 0 2 0 0 0 1 2 1 2 1 1 0 0 1 2 0 1 1 1 0 2 
0 0 1 0 0 0 0 0 0 1 0 2 1 1 0 -1 0 0 0 -1 0 2 2 7 0 0 0 2 0 -1 0 0 1 0 0 -4 0 2 2 0 1 1 1 6 1 0 2 -1 0 1 4 -1 0 0 1 0 0 0 0 -1 0 0 2 1 0 1 0 2 0 0 0 0 0 1 -1 1 2 1 0 0 0 -1 1 -1 -1 0 0 0 -1 -5 -2 0 0 0 0 -9 -1 4 0 0 0 0 0 4 -1 -1 0 2 0 2 2 2 0 -1 1 0 0 0 0 0 2 2 2 0 3 0 0 0 1 -1 0 -3 1 1 -1 0 -3 0 1 -1 0 -2 1 2 0 5 0 2 1 -1 0 0 0 0 3 0 0 1 -1 0 0 0 -1 1 0 0 0 4 1 0 0 1 2 1 2 5 0 0 1 2 4 1 -1 2 0 0 1 0 1 -1 1 2 2 0 2 10 108 166 173 175 178 178 172 170 172 180 180 181 183 183 183 181 183 182 166 168 181 184 175 182 184 181 180 182 182 182 183 184 182 182 181 182 183 179 166 181 175 169 173 180 179 169 179 181 178 175 178 179 180 178 172 177 177 177 177 178 177 173 177 176 177 178 178 177 176 177 178 163 164 176 164 176 178 176 176 176 179 177 176 175 171 174 176 175 174 173 169 170 176 176 174 175 170 173 176 175 175 176 175 175 158 159 171 175 172 178 178 181 182 184 183 184 188 185 186 182 188 188 188 192 191 190 188 173 134 66 29 51 96 137 139 174 182 183 184 184 183 185 175 185 185 188 188 188 188 190 190 190 191 190 189 190 191 190 191 190 192 191 191 193 194 197 187 191 191 193 194 194 192 193 194 193 194 193 186 192 192 193 193 192 193 192 192 193 183 194 193 190 192 193 192 192 185 193 192 191 191 192 192 192 191 192 192 192 181 191 192 194 193 186 168 126 53 11 1 9 0 3 36 70 109 160 182 189 192 194 194 196 195 197 196 195 190 195 194 190 192 193 193 192 193 192 189 191 191 190 179 188 177 188 186 185 175 184 181 178 171 170 168 170 168 169 169 169 169 170 169 169 170 170 169 170 170 169 170 170 170 169 169 170 169 170 170 171 170 172 169 170 170 171 158 155 168 164 169 168 159 163 161 154 142 123 93 57 24 8 3 11 1 0 0 6 6 8 2 1 2 -1 1 2 1 0 1 1 0 0 -2 0 -1 -5 1 0 0 -1 1 2 1 1 1 1 0 0 1 -1 0 0 1 1 0 1 1 -3 1 0 0 0 0 1 0 1 0 0 -1 1 1 1 1 0 0 1 1 1 -2 0 1 -1 -1 0 0 2 1 0 -1 -1 2 0 0 1 3 0 -5 0 -3 2 0 -5 0 0 0 1 -1 -3 -3 -2 0 2 1 2 0 0 3 2 -1 0 2 1 0 0 0 0 1 0 0 2 1 1 1 0 0 1 0 0 7 1 2 0 1 2 1 0 
0 1 4 0 4 0 4 1 -5 -1 0 0 0 1 3 0 2 1 1 1 0 1 2 3 2 1 0 1 0 -1 0 -1 2 1 1 0 1 1 0 -1 1 1 1 1 1 0 2 1 2 0 0 0 0 0 1 1 1 0 0 -3 -1 1 6 6 2 1 0 -1 0 1 0 1 1 -1 0 1 -1 1 0 0 1 1 -1 0 0 0 1 0 1 -4 1 1 1 1 0 0 0 1 0 -1 1 1 1 1 1 0 3 0 0 0 0 0 1 1 1 1 -1 -1 2 2 0 -1 1 1 2 1 0 3 -2 -1 0 -1 1 3 -2 1 1 0 1 2 -1 0 0 1 0 1 10 -1 1 1 7 1 2 0 0 1 0 0 1 -1 2 -1 0 0 0 1 0 0 0 1 -1 -1 1 0 0 1 0 1 1 -1 1 5 -1 0 0 1 0 0 0 0 2 1 1 0 0 3 62 152 171 174 177 176 178 178 177 180 181 182 181 182 181 182 183 182 169 169 182 182 183 180 183 182 184 183 178 182 183 181 170 171 182 180 170 172 179 180 179 162 179 181 181 179 178 179 175 179 178 178 177 179 177 178 180 178 177 178 177 177 178 170 176 177 177 175 175 169 176 163 175 174 167 170 173 177 177 175 177 176 174 167 176 174 168 174 175 175 173 176 175 175 166 175 174 177 176 175 175 175 175 175 173 160 174 175 174 177 178 177 179 181 181 183 182 185 185 185 186 186 189 190 190 178 191 190 186 169 128 69 75 30 56 110 148 166 176 181 183 185 184 177 186 187 185 186 189 190 191 189 189 190 189 189 191 190 191 191 189 190 181 183 193 192 192 191 190 190 191 192 195 193 193 194 187 189 190 192 193 193 190 193 192 192 192 188 190 192 193 191 193 192 192 187 192 192 193 190 191 192 192 192 192 192 190 190 177 185 190 184 164 118 50 57 35 4 1 4 6 23 76 141 173 188 176 171 180 194 196 196 197 197 196 196 194 196 194 185 192 188 193 193 192 192 191 185 190 189 189 186 186 186 187 186 176 182 180 177 173 170 170 171 161 169 171 170 172 171 170 171 172 171 171 172 170 162 169 162 172 171 170 172 171 171 170 159 170 160 161 171 170 170 168 167 153 163 163 156 146 130 112 78 44 20 26 2 0 -2 -1 2 1 -1 -2 1 1 1 0 0 0 1 1 0 1 0 1 2 2 1 0 0 0 0 0 -1 2 0 -1 3 0 1 0 1 1 1 0 0 -4 -2 1 1 1 -2 0 0 2 1 1 0 -4 -1 1 -5 0 4 0 0 3 1 1 2 -1 1 1 1 -4 0 -1 0 -1 0 0 0 0 1 0 0 1 2 0 0 0 -1 0 0 1 2 2 1 2 3 1 1 2 0 0 0 0 0 0 -1 1 6 -1 0 2 0 0 1 -4 0 0 1 4 1 0 0 0 1 0 0 -5 0 1 -1 2 0 0 0 0 1 1 0 
1 0 1 2 0 0 -3 1 0 1 6 2 1 0 0 0 0 1 1 0 1 4 1 1 1 1 0 1 1 1 -1 0 1 0 0 -1 -3 2 0 -4 0 1 1 1 2 2 1 1 1 0 1 0 1 5 0 -1 1 1 0 -3 1 0 1 3 1 4 0 1 1 4 1 1 0 0 0 1 0 0 -1 1 1 0 0 1 0 0 1 0 1 0 0 2 1 1 0 1 -1 -1 0 0 0 1 0 1 2 1 2 0 1 1 1 0 0 -1 6 1 0 0 1 8 2 1 0 0 1 0 4 0 0 2 0 -1 2 0 2 0 1 1 1 0 0 0 -1 1 0 1 1 0 1 1 1 0 0 0 -1 0 2 1 1 1 0 0 1 0 -4 1 1 1 -1 0 -5 0 1 -1 0 1 1 2 1 0 2 1 -1 0 1 3 1 0 0 0 1 0 1 0 8 10 26 132 145 170 166 175 178 181 180 180 180 181 181 183 183 181 181 173 182 181 183 182 181 182 182 181 182 182 180 175 182 180 175 180 181 181 173 180 179 181 179 179 171 179 180 180 178 167 178 171 177 177 178 178 179 177 177 177 178 179 174 177 178 176 177 176 177 172 177 172 177 177 177 176 166 175 176 174 176 176 175 174 176 170 174 175 169 174 174 175 175 175 173 175 174 175 174 174 176 174 174 174 175 173 173 175 169 176 175 176 178 177 177 178 180 180 182 183 182 185 186 186 186 178 182 189 191 191 192 191 176 171 130 104 54 25 34 71 100 152 170 178 181 178 184 184 181 186 187 188 187 189 187 187 188 179 186 189 190 191 191 191 190 191 192 191 192 192 191 189 191 192 192 193 191 191 190 192 192 192 191 192 190 185 192 193 190 192 191 192 193 191 187 191 189 192 192 189 194 192 191 191 191 192 193 188 193 178 189 179 154 102 42 41 5 3 19 20 9 56 83 139 170 185 191 191 170 176 193 195 190 195 195 196 193 193 195 194 195 193 193 194 194 193 192 190 190 178 189 186 190 188 188 186 186 186 179 182 180 177 174 163 166 171 171 171 171 171 172 170 170 163 171 171 169 172 171 170 172 172 171 171 170 171 169 171 170 157 170 169 167 163 161 164 150 151 119 129 109 78 63 28 11 4 1 1 1 0 1 3 1 1 0 1 0 1 3 1 -1 1 1 1 0 0 -1 3 0 2 0 0 1 -1 1 4 0 0 4 -1 0 0 0 0 0 -1 1 0 5 1 0 1 -1 -1 0 0 -1 0 0 -4 1 1 1 1 0 0 1 2 0 0 1 1 1 1 4 1 1 0 0 1 -10 -1 -4 1 1 2 -1 1 1 4 4 1 2 1 0 -1 0 1 -3 0 0 1 1 2 0 1 0 3 5 1 0 1 1 2 0 2 1 -1 0 0 0 5 1 -5 1 1 1 1 0 2 1 0 0 -1 -1 -1 1 -1 0 4 1 0 0 0 0 1 
-4 0 1 2 0 -1 0 0 -7 -1 0 -1 1 2 0 1 0 1 1 0 0 0 0 0 1 4 1 1 9 0 1 4 0 0 2 1 1 3 -2 1 2 3 0 0 0 2 2 3 2 0 1 0 0 0 0 0 -1 0 0 0 -1 0 1 0 1 -1 2 0 1 1 4 1 1 -4 1 0 0 -1 -2 -1 1 1 0 0 1 1 1 0 2 1 0 0 2 1 -1 1 0 0 -1 0 -1 0 0 0 0 2 1 2 1 0 1 0 0 5 1 0 0 1 0 1 1 0 1 0 0 4 0 -1 0 -1 2 1 1 0 0 2 1 2 3 -1 1 0 0 1 0 1 0 0 1 0 -2 -1 1 2 0 0 1 1 0 0 0 1 -3 1 1 0 0 1 -1 2 0 5 1 -1 1 1 0 7 1 1 1 2 0 0 1 1 0 1 -1 0 1 2 2 7 1 0 6 71 132 168 166 174 176 178 179 179 181 181 181 182 181 180 181 181 181 180 182 182 182 181 182 181 180 181 179 181 182 180 180 170 181 181 174 179 175 179 181 176 172 179 176 178 178 168 166 174 178 182 179 176 176 176 177 178 178 178 178 176 177 177 177 177 177 177 175 176 177 177 176 174 177 175 167 175 175 174 176 175 174 174 177 174 174 177 175 175 170 174 171 174 172 176 175 174 172 174 175 175 175 171 172 174 174 175 175 174 175 177 177 177 178 178 180 182 182 177 184 185 186 185 187 178 189 190 190 190 192 190 188 164 167 139 92 44 22 40 83 130 160 174 179 176 183 185 179 185 186 186 185 177 187 184 188 188 188 187 181 189 189 190 190 187 190 191 192 191 191 189 190 190 191 190 190 192 192 182 189 191 191 191 191 192 191 191 191 190 192 183 191 193 190 192 191 190 191 192 191 192 190 193 191 191 187 173 143 84 28 6 1 3 2 14 10 39 97 150 175 187 191 193 194 193 184 194 196 195 196 195 194 194 196 193 195 192 191 194 192 188 192 192 192 190 192 190 189 192 189 179 187 181 180 187 183 182 179 174 172 171 172 173 173 171 173 173 174 156 151 168 173 171 172 172 171 169 172 171 163 171 170 170 170 168 160 154 162 150 156 151 141 125 103 74 46 43 11 3 2 2 0 2 1 0 1 0 1 0 0 1 0 1 0 2 1 0 1 5 0 0 -3 -2 1 0 1 1 2 1 0 1 3 0 -1 -3 0 0 0 -2 -6 1 1 1 -1 1 2 0 1 0 0 1 1 1 -1 5 1 -1 1 1 0 -2 1 1 0 0 1 1 0 -1 1 5 0 0 1 1 1 -1 0 0 0 1 0 1 0 2 0 -1 0 1 0 4 2 0 0 6 2 1 1 1 1 0 1 0 0 1 0 1 1 0 0 7 2 1 0 0 1 -4 -1 1 0 0 1 0 0 1 0 0 0 0 1 1 1 1 -3 1 0 0 0 -1 1 0 0 -5 
0 -4 0 -1 -1 0 0 0 -3 1 -2 1 -1 2 1 0 -1 0 1 0 -1 1 2 1 4 6 5 0 3 2 1 2 1 0 0 1 0 1 -1 -4 -1 6 1 1 -5 -1 1 1 1 0 1 2 2 2 -1 3 0 1 -1 0 0 0 0 1 0 0 3 0 0 0 0 2 1 -1 1 0 1 0 0 2 -1 0 0 0 0 1 0 0 0 -1 -3 1 1 2 0 0 1 1 0 -1 1 -1 0 0 1 0 -4 0 0 0 1 0 1 1 0 0 -1 0 0 -1 1 0 2 1 0 0 -1 0 -1 -4 -6 1 0 1 4 1 0 0 0 -4 2 1 0 0 -1 0 1 2 1 0 0 1 1 1 1 1 0 0 1 0 1 0 -4 -2 -1 3 0 1 1 4 0 0 0 0 0 0 1 0 1 0 3 -2 0 7 6 8 2 0 2 9 8 1 0 1 0 2 4 64 150 167 152 156 174 174 179 178 173 179 180 180 179 182 181 180 176 181 181 179 180 180 180 180 180 171 181 182 181 181 171 178 180 180 179 180 179 179 179 178 179 178 179 178 175 179 179 177 175 178 177 179 178 178 177 175 175 176 176 178 176 175 174 175 177 176 176 175 176 176 176 174 174 176 175 176 166 168 176 174 176 170 174 175 174 174 174 174 175 175 175 175 174 168 174 175 174 172 174 174 173 173 173 173 172 170 174 169 174 174 175 173 175 177 178 179 179 179 181 179 182 186 186 187 187 186 190 189 191 191 192 191 181 189 180 162 128 79 35 25 88 98 139 164 175 178 178 183 182 181 184 184 184 186 186 187 187 184 188 188 188 188 189 190 192 190 192 190 187 186 190 190 190 190 190 191 190 190 191 190 190 191 191 188 191 188 191 186 190 183 188 191 190 190 185 191 192 191 191 193 192 189 185 169 113 66 19 4 0 -1 3 20 13 51 109 153 176 188 192 193 194 194 196 194 196 196 195 188 195 195 196 196 193 194 194 193 180 192 193 191 192 192 190 190 190 190 189 190 188 182 188 187 185 185 183 182 180 167 163 162 170 172 168 173 166 172 171 170 150 159 170 154 169 162 171 171 169 169 153 166 155 162 161 155 147 138 109 105 83 59 39 20 8 3 2 2 1 -1 0 -1 0 0 0 0 2 0 -3 2 1 1 1 0 -1 1 1 -5 0 1 2 1 1 0 0 0 0 1 3 2 -1 1 1 0 0 0 0 1 1 1 0 -1 0 4 -1 4 1 0 0 2 1 1 1 0 2 1 -1 -1 0 1 0 -3 0 0 0 -1 0 1 1 -1 1 0 1 2 1 -1 0 0 0 2 0 0 0 2 0 -1 0 0 0 0 1 3 -1 1 1 0 2 2 0 1 1 -1 -1 -4 2 1 2 -1 1 0 0 2 1 -1 1 1 1 -3 -2 -1 1 1 2 2 1 -1 2 -1 2 -1 0 1 -1 0 -1 1 -1 1 -1 -1 2 0 1 0 
1 -1 6 1 1 4 1 0 -1 5 1 1 1 0 0 0 -4 -1 -1 1 -3 0 -1 1 -2 5 2 0 0 0 2 1 1 0 0 2 0 2 0 -2 0 1 0 -1 0 -1 0 0 5 0 0 1 0 0 0 0 0 6 0 0 2 1 0 -2 1 -1 -5 -1 -1 -3 -1 -2 -2 0 1 0 1 0 0 1 -4 2 0 1 1 -5 0 -1 0 0 1 1 0 0 0 0 1 1 0 0 0 -4 0 0 0 -1 -5 1 0 0 0 1 0 0 2 -1 1 -1 4 0 0 0 0 0 -1 -1 -4 1 2 0 0 -1 -7 0 1 1 0 0 0 0 0 0 0 -1 0 1 2 10 2 2 -1 0 1 6 8 0 0 1 0 5 0 1 0 0 0 2 1 1 5 1 1 0 0 0 0 1 1 1 1 3 1 0 0 1 4 9 2 0 1 1 2 1 3 0 0 2 4 49 130 164 149 159 176 176 176 165 178 180 180 180 181 176 179 175 179 175 180 170 181 172 173 180 180 175 179 180 177 180 180 178 180 180 179 180 178 178 180 179 177 177 178 177 177 176 169 177 178 177 177 176 176 177 177 176 177 176 176 177 176 177 175 175 171 177 176 175 176 175 174 164 174 175 174 179 175 173 175 175 176 173 168 174 174 173 173 173 173 174 174 171 174 175 174 173 174 162 172 174 167 164 169 173 175 173 173 174 173 172 162 164 174 174 174 176 177 177 179 170 180 184 183 186 186 186 187 183 189 191 193 187 191 191 186 192 185 149 152 116 67 28 29 95 114 127 129 162 171 175 179 182 184 184 184 184 185 185 175 170 186 187 187 187 187 189 188 187 187 189 187 188 190 189 190 188 189 188 189 183 189 190 190 189 190 188 188 190 191 191 190 190 190 190 181 191 190 188 182 174 159 133 99 54 14 13 1 0 2 8 47 62 119 161 181 189 195 194 194 193 188 194 195 190 197 189 187 194 196 194 189 194 194 192 194 184 192 193 192 184 191 188 176 181 190 190 186 179 179 179 186 186 186 186 182 181 179 164 170 171 171 172 169 160 171 170 157 170 170 170 168 149 144 167 162 162 146 155 148 124 132 120 101 77 54 35 35 9 5 1 0 2 0 0 -1 -2 1 0 0 3 1 2 0 0 1 0 3 7 5 2 5 1 1 0 0 0 0 0 0 7 0 1 0 1 0 1 1 -1 0 0 0 -1 -2 0 4 3 0 0 3 -1 1 1 1 -4 0 1 1 4 7 4 1 -3 -1 1 0 -5 0 0 1 1 0 0 1 -1 1 0 0 0 2 1 0 3 1 0 2 0 0 2 -1 0 1 0 -1 4 0 1 2 -1 1 7 2 -1 1 1 1 0 0 -1 0 0 0 0 0 0 2 4 2 7 1 1 0 1 1 5 1 1 3 1 1 1 0 2 -3 2 2 0 1 0 0 -1 0 1 1 2 0 1 1 0 0 -1 1 3 
0 0 0 1 0 1 -1 1 0 1 2 1 -1 1 -1 0 0 -4 -1 -2 -6 -1 1 0 1 -1 -4 -2 1 2 1 1 1 1 0 1 -2 2 3 0 5 1 4 0 0 0 -1 0 4 2 1 -2 0 -1 1 1 4 1 0 2 2 0 1 2 1 1 -4 -5 -5 0 0 1 1 0 1 1 0 1 0 0 0 3 0 2 0 -1 0 0 1 1 0 1 -3 -1 0 0 0 2 0 1 1 1 1 -1 0 -1 -1 0 1 2 0 0 0 1 0 -4 -4 -1 -2 0 4 0 1 1 1 1 0 -2 0 -1 1 0 -6 -1 1 0 1 1 1 0 -1 1 1 1 1 6 3 10 2 1 2 1 -1 2 0 1 -1 1 1 4 5 1 1 -1 0 0 2 0 0 0 -3 -3 -1 0 0 1 0 0 7 1 1 1 0 1 1 0 0 0 0 0 6 -1 -1 0 0 -1 0 8 78 157 151 171 174 176 176 177 179 177 180 177 178 165 162 180 180 179 178 179 179 181 180 179 177 179 180 179 171 178 180 179 179 178 179 179 177 178 175 178 179 172 179 176 165 160 175 176 175 177 177 178 177 174 176 177 176 175 175 177 176 167 174 176 174 175 174 176 176 177 175 175 178 175 174 168 174 174 174 175 173 174 175 175 174 175 174 174 174 173 175 173 173 172 173 173 168 172 173 173 173 164 172 173 173 174 173 173 173 174 173 173 173 174 175 176 175 177 177 165 177 180 182 183 183 182 185 187 187 189 189 190 190 190 190 192 192 192 188 173 171 146 105 59 76 22 66 52 79 102 133 151 165 172 178 180 162 164 165 184 184 186 185 185 186 183 185 188 188 186 186 186 183 189 186 188 188 188 180 187 188 188 188 188 189 188 188 189 189 190 190 180 190 187 184 173 164 135 100 60 30 10 22 3 9 2 4 10 49 84 129 164 160 188 193 187 194 195 195 194 192 196 195 195 196 196 196 193 184 194 196 191 186 192 187 190 193 193 192 191 192 191 181 190 191 190 188 189 188 183 187 186 178 184 170 181 173 174 171 170 169 167 169 158 167 158 152 164 162 159 139 149 115 134 127 115 97 78 61 43 27 16 27 4 2 1 8 1 0 1 1 1 7 1 1 1 5 4 1 1 1 0 2 0 1 0 4 3 5 2 0 2 6 2 0 0 3 1 4 2 1 1 1 1 2 -1 1 -2 0 1 0 1 0 1 1 1 2 2 1 2 1 0 1 0 0 0 -4 0 0 0 2 0 1 0 -1 0 0 -1 3 0 0 1 1 0 0 1 -1 0 0 2 1 1 0 0 1 -2 2 1 0 0 1 -1 0 2 0 0 0 0 0 0 0 1 -1 2 1 1 0 2 1 1 1 0 -1 1 -2 2 0 2 1 0 -2 1 3 0 0 0 0 1 3 1 1 2 0 1 -1 0 1 -1 0 -2 2 0 0 -2 1 1 1 1 1 0 0 1 
1 5 1 -1 4 0 -1 -1 2 1 0 1 0 0 1 -1 0 1 1 1 1 1 0 2 6 0 0 -2 1 0 0 2 0 -1 -1 1 0 -1 1 2 1 1 2 1 0 4 0 0 1 1 1 -6 -3 0 0 0 0 1 -1 1 1 0 1 1 2 -1 1 0 -4 1 7 2 1 0 1 2 2 -2 0 1 0 0 1 -1 2 1 1 -3 0 1 1 0 0 0 0 -2 1 1 -1 0 7 1 -2 0 -1 0 2 0 0 0 2 0 1 -1 -7 -2 -4 -1 2 0 0 1 -1 -1 -1 1 1 1 -2 0 2 0 -2 -8 0 0 0 0 -1 1 0 2 1 1 1 9 10 9 2 4 4 2 3 -1 0 0 0 -1 0 0 1 0 0 1 1 1 1 4 1 1 2 2 3 -5 0 1 0 0 0 3 0 -1 1 0 -5 0 1 2 -1 1 0 1 1 0 1 0 -2 2 43 104 163 162 173 167 175 175 176 176 178 178 178 157 163 178 179 180 180 178 180 175 179 176 179 174 179 180 179 176 173 178 174 179 178 179 178 179 177 177 178 177 175 163 164 174 176 177 176 177 174 176 177 176 176 175 176 175 175 174 176 176 164 164 175 175 176 173 174 177 175 174 175 175 165 172 173 174 172 173 165 167 174 174 166 173 174 174 171 174 174 168 173 173 173 168 168 173 173 173 173 173 172 173 172 164 174 173 175 174 173 172 161 173 175 174 175 174 176 174 172 178 178 180 172 168 183 184 184 185 186 183 189 188 189 191 191 192 193 190 184 190 182 167 142 101 96 40 63 16 16 32 55 88 120 138 126 164 174 165 181 183 182 183 182 182 183 185 184 184 185 182 186 185 186 185 185 178 186 187 187 186 182 188 188 179 188 188 186 186 183 174 164 140 104 62 33 11 5 1 9 1 4 7 18 41 74 113 130 168 173 189 182 192 195 185 195 195 196 195 194 196 196 194 192 194 196 193 194 194 192 178 187 192 193 186 192 193 194 191 182 191 191 187 190 190 189 189 186 188 186 180 185 183 179 180 176 164 163 160 140 154 151 149 144 137 130 121 111 97 80 65 45 30 21 40 36 5 4 1 1 0 0 -1 0 1 2 1 0 0 0 0 1 0 0 0 -1 1 3 0 1 0 0 1 -1 0 2 1 0 -1 1 0 1 2 1 -1 0 0 -2 -1 1 0 0 1 2 1 0 0 0 -1 0 0 0 2 2 4 0 0 2 -1 1 0 -1 0 0 -1 0 -1 0 2 4 0 -3 1 2 4 1 0 1 0 0 1 3 1 0 -1 0 0 1 0 -2 -1 2 1 0 0 -1 0 1 1 0 0 -1 1 -1 -1 1 2 -1 1 -2 0 2 0 -1 2 1 1 2 1 -1 -1 1 0 0 -1 0 0 -1 1 -6 0 1 1 -1 -2 0 -1 0 2 6 1 0 0 0 0 1 0 0 0 1 2 -1 2 0 -1 -1 0 0 -6 0 1 
2 1 0 1 1 0 1 0 -1 1 0 0 1 -2 1 -1 0 1 0 -1 0 -1 1 0 1 2 -1 1 0 4 0 1 0 -1 1 0 0 1 -2 0 3 2 1 -2 1 1 0 -1 1 -1 1 0 2 0 2 1 -1 1 0 0 0 0 0 1 -1 0 0 -1 0 1 -1 1 -1 1 5 4 1 0 1 1 0 0 2 0 -2 0 1 -1 0 0 1 0 1 1 0 1 4 1 0 0 0 1 0 0 1 0 0 -5 -1 0 1 1 0 1 0 0 -5 0 4 0 -1 2 -2 -4 1 0 1 -1 -3 -4 0 2 2 5 0 0 0 0 2 0 -1 0 2 1 1 1 4 1 2 5 1 2 -1 0 1 1 0 0 1 1 1 1 1 0 3 1 1 -1 0 2 0 -3 1 1 3 0 0 0 -1 0 -3 -3 0 -1 0 0 7 0 1 0 1 1 2 0 0 -1 1 1 24 85 140 168 171 155 161 175 167 176 169 178 178 177 178 179 178 178 179 178 180 172 172 178 177 170 171 170 178 180 179 179 179 178 178 179 178 178 177 177 177 176 176 175 164 175 176 169 176 176 176 181 177 175 175 176 176 175 176 168 174 175 174 170 175 175 174 165 176 175 175 174 174 174 169 173 174 165 171 171 174 173 172 170 158 172 173 167 173 173 172 173 174 173 172 172 173 173 172 172 172 171 172 164 171 158 170 166 172 170 173 173 172 174 172 173 172 174 173 174 175 176 178 178 168 179 182 182 181 185 184 185 186 187 187 184 185 189 190 191 192 193 192 193 190 183 172 138 143 116 86 76 32 15 12 21 37 64 95 125 143 147 151 157 161 134 142 168 151 176 178 179 184 182 184 184 184 183 181 179 144 141 172 168 141 160 156 146 138 128 103 62 34 12 6 16 14 2 2 7 16 36 73 108 139 136 174 185 189 192 194 193 194 195 195 195 192 194 196 195 196 194 195 195 195 196 193 195 193 193 193 193 193 192 192 192 192 192 193 190 179 190 191 192 180 189 190 188 186 187 186 186 185 174 180 179 157 132 117 111 97 84 68 58 45 34 24 15 9 8 14 4 12 2 2 7 0 -4 0 1 1 1 1 -2 5 3 2 0 -1 -1 0 1 4 1 1 1 1 -2 0 1 1 2 0 0 1 1 0 1 1 0 1 1 1 0 2 0 -1 1 0 1 0 -2 0 0 2 1 2 -1 2 0 0 2 2 0 6 1 0 -2 2 0 0 0 2 1 0 1 1 0 2 2 0 0 0 1 1 2 1 0 1 0 -1 1 2 0 0 2 1 0 5 0 0 -2 0 1 0 2 0 -1 1 2 0 2 0 -1 2 0 2 1 -1 -1 -4 1 0 0 0 0 0 1 -3 0 1 2 1 3 1 -1 1 0 0 -1 0 1 1 0 0 0 0 1 0 5 7 1 1 1 -9 -1 0 1 -2 1 -1 0 1 -1 2 0 0 0 -1 -1 -4 0 
1 3 1 0 3 -1 0 0 -4 2 1 1 0 -1 -4 0 5 1 1 0 1 0 2 0 0 -1 2 0 1 1 -2 2 -1 0 2 2 0 -1 -1 0 1 1 5 1 2 1 1 0 0 1 1 1 0 0 -1 2 0 1 0 0 0 1 0 1 2 0 1 0 1 0 1 2 -2 0 1 1 0 0 0 1 1 -1 -2 2 1 0 0 0 0 0 -2 0 0 -3 -1 0 0 -1 -1 -1 1 2 0 1 0 0 0 0 -1 -5 0 1 4 0 0 1 0 0 1 0 0 0 0 -6 -1 -1 -5 1 0 0 1 2 0 0 0 0 0 -1 0 -4 -1 -1 -5 0 2 -1 0 1 0 0 -7 0 0 0 -1 -3 0 1 1 -1 0 1 0 -1 1 1 1 0 -1 0 0 0 0 0 0 0 0 1 0 -1 -1 1 0 -1 3 1 1 1 1 0 0 2 -1 0 0 1 0 1 5 75 155 167 171 157 162 173 175 176 176 176 172 178 178 178 177 177 179 178 177 178 178 177 165 167 177 178 179 178 176 174 176 176 177 178 176 177 177 177 168 171 176 176 174 174 174 175 175 175 176 176 175 175 174 174 176 175 174 175 176 169 172 175 176 175 174 173 174 176 174 168 172 173 174 174 175 173 174 172 172 171 169 172 165 172 173 161 172 164 171 173 172 172 172 172 173 172 172 172 170 170 163 160 170 156 160 171 169 172 173 162 163 171 172 175 173 172 172 174 174 175 175 177 178 178 180 180 182 182 182 184 182 184 187 186 186 186 189 189 189 185 189 191 192 191 178 188 169 163 179 173 155 114 107 76 46 25 15 16 18 19 25 34 60 49 63 70 80 93 104 112 124 131 140 148 141 131 118 96 90 78 77 53 59 35 52 16 12 34 8 2 3 13 3 5 13 34 63 104 139 160 174 183 188 190 194 186 182 184 193 193 194 194 195 194 195 196 188 194 195 193 194 195 195 184 193 193 195 193 193 193 193 192 188 192 190 191 192 192 191 192 190 189 189 190 189 178 188 188 187 187 186 183 180 178 151 43 16 41 47 36 6 3 0 2 0 1 0 1 -1 1 0 0 7 1 2 1 0 -1 1 0 2 -1 4 1 6 1 7 1 0 0 7 2 0 0 0 3 1 8 1 2 1 0 0 0 3 2 -1 1 7 1 1 2 -4 1 0 0 0 -5 1 1 2 0 2 1 0 1 0 1 1 0 1 0 2 0 -1 1 -1 -4 0 2 1 0 0 0 1 1 1 0 0 -1 -1 -1 2 0 0 -2 0 1 0 0 5 1 0 0 1 0 1 0 -5 -5 0 0 1 0 0 0 1 1 1 2 1 0 -1 0 2 1 3 4 -1 0 0 1 1 0 0 0 0 3 0 1 1 -2 0 1 2 0 0 1 2 2 2 1 0 -4 -2 1 -1 1 2 1 1 -1 -1 -1 1 0 -1 0 1 -1 1 0 -2 0 2 1 0 0 0 -2 
0 5 1 2 0 -1 1 -2 0 0 0 1 -1 -2 -1 1 1 1 0 0 0 -1 0 -3 1 0 0 0 1 0 0 -1 0 -2 0 3 0 0 0 2 0 1 1 0 0 1 0 0 1 0 1 0 1 1 1 1 1 2 -1 1 0 1 5 2 1 0 -6 0 4 3 0 -1 2 0 0 1 3 1 0 1 4 2 0 -2 -4 1 -1 0 0 -1 0 -1 -1 -7 -5 -1 -1 1 2 1 -2 1 -1 0 0 -3 0 0 -1 0 0 0 0 1 2 0 -2 2 2 1 -1 2 3 1 1 0 0 1 0 1 0 -1 -7 0 1 0 -1 1 1 1 0 0 -2 0 0 0 -1 -1 0 0 -1 0 -7 -9 -1 1 0 1 1 0 0 1 -2 -2 -1 -1 0 0 0 0 -2 0 -2 0 -1 0 1 1 2 1 3 0 0 1 1 0 2 0 -5 0 -2 -1 0 -3 0 1 0 0 3 53 140 167 169 171 173 173 169 163 175 177 176 176 176 179 178 177 178 178 178 178 178 177 173 176 168 177 178 178 178 177 178 176 176 177 175 166 175 175 175 174 168 173 175 169 166 174 174 175 176 170 174 175 172 175 172 171 175 176 175 174 175 176 174 175 173 176 175 171 165 174 174 175 173 175 174 173 170 162 172 172 172 165 172 172 161 172 172 171 172 172 170 171 171 172 171 171 168 171 171 171 171 170 153 154 161 172 172 171 172 171 171 162 172 172 172 173 173 172 173 172 167 169 176 178 176 178 178 178 181 180 180 174 183 185 185 185 186 183 187 188 187 189 188 190 178 190 191 190 190 181 190 186 164 176 167 151 133 101 66 39 22 16 12 9 13 58 58 14 10 10 11 10 17 57 19 10 6 7 5 4 8 31 7 5 6 7 37 14 16 25 34 46 66 100 131 157 171 181 187 193 193 193 192 194 195 195 193 194 194 194 194 190 194 195 189 194 194 183 178 175 187 194 194 193 194 192 193 194 192 193 185 192 193 193 189 192 192 181 191 191 188 184 189 189 186 189 187 186 184 187 184 180 181 173 130 15 -1 2 3 14 6 0 1 -1 0 0 0 1 1 1 0 -1 1 -1 1 1 -1 1 0 0 1 1 5 2 4 2 -1 1 1 0 0 1 -2 1 1 3 0 2 0 0 1 1 1 1 -1 0 2 2 1 2 1 0 2 0 0 1 1 0 0 0 1 1 1 0 1 1 1 1 1 2 1 2 0 2 -1 -1 1 0 -1 1 2 1 0 0 0 -1 -1 -1 1 0 0 1 -1 0 2 0 0 1 0 0 6 1 0 1 3 1 0 2 -10 0 1 1 0 1 0 -1 0 1 2 0 1 0 0 2 1 0 0 0 2 1 1 0 1 -1 -2 0 -2 0 0 0 1 -5 0 0 -1 0 -1 0 1 0 -4 0 -1 1 1 4 2 0 -3 1 -1 -1 -2 1 1 2 -1 0 0 2 0 0 1 0 0 -3 0 -2 -3 -10 
2 1 1 -2 1 2 0 1 0 1 2 -1 0 0 -1 1 -1 1 0 0 2 0 0 -1 1 0 -1 1 -2 0 0 0 -2 0 -1 0 2 -1 6 0 1 -1 1 -1 1 1 0 0 6 0 0 0 -1 0 1 1 0 0 0 2 0 0 2 -1 0 -1 -1 0 1 0 2 0 1 1 1 1 1 2 0 1 0 0 1 0 2 -1 1 1 -2 -5 -2 0 1 0 0 2 1 -1 -1 1 0 1 -3 0 1 -1 -4 0 0 2 1 2 0 0 1 -4 0 0 -1 0 0 1 1 2 4 0 2 -1 1 1 2 -1 -1 0 2 0 0 2 0 -1 0 1 1 1 2 1 -5 0 2 1 0 1 2 1 0 0 0 1 1 1 -1 0 0 -1 -1 0 1 1 0 -1 1 1 -1 -1 1 1 1 4 3 6 0 0 -2 0 0 1 4 0 -2 0 1 3 2 -1 -1 0 0 1 0 12 111 160 170 171 171 170 173 176 175 176 177 176 168 173 173 178 180 178 177 177 178 169 177 178 177 177 177 177 176 177 177 176 173 169 176 167 175 175 170 175 175 176 175 175 176 175 168 174 173 174 175 176 174 174 176 174 175 175 173 173 174 174 175 175 173 174 173 175 174 173 166 167 167 174 171 165 172 171 172 174 173 172 174 172 171 169 173 173 171 165 171 172 168 172 171 172 170 172 172 164 163 170 171 172 172 171 172 172 172 172 171 172 164 169 168 172 173 171 166 170 173 174 174 175 175 176 176 171 176 178 180 180 181 182 182 183 178 185 186 180 179 187 188 189 188 190 190 189 182 176 181 190 177 183 192 191 188 182 175 165 153 144 116 128 122 114 104 90 80 65 56 50 43 34 43 22 16 18 26 38 68 62 74 86 100 116 123 137 131 153 139 164 173 180 186 191 193 194 194 193 190 194 194 194 193 193 194 195 194 193 194 194 194 193 195 196 186 193 191 178 185 192 193 189 193 192 182 192 193 192 184 194 192 193 192 191 192 191 191 190 189 189 187 188 188 187 178 185 182 183 184 183 179 150 85 6 0 2 0 0 3 1 1 3 -5 -1 4 0 0 0 1 0 1 -6 1 4 1 2 0 0 -5 0 0 0 0 1 1 -2 2 0 2 0 0 1 4 0 -1 2 2 -1 2 2 4 2 0 1 -1 2 1 -1 -1 3 2 2 0 8 0 -1 -1 0 0 2 4 0 2 0 2 -1 0 -1 1 0 2 -1 1 -3 0 1 0 1 2 0 2 -1 -2 2 0 0 -1 -3 0 0 -1 0 1 1 -2 0 0 -1 0 -2 0 1 1 0 1 0 1 2 0 -1 0 0 0 1 1 1 0 2 0 1 2 1 0 0 -1 -1 2 0 1 -1 1 1 -3 -1 2 1 0 6 1 0 -3 -4 -1 0 -1 0 0 0 1 1 0 0 1 1 1 0 0 0 0 1 0 2 1 0 1 1 1 0 0 0 2 -1 1 -1 1 0 -1 1 
6 1 0 1 1 0 2 0 1 0 1 0 2 0 0 1 1 -1 0 1 2 1 0 1 -1 1 1 -1 0 1 0 0 1 1 0 0 1 0 1 -1 2 1 1 0 0 0 0 -2 1 4 1 1 0 0 0 5 0 0 1 -1 0 0 1 0 0 3 7 0 -2 -6 -1 0 -1 0 0 1 1 6 -2 0 6 4 1 1 0 0 2 -4 -1 1 0 2 1 1 2 5 1 2 -1 -2 0 0 0 0 1 0 0 2 -2 0 1 1 0 0 1 -7 0 0 0 1 1 2 0 0 0 0 3 2 -1 0 -1 0 2 1 0 1 1 9 1 0 2 1 1 3 2 3 2 2 6 1 2 0 1 3 1 1 1 2 8 3 0 4 4 2 1 0 1 -1 0 1 -1 1 0 1 -1 2 0 1 0 1 1 1 0 1 1 1 0 1 0 1 -2 1 2 0 0 -1 1 1 1 4 68 152 166 171 171 173 174 172 174 176 174 176 176 176 176 177 176 177 177 177 177 177 177 176 177 177 176 176 176 177 176 177 176 176 176 176 167 167 175 176 174 175 173 170 174 173 175 175 172 174 175 173 174 174 175 173 174 170 173 174 174 174 174 173 172 173 172 174 173 167 171 173 166 172 172 172 174 172 161 164 173 172 173 171 173 174 171 173 172 171 172 169 171 172 172 173 171 171 172 167 171 172 167 170 173 171 172 170 172 170 160 171 171 163 171 173 171 173 171 173 172 173 172 172 171 174 175 174 166 167 177 179 178 179 180 182 182 171 183 177 187 186 187 182 189 189 187 171 188 189 189 180 190 192 193 190 188 192 191 193 191 191 187 189 187 184 184 180 176 136 134 169 164 120 122 150 123 146 155 161 168 173 176 180 167 185 187 188 189 191 191 193 185 193 193 193 194 193 193 192 193 192 194 194 192 192 194 195 193 187 193 185 194 194 193 193 193 194 194 193 194 193 193 193 192 193 188 193 192 192 193 193 192 192 187 191 191 188 192 191 190 191 188 182 188 187 186 187 186 185 184 181 179 159 59 3 -1 0 -2 2 0 2 1 0 1 0 1 1 0 1 0 1 0 0 1 -1 0 2 0 1 0 0 1 -1 1 1 0 1 1 1 1 -1 0 -1 1 0 2 4 1 -1 0 7 1 1 0 -1 -1 0 2 0 0 1 0 0 -6 0 -1 1 0 1 1 1 1 0 1 1 1 2 -7 -1 2 1 1 0 1 3 -2 1 1 10 10 0 0 0 -1 4 1 0 -2 -1 1 0 1 0 0 0 2 1 0 -5 0 -1 0 1 0 1 4 0 1 0 1 0 0 2 0 0 1 0 1 0 2 0 1 1 1 0 1 2 1 -3 -5 1 0 -2 -2 0 3 0 1 1 0 0 -7 0 0 1 -7 -1 0 1 1 1 0 5 5 9 1 1 0 0 0 1 0 1 0 0 0 0 0 0 1 1 -1 1 1 0 2 1 1 0 
1 0 1 0 0 0 2 1 1 3 -1 0 -1 0 0 5 0 0 -3 2 1 -1 -1 1 1 0 -1 0 -2 -1 0 -2 1 0 1 1 1 0 0 0 1 1 1 1 0 0 0 -1 1 1 1 -1 0 0 4 1 0 2 2 1 1 0 0 0 0 1 5 1 -1 1 -1 1 1 8 2 9 2 0 3 0 3 2 1 1 2 0 0 0 5 1 -1 0 0 0 -1 -1 0 0 0 1 0 1 -2 -1 1 1 1 2 -3 0 0 0 1 0 2 -1 0 1 0 0 1 1 1 1 0 0 1 2 -4 0 -1 0 1 -1 0 -1 1 8 6 2 0 -1 -1 -4 0 0 0 2 1 0 0 0 2 -1 -2 0 1 0 1 2 -3 0 1 0 1 0 1 0 4 2 0 3 1 1 0 1 0 1 1 7 4 1 0 2 0 -1 -6 0 1 2 0 -1 1 6 3 0 0 0 -3 1 34 132 164 167 171 170 172 173 174 175 168 175 175 177 173 175 177 177 175 178 175 177 169 176 166 175 171 175 176 176 167 176 176 173 174 175 174 174 173 175 167 173 168 173 167 174 173 174 175 173 174 172 174 174 175 175 174 174 174 174 173 174 173 172 173 174 173 170 172 173 168 172 171 172 171 172 172 172 165 171 172 161 172 171 172 172 172 170 164 172 171 172 171 168 171 171 170 170 171 171 170 171 171 170 164 167 171 170 170 154 144 157 170 171 172 172 171 171 172 172 169 169 173 171 172 171 173 172 173 166 164 176 177 177 177 178 179 179 182 181 184 184 185 185 186 186 186 175 184 187 188 188 191 191 189 184 189 190 190 191 191 191 192 192 187 192 192 194 191 174 192 195 193 190 189 193 190 189 191 190 194 193 194 194 194 192 194 194 184 193 183 192 192 193 193 194 194 194 193 193 193 194 191 195 194 191 195 194 193 193 193 194 192 195 193 193 193 193 193 194 193 193 189 191 181 192 190 191 192 192 193 192 190 190 182 190 190 181 189 190 191 190 181 189 189 189 187 188 185 187 178 180 177 146 31 1 1 0 -2 4 1 1 -1 1 1 0 0 1 1 0 1 2 2 1 1 1 2 1 0 0 -1 3 0 0 0 1 -1 0 0 0 -2 1 0 0 1 1 -1 0 0 -1 0 1 2 0 1 0 0 0 -1 0 0 1 0 1 -1 0 -2 0 1 -2 -1 0 0 8 1 -5 1 0 -8 1 0 4 0 2 1 0 2 0 1 2 1 1 0 -1 1 2 0 4 1 2 0 1 1 1 -1 1 0 0 -1 0 1 -1 1 1 0 4 0 0 1 1 1 0 0 0 0 2 0 0 -1 0 1 1 -3 0 0 -1 0 0 -1 -2 0 0 1 0 0 1 0 1 1 2 1 0 0 0 -1 0 0 2 2 1 -3 0 1 1 -1 2 -1 0 1 1 1 0 -1 0 1 0 1 3 -3 -1 0 -2 0 2 1 1 1 1 1 0 
1 2 0 0 -3 1 3 0 -1 0 1 0 0 -1 1 -1 -4 -7 0 1 -2 0 0 0 1 4 -2 0 0 1 0 1 -1 -3 0 0 1 2 0 1 1 6 1 1 0 0 1 0 2 0 2 -1 -1 0 0 1 1 6 7 0 0 1 1 0 1 3 1 1 0 1 1 2 1 2 1 -2 0 0 0 4 2 1 0 0 2 0 1 -1 -1 -1 -1 -1 0 0 0 1 0 0 0 0 0 0 0 0 2 0 -1 0 -4 1 1 0 0 1 1 0 1 1 0 0 1 0 0 -4 2 -5 1 5 1 0 0 0 -4 0 2 2 3 1 1 -1 1 0 1 -1 0 0 -1 0 2 0 6 4 -1 -2 0 -1 0 -9 0 7 1 1 0 1 0 -2 1 0 0 4 1 0 0 0 1 2 0 1 5 0 1 -1 1 1 1 -1 -2 0 1 4 1 1 1 1 1 2 2 0 0 2 36 96 158 167 170 170 171 172 174 173 173 174 176 177 176 176 176 177 177 176 176 175 176 176 175 175 175 176 176 177 177 176 174 175 174 175 173 175 175 174 173 173 173 173 173 173 166 174 174 174 174 172 172 174 173 175 173 173 173 173 173 172 173 172 172 173 172 173 172 172 171 173 172 173 172 172 172 167 171 172 172 162 170 163 171 171 171 169 171 172 172 170 171 172 170 167 170 169 169 170 167 170 169 170 169 170 170 170 169 156 151 169 170 164 170 171 173 172 173 170 171 172 172 173 172 171 171 165 172 173 174 175 175 166 175 178 170 178 179 181 181 183 182 183 186 184 184 175 184 187 187 186 187 186 189 188 181 189 191 189 190 190 192 192 190 183 192 192 193 190 193 193 193 193 193 194 193 193 193 193 191 193 191 192 192 193 194 189 191 191 192 192 193 192 194 193 191 192 191 185 187 193 193 193 193 187 193 188 193 193 193 193 190 192 192 192 193 193 192 193 192 194 192 192 193 184 193 192 193 193 188 191 183 180 189 173 168 178 191 191 189 189 188 190 189 186 187 187 186 184 183 180 174 124 12 4 2 1 0 1 1 1 1 -1 1 0 0 -1 1 1 0 0 4 3 7 7 1 -1 0 4 -1 1 1 1 -2 0 -1 1 1 -5 1 -1 0 2 -1 0 0 1 1 0 -1 1 1 0 2 2 0 0 0 0 1 1 0 0 1 -1 0 0 -1 2 1 0 1 4 1 0 -1 1 0 8 3 0 0 0 -2 0 0 0 5 0 0 5 6 1 0 1 1 4 2 4 1 1 0 2 1 -1 1 1 0 1 4 1 -1 0 -2 2 2 -1 0 2 -1 0 -2 1 0 1 0 0 0 1 1 6 0 0 1 0 0 -4 1 0 0 -1 -1 0 1 1 0 1 0 3 2 2 0 1 0 0 0 0 0 0 0 0 0 2 -1 0 1 0 3 2 0 1 2 1 1 3 1 -2 0 1 1 0 -1 1 1 1 2 0 -1 0 
0 0 4 0 0 0 1 0 1 -1 0 1 0 0 1 0 -3 -1 0 0 0 0 1 1 -1 0 0 1 0 -2 1 -1 -3 0 3 1 0 1 2 2 3 4 4 1 0 0 -5 0 0 1 0 -1 0 1 -5 -1 -4 4 2 1 0 1 -2 1 1 3 1 1 2 0 -1 1 -5 0 0 -1 0 -1 1 1 1 2 2 -1 0 0 0 2 0 1 0 -5 -6 -6 0 1 0 0 2 0 1 2 1 4 0 2 0 2 0 1 1 0 0 -5 0 1 0 1 1 0 -1 1 1 2 2 2 1 0 1 -3 -1 1 0 -2 0 0 1 3 1 2 3 1 0 1 0 1 -7 -5 3 0 1 2 1 0 -5 0 1 -7 0 0 1 -1 -1 -1 0 0 1 1 2 1 -1 1 0 1 1 1 0 0 0 1 0 2 1 1 -1 0 2 1 1 2 1 -1 1 2 1 6 0 0 2 2 4 59 145 165 167 169 167 170 170 160 163 172 174 174 175 175 177 175 177 176 176 176 176 175 175 167 175 175 176 175 170 175 175 174 174 174 174 174 175 174 173 174 175 172 173 173 172 174 173 171 174 173 172 173 173 173 173 173 172 170 171 171 172 171 173 173 173 167 171 174 174 167 171 172 172 172 170 171 159 163 170 171 171 171 168 170 169 170 163 169 172 171 169 172 172 171 166 169 170 171 167 161 170 162 163 170 170 169 170 171 170 170 170 170 170 169 171 172 166 171 172 176 173 171 171 172 172 172 173 172 173 172 173 168 174 174 176 177 178 180 179 179 181 180 181 182 183 181 182 184 184 185 187 186 177 185 187 186 188 188 189 190 189 188 189 189 190 190 188 191 190 190 193 191 191 191 191 191 192 186 193 190 189 192 191 188 191 192 193 190 179 191 191 187 189 192 192 194 192 193 191 192 189 187 187 192 193 192 192 193 192 193 192 191 191 192 191 184 191 193 193 194 192 189 192 185 192 191 193 191 192 191 190 190 190 189 176 190 190 189 179 189 181 189 188 185 177 186 185 184 172 178 166 85 6 0 -1 -5 -1 0 2 1 0 1 0 0 0 0 0 2 -1 1 2 1 3 0 -2 0 2 5 1 -1 0 -5 -1 -2 1 0 1 -1 0 0 3 0 0 0 0 -1 1 0 -4 1 0 3 3 -1 1 0 1 1 2 0 0 -1 -1 -3 -5 0 0 0 0 0 1 1 1 0 1 1 1 6 0 0 -1 1 1 4 1 -2 0 0 2 2 1 1 1 0 4 1 -1 6 1 1 0 -2 0 0 0 0 -1 0 0 1 0 -1 0 0 1 0 1 0 0 1 1 1 1 0 1 -2 1 1 -1 1 1 0 0 1 0 1 1 0 1 1 0 0 0 1 2 0 1 0 1 1 2 0 1 2 -1 -7 0 1 1 1 2 4 1 1 -1 0 0 2 1 1 2 0 0 1 0 3 0 1 1 1 1 1 -1 0 0 0 0 1 
-1 0 1 0 -1 -1 1 0 1 0 2 1 -2 -4 -1 1 2 1 1 2 -1 1 1 0 0 1 -1 0 0 0 1 0 1 2 0 2 1 4 0 -2 -1 0 2 0 0 -1 0 1 1 0 0 2 0 -1 0 1 0 1 0 -1 2 2 1 -2 -1 0 2 1 1 -1 0 0 0 0 0 1 0 1 1 1 1 2 0 0 0 1 0 0 0 0 0 0 0 0 1 -2 1 1 1 0 2 1 0 0 2 0 -1 0 2 1 1 -4 0 1 0 0 1 1 0 0 1 1 0 0 2 2 3 0 1 1 -4 0 0 2 -2 2 -1 1 0 1 -1 0 0 0 0 -3 0 -2 1 0 1 0 0 -1 1 1 1 -1 1 1 1 -1 -2 1 0 1 3 0 0 1 1 1 1 -1 3 0 1 4 1 2 0 0 1 0 -2 1 1 0 0 1 1 1 0 -1 -2 0 1 1 2 0 7 24 103 160 165 168 168 170 160 162 172 173 173 173 167 173 172 175 174 174 172 174 175 168 161 163 174 175 176 174 174 174 171 176 174 174 174 173 167 173 168 173 173 172 173 165 172 172 172 173 164 167 173 175 171 169 172 174 173 172 171 171 161 164 172 165 171 173 173 172 172 170 170 171 171 165 172 171 165 170 172 161 170 162 171 171 170 171 171 171 170 169 171 170 172 171 169 157 157 169 169 169 170 170 170 165 170 170 169 169 171 170 167 164 171 169 169 171 169 170 170 170 171 173 169 171 171 170 171 165 172 173 171 172 173 171 172 175 176 174 177 178 177 174 179 177 174 179 182 180 182 179 184 182 184 181 186 180 187 187 188 189 187 181 187 188 189 188 188 189 189 189 188 190 190 189 184 186 190 189 192 189 190 190 188 186 189 192 190 179 181 191 191 190 184 191 191 191 192 192 192 192 193 193 192 192 191 186 193 181 191 192 184 181 181 192 192 187 192 193 193 192 187 193 194 192 192 192 192 191 193 191 180 184 191 191 190 187 191 190 189 188 190 188 180 186 185 185 184 183 180 177 152 45 2 2 0 0 1 1 0 1 1 -7 -1 1 1 0 1 -1 0 1 2 -1 -2 0 0 2 0 -1 -1 -1 -3 -2 1 0 1 0 0 1 -1 1 1 0 0 0 -1 -1 -2 2 1 1 0 -1 1 0 1 1 12 1 -1 0 0 0 0 1 0 0 1 1 2 0 0 0 0 -4 -2 0 -1 0 0 0 1 -1 0 0 0 -3 1 0 1 1 0 1 0 2 3 1 0 1 5 1 1 -2 0 -1 -1 0 0 0 0 2 0 1 1 0 0 0 0 0 -1 1 1 2 0 0 -2 2 0 0 0 -4 0 1 2 1 1 0 -1 0 0 0 0 1 1 0 2 0 -3 0 -2 0 0 -5 0 1 1 1 0 1 2 0 2 1 0 1 0 0 1 3 1 4 0 0 1 1 0 0 0 1 0 -1 0 1 2 -2 -1 -1 -1 0 
1 1 1 -1 -5 4 1 0 0 1 1 0 0 1 0 0 2 2 1 0 0 0 0 0 -5 1 -4 -6 -1 -1 0 0 0 0 1 1 0 0 2 1 -1 2 3 2 -1 1 -1 0 1 1 -1 0 1 0 1 0 -3 0 1 1 2 1 -1 0 -1 -4 1 0 -1 0 0 0 0 0 0 6 0 0 -1 0 0 2 0 0 0 1 1 0 1 0 1 0 0 0 0 2 0 1 1 0 3 2 -1 0 1 2 0 0 0 0 0 0 -1 0 2 2 1 4 2 0 1 1 2 1 1 1 1 -1 1 -1 1 1 1 1 1 1 0 0 1 3 0 0 0 0 1 0 0 1 2 0 0 0 -1 0 0 1 1 1 -1 -1 0 1 -3 1 1 6 2 8 0 -2 1 1 1 1 0 0 5 1 0 0 1 0 1 -1 0 2 0 1 1 -1 1 1 -4 -1 -1 0 0 1 0 0 0 7 89 152 163 165 168 156 168 170 171 170 164 172 174 172 166 166 168 174 166 175 174 175 162 167 166 174 173 173 174 174 173 174 174 172 172 170 172 174 171 170 163 171 173 173 171 173 172 173 172 166 172 172 173 173 173 173 173 172 171 171 170 171 171 171 171 173 172 169 162 164 171 172 171 172 171 171 170 171 170 172 171 170 171 170 163 170 170 171 164 159 168 169 171 161 162 168 170 169 170 169 165 170 169 170 164 170 165 169 167 169 167 169 167 170 170 171 169 169 170 170 171 171 171 169 162 166 161 171 171 172 171 171 170 171 172 172 173 165 165 174 177 175 175 177 173 178 178 173 179 180 179 170 181 176 183 183 182 184 184 185 185 172 176 187 186 180 187 187 189 179 182 188 189 187 186 189 188 190 189 190 190 188 189 189 190 192 189 189 191 191 189 182 183 192 192 190 191 191 192 191 192 189 191 179 186 191 190 183 190 191 191 191 180 180 191 191 192 183 192 192 191 182 181 192 192 193 191 182 190 191 192 192 190 191 190 190 185 189 188 188 189 188 187 186 186 184 183 182 179 172 120 14 1 -2 -1 0 3 0 0 0 1 -5 0 -1 0 3 2 1 1 1 1 0 -5 0 1 0 2 0 0 -2 -1 -1 3 -1 1 -1 1 0 0 1 -1 0 -1 0 -7 -1 0 0 -2 0 2 2 0 0 0 2 0 1 2 0 -1 1 0 1 0 0 0 0 0 1 1 0 -3 1 1 0 0 -1 1 1 2 -1 -2 -2 -1 -1 1 1 4 0 -1 -1 0 0 2 0 2 0 5 0 -1 -4 -4 -1 1 2 1 -1 0 0 0 -1 1 0 0 2 2 0 -7 0 1 0 -1 1 -1 -1 0 0 1 -1 3 2 1 1 0 -1 -1 -1 1 1 2 1 0 3 -1 -2 -1 2 0 -2 1 -1 -2 0 -1 -1 1 2 1 0 3 0 0 -1 -1 0 -1 -1 -1 0 -2 3 8 2 1 1 0 1 1 -2 0 2 0 -2 0 1 -1 2 
4 -1 0 0 2 -1 0 0 1 2 0 2 0 0 0 -1 1 -1 1 -3 0 -6 0 0 1 0 -1 0 -2 0 0 0 1 1 -1 0 0 0 0 0 0 0 0 -1 0 3 2 2 1 -1 -5 0 0 0 0 0 1 -1 0 -1 0 3 1 -1 -1 1 -1 1 0 -1 -3 0 1 1 -1 -1 0 1 1 1 -1 0 1 2 0 1 0 -3 0 0 0 0 0 -1 -2 1 1 0 0 0 2 -1 2 -1 0 0 1 -1 0 1 1 0 1 1 0 1 -1 1 0 1 1 1 2 -1 -4 1 0 0 0 1 2 -2 0 0 3 1 0 1 1 0 0 3 0 0 2 -1 2 1 1 -2 0 2 1 1 0 1 2 0 1 2 1 3 -1 0 1 1 0 3 2 2 0 1 0 1 0 0 0 0 -1 2 0 0 2 1 0 0 0 1 1 -2 0 1 -1 1 1 0 0 1 1 0 1 3 46 138 160 165 156 167 160 158 170 173 171 173 171 167 174 173 173 172 175 172 174 174 170 174 173 173 174 173 173 172 172 173 172 173 171 171 172 171 173 161 164 171 169 171 165 170 172 172 171 165 171 172 172 173 172 172 172 172 173 171 170 163 166 171 172 171 170 171 172 171 171 170 171 170 171 170 157 169 170 166 170 171 169 170 170 170 171 169 157 156 165 170 162 168 160 170 170 169 170 169 169 167 169 168 168 168 169 171 169 170 171 170 167 170 170 169 163 161 172 169 169 172 170 167 162 169 170 171 170 172 171 170 172 172 172 173 173 173 172 173 174 173 173 175 176 177 178 177 177 179 177 165 179 181 181 182 183 182 183 183 177 170 182 183 185 183 185 185 185 183 185 187 185 173 176 188 188 188 188 194 188 189 189 188 188 190 189 190 186 190 190 190 190 191 190 190 186 191 190 184 191 192 191 178 190 191 192 191 191 192 192 192 192 190 189 189 191 182 185 192 191 189 175 177 192 186 191 191 192 188 192 192 191 191 191 183 190 190 189 189 188 185 187 188 185 183 183 173 178 138 70 4 0 0 1 1 0 2 0 1 0 -1 1 0 1 1 0 5 1 0 1 2 0 0 1 0 0 0 0 1 0 0 1 -3 -3 -2 1 1 0 -2 2 0 0 0 -2 1 0 -1 0 3 2 0 0 1 0 0 0 0 1 2 0 0 1 1 2 1 0 -6 -6 1 0 2 2 2 0 0 -1 0 1 1 -1 -1 -1 -1 2 1 -4 1 5 2 -2 -1 0 1 3 0 0 1 2 6 0 1 -1 0 1 1 1 2 0 0 2 0 0 0 2 0 1 3 -1 0 1 1 2 -1 0 1 0 2 5 1 0 1 0 -2 0 1 2 5 -1 3 1 -2 -1 4 0 1 1 0 1 0 -1 2 0 0 1 1 0 0 2 0 0 1 0 1 -1 0 -1 -1 -2 -1 1 1 1 0 1 1 0 0 2 0 1 -1 0 1 0 1 1 1 
1 0 1 5 2 1 -6 -1 0 0 1 0 1 -2 1 1 1 1 -6 -5 -1 1 1 -1 -1 3 2 1 0 1 -4 1 1 0 0 1 -1 1 5 0 3 1 0 1 -1 2 2 1 1 -1 0 0 0 -1 -3 2 0 0 -2 -2 0 1 -6 -9 1 0 -4 1 1 1 1 1 1 0 2 3 0 0 2 2 0 0 0 0 1 2 0 0 0 -1 0 1 1 0 4 1 -3 0 -1 1 1 1 -1 2 1 2 -1 -2 1 1 1 2 1 1 -1 2 0 0 5 3 1 1 2 0 -2 0 0 1 -1 0 0 0 8 2 -1 -1 0 4 0 1 1 0 1 2 1 1 -1 0 0 0 0 3 2 -1 0 1 1 0 2 -1 0 6 2 1 0 4 1 -1 1 1 6 1 2 0 2 1 0 0 1 1 1 1 0 0 0 1 1 0 -6 -1 1 2 1 1 0 0 0 4 0 0 0 1 14 105 152 161 165 165 147 149 168 169 171 172 172 172 174 173 174 174 172 175 172 168 172 171 174 173 172 164 173 169 172 172 170 170 172 168 170 171 166 171 170 173 171 172 171 171 171 172 167 171 172 171 171 171 168 171 173 169 171 170 169 171 169 159 170 161 170 170 170 170 170 170 166 170 172 170 156 159 164 170 170 170 165 163 169 168 167 169 169 170 170 169 158 167 155 168 169 168 158 168 170 166 158 154 160 169 168 157 169 169 169 169 169 168 170 169 169 169 169 169 170 170 170 172 169 169 169 164 171 172 170 167 171 170 171 172 173 173 171 168 172 171 165 173 173 174 175 176 176 178 176 178 178 179 177 179 180 181 180 175 181 182 182 184 183 179 184 184 185 185 185 187 187 186 185 186 187 187 187 189 189 188 187 187 188 189 189 189 189 189 179 190 184 190 187 190 190 190 190 191 191 190 190 184 190 191 192 190 193 192 192 193 190 187 191 191 191 191 191 184 192 192 190 193 191 192 188 186 191 190 192 188 190 192 189 189 186 190 189 189 180 185 185 185 184 182 174 170 177 144 30 1 4 1 3 2 0 4 7 -1 0 1 1 1 -1 0 -1 1 0 0 1 -1 -4 0 0 1 1 1 2 1 -1 -2 -7 -1 0 -1 0 1 1 0 0 2 0 -1 0 1 1 1 0 0 0 0 0 -1 0 1 2 1 1 1 0 1 1 0 1 1 1 -1 0 0 1 1 1 1 0 0 0 1 0 0 4 0 1 3 2 0 -5 1 2 1 0 0 2 -1 1 5 1 -3 0 2 0 1 0 1 1 1 -1 0 -1 -1 -1 0 0 0 0 1 0 0 2 0 3 0 -1 0 1 1 1 0 5 2 0 0 0 0 -1 1 1 1 -1 2 -1 2 1 6 1 0 -1 0 1 0 1 0 1 0 0 1 0 3 0 2 5 -1 2 1 -5 0 2 0 1 1 -1 0 -1 0 1 1 -1 1 0 -1 -1 1 2 1 1 -5 2 7 
1 -1 1 10 2 -1 -2 0 0 1 0 1 2 1 3 1 0 0 -1 0 0 1 -2 -3 0 0 1 1 1 1 1 0 1 0 0 4 1 -1 2 -1 3 2 1 0 0 2 -1 1 4 -1 -2 -1 -5 -2 -5 0 1 -1 1 -1 0 1 -1 -3 -1 1 -1 0 1 0 0 0 2 1 -1 1 0 0 1 5 2 -1 -1 2 7 2 0 1 0 3 0 1 0 0 2 1 0 4 1 2 0 1 0 0 3 -2 0 0 0 3 1 0 0 0 1 0 0 0 0 1 1 -1 -1 1 3 1 0 1 0 -1 0 1 3 0 0 -1 4 5 -4 -1 1 0 1 1 1 0 -9 -2 0 1 1 1 0 2 1 0 0 -1 -1 1 -1 1 0 0 0 1 2 3 0 0 1 1 1 -3 1 1 0 0 0 1 -4 0 2 -3 0 0 -2 1 1 1 0 3 6 2 1 1 2 0 0 2 2 0 15 54 137 155 152 162 149 166 160 168 159 170 170 172 171 172 172 172 172 174 173 172 172 173 174 172 167 172 172 172 173 171 171 165 169 171 170 169 161 170 169 165 171 171 170 170 170 170 170 170 171 165 170 172 171 171 169 171 170 172 171 170 171 170 169 161 169 170 169 170 169 169 165 170 169 169 170 168 170 170 169 170 170 170 169 170 170 169 171 169 167 166 168 156 155 158 164 169 163 170 169 169 168 159 166 168 161 154 169 169 165 169 169 168 169 170 163 169 169 170 168 170 170 161 171 171 171 170 165 170 170 170 171 170 172 172 167 170 171 171 172 171 171 172 174 162 172 173 173 174 174 176 178 177 169 173 178 180 180 173 169 180 181 182 181 182 183 175 182 183 185 186 185 184 186 186 186 185 187 187 188 187 188 188 188 188 190 189 188 181 187 189 191 189 190 189 191 189 189 190 183 190 190 190 191 191 191 192 185 191 192 192 192 194 191 192 184 192 192 192 192 189 192 191 190 191 190 190 182 191 192 190 190 190 190 186 189 188 187 178 187 185 173 183 164 168 182 179 170 95 7 4 1 -1 0 1 1 0 0 4 0 0 0 1 -2 0 4 1 1 -1 -1 2 1 0 1 1 2 1 1 4 2 0 -1 1 1 1 0 1 2 0 1 1 0 -5 0 1 0 0 -3 1 0 2 1 -5 1 0 1 -1 1 0 1 0 0 -1 0 0 0 0 1 1 -1 1 0 1 1 1 1 1 0 1 0 0 0 0 1 1 -2 1 0 2 1 0 0 2 1 2 2 0 4 2 2 1 -1 1 1 -2 0 -1 -1 1 0 0 2 0 0 1 0 2 2 1 1 1 0 0 -3 -1 1 1 2 2 2 1 1 0 0 3 3 2 0 1 -1 4 1 3 1 3 0 1 1 0 1 -2 -7 0 0 1 0 2 2 1 2 1 0 1 -1 -1 7 0 -3 1 0 0 0 1 4 1 1 -1 0 0 0 1 1 0 1 -5 0 -1 
0 0 8 0 0 0 0 1 2 1 -1 0 -1 0 2 1 4 -1 0 -1 0 0 2 -2 -1 0 0 1 5 0 1 1 2 0 0 -1 0 1 1 1 0 -1 0 0 1 0 1 0 -1 0 1 -3 0 0 5 4 0 2 -2 0 1 1 0 0 0 1 0 0 0 0 -1 -1 1 0 0 1 1 1 0 0 0 -5 1 2 1 4 0 0 -1 0 0 1 1 4 2 1 1 3 1 -1 1 1 1 0 0 -2 -1 1 0 1 0 0 0 0 1 1 1 0 0 1 1 1 -1 0 0 1 1 2 0 -1 -4 1 3 1 1 0 1 2 2 0 1 2 1 1 0 0 -7 -5 -1 0 2 1 0 1 1 0 -2 0 2 0 1 1 -2 0 0 -1 1 1 0 -1 -1 1 1 2 -1 -1 0 0 1 1 1 1 -1 -1 -1 1 -1 1 4 1 1 0 0 1 2 0 1 1 0 0 0 0 2 15 102 129 158 151 164 158 167 168 158 169 170 172 171 171 171 169 170 172 172 172 171 172 173 173 171 171 171 171 172 169 161 170 170 169 170 169 169 161 159 169 171 170 168 161 158 155 158 170 170 171 170 169 170 172 172 170 172 170 166 170 169 165 169 171 170 172 169 162 161 170 170 170 172 169 168 170 170 169 169 169 169 176 170 169 169 167 170 169 169 168 168 162 167 167 170 167 168 168 167 168 168 163 167 169 167 162 168 167 168 169 168 168 172 169 169 168 169 168 170 166 169 163 169 168 169 170 164 163 171 171 169 170 172 171 167 170 162 171 167 171 166 170 174 175 172 174 173 176 176 175 175 175 176 176 168 176 179 167 178 181 180 176 180 182 183 182 183 180 184 184 185 172 170 186 184 186 185 186 185 188 187 186 185 180 187 188 189 181 189 188 189 191 189 188 188 189 189 191 180 190 191 191 191 191 191 190 190 191 191 190 187 192 190 191 191 192 192 193 191 187 192 192 191 191 190 181 190 190 189 190 184 190 190 189 190 189 188 188 187 170 166 162 165 182 180 165 131 63 4 0 1 -6 -1 1 0 1 0 1 0 0 0 2 4 1 0 -1 0 1 -1 -1 -1 1 -1 0 0 -1 -1 1 3 2 0 1 2 -2 1 2 1 1 1 0 0 -3 2 -1 -2 0 0 1 0 0 1 1 1 0 2 1 0 -1 0 1 0 1 -1 -1 0 1 1 1 0 0 -6 0 0 0 -1 0 1 0 1 -1 -1 0 0 -6 -1 1 0 0 2 0 0 -1 0 2 1 2 1 0 0 -1 0 1 2 4 2 0 1 1 -1 -1 0 0 0 0 -1 4 0 0 1 1 1 1 -2 0 1 1 0 1 0 4 4 1 0 2 1 2 1 -1 1 -2 0 1 0 0 0 -2 -2 0 2 -1 0 0 1 1 0 1 2 1 1 -1 3 2 -1 -1 1 1 0 1 1 0 1 1 5 0 3 0 1 -1 3 -3 -1 1 1 4 1 -2 
2 1 1 0 0 3 1 0 1 1 0 2 1 0 -1 1 1 1 0 0 0 2 1 -1 1 -1 -1 0 1 -4 0 1 2 1 0 1 0 1 0 2 -1 0 1 1 -1 -1 1 2 2 1 0 1 8 2 0 0 1 1 1 0 1 2 -1 0 0 -1 0 0 0 0 1 1 1 0 1 0 -1 1 0 0 1 0 0 0 -1 0 2 1 0 1 -2 -2 0 1 2 0 0 1 0 0 0 0 -1 0 0 -4 0 4 0 2 0 1 1 -1 1 -1 -3 -1 0 0 1 0 0 1 -1 1 1 1 -6 0 0 -2 1 0 -1 0 2 0 0 1 -1 0 1 -1 -2 1 -1 1 0 0 1 -2 0 2 1 0 0 1 1 0 0 -5 -1 0 -2 -3 1 0 1 -1 0 0 0 1 2 6 2 1 1 0 0 0 0 1 2 1 0 -2 1 1 2 2 0 1 1 6 1 2 0 1 0 1 1 12 45 131 156 161 164 164 166 168 168 168 170 170 168 169 162 171 171 171 170 171 162 171 172 169 169 171 171 170 168 170 171 171 169 169 169 168 167 168 170 169 167 170 169 168 161 169 169 161 163 169 170 170 169 170 169 168 170 170 170 169 159 168 171 171 168 170 170 169 169 166 160 170 170 171 168 169 169 168 169 169 170 168 169 170 169 169 168 169 169 168 168 168 168 169 158 154 152 161 169 168 167 167 168 168 162 166 168 170 169 168 169 168 169 159 165 169 164 169 169 170 169 165 167 169 170 169 162 169 170 170 170 170 171 171 166 163 171 171 171 170 172 172 173 173 172 175 174 175 175 175 176 175 177 175 168 165 177 177 178 176 179 180 180 176 182 181 182 183 183 182 174 183 184 184 174 169 185 186 185 186 186 187 185 177 187 188 187 188 188 188 188 189 189 189 182 181 190 189 189 183 190 190 190 188 192 191 189 190 192 190 191 190 190 192 190 190 192 191 192 191 191 191 193 192 192 180 175 180 190 187 191 189 190 189 189 188 188 185 186 183 160 163 181 182 172 175 134 20 0 1 2 0 -1 1 1 1 1 0 0 -1 -1 -4 1 1 3 0 1 0 0 0 0 1 -1 -1 0 0 -4 0 1 1 0 0 1 0 0 0 1 0 1 0 0 1 -1 1 1 2 1 0 0 0 -1 0 0 0 -2 1 0 -1 0 1 3 0 0 1 0 1 -3 2 2 1 0 0 0 0 -1 -8 0 1 0 -1 -1 -5 -1 -4 0 0 0 2 0 0 -1 0 1 0 3 0 0 0 1 2 2 1 1 1 -1 1 0 1 -1 -1 0 0 0 0 2 1 0 0 0 0 1 0 0 -1 3 -1 0 -1 0 1 1 1 1 0 1 2 8 1 0 1 0 -1 0 1 -1 1 2 1 1 2 1 1 0 0 1 0 0 1 0 0 0 1 0 1 0 0 1 0 -2 0 1 1 1 -1 1 1 0 1 0 -1 1 0 1 3 1 1 
1 -2 0 0 0 2 -2 -1 0 1 0 0 1 1 -1 2 0 2 0 1 0 1 0 -1 -3 -3 -1 0 0 0 1 4 4 0 1 0 1 1 0 0 0 0 1 0 0 1 1 0 0 4 0 2 0 1 2 0 0 2 3 1 0 4 3 1 1 0 -1 1 2 -1 0 1 0 0 -1 -2 0 0 0 1 0 -1 1 1 1 0 2 1 1 1 1 0 0 4 1 0 0 1 0 1 0 1 0 1 1 0 1 1 1 0 1 1 -1 0 -2 0 1 1 -1 0 3 1 0 1 -1 2 1 0 0 0 2 0 0 -3 0 -4 0 0 1 -1 0 -1 0 0 -2 1 1 1 0 2 2 -1 -2 1 1 1 0 -1 2 0 1 -1 0 1 0 1 0 1 0 0 1 -1 -1 0 1 0 0 0 0 0 1 2 -2 -1 0 2 0 -1 -1 1 1 1 0 3 1 1 2 2 2 0 1 1 2 8 9 83 146 157 160 164 165 158 167 169 168 159 160 168 160 170 170 168 168 170 169 171 168 169 166 170 170 165 171 170 167 167 170 168 169 169 165 168 170 170 166 168 169 170 158 170 170 169 168 160 169 170 169 169 170 171 170 165 162 169 168 168 168 168 170 168 160 170 169 171 168 171 172 168 162 168 168 169 169 169 168 167 167 167 169 169 169 169 167 168 169 169 170 168 170 167 153 157 167 169 169 167 169 167 167 167 168 169 169 168 168 169 167 168 168 168 167 168 170 168 169 168 168 169 169 161 169 168 170 170 170 171 171 171 170 170 170 171 172 173 172 172 172 172 172 169 174 175 172 175 175 176 176 177 176 164 178 174 177 179 174 180 180 181 181 181 181 182 182 183 174 183 180 184 181 159 182 186 184 185 188 187 181 186 187 188 188 177 187 188 185 186 174 187 189 190 190 190 190 190 186 190 191 181 191 190 191 191 190 191 189 191 190 191 192 191 192 190 192 191 191 191 190 191 189 190 190 191 189 189 188 189 188 178 173 172 178 187 186 187 182 168 169 173 180 170 91 6 -1 -1 0 0 0 1 1 0 1 -1 2 0 -1 2 -1 1 2 1 0 0 0 0 1 1 1 -1 2 -1 0 1 2 -1 -3 -1 -1 1 0 1 2 -1 0 0 1 1 0 -1 0 0 0 1 0 0 1 -1 0 -1 0 1 0 -1 0 1 1 1 1 1 1 2 -1 0 3 4 1 -1 0 0 1 0 1 4 1 -1 -4 -1 0 -1 1 1 1 -1 0 1 5 0 1 0 4 1 1 1 1 1 0 0 0 3 2 0 0 2 1 1 -1 1 0 0 1 0 -1 -2 0 1 -3 0 5 0 1 2 1 0 0 -1 0 0 0 1 1 0 1 -1 2 1 1 1 1 1 0 1 0 1 0 1 -1 -1 0 1 0 4 -1 1 -3 -1 1 0 -1 0 1 2 1 1 1 2 0 4 -1 -2 1 1 -4 2 0 -2 2 2 0 1 3 1 
2 5 1 -1 -5 -2 1 0 -1 2 0 0 0 0 -2 0 4 1 1 -1 1 0 0 -5 0 0 -1 1 0 0 1 0 2 1 1 1 0 0 0 3 0 1 0 -1 -1 3 3 1 2 1 -2 0 0 1 2 1 -1 1 0 0 -1 -1 -1 -1 2 -1 1 0 -2 0 0 1 0 1 -1 -1 2 1 1 1 -1 0 -1 0 1 1 0 0 1 3 1 1 1 0 8 0 0 1 1 0 2 -1 1 0 0 2 5 -1 0 2 1 1 -1 0 1 0 -1 0 0 1 1 1 1 0 1 1 7 1 0 1 0 0 0 1 0 1 3 0 -1 1 2 0 0 -3 1 0 0 0 1 0 1 0 1 1 0 0 0 1 -1 0 1 -1 0 -1 0 2 0 1 1 -3 -1 0 0 5 1 1 0 0 0 2 2 -2 0 0 6 1 1 2 0 0 0 1 -1 0 1 0 2 1 0 0 1 0 1 0 2 37 125 142 158 163 163 163 158 166 167 167 159 168 168 170 169 170 169 169 177 171 170 170 169 166 170 170 167 169 168 169 170 169 168 168 168 167 168 169 168 168 168 162 168 168 166 169 168 160 167 170 168 169 169 168 169 165 169 167 168 168 168 170 169 168 170 170 170 171 169 169 169 168 168 168 167 164 169 168 169 167 169 170 168 167 161 168 169 162 167 166 169 168 168 170 168 169 168 169 170 168 168 168 167 169 164 163 168 168 168 167 168 168 169 168 168 168 169 167 163 168 169 169 168 169 163 168 170 169 163 166 170 170 170 170 170 164 171 171 173 170 171 165 173 173 171 174 175 175 175 174 177 177 178 177 178 179 167 175 179 181 180 182 181 182 181 182 181 178 181 183 183 185 184 185 183 186 185 175 185 187 185 189 187 187 188 181 189 188 189 190 178 175 181 188 190 189 190 189 184 190 191 190 192 191 192 189 190 191 190 183 191 190 191 190 192 188 192 193 191 184 191 191 189 185 193 191 191 181 189 189 189 180 187 187 187 188 185 186 186 184 181 181 178 151 41 2 1 1 0 1 3 5 2 -1 0 0 0 0 0 1 1 1 2 0 0 0 1 1 0 2 0 1 1 5 -4 0 1 1 -1 0 1 -1 1 3 1 3 -3 1 0 0 0 1 -2 1 1 1 1 0 1 0 -3 -4 0 2 -1 1 2 1 1 7 -1 0 -3 0 4 1 1 1 0 -4 0 0 1 0 6 5 8 1 0 0 1 1 -1 -2 0 -1 0 0 0 -1 2 0 1 -1 0 0 0 1 0 3 1 0 0 0 0 2 5 1 -1 1 0 2 1 0 2 2 1 1 1 -1 2 0 0 1 0 0 1 -1 0 -1 1 1 2 -1 0 3 -2 2 0 0 0 0 1 1 2 2 2 -1 1 0 0 0 1 1 1 -1 3 7 0 1 -1 1 0 0 0 2 0 1 0 -3 -1 -1 0 3 -1 0 1 0 1 0 2 1 3 2 
2 2 1 2 -1 0 1 0 0 0 0 0 3 0 0 1 1 1 0 -1 0 1 0 4 7 1 0 1 1 -6 -1 1 0 -1 1 1 0 1 0 1 1 1 -1 0 -1 0 -1 0 1 1 1 1 0 0 0 0 1 0 1 1 -4 0 0 0 1 0 1 -1 1 -9 -7 0 0 1 0 0 1 1 -1 1 0 2 0 0 1 4 0 0 1 0 0 0 2 2 0 -1 0 0 -1 0 -1 0 -1 2 1 1 0 4 1 0 1 2 1 1 0 1 -1 0 -3 0 1 0 1 0 0 -2 1 0 1 1 0 1 -2 1 1 1 0 0 0 1 2 1 -1 0 0 0 -1 1 1 0 2 0 1 1 3 1 0 0 1 1 1 -2 1 1 1 0 0 0 1 0 1 0 0 4 1 1 0 -1 3 1 0 0 0 -1 -1 1 0 1 1 -1 1 0 0 0 0 0 0 1 -1 -2 0 1 7 0 0 8 80 141 155 159 163 162 160 166 166 166 160 167 168 169 167 168 161 169 170 168 170 169 169 167 168 168 162 168 168 168 167 167 164 167 168 161 162 160 168 169 169 167 168 169 168 168 163 168 168 167 167 163 169 169 169 168 165 169 161 167 168 169 168 168 169 165 168 168 169 168 162 162 167 167 170 169 168 168 168 168 168 168 169 168 168 168 168 168 167 168 167 167 168 168 169 168 168 166 168 168 167 167 168 168 167 167 168 168 167 168 169 166 166 169 167 168 169 162 160 167 167 169 169 169 168 168 168 168 169 170 172 170 170 169 166 170 166 171 170 169 173 172 173 172 175 175 174 174 175 174 177 178 175 177 172 177 169 178 179 180 179 181 180 180 182 178 183 183 183 183 184 185 183 185 184 186 185 186 185 187 187 187 188 187 187 186 188 189 188 189 187 176 187 187 188 189 189 185 189 190 189 190 195 191 191 192 191 191 191 188 190 188 190 186 190 190 191 190 190 189 190 190 190 189 190 190 189 186 190 188 189 187 189 184 187 187 185 185 184 183 181 181 175 119 11 0 0 1 0 1 1 1 1 1 1 2 0 0 2 1 -1 2 2 1 1 0 0 0 -1 0 -1 1 1 1 -3 0 1 0 -1 1 2 0 2 0 0 -1 0 1 1 1 0 1 2 0 1 -1 -1 0 -2 0 -1 -5 0 -1 2 0 0 1 -1 0 -1 -1 1 2 2 5 1 1 2 0 1 1 -1 0 0 2 1 4 1 -1 1 -1 1 -6 1 2 0 2 2 2 6 -2 -1 -1 1 7 6 1 1 -4 -1 0 1 0 0 0 0 1 -1 1 1 0 2 2 0 1 0 0 -1 0 0 1 1 5 1 0 0 1 0 -4 0 -1 0 2 0 0 1 4 1 -1 1 0 1 0 2 0 0 2 1 0 0 0 0 0 1 -2 0 -4 0 2 4 5 1 1 0 1 1 0 1 0 0 0 1 4 1 1 -2 0 0 1 1 1 1 4 
2 2 1 1 1 1 1 -7 -2 1 1 0 1 2 1 -2 0 0 0 0 -1 2 3 1 0 0 1 0 0 0 2 6 2 3 1 1 -6 1 2 0 1 1 0 -3 -4 -1 1 -2 -4 -3 1 0 1 1 1 -1 1 1 0 0 0 1 1 1 5 1 1 1 0 -4 -1 6 2 1 1 -1 1 2 0 1 0 2 0 0 0 0 0 -1 0 -1 0 3 1 1 0 0 1 -1 -3 1 0 1 0 1 0 0 -1 0 1 -3 1 2 0 0 5 1 -5 0 0 -1 2 0 0 3 1 0 1 0 1 0 0 1 0 -1 1 0 -1 -1 2 0 -1 -4 0 0 1 0 0 -4 1 0 0 -1 1 6 2 3 -1 0 1 0 2 -4 2 0 1 -1 0 1 0 1 0 0 1 0 1 0 0 -1 1 -4 -3 1 0 0 1 0 0 1 0 0 1 1 1 0 1 -1 1 1 0 1 2 1 1 0 1 9 31 116 149 157 156 162 153 164 166 165 166 165 167 168 168 169 167 156 167 167 168 169 167 168 169 168 167 167 168 164 165 155 157 165 167 166 167 167 169 167 166 168 167 169 167 170 168 166 168 162 167 167 169 169 167 167 167 167 166 157 168 171 168 167 168 168 168 167 163 162 166 167 157 168 168 163 168 168 167 168 168 167 168 168 167 167 167 168 168 159 162 168 163 166 166 169 169 168 168 166 169 168 164 166 168 167 166 161 167 168 167 167 168 166 168 168 167 167 168 167 167 165 169 169 166 159 165 169 170 169 169 168 169 168 165 172 171 172 171 171 171 172 174 173 174 168 166 164 163 165 169 175 177 169 178 174 179 180 179 180 179 181 182 181 178 180 177 183 182 181 185 184 184 185 185 185 185 186 185 187 186 187 187 186 188 187 188 187 183 188 182 189 183 188 190 188 189 190 189 190 189 190 190 191 189 190 189 191 192 191 187 190 192 191 190 186 181 188 178 178 175 190 190 191 189 186 190 185 190 189 187 187 188 187 186 186 187 180 185 180 181 180 164 68 4 0 -1 0 0 1 0 0 2 1 2 1 -1 -2 -1 -1 0 1 0 1 1 0 -1 0 0 1 -8 -4 0 -1 -3 1 1 1 -1 -1 0 1 1 2 4 1 0 0 1 1 0 1 0 1 -1 1 0 0 0 2 0 -1 0 0 0 0 1 -1 1 0 -1 0 0 1 1 1 0 0 0 0 -1 1 -1 -1 0 2 1 1 4 0 1 -5 1 0 1 2 -1 1 2 2 0 1 0 0 1 2 4 1 0 -2 1 1 0 -2 -9 -1 4 1 4 -1 1 0 0 -4 -4 1 3 2 0 1 0 0 1 0 -2 0 1 0 1 0 1 1 0 0 0 3 1 1 -6 -4 -1 2 0 0 1 1 3 1 0 1 0 -1 0 3 0 -1 0 -1 1 -1 0 -1 1 0 1 0 0 -1 2 1 1 0 2 1 -1 1 1 -4 3 2 1 0 0 1 
9 5 2 0 0 1 -2 0 0 1 1 -1 1 0 1 -3 0 1 0 1 4 1 1 1 0 0 1 0 0 1 5 8 4 1 0 1 -1 0 3 -1 1 1 1 -1 -3 1 -2 0 0 -1 1 0 0 0 2 0 0 2 0 0 1 1 1 1 5 0 0 0 0 -1 1 1 1 -1 -1 0 1 0 1 1 0 2 0 1 2 -1 1 2 4 1 -4 1 9 2 0 1 0 -1 0 2 1 1 1 4 -1 0 0 0 1 -1 1 1 3 2 1 0 0 0 1 0 1 2 -1 1 6 7 2 1 1 -1 0 0 -1 1 1 1 1 1 3 -1 0 0 0 0 0 0 0 1 1 -1 -1 -5 -1 4 1 -1 1 2 1 1 0 0 0 0 1 1 -1 -1 0 -1 2 4 3 2 0 -2 1 1 1 -2 -1 1 4 0 0 1 2 5 2 0 -3 -1 0 1 1 1 1 0 1 1 0 1 0 1 1 0 5 68 136 149 158 160 161 161 165 165 165 167 165 167 167 165 167 154 154 152 168 167 168 168 165 168 167 167 167 167 166 158 164 166 167 166 166 165 159 153 158 159 167 168 166 166 166 167 167 167 167 167 168 168 161 166 162 161 166 167 169 167 168 169 168 170 169 166 162 157 168 167 166 167 159 167 168 167 167 169 166 162 168 167 168 167 166 167 167 167 167 167 168 168 167 168 167 167 166 167 168 167 159 155 167 167 166 168 167 167 167 169 169 167 166 166 163 167 168 159 167 164 168 167 168 169 169 168 168 163 168 169 162 168 170 170 169 170 170 171 172 174 174 172 169 160 173 175 175 175 177 175 177 178 179 177 178 178 179 180 181 180 181 179 182 181 180 179 182 177 184 183 183 184 185 185 186 184 177 186 186 186 186 183 187 181 188 181 178 187 189 189 189 189 188 188 189 190 189 190 190 190 181 190 189 190 189 191 189 191 190 189 190 191 190 189 169 175 187 189 189 190 184 188 190 190 190 189 188 186 188 187 182 187 179 185 184 189 184 182 179 176 144 28 0 1 1 1 1 3 2 0 -1 0 0 1 0 1 0 4 -1 1 0 0 -1 -1 1 0 1 0 0 1 -3 0 0 1 -1 0 0 -1 0 0 2 -1 0 0 0 1 2 3 2 -1 1 0 -3 1 -5 0 -2 0 0 0 1 4 -1 0 0 2 1 0 0 1 1 0 -2 0 0 0 4 2 0 2 1 0 0 2 0 1 0 1 -2 0 0 9 1 7 1 2 0 1 -1 2 0 0 -2 0 1 -2 2 1 -5 0 -1 0 -1 0 0 0 1 0 1 1 0 0 0 0 1 1 0 0 1 6 2 1 1 0 1 1 0 2 2 0 0 0 1 0 0 2 0 0 0 2 1 1 6 1 4 0 1 0 1 1 1 3 0 0 0 0 0 0 0 0 1 1 -1 0 0 -1 -1 0 1 2 0 -2 1 -1 -6 -1 0 1 -1 1 0 1 
3 1 1 1 -1 0 0 2 0 1 -1 0 -1 0 1 0 0 1 1 4 1 1 1 0 -1 0 1 0 -1 1 1 0 1 1 1 1 2 -3 2 -1 0 0 0 1 -1 2 -1 -5 2 1 0 0 0 1 1 -1 1 0 2 0 0 2 1 0 1 1 0 3 -1 -2 1 5 1 -2 -1 0 -1 2 1 -1 2 0 1 2 1 0 1 0 3 1 1 1 2 1 0 0 0 1 1 2 1 1 0 1 1 1 2 0 1 2 0 2 1 0 2 1 0 1 1 2 -2 0 0 1 6 5 -1 1 1 1 0 0 1 -1 -3 1 -1 1 1 1 1 1 0 0 0 1 -1 0 1 -4 -4 0 1 1 -1 1 1 1 -2 1 1 3 -1 1 0 -1 0 0 0 0 1 0 0 0 -1 0 1 -1 0 1 1 -1 -2 3 0 0 1 1 1 0 0 1 1 0 -1 1 1 1 1 2 1 1 0 -1 1 0 2 21 79 120 154 159 161 164 163 164 164 161 165 165 164 164 163 165 155 166 166 161 168 167 166 162 167 165 167 167 166 166 166 162 165 166 166 166 165 165 166 166 167 166 168 168 167 166 167 168 158 154 157 167 165 157 166 166 165 168 168 166 166 167 167 167 167 167 166 166 167 166 168 166 165 166 162 159 167 165 167 168 168 168 167 167 166 158 166 167 166 164 167 166 167 167 164 166 167 168 167 166 167 167 167 167 166 167 167 166 161 168 168 167 168 169 167 164 168 160 167 165 168 169 167 170 168 167 165 168 168 159 168 168 170 169 171 166 172 171 171 172 172 172 173 172 174 175 176 175 176 177 178 176 178 178 178 176 172 179 181 182 181 181 180 180 175 183 182 183 184 184 184 184 184 186 184 186 186 186 186 188 187 188 187 187 172 188 187 188 188 188 188 189 183 189 188 187 188 190 189 191 189 190 190 188 191 185 191 190 189 182 182 190 188 189 168 172 189 191 189 185 188 190 191 190 190 189 188 188 187 188 186 184 185 182 185 184 184 181 179 172 101 6 0 2 -1 0 1 2 1 1 -1 -1 0 0 2 1 0 0 2 2 0 1 -3 0 0 0 0 2 2 2 1 0 -1 0 -1 1 0 2 1 0 1 0 -8 1 -2 -1 1 0 0 1 0 -1 -7 0 -1 1 1 0 0 0 0 0 1 0 2 2 1 0 0 1 1 0 1 1 9 0 1 1 0 1 1 -2 0 1 0 -1 0 0 1 0 5 0 0 2 1 1 1 0 1 -1 -1 -1 2 2 1 0 1 -4 -1 -1 0 2 1 -5 -1 -5 0 1 0 6 0 0 -1 -3 -1 2 2 0 2 1 0 0 1 2 2 1 0 4 0 1 0 0 1 1 0 0 0 -1 1 2 0 0 0 1 0 1 1 0 0 3 0 1 0 -1 0 1 0 1 0 1 0 0 1 0 -1 1 1 1 1 0 -1 2 -1 -1 -1 0 0 1 0 0 1 1 
2 0 2 0 -1 0 0 5 1 0 -1 0 -4 1 2 -1 1 0 0 0 0 1 1 1 0 1 1 0 0 0 2 2 2 1 -1 0 0 0 2 1 1 1 1 4 1 1 0 1 0 1 1 1 -1 1 0 0 1 -1 0 -4 -1 0 0 0 0 0 1 1 -2 0 0 1 0 0 -2 1 2 -1 1 0 0 0 0 -1 2 1 1 1 4 4 0 0 1 0 -2 0 1 -1 0 -1 1 0 1 1 -1 2 0 0 4 4 0 1 1 0 0 0 1 1 1 1 -5 -1 0 1 7 0 -1 0 0 0 2 -1 2 1 -3 -5 -1 -1 0 -2 -1 -1 2 1 0 1 0 -1 1 0 -1 1 1 1 -2 -5 0 -1 0 -1 1 2 1 2 1 1 2 0 0 1 1 2 1 1 2 1 1 1 2 6 1 1 -1 1 0 0 -1 0 0 2 0 2 1 1 0 0 1 1 1 8 2 1 0 0 0 2 1 4 54 104 148 155 158 160 160 160 162 151 164 156 165 165 166 166 166 164 167 166 165 160 164 165 165 165 165 167 164 165 165 165 165 164 166 162 165 166 166 167 166 166 165 165 167 160 166 166 165 166 168 168 166 156 166 161 154 165 166 167 167 166 167 166 167 166 157 159 159 166 167 161 165 166 155 165 167 166 168 167 165 167 167 167 166 166 157 160 167 168 168 166 167 163 166 167 168 166 167 166 166 168 167 167 166 167 166 160 166 168 166 168 167 167 166 167 168 167 168 169 168 158 161 168 169 164 167 167 167 167 168 165 169 170 170 161 169 170 170 173 172 172 173 174 174 174 175 175 175 176 176 173 178 176 178 174 178 178 179 180 180 177 181 176 174 182 180 183 183 182 183 183 184 185 183 180 186 185 185 186 186 187 187 186 182 188 188 187 188 189 189 189 190 188 185 189 189 189 186 190 190 191 190 191 190 190 189 188 183 189 189 185 181 190 188 190 190 190 190 191 180 190 191 190 188 184 189 188 188 187 187 186 186 185 184 181 182 179 177 157 52 4 2 -1 -1 -2 1 2 1 -2 -1 2 -1 2 0 4 0 1 0 0 0 -5 -1 1 0 -7 0 1 -1 1 -1 0 1 0 0 1 0 2 -1 0 1 1 -1 0 0 0 -2 0 0 1 1 -1 1 -1 -3 0 2 2 1 1 0 0 0 -2 1 3 2 0 2 1 4 1 -1 5 0 1 0 0 1 2 0 2 1 -2 0 1 0 0 2 1 0 -1 0 0 2 -1 0 1 1 1 0 -2 0 6 1 0 0 1 1 -1 1 5 0 1 0 -3 0 1 0 2 1 -4 -4 0 -4 6 2 1 0 0 0 1 0 0 1 1 -1 0 0 0 0 0 0 0 0 1 0 1 1 1 1 -1 0 -2 0 1 0 0 1 0 0 0 3 -1 1 -1 1 3 1 0 0 0 1 1 0 0 0 1 1 0 0 0 0 0 0 0 0 1 2 1 5 5 
0 0 0 0 0 0 0 2 1 -1 1 -3 -1 -1 1 -1 1 0 -1 0 0 0 0 0 1 1 -2 1 1 2 0 1 0 1 1 2 0 -1 1 1 0 1 0 1 2 0 1 1 1 0 0 0 0 1 2 2 0 1 0 1 1 0 1 0 0 0 1 2 0 1 0 1 0 0 0 1 0 0 0 1 1 1 0 1 0 0 1 1 0 3 2 0 0 -3 0 1 -2 0 1 1 -1 1 -5 0 0 0 1 0 1 0 0 1 1 -2 1 0 -5 -3 -1 -1 0 0 1 1 1 1 -1 -1 0 0 1 0 0 1 1 -1 -1 -1 0 0 1 1 1 2 -1 0 1 0 3 0 0 1 8 1 -1 0 -5 0 -3 -1 0 3 2 1 2 0 1 1 0 3 0 1 0 0 1 0 1 2 2 1 1 0 0 1 2 2 3 5 0 1 0 1 -1 1 0 1 0 0 1 1 1 7 1 0 2 3 1 16 43 99 142 153 155 159 152 149 162 159 163 156 163 164 165 165 165 165 166 166 164 157 166 165 160 164 166 160 165 165 165 165 164 162 160 163 166 165 164 160 165 166 166 165 166 164 154 158 159 164 165 166 160 166 165 165 165 166 166 166 166 165 167 165 165 166 165 166 167 167 166 167 157 164 145 152 166 167 168 167 165 168 167 165 166 166 166 164 165 167 164 167 167 167 166 167 166 166 167 164 167 167 168 164 157 152 165 167 166 163 167 159 167 168 166 169 167 167 168 167 168 167 168 168 170 168 167 169 170 165 167 169 169 169 169 164 170 170 168 171 171 171 172 174 173 176 175 171 176 178 177 178 177 178 177 179 179 179 178 175 175 181 182 175 182 181 171 182 182 172 183 184 184 185 174 183 185 185 186 177 179 186 184 186 186 188 188 186 188 188 190 188 187 190 187 181 188 189 188 190 190 189 190 192 191 190 179 183 188 190 190 186 190 190 191 190 185 190 190 189 188 189 188 189 189 187 181 188 187 187 187 186 186 185 183 176 174 170 173 131 18 1 2 -1 1 0 4 2 1 -1 -7 0 0 1 0 1 0 0 1 1 0 2 0 0 -1 1 0 0 1 8 1 0 0 0 -1 1 0 1 0 0 -1 4 2 0 1 1 -1 -3 0 1 0 2 0 -2 -5 -1 0 0 0 -1 5 1 1 1 -1 2 1 0 1 0 -1 2 -1 0 1 1 0 2 1 -1 1 1 0 0 2 0 0 1 -1 1 2 2 1 0 0 2 2 -1 2 -1 1 0 1 2 0 -1 1 7 1 -5 -1 1 0 1 1 0 4 0 0 -1 0 1 0 1 0 3 0 0 0 4 4 0 1 0 0 1 2 4 0 0 1 0 0 -4 0 -1 2 0 -1 0 1 1 -1 0 0 3 -1 0 1 2 1 0 2 0 1 0 0 1 -3 -2 1 1 0 0 0 0 0 0 5 4 -1 -1 1 1 0 0 2 -1 1 1 5 2 
0 0 0 2 1 -1 0 1 0 1 0 -1 -1 0 1 1 0 1 -1 -2 0 1 0 -1 1 1 0 -1 0 -2 -2 0 1 1 -1 1 1 -5 -5 0 0 0 2 0 0 4 -1 3 0 0 0 0 0 0 1 1 1 0 1 0 1 0 1 -1 0 -1 0 0 0 -1 0 -1 0 1 0 2 5 2 1 0 0 3 2 -4 0 0 1 2 -4 0 -1 0 0 -1 0 0 -4 1 0 1 0 0 0 0 1 1 -3 1 2 1 4 2 0 0 0 -1 -1 -1 1 -4 -1 -1 -6 1 -1 -3 -1 0 -1 0 1 0 0 0 0 1 0 -5 -2 0 2 2 0 0 1 1 3 2 0 0 1 -1 1 0 0 -1 0 0 -1 1 0 -1 1 0 1 5 0 0 0 1 0 1 2 -1 0 2 -2 0 0 2 0 1 4 1 1 0 2 1 0 0 0 -1 0 0 0 0 -1 0 -6 -4 7 6 2 1 0 4 1 3 20 48 126 148 154 156 157 160 151 160 162 163 163 162 164 161 159 163 165 160 162 154 162 164 164 163 165 163 163 163 163 164 164 163 165 164 164 165 164 163 165 157 164 163 156 155 154 163 163 158 165 166 160 165 163 165 166 157 165 166 166 162 166 166 159 164 166 159 160 164 167 166 165 148 142 162 154 157 165 166 166 167 165 166 166 166 166 166 166 167 167 167 166 161 166 167 165 166 161 167 166 163 162 166 156 166 159 166 159 166 167 166 168 165 168 167 166 167 167 168 165 166 168 167 167 168 167 168 168 168 167 168 169 169 169 169 170 171 164 170 174 172 171 175 173 175 175 175 175 173 177 177 173 178 179 180 178 169 165 181 180 174 180 182 181 177 181 182 181 175 182 180 187 185 186 178 184 185 186 173 185 179 185 188 184 188 187 182 188 189 188 190 189 188 188 189 188 175 180 190 189 188 190 190 189 182 190 191 190 189 191 190 191 192 190 180 190 189 189 192 188 190 190 189 187 188 187 171 176 173 181 185 185 184 176 183 181 177 136 86 6 1 1 2 0 2 0 2 2 1 1 1 0 -3 0 0 1 0 1 7 1 1 0 1 1 1 0 -3 0 10 1 3 0 1 1 1 1 1 0 2 1 1 5 2 1 3 4 0 1 0 1 0 -1 0 -1 -1 0 0 1 2 4 0 2 0 1 1 0 0 0 1 0 -1 1 -3 -2 2 0 6 0 0 1 1 3 0 0 3 2 0 1 7 1 3 1 0 0 0 1 2 0 -7 -5 1 0 1 0 0 1 0 -1 -9 0 0 0 0 1 1 1 -2 0 1 2 2 0 1 1 2 1 1 1 0 0 1 -1 0 1 1 2 0 1 1 0 0 1 0 1 1 0 1 2 0 0 0 1 1 0 1 0 1 -1 2 -1 -1 0 1 0 0 0 2 0 1 0 0 0 -2 1 -2 -1 1 8 5 0 1 0 -4 -1 0 -1 0 -1 2 9 10 
0 0 -4 -1 -1 1 0 0 0 0 0 0 2 0 -1 0 0 2 1 -4 0 1 0 -1 0 0 1 0 1 0 -1 -1 -1 1 1 1 3 -1 -8 -2 0 -1 1 0 1 0 -1 -1 1 -1 0 7 0 1 1 0 1 1 0 0 2 -1 1 0 0 -5 -1 1 2 1 0 1 -1 0 1 -1 1 1 1 0 1 -1 1 1 -1 0 -1 1 0 0 0 2 1 -1 0 -2 -1 0 0 3 0 0 -1 1 -1 -1 -1 0 1 5 1 1 0 3 0 0 1 0 1 0 0 -1 0 1 0 0 1 1 -1 0 -1 4 3 1 -2 1 0 -1 2 5 -1 1 2 3 0 0 1 0 0 0 0 0 1 -1 0 2 0 -1 0 1 -1 1 2 1 2 -1 1 0 0 2 0 0 1 -8 -5 1 0 -1 7 0 2 1 2 -1 1 1 1 1 0 -1 0 0 -1 -1 0 1 2 0 1 -1 0 0 -2 1 1 0 0 1 1 11 89 140 149 155 156 159 159 160 161 162 160 163 163 155 148 163 163 157 153 150 148 153 157 163 162 163 163 163 162 163 160 163 163 162 164 163 164 164 166 162 164 163 165 164 164 165 164 164 166 166 164 165 156 165 165 158 164 166 167 164 166 166 164 165 167 165 164 166 165 162 165 150 151 165 160 166 165 165 166 164 166 163 165 166 166 157 157 165 164 166 166 163 164 166 167 167 165 165 165 159 165 166 165 162 168 165 167 165 162 166 167 166 166 166 167 167 167 166 155 166 167 168 167 167 167 161 162 172 169 170 169 169 168 170 169 161 171 172 170 173 174 173 175 175 175 177 176 174 176 177 176 178 179 178 178 167 175 180 181 180 178 180 168 168 171 183 182 181 183 179 185 179 184 185 185 184 185 186 186 187 179 186 188 187 186 187 179 188 187 186 188 188 183 188 180 189 175 173 175 174 189 190 189 189 190 185 190 185 190 186 189 190 189 189 189 189 190 190 190 190 188 184 188 187 188 187 186 185 187 184 184 183 178 182 180 177 148 42 17 1 1 1 1 1 2 2 0 -1 1 2 0 0 2 0 1 -2 0 1 0 0 2 1 0 0 0 1 2 8 1 0 0 0 2 0 -1 2 0 2 1 0 1 1 1 1 0 1 -1 -2 5 1 3 0 0 2 0 3 0 2 2 0 1 1 1 0 1 -1 0 1 -1 1 1 0 -2 0 1 1 2 0 -1 1 1 0 1 0 2 2 2 3 4 0 -2 1 1 0 1 0 1 1 0 2 0 -2 2 1 2 0 0 0 -2 1 1 3 0 1 0 0 -1 0 6 9 0 1 1 0 1 -1 1 0 1 0 -1 0 -1 1 0 2 1 0 0 1 1 -1 0 1 0 -7 2 2 1 0 -4 2 0 2 0 2 1 1 1 1 0 0 2 0 1 3 1 2 2 1 1 -2 0 0 -4 0 6 2 2 1 1 1 0 3 1 0 0 2 -1 1 
1 0 -6 -7 -1 0 0 1 1 0 1 1 1 0 2 0 1 0 1 1 1 3 -1 -1 0 0 2 0 -1 -2 4 1 0 1 2 -1 1 1 0 -6 2 1 -1 0 -1 0 0 0 -1 0 0 1 1 1 1 1 0 0 6 2 1 -3 -1 -1 -1 0 -1 -1 -1 0 1 0 -1 0 -1 1 1 0 0 1 1 1 1 1 1 2 0 -1 0 1 0 4 2 0 0 -1 0 0 0 0 0 0 -1 0 0 -1 0 1 2 1 1 -2 -1 1 0 -5 0 2 0 -1 0 1 1 1 2 5 0 0 0 0 1 1 2 2 5 0 1 1 -1 4 0 1 1 1 1 4 1 -2 -1 1 2 2 1 2 1 1 5 0 -1 -1 0 0 1 1 0 1 -1 -1 1 0 -1 -3 0 0 2 0 1 1 2 2 0 0 0 1 -1 -5 0 0 1 0 1 -1 -1 -1 -3 0 1 0 0 4 0 1 1 1 2 0 2 4 0 2 39 119 144 151 153 156 158 159 159 161 160 161 162 161 162 163 162 163 155 162 163 162 160 158 159 162 164 162 161 162 163 155 161 162 163 162 161 163 159 163 162 152 164 164 164 163 164 158 165 164 164 163 164 165 165 165 164 167 165 163 157 165 165 163 165 166 166 165 164 162 165 156 164 166 165 165 166 165 165 165 165 164 164 161 166 166 166 157 164 164 166 165 160 160 164 164 166 165 165 159 156 156 166 165 166 166 167 166 166 167 166 167 167 167 168 167 166 167 166 167 166 157 167 161 168 166 167 168 169 168 169 170 169 169 166 171 172 172 173 172 172 167 174 175 175 176 175 177 176 178 176 177 179 179 178 179 179 180 180 180 181 181 180 171 181 181 172 176 184 183 184 184 185 185 186 186 182 185 181 186 185 187 188 188 188 188 187 188 187 187 181 180 177 189 188 190 188 178 174 188 189 188 189 190 189 189 188 190 190 188 189 186 189 190 189 187 188 188 189 189 190 188 188 188 187 188 187 186 185 184 173 175 182 182 179 171 113 11 2 6 1 1 0 0 4 8 1 4 1 0 -1 1 0 1 0 0 2 0 -1 1 1 3 2 1 0 0 2 5 2 -5 -2 0 0 1 0 0 3 8 1 -1 2 0 1 0 0 3 1 0 2 0 1 0 1 0 -1 2 0 -1 0 0 1 2 6 0 0 0 2 5 1 0 0 0 -5 -1 1 1 0 0 0 1 2 2 1 2 0 0 -1 0 2 1 2 0 0 1 0 0 1 0 0 0 0 0 1 2 0 -1 -7 0 0 1 0 0 -1 1 1 0 0 0 0 0 1 2 1 1 0 0 -1 0 0 1 0 0 1 2 2 0 1 -4 0 -1 2 1 0 0 -1 1 0 0 0 -1 0 1 1 0 1 -1 1 2 0 3 2 1 0 2 1 0 0 1 1 1 -1 -1 -1 -2 -1 0 0 0 -1 -1 1 0 1 0 -3 -1 1 0 -1 1 
5 1 1 0 1 -1 -3 1 1 0 1 0 1 1 0 1 1 -2 -1 0 0 1 -4 0 1 0 0 1 -1 0 0 0 -1 0 1 1 1 1 1 0 1 0 0 2 1 1 -1 1 -1 0 -3 1 0 0 1 0 0 0 1 4 0 -1 -1 0 -2 1 0 1 1 0 2 1 -1 1 1 1 1 0 0 -1 0 0 1 -1 0 2 4 0 1 0 0 -1 1 0 -1 0 -1 -3 0 0 0 -1 2 1 6 1 0 4 2 -1 -3 -7 0 -1 0 1 1 0 2 1 0 1 1 1 -1 2 0 1 0 5 0 0 1 1 7 0 0 1 1 2 -1 1 0 -1 3 1 -3 -1 -5 0 1 0 1 1 2 1 2 2 1 3 9 1 0 3 -1 -2 -1 0 0 0 0 -3 -2 1 1 1 0 0 -1 1 -1 1 -1 1 1 1 0 1 0 0 1 7 3 -1 -6 -2 1 1 0 1 2 1 0 0 2 0 0 -1 1 4 8 76 115 146 150 146 155 155 158 159 160 151 159 154 160 163 162 161 162 162 163 162 162 162 161 161 158 161 161 161 161 159 161 153 161 162 161 163 156 163 163 162 163 164 165 164 164 164 164 162 164 164 164 164 163 163 153 164 165 165 163 163 156 160 165 164 164 157 163 165 165 164 161 165 165 157 165 165 165 165 163 159 165 164 166 165 167 164 157 159 164 159 164 164 166 165 163 165 165 165 159 165 165 166 162 165 166 167 166 166 160 166 167 165 166 167 166 158 167 160 154 166 166 168 166 168 167 167 169 167 170 169 169 166 165 171 172 170 173 172 172 173 173 173 175 175 168 175 177 176 170 172 178 178 179 178 178 179 176 180 181 178 180 180 171 166 180 174 183 182 184 183 181 185 185 185 184 185 182 185 181 187 188 187 180 187 186 189 188 188 187 185 180 189 188 191 189 181 188 181 189 180 172 175 191 190 186 188 190 189 191 188 189 189 188 190 189 190 184 188 188 188 183 188 188 186 187 186 180 184 182 176 180 179 178 159 64 3 -1 0 1 -1 -1 0 0 0 1 -2 1 0 -2 0 1 0 0 1 0 -1 -2 -1 0 0 1 0 0 0 -4 1 0 2 0 1 0 1 1 -1 2 8 0 0 0 0 -1 -1 5 0 0 0 0 1 2 1 2 1 0 1 1 2 0 1 4 0 0 -2 1 1 1 -1 -1 -3 -1 1 1 0 -1 5 0 1 0 0 -2 1 -1 -1 1 1 -4 0 1 0 1 1 0 6 3 1 1 3 2 5 3 -2 0 -1 0 1 -8 -1 -3 0 0 -1 0 1 0 1 1 0 1 1 2 0 -1 0 0 1 0 0 -6 0 1 1 0 1 0 1 -2 -1 1 6 2 1 0 0 1 1 1 0 4 0 2 3 2 0 -2 1 1 -1 2 0 1 -1 0 1 1 0 4 0 0 0 1 2 -1 1 1 -1 -1 0 -2 -2 -1 1 0 1 0 1 0 0 1 0 
2 0 0 0 2 0 0 0 0 1 1 1 -1 0 1 -3 0 0 2 0 0 1 -5 0 0 1 0 0 0 1 0 1 0 1 6 0 1 1 1 2 -1 2 1 0 2 2 0 1 0 0 1 1 1 1 -1 -1 1 0 1 1 0 -1 1 -2 1 0 0 0 0 1 0 1 -1 1 0 0 1 0 0 0 1 6 2 1 0 1 -1 4 -4 1 0 -1 1 0 2 1 0 0 0 0 1 1 1 0 1 -1 -1 0 7 1 0 0 0 6 2 0 1 1 -1 0 0 -4 1 1 0 0 1 0 0 1 0 -1 0 1 2 -3 -1 0 0 2 -1 0 -2 -5 -1 1 1 1 -1 1 1 0 -1 0 2 0 1 0 -5 -2 1 1 1 1 0 1 -1 0 1 0 0 0 0 -1 1 1 2 0 0 1 3 1 0 0 0 0 0 2 1 1 1 2 3 -1 -5 1 0 1 0 0 0 1 1 1 -1 2 2 2 0 1 3 31 110 140 143 150 151 142 146 156 157 158 160 160 160 159 159 161 161 164 162 161 160 161 162 160 161 161 160 154 154 160 148 160 154 161 161 160 162 162 163 164 162 163 163 159 162 163 164 163 162 162 164 162 164 163 163 160 164 164 165 156 155 162 164 167 161 162 154 163 159 164 161 165 164 165 165 165 162 156 164 162 164 165 164 165 164 165 165 165 163 159 163 164 166 163 155 165 160 164 162 165 165 166 165 166 167 166 166 166 165 164 167 166 163 166 166 161 166 167 166 166 157 165 158 167 168 167 168 167 167 168 165 170 169 170 171 172 173 172 170 173 174 167 169 170 174 172 174 168 176 177 178 178 173 179 179 180 179 180 181 182 180 180 181 164 170 171 182 179 184 183 184 185 185 185 185 185 186 185 185 188 184 184 174 186 188 187 188 187 188 188 181 189 188 188 188 189 188 181 190 188 188 180 188 190 190 188 189 190 190 187 188 189 189 177 188 185 189 180 188 178 186 187 186 187 186 185 185 182 184 183 180 178 171 112 23 2 1 -1 1 -1 0 0 1 1 2 1 0 1 1 0 1 1 0 1 2 0 1 1 1 0 1 1 1 1 8 7 1 0 0 1 1 1 2 1 -1 1 1 2 0 1 1 -1 1 -1 0 3 1 0 1 -1 0 1 3 6 1 0 0 0 1 1 0 4 5 1 0 0 -1 1 2 0 1 0 -1 0 0 -1 1 -1 -8 -1 0 -1 0 1 0 0 0 2 0 1 0 0 4 1 0 0 0 2 0 0 2 1 1 1 -1 0 2 1 0 -6 1 0 1 4 0 0 1 1 1 -5 0 -3 -1 0 1 0 1 0 2 2 1 0 -1 1 1 1 -1 0 0 1 0 1 2 0 0 -1 1 1 2 1 0 1 1 0 -3 -1 0 0 0 -4 1 1 0 0 0 1 0 0 0 0 -6 0 -4 1 1 0 0 1 0 0 -3 1 1 2 1 0 2 1 
1 0 -1 -1 -1 0 0 0 2 1 2 1 2 1 0 1 0 4 0 1 0 1 2 0 0 0 0 1 1 0 1 0 2 0 3 2 1 1 1 0 0 1 2 0 1 -1 -2 0 0 1 0 1 1 1 0 3 1 0 1 1 1 -1 0 0 -3 -1 -1 1 1 0 1 -5 0 0 1 0 1 -2 1 1 1 4 0 1 -3 0 0 2 0 0 0 1 0 0 -1 -1 1 0 0 1 2 -1 0 0 2 7 1 0 2 0 0 1 0 1 -2 1 0 0 -1 -6 -1 5 3 0 -4 0 -1 0 3 1 0 1 0 1 1 -1 -8 -3 -7 -1 0 4 0 0 -1 1 0 1 1 0 1 0 0 0 1 1 0 0 0 -1 0 0 0 1 1 1 1 4 1 2 2 1 1 1 1 1 2 2 0 1 1 1 1 0 0 2 0 0 1 1 0 1 1 -1 -1 1 0 -1 -1 1 1 0 1 1 1 1 -1 0 1 1 2 29 67 127 141 142 150 151 153 155 155 157 157 158 160 158 159 160 159 160 159 159 160 156 160 160 152 150 159 161 160 158 159 160 161 161 162 160 154 157 162 161 161 161 163 162 162 163 164 162 163 162 163 163 152 152 163 163 162 164 164 162 164 163 164 162 165 160 163 164 152 165 163 163 163 165 163 164 164 162 163 165 164 164 160 164 164 165 166 166 163 164 165 159 155 165 157 163 165 165 164 165 164 164 166 164 165 165 166 166 159 165 165 166 166 167 166 164 165 162 166 166 164 166 159 167 162 167 169 168 169 163 167 169 170 169 171 173 171 171 174 174 174 173 176 174 172 176 176 170 176 178 178 177 176 173 177 171 179 180 180 179 183 181 182 181 177 182 184 185 182 178 183 184 184 186 185 185 185 186 187 188 187 178 171 172 179 178 186 186 188 187 186 188 182 189 187 188 189 189 188 190 189 176 188 191 191 190 189 189 189 187 188 188 189 178 176 188 189 189 187 183 173 175 185 187 184 183 184 172 172 180 180 178 143 89 7 0 0 1 0 -1 1 0 0 0 1 2 1 0 1 -1 4 2 0 0 -1 0 3 0 -1 1 0 0 2 1 7 1 0 2 3 0 -1 -4 -1 1 0 0 0 0 2 1 0 0 3 0 3 1 1 1 0 0 1 1 -3 -2 0 0 0 0 1 6 2 0 1 0 1 -1 -4 0 0 0 1 0 -3 -1 1 1 3 1 -5 -1 1 1 1 5 0 -1 0 1 7 1 2 1 1 0 0 0 0 1 1 0 1 0 1 1 0 0 -3 1 1 0 2 1 4 2 1 1 1 -1 1 1 1 2 -1 0 0 2 2 1 -1 -3 0 -4 0 0 1 0 -2 0 0 0 0 -1 0 1 -3 -2 0 0 0 -2 0 -1 1 0 -2 -5 0 1 0 -1 -4 -1 2 2 1 2 -2 1 2 0 1 0 0 2 0 2 1 0 0 -5 0 2 0 0 0 0 3 1 
2 2 0 0 -1 0 0 1 0 1 1 -1 0 0 1 3 0 1 2 -1 2 0 0 -1 1 0 0 2 0 1 1 -3 0 2 3 0 -1 -1 6 1 3 0 1 1 1 1 1 0 1 0 0 0 1 1 1 1 2 1 1 1 1 1 -1 -1 0 1 -1 1 1 0 0 0 -3 0 0 -4 0 0 -1 2 -2 1 1 1 0 -2 0 1 1 1 2 1 1 2 1 -2 -4 -1 1 2 6 0 0 1 5 0 1 0 0 1 0 1 2 1 0 2 1 2 -5 -9 0 0 0 0 -5 0 -2 1 2 1 2 2 1 1 0 2 0 -2 1 -9 -1 0 -1 1 0 2 6 0 0 0 0 0 1 1 0 1 -1 1 -1 -1 0 1 0 -1 0 1 1 0 0 0 4 0 0 0 1 2 -1 1 2 1 0 2 0 0 1 2 0 1 1 0 1 3 1 0 -7 0 1 1 0 -1 3 -1 2 6 2 0 2 1 0 1 1 12 23 95 133 143 146 141 151 153 155 156 156 157 156 157 158 159 152 160 159 158 158 159 158 159 156 159 159 155 159 156 159 158 160 161 159 160 161 161 160 162 154 163 160 161 163 163 164 163 162 158 162 161 162 154 163 164 162 158 161 162 163 162 163 163 161 164 164 164 164 164 164 164 163 164 164 163 164 162 163 164 155 164 164 163 164 169 166 163 154 163 163 164 158 164 152 164 164 165 160 163 159 165 164 164 164 166 164 157 164 165 165 163 167 166 166 165 167 166 165 166 166 166 166 160 165 166 163 166 168 165 168 169 169 164 170 172 172 173 173 173 174 172 172 175 177 177 176 177 174 177 177 165 165 170 171 180 180 180 181 176 180 180 182 182 182 182 184 178 183 183 184 184 184 186 187 185 187 186 186 186 187 187 180 187 185 176 186 188 187 188 188 187 188 188 184 187 190 190 188 186 190 188 189 190 184 190 189 180 190 188 189 187 190 177 187 185 188 187 189 187 185 173 185 184 177 184 183 182 180 177 178 173 144 58 4 0 0 2 3 -1 1 -1 0 0 0 0 0 3 1 1 4 1 1 1 1 1 0 0 0 1 1 1 0 1 -1 -1 1 0 1 1 0 2 10 2 1 0 -5 0 2 0 -2 2 1 1 0 2 0 1 2 0 0 2 1 0 0 1 3 1 1 1 0 -1 0 0 0 -2 0 0 -2 0 1 1 -1 1 4 1 1 -6 0 0 0 -1 0 0 2 1 -3 0 1 -1 2 1 0 0 -1 1 1 7 1 1 1 1 2 0 1 0 1 3 0 -1 -1 0 3 1 2 0 1 2 1 0 2 2 1 2 0 0 0 1 1 1 0 -2 0 2 -1 -1 -2 1 1 1 2 1 -3 -6 -2 0 2 1 1 -1 1 2 0 4 2 -1 0 -1 4 0 0 0 -1 0 1 0 0 2 0 1 1 1 -1 -1 1 1 0 -1 0 2 1 -1 -2 1 0 1 0 1 
0 1 0 0 0 1 0 -1 1 1 0 0 -1 0 1 -1 1 1 1 4 0 -3 1 1 0 0 -2 -2 -1 1 2 0 1 1 0 3 1 1 4 1 1 0 0 0 1 0 0 0 1 0 0 0 2 4 1 0 0 0 1 1 -1 0 0 1 -4 1 2 0 0 0 0 0 -1 1 2 -1 -1 0 0 0 1 0 -6 0 1 1 4 2 2 1 6 0 0 0 8 7 1 -1 0 0 0 0 -1 1 1 0 0 0 0 0 1 -2 1 0 -1 -1 1 2 1 1 0 1 1 1 -1 0 0 1 0 1 2 3 0 0 0 0 1 0 0 0 -1 -7 0 1 1 0 2 0 0 0 1 1 0 -1 0 1 1 0 2 1 1 1 4 0 0 -3 0 2 -1 1 0 0 1 1 2 1 0 3 0 0 1 1 0 -3 -1 0 0 2 0 -1 3 2 7 0 -7 2 0 2 1 1 0 1 -2 0 0 0 2 1 2 0 1 1 5 42 110 136 142 143 150 150 153 154 156 149 155 153 157 158 149 156 158 158 157 149 151 152 158 158 146 157 159 158 158 153 158 159 153 159 160 160 157 160 161 160 161 161 162 161 163 161 153 160 161 161 157 161 160 162 162 163 162 161 163 163 162 165 162 161 161 164 164 164 162 163 157 161 163 163 164 162 163 164 163 164 162 164 164 164 165 164 159 163 165 163 164 164 164 163 163 162 163 164 164 164 164 167 165 165 163 163 164 165 164 166 166 164 165 158 168 166 167 166 165 167 167 165 152 167 168 162 168 169 170 169 169 171 172 172 172 173 173 174 174 174 174 176 177 174 176 176 176 177 178 170 177 179 179 179 180 181 179 179 177 179 181 182 183 183 182 175 176 184 184 178 184 183 185 184 186 185 186 186 186 187 187 187 188 186 186 188 177 180 187 177 187 182 190 182 188 190 188 188 189 190 189 187 190 189 184 187 188 188 190 188 188 188 188 188 189 188 187 187 187 185 185 185 184 184 182 182 182 178 178 164 88 8 0 0 0 2 1 1 1 -3 1 2 1 1 4 1 0 1 0 -1 -1 1 0 2 0 0 -1 1 1 2 2 -1 0 -2 0 3 -1 2 1 2 0 1 0 1 0 -2 1 0 1 0 1 0 1 3 6 1 0 0 0 1 1 1 -4 0 0 0 0 1 -4 0 2 -1 -2 0 0 1 0 2 0 1 -1 -2 2 -2 0 1 -1 -1 1 0 -4 -1 -1 1 0 1 0 1 7 7 4 -1 1 1 -1 1 0 -1 -1 0 0 1 0 -1 0 0 1 0 0 4 1 -1 0 1 -1 0 4 4 3 1 1 1 0 1 0 1 0 -1 0 -1 0 1 0 -1 -2 1 0 0 1 0 -1 -3 -2 0 1 -3 1 2 1 5 1 0 0 0 -1 2 2 1 1 2 1 -2 0 -3 -2 1 2 1 2 1 -1 1 0 1 1 2 -1 -1 -1 -8 -1 -3 1 3 1 -2 
0 1 -1 1 -1 0 1 1 0 0 0 1 4 1 1 1 -1 1 1 -1 2 -1 0 1 -2 -2 0 0 1 0 0 2 1 0 1 1 -1 1 0 1 1 0 0 1 1 1 1 0 0 1 0 -1 1 1 2 0 1 0 1 0 -1 -1 -1 0 1 1 1 1 1 2 1 1 1 0 1 1 -1 1 1 1 1 0 1 0 0 1 0 2 -1 0 1 0 1 1 7 1 1 3 1 5 1 1 -1 -1 2 0 0 0 0 1 2 0 0 1 2 1 1 2 1 4 0 1 -4 1 0 1 0 -2 0 1 1 0 0 0 1 -1 0 1 1 0 -2 -4 -1 -1 0 4 1 5 2 -1 1 1 0 1 0 -1 0 1 0 1 0 1 1 -2 3 -1 1 0 1 0 1 2 4 1 6 0 3 1 0 9 -1 0 3 0 0 1 2 2 -1 1 0 1 -3 -4 -1 0 1 1 1 1 0 -6 -1 0 0 1 8 6 7 2 0 0 0 5 59 118 135 143 145 147 151 151 154 154 154 156 156 154 156 154 157 158 157 157 156 157 157 154 156 151 155 156 157 156 157 157 156 158 156 159 160 160 155 161 156 160 161 161 161 160 147 160 153 160 159 161 162 162 162 162 162 161 163 163 161 161 163 162 162 162 164 161 163 159 162 162 158 163 163 158 163 163 164 162 162 158 163 163 163 163 161 164 165 164 164 162 165 164 165 165 164 165 164 161 164 165 164 163 163 164 165 165 165 163 164 165 165 166 166 164 166 165 165 166 165 163 166 166 168 167 168 169 170 169 171 170 169 171 172 173 175 173 166 166 176 176 182 176 176 177 175 176 177 177 179 179 179 175 181 180 180 181 181 182 183 183 182 182 182 182 182 182 186 183 185 185 180 185 181 185 185 186 186 185 186 182 188 187 187 186 189 187 179 186 182 188 189 189 188 190 188 188 186 189 186 181 180 189 188 189 189 189 188 186 181 187 188 188 186 179 187 185 186 185 172 183 183 183 182 178 180 175 171 135 29 7 -3 0 1 1 1 1 1 1 2 7 2 0 1 1 2 1 0 1 0 1 1 1 -2 -9 -4 -3 -2 0 2 0 -1 1 1 1 1 1 1 5 5 1 1 -1 -1 1 1 0 1 0 1 0 0 0 2 2 4 1 1 0 -2 1 -1 1 1 0 0 1 0 1 0 0 1 0 2 1 1 -1 0 -2 0 -1 -7 -6 2 0 0 -1 0 1 0 0 0 1 0 0 2 -1 0 -1 1 0 1 -1 0 0 0 0 -1 0 1 1 -1 -5 -5 1 1 1 5 1 0 0 9 1 2 2 1 1 0 0 -2 -1 1 1 -1 2 2 0 0 0 0 0 0 0 2 1 1 0 0 -1 1 1 0 -4 -1 1 -2 2 0 -1 0 0 0 -2 -1 2 2 4 0 0 2 -1 0 -2 0 4 0 1 2 1 -1 0 2 1 0 1 0 -3 0 0 1 0 0 -3 1 -1 
0 0 -1 -1 1 2 1 0 1 1 0 1 2 0 0 0 0 0 1 0 0 0 -3 -3 0 -1 1 0 1 0 0 0 -1 1 1 -1 -5 0 0 -1 1 -1 2 1 2 0 0 1 1 0 6 1 1 1 1 2 1 -1 1 1 -6 0 1 0 -1 0 1 1 0 1 1 -1 0 -3 1 1 -1 0 0 0 1 -1 1 -1 0 0 0 1 1 1 1 0 1 0 1 0 -1 0 0 1 1 1 0 0 1 2 0 0 1 0 2 1 -3 -1 1 0 0 -8 2 0 1 0 0 2 0 1 0 0 -3 1 4 2 1 -4 -2 0 0 1 3 2 0 0 -1 -3 -1 1 -1 -1 -1 -1 1 1 0 2 -1 2 1 1 0 1 0 1 0 0 4 1 3 1 1 0 1 0 1 -1 1 1 1 -2 -4 2 1 -1 1 3 0 -1 0 1 -1 1 4 0 0 0 -1 0 6 4 5 2 0 -7 -1 1 0 2 1 1 2 0 1 1 -2 1 11 76 123 126 141 146 149 150 151 152 144 154 154 155 155 154 156 155 156 156 156 155 156 155 157 156 155 149 156 150 155 158 158 157 158 157 157 158 158 159 161 159 164 159 161 159 159 159 161 160 161 162 162 161 161 163 161 161 163 160 162 161 162 161 162 157 160 161 161 161 159 162 162 162 163 159 163 161 163 159 161 162 162 163 153 158 163 163 163 163 164 163 163 163 164 163 160 164 165 165 164 157 164 162 160 163 164 163 163 165 165 165 165 165 165 165 166 165 166 165 164 165 167 167 167 167 169 169 170 168 170 171 171 166 171 173 173 172 171 174 175 177 179 175 175 176 176 178 178 173 178 179 179 180 178 180 179 179 181 178 181 182 183 180 179 184 182 183 183 185 169 167 183 176 184 185 187 187 187 187 187 185 187 187 185 188 187 186 182 188 187 188 182 188 189 188 189 187 180 188 187 181 188 189 186 188 189 189 189 188 187 188 188 189 187 176 180 181 185 178 175 182 183 182 183 182 179 174 127 73 5 1 -2 -1 0 4 0 0 -2 1 0 5 1 -1 0 -1 0 3 -1 0 0 1 -1 1 1 -1 0 0 -4 -1 1 0 7 1 0 5 6 2 1 0 0 2 3 1 1 0 0 0 0 0 0 0 -1 -4 -3 0 0 1 0 -2 0 1 2 4 7 2 1 0 0 1 1 1 1 0 1 0 -2 1 -1 0 1 1 -1 -1 2 1 1 -1 -1 0 2 1 0 -4 0 1 0 1 0 -1 -1 -2 1 0 0 1 -1 1 1 0 2 -1 0 1 0 1 1 1 7 4 0 0 1 1 1 1 -2 0 1 -1 3 -1 0 1 1 0 2 0 2 0 0 2 -1 6 1 -1 1 0 -1 1 -1 -1 1 1 2 1 1 3 1 -2 1 -1 -1 0 -2 0 1 1 1 0 0 1 -1 2 1 2 0 -1 3 0 2 -1 3 1 0 -1 0 1 -3 1 0 -1 -10 0 -2 -1 
0 1 -1 0 1 1 0 -1 1 1 1 1 1 -3 -1 -1 1 1 1 0 1 0 0 1 1 -1 -1 1 -1 -1 0 1 0 -3 2 0 1 0 -1 0 0 1 0 0 0 2 0 0 0 0 -1 2 1 0 1 -1 3 0 1 1 0 1 1 2 0 1 0 -1 1 1 1 -5 -8 0 1 1 1 0 2 1 6 1 1 -5 -6 -1 1 2 1 0 1 0 0 -1 0 -1 1 5 1 -1 0 0 0 0 0 2 4 0 1 -1 0 1 1 0 0 -1 0 0 0 2 2 -1 0 1 1 1 1 0 -1 0 1 1 3 -2 -1 1 0 -1 -2 0 -1 1 1 2 2 1 1 1 -1 1 1 1 0 1 0 0 1 -1 0 0 1 1 0 1 2 0 1 2 1 -1 0 0 -1 1 2 1 -4 -2 0 2 1 0 0 0 0 -6 0 1 0 0 0 0 0 1 -1 2 7 1 0 0 2 0 1 0 1 1 0 0 0 0 1 -1 2 1 2 25 89 125 135 138 144 137 149 150 145 151 154 154 153 149 154 155 154 155 152 151 155 154 154 155 154 155 152 156 153 156 150 157 156 157 158 157 159 160 158 159 158 152 159 160 159 160 160 160 161 160 160 160 161 161 161 160 161 162 162 160 161 160 162 161 160 156 157 161 155 161 162 162 162 162 162 156 160 163 162 161 162 163 162 161 164 159 164 161 163 162 162 159 164 160 164 163 163 157 163 152 163 164 163 161 164 164 165 166 166 154 165 164 165 165 165 164 165 166 167 166 167 164 167 168 167 171 169 169 171 171 171 171 172 173 173 173 165 174 174 175 176 175 177 176 177 176 177 178 178 179 180 178 180 174 178 180 180 181 181 181 181 173 180 183 183 184 184 183 183 167 170 184 174 185 187 184 186 186 184 186 187 181 187 187 188 189 182 187 188 188 183 189 188 186 188 189 188 188 183 187 181 188 188 188 189 188 187 188 186 186 187 186 181 186 187 186 185 185 184 179 183 183 181 180 171 168 91 17 7 1 1 0 1 1 0 -3 -8 0 0 2 1 -4 1 -2 2 1 1 0 0 1 1 -1 0 -1 0 1 0 0 1 -4 0 0 -1 2 1 2 -1 1 0 1 1 1 -1 0 1 1 -1 1 1 -1 0 -1 0 1 1 1 -1 1 0 0 1 1 1 0 0 1 -1 0 -3 1 0 5 1 1 0 -1 0 1 0 0 1 0 0 0 -4 -1 1 0 1 1 4 1 1 0 0 0 1 -4 -1 1 2 -1 0 -1 -1 0 -3 -4 -1 2 -1 0 1 0 4 0 -2 1 0 1 0 0 0 -4 0 0 0 -1 2 1 1 0 -3 0 1 2 0 0 2 2 2 1 1 -1 -3 0 1 1 1 1 2 1 2 1 0 2 3 2 -1 1 1 0 1 0 0 1 1 1 1 2 1 1 1 3 -1 0 1 0 1 2 1 0 -1 0 -1 -1 -7 -1 -1 -1 -4 0 0 1 
1 -1 1 0 -1 1 0 0 0 1 0 1 1 0 0 1 2 1 2 0 0 1 2 0 1 1 -1 2 2 1 0 0 -2 -1 1 -1 0 0 1 1 1 1 -4 1 1 0 0 0 0 -1 0 1 -3 0 1 0 1 1 -1 -8 -3 0 0 -1 1 1 1 0 1 0 2 -4 -3 0 1 0 0 3 0 0 1 1 1 1 0 -8 -1 1 4 -1 -1 0 1 -2 -1 1 -3 1 0 1 0 -1 1 0 0 8 6 2 1 1 1 0 -2 -4 -1 0 -1 0 1 3 1 0 1 0 1 0 0 1 1 -1 1 0 0 0 1 1 3 0 -1 2 0 0 1 0 0 0 1 2 -2 3 0 2 0 0 1 3 1 3 1 0 2 1 0 1 0 1 0 1 1 0 0 0 1 1 1 -1 0 0 -6 0 2 1 0 0 1 -1 0 0 2 -1 -1 0 0 -1 0 2 1 0 2 2 1 -1 -1 1 0 4 5 1 0 -1 0 0 1 0 1 3 53 100 128 136 140 133 146 147 150 149 149 149 152 152 145 154 153 153 154 155 153 155 153 153 154 153 155 155 154 155 154 154 156 157 156 156 157 158 158 159 159 158 159 160 159 158 155 159 158 158 161 160 159 161 160 160 161 161 161 160 161 158 160 162 162 161 160 161 162 161 163 161 162 162 162 163 162 162 161 162 161 162 164 164 162 163 161 163 162 162 156 162 158 163 163 163 163 163 163 162 156 153 158 165 164 164 163 164 164 164 164 165 164 165 165 163 165 166 165 159 166 167 166 167 167 168 163 169 170 170 171 165 172 172 172 174 167 173 174 176 175 176 175 176 176 177 178 177 179 178 179 179 175 179 180 180 180 180 181 181 183 182 183 183 184 184 183 175 184 177 183 186 186 186 177 187 186 184 186 186 185 180 188 186 188 185 188 189 187 188 189 189 189 189 189 187 187 181 187 189 188 182 178 185 187 187 188 187 189 183 186 188 186 186 183 186 184 184 183 182 183 180 171 172 173 122 61 4 3 1 1 0 1 2 2 1 0 -1 1 1 0 1 2 2 5 1 0 -2 5 0 0 1 0 1 0 1 0 -1 -7 1 1 1 1 -2 -1 1 0 0 -5 -1 -5 1 2 4 1 1 0 0 0 0 1 0 1 1 0 -1 1 2 0 1 0 2 2 -2 1 0 -1 0 1 -1 2 1 5 0 1 1 0 0 -1 2 1 -3 0 2 0 2 1 0 1 4 0 0 1 1 -1 1 -1 0 1 0 1 -2 1 2 -1 1 0 0 0 1 0 0 0 1 0 0 2 1 1 1 0 0 0 0 0 2 0 -1 0 0 0 1 -1 0 0 1 -1 -1 0 1 0 0 -1 0 1 -3 0 1 0 0 1 1 0 -1 0 2 2 5 1 1 0 -1 1 -1 1 1 0 -1 1 2 1 -1 2 1 1 0 0 2 0 0 -1 1 1 1 1 2 -1 -1 -1 2 1 0 1 0 
0 0 -1 0 1 5 0 2 0 1 0 0 1 1 1 1 0 1 1 2 0 3 8 -1 2 -1 1 3 0 0 0 0 1 1 8 -1 0 -3 -2 1 0 0 0 0 1 2 1 2 1 0 0 0 -1 -5 -1 0 -1 -3 0 0 1 1 1 -1 -1 -4 0 1 -1 2 1 2 0 1 0 1 1 3 1 1 1 1 2 0 0 -6 -3 -1 2 0 0 1 0 0 1 0 1 2 0 0 1 2 -1 1 -1 4 2 1 0 -1 1 0 0 -4 -3 -1 1 -2 1 1 6 1 0 1 1 2 0 1 0 -4 0 0 1 0 2 3 2 0 0 0 0 -6 0 1 -2 1 1 0 0 0 -4 0 0 0 0 2 0 0 0 1 1 1 1 1 1 2 8 0 1 0 1 0 1 1 0 -2 0 1 0 0 1 0 0 0 -1 1 -6 0 0 -1 -5 -1 0 0 2 -1 0 1 2 -1 0 0 -2 0 0 4 3 0 1 0 2 0 -1 2 0 2 6 55 109 120 135 133 143 138 145 148 150 150 151 152 151 150 152 152 152 151 150 152 153 152 153 153 153 153 153 155 155 145 151 155 156 154 156 154 157 156 157 153 159 159 159 158 154 158 158 156 160 158 158 163 159 160 159 159 158 160 160 159 161 161 160 162 161 161 160 162 161 157 160 162 161 158 163 162 163 161 161 162 164 162 162 162 161 163 155 162 162 162 159 163 164 164 163 164 157 163 164 163 163 163 163 164 164 164 164 164 165 164 165 164 165 164 165 165 166 166 165 164 166 167 161 169 169 169 169 171 166 171 171 172 172 173 171 174 174 175 174 176 176 175 174 176 178 178 176 178 180 179 178 178 174 180 181 180 172 171 184 182 173 183 183 182 183 182 183 184 185 186 185 185 184 184 182 185 186 185 186 185 186 187 187 187 187 183 188 188 187 188 187 188 187 180 172 180 187 187 187 188 187 189 188 188 188 188 188 187 182 187 187 186 185 185 184 174 175 181 182 180 179 178 166 93 9 5 1 0 -2 -1 0 2 1 4 1 1 1 2 0 1 0 0 0 1 1 0 1 4 0 1 1 0 3 -3 0 -1 -3 0 6 5 1 -1 -4 1 2 0 1 0 1 1 1 0 1 0 0 3 0 1 -6 0 1 2 1 2 1 1 0 1 1 1 0 0 1 3 0 0 0 0 3 3 1 -1 1 -1 2 2 4 2 8 2 1 0 0 1 6 0 0 0 0 0 0 3 1 -1 1 0 0 0 2 -1 1 0 1 1 2 -1 2 0 0 0 0 1 0 -1 0 1 1 0 -1 1 0 0 1 0 -1 0 -4 -1 1 0 -1 0 0 -1 0 2 1 1 0 0 0 2 2 0 1 1 1 1 5 2 1 0 1 0 0 1 0 0 2 1 0 1 0 2 2 1 -1 1 -1 1 -2 0 0 0 0 6 0 0 0 -1 1 0 0 2 -4 -1 0 1 5 1 1 2 
2 0 1 1 -1 0 2 -1 -1 1 0 0 3 1 0 2 -1 0 1 1 5 1 1 1 -3 1 0 1 0 0 0 0 0 0 -1 0 -1 -1 -1 0 1 1 1 -1 1 1 1 2 0 1 -1 0 0 -1 1 0 1 0 3 0 2 9 1 0 2 1 1 -1 -1 2 0 -1 -1 -4 0 0 0 0 1 0 -1 0 1 -2 1 -1 0 2 0 1 0 0 3 0 1 0 0 1 1 0 1 1 0 1 -1 1 0 1 1 -2 0 0 0 1 0 0 2 -1 1 0 1 2 3 1 2 0 -2 1 1 1 1 -1 0 1 1 1 1 2 1 -1 1 0 1 1 2 1 1 2 0 0 -1 1 1 1 -4 0 1 2 -1 0 -1 0 0 1 0 0 -1 -1 0 0 0 -2 1 1 1 1 0 1 0 3 -1 -1 -1 3 0 0 -1 0 0 0 -1 2 0 0 1 1 0 0 1 1 2 0 2 0 0 0 1 0 1 0 0 0 0 0 1 0 0 8 66 113 125 135 133 131 145 146 148 150 145 150 146 151 152 151 150 151 152 151 151 152 150 145 152 151 153 152 154 153 154 155 155 155 148 156 155 154 156 157 157 157 157 157 157 158 158 158 158 158 159 159 161 160 159 159 152 158 158 160 159 160 160 159 159 160 159 154 160 161 151 161 161 161 162 162 161 160 162 162 163 157 162 162 162 155 161 163 163 163 163 163 163 161 160 163 162 163 161 164 163 163 157 163 164 164 163 164 162 164 166 165 164 165 167 164 164 164 165 167 157 161 168 167 168 170 168 172 171 172 172 171 172 172 174 175 174 174 174 174 177 175 177 177 177 178 175 179 179 180 179 180 179 180 181 172 179 180 176 174 174 182 183 183 183 185 184 184 185 184 184 179 184 185 186 186 186 185 181 185 186 186 179 182 187 186 184 187 187 187 187 187 188 186 174 186 188 188 188 188 189 185 179 186 186 185 187 187 182 186 186 186 186 185 184 184 182 181 174 181 177 173 137 31 2 -1 1 0 0 1 2 11 4 0 1 8 7 1 -1 -2 0 0 0 0 0 2 1 0 4 2 -1 -1 1 0 1 0 1 3 -1 2 1 0 0 1 1 0 -2 -1 1 0 1 1 0 1 1 0 0 0 -4 1 5 1 0 0 0 1 -5 0 1 2 1 1 0 0 -4 -2 1 3 1 1 0 1 1 0 -1 0 1 1 4 3 0 3 1 2 1 -1 -1 1 1 1 0 2 0 0 0 -1 0 1 2 -1 0 1 1 3 0 1 2 0 0 0 2 0 2 0 1 -3 1 0 1 0 2 0 2 0 1 0 0 0 0 1 -1 -6 1 1 1 1 2 -4 -2 0 0 1 2 4 0 1 0 0 2 1 1 1 0 1 0 1 1 1 0 -1 1 1 0 1 0 -1 1 1 1 -4 0 0 1 0 -1 0 1 -3 1 -2 1 0 -3 -4 -1 1 3 0 3 0 1 0 
1 0 1 0 -1 3 1 0 0 1 2 1 0 2 1 0 -1 -1 1 1 1 2 0 0 -1 0 1 1 -1 -2 0 1 1 1 0 0 1 1 -1 -3 0 0 -1 -3 1 1 1 1 1 1 1 1 1 1 0 0 0 1 1 -1 1 0 2 -1 1 0 0 1 0 0 1 -2 -6 0 1 0 1 0 0 0 1 -2 0 2 0 1 0 1 1 0 -2 0 4 1 0 1 3 1 0 0 3 4 0 -1 1 1 1 0 2 0 -1 1 2 1 1 6 1 4 0 2 0 3 0 1 1 5 2 -1 1 0 -1 -2 0 0 -1 0 0 1 1 1 1 1 0 1 1 0 1 0 0 0 -1 0 0 1 -1 1 0 0 1 -1 -2 1 0 2 6 1 0 1 -1 -5 -7 1 1 1 -2 1 0 -1 2 5 0 0 2 0 0 1 1 0 3 1 0 1 0 -2 -1 2 1 -1 -2 0 -1 0 2 0 1 0 0 1 -3 0 1 0 0 -1 1 1 2 5 20 79 117 129 135 140 143 142 146 147 149 149 148 149 149 150 150 150 149 149 143 151 149 150 151 151 151 151 151 151 154 154 154 146 150 151 156 154 156 155 156 156 156 156 156 157 156 158 155 159 157 158 158 159 159 158 158 158 159 159 152 158 160 160 159 159 161 158 160 161 159 160 160 159 161 162 162 161 161 156 161 162 161 160 162 162 162 161 162 162 162 162 162 163 161 163 162 163 154 158 161 154 152 163 161 164 164 164 164 165 164 163 164 164 165 165 165 166 166 166 168 167 163 167 169 169 170 171 171 171 172 163 165 173 172 173 166 174 176 175 176 176 178 176 177 177 177 179 179 178 179 179 177 180 180 181 180 181 182 182 182 182 183 183 182 183 183 186 183 185 185 185 186 185 186 187 182 180 186 185 187 187 187 186 182 188 186 186 187 188 186 187 187 187 176 176 186 188 188 186 187 182 186 187 188 186 188 186 187 185 177 185 185 183 183 182 177 179 180 179 177 160 72 6 -1 0 2 0 2 3 3 10 9 4 1 13 11 0 1 0 -2 2 1 -1 0 1 1 0 0 0 1 -2 -1 -5 0 -1 0 1 1 0 0 1 0 -4 0 -1 -1 -4 1 0 0 2 1 1 1 1 -1 1 -1 1 1 1 -1 0 4 1 1 1 1 0 -2 0 1 -1 -4 0 0 1 4 7 1 0 0 0 0 4 0 0 1 0 0 1 0 0 1 0 0 -1 0 -1 1 1 0 -3 0 1 0 1 6 0 1 1 0 1 1 1 -2 0 -1 -2 0 4 -1 1 -2 0 0 0 2 1 1 0 0 0 1 1 2 0 0 1 0 1 1 2 1 1 1 -1 -1 0 0 0 0 1 0 0 2 -1 1 2 1 0 1 1 0 0 1 1 -1 1 2 1 0 0 1 2 0 0 1 1 0 1 -1 -1 0 0 1 0 0 1 2 2 1 -1 0 -1 0 1 -1 2 0 -1 
0 1 1 -1 1 -1 1 0 1 0 0 0 0 0 1 -1 3 0 0 -1 0 1 1 0 0 1 0 0 1 0 1 0 0 0 1 0 0 0 1 1 1 0 1 0 1 0 0 -1 1 0 0 3 1 -1 0 0 -3 0 2 2 -1 1 2 0 0 0 0 1 0 1 0 0 0 1 0 0 -5 -1 -1 0 1 3 0 2 0 -3 2 0 2 2 1 1 -1 2 0 1 1 0 0 1 1 0 1 0 0 0 -1 0 0 1 -2 2 -1 1 2 0 0 1 -1 1 -1 1 0 1 -1 -1 1 -1 -4 1 0 -3 0 1 1 -1 -2 0 0 2 2 1 5 0 -4 1 1 1 1 1 0 0 2 -3 1 0 0 0 -1 -2 2 0 0 2 2 0 0 0 1 0 0 2 0 2 0 1 4 1 0 1 0 0 0 0 1 1 1 1 0 -1 0 0 0 0 1 2 -1 1 0 -3 2 0 1 0 -2 1 -2 0 1 1 2 3 -1 1 0 0 0 0 2 28 87 106 122 134 135 142 142 145 146 147 146 148 138 147 148 148 149 149 149 148 148 145 144 149 140 150 150 149 151 143 152 152 149 153 154 156 156 155 156 155 155 157 157 148 156 157 158 157 157 158 158 158 158 157 155 151 157 159 159 150 158 160 159 159 161 159 151 158 160 160 160 150 159 157 161 160 160 159 161 162 160 161 162 162 160 151 161 162 160 156 156 162 163 161 165 162 163 161 163 163 162 162 163 163 163 163 163 163 159 163 162 165 164 165 164 166 164 158 166 160 168 169 167 171 169 169 171 172 171 172 171 173 174 175 173 174 176 175 176 176 175 176 177 176 178 176 180 179 180 179 179 180 181 180 180 181 180 182 180 181 182 179 170 172 178 184 178 178 184 185 185 178 185 186 185 186 185 179 186 187 187 187 186 187 186 184 186 187 188 188 189 186 177 186 187 187 186 177 173 185 187 187 188 183 187 187 185 184 179 185 185 183 182 174 180 180 180 178 171 117 17 1 1 1 0 0 1 3 2 1 1 2 1 3 1 0 0 0 2 1 1 0 0 1 3 0 1 1 0 0 1 0 1 1 0 0 0 0 4 7 1 -3 -6 -1 -1 -1 2 1 1 -1 0 0 1 -1 1 0 0 1 4 -2 1 0 1 0 1 -2 0 -1 -1 2 0 -1 0 0 1 2 1 0 2 1 2 0 0 1 1 1 -1 2 1 2 0 -1 0 1 1 1 0 0 1 1 0 -1 1 1 1 -1 1 0 0 0 -1 3 1 1 0 -3 1 0 1 0 0 1 1 0 0 1 7 0 1 0 -1 2 2 1 4 1 0 1 5 2 1 1 1 0 -1 0 -1 0 0 0 0 -1 1 1 -1 0 0 1 0 0 1 1 1 0 1 0 0 1 0 1 0 -1 1 2 1 1 1 0 1 0 -2 0 0 1 2 1 1 0 -1 -1 0 -3 0 0 -2 0 1 0 0 1 
2 2 0 1 0 1 0 -2 0 0 1 1 0 1 1 1 1 1 1 5 0 1 0 -1 1 1 0 1 0 0 1 2 1 0 2 1 -2 0 1 1 1 -2 -3 1 0 2 2 1 2 0 1 0 -1 1 0 -1 0 1 2 -1 0 0 0 0 -1 1 1 1 1 1 1 1 1 1 1 1 -2 -2 3 2 -1 -3 0 0 -1 1 0 2 0 -1 -7 -3 -3 0 1 1 0 -1 0 1 0 -1 -1 1 0 -3 -1 -1 0 -2 1 2 0 1 5 0 2 0 1 0 2 0 1 4 2 1 2 0 3 0 1 0 0 1 0 0 0 0 1 0 1 -1 5 0 -1 3 1 0 0 0 0 0 2 1 0 0 1 1 1 0 0 0 5 -1 1 -1 0 1 -1 0 0 1 1 -3 -1 1 1 1 0 0 1 0 0 0 0 0 1 4 2 0 -1 0 0 1 0 0 0 1 0 0 0 2 2 2 1 0 -1 0 1 0 1 2 5 1 0 0 1 0 1 11 43 98 119 129 134 138 136 142 142 144 145 146 141 145 144 147 146 148 147 147 147 146 144 138 135 133 139 137 139 150 152 146 153 153 153 153 154 147 154 152 154 156 157 157 153 156 156 150 156 158 156 157 148 156 157 155 155 158 158 156 158 159 158 158 158 156 159 160 158 160 152 151 160 160 160 157 160 159 159 161 161 161 161 161 160 160 161 161 161 161 150 161 162 162 161 162 161 158 162 161 165 163 163 163 162 165 163 162 162 162 165 165 165 158 160 165 161 158 166 167 168 164 169 164 169 170 169 171 172 171 164 162 172 174 174 174 175 176 177 175 177 177 177 177 178 178 175 178 180 170 181 179 181 180 181 181 182 182 181 182 182 182 183 177 182 180 181 184 184 178 184 185 184 186 185 177 172 186 186 186 186 183 179 179 187 181 187 187 186 188 187 187 184 187 187 187 187 186 186 187 187 186 186 186 184 186 185 186 183 184 185 183 182 177 180 179 178 175 147 46 2 0 0 2 1 1 0 1 0 0 0 1 1 2 1 1 0 0 1 0 -3 4 0 0 0 1 1 1 0 0 1 1 1 -1 -2 0 0 1 1 0 1 1 0 1 1 0 0 0 1 2 2 5 1 3 4 0 0 1 0 -2 1 0 0 1 0 -8 0 1 0 0 0 1 2 2 1 0 -5 1 0 0 0 0 0 0 0 3 1 1 0 1 1 1 0 0 -2 1 0 1 1 0 2 1 0 0 0 -3 1 0 1 0 -1 -1 2 0 1 0 0 1 2 -1 0 2 3 0 1 1 1 0 3 0 -5 1 0 0 -3 4 2 2 2 7 0 -4 0 2 1 0 1 0 -6 0 0 -1 -1 0 2 1 -1 0 1 0 0 0 0 -3 1 2 -1 -1 0 1 1 0 1 2 10 5 0 0 0 1 0 1 5 2 8 4 1 3 1 1 2 0 1 2 4 0 -4 -2 -3 2 
0 -1 -1 0 0 1 1 -1 1 1 1 1 0 0 0 0 0 1 0 1 1 3 0 0 0 1 1 0 0 0 -1 0 1 0 1 -2 -9 -1 1 -1 1 1 0 1 -1 1 0 1 0 0 1 1 -1 0 0 0 2 0 -1 0 0 0 1 1 0 0 0 1 2 0 0 0 -1 0 0 1 -1 -5 1 0 0 0 -5 1 3 1 0 1 1 1 0 -1 0 0 1 0 -1 0 -1 0 1 -1 0 1 0 3 1 0 0 0 3 2 -1 0 1 1 0 1 0 0 1 0 0 -2 -1 1 0 0 0 0 -1 -1 1 0 -1 0 0 1 0 0 0 0 1 1 1 0 -2 1 1 0 1 0 1 -1 0 1 1 -1 0 2 -1 0 0 1 0 0 0 -1 0 -1 -5 0 1 1 0 1 1 1 2 1 0 0 0 0 1 0 0 -1 0 -6 -1 0 1 0 0 1 -1 0 0 1 1 1 1 0 1 0 0 0 1 0 1 -2 1 2 1 1 0 3 0 3 28 58 91 122 125 124 137 140 141 142 143 145 144 146 145 146 141 146 146 144 146 147 146 147 146 139 139 148 150 153 151 151 152 151 151 152 148 152 154 149 154 154 154 155 153 155 156 156 156 156 158 157 156 156 157 156 158 157 159 157 155 158 158 159 150 158 158 151 142 148 158 159 153 159 157 159 163 160 154 159 160 160 154 160 159 160 161 158 153 160 153 161 162 157 161 160 161 162 159 162 163 162 162 162 162 162 162 161 155 163 164 164 164 163 163 166 165 166 163 166 168 169 168 169 169 168 171 171 171 172 169 171 174 173 174 174 176 175 177 169 176 178 177 178 178 178 175 175 179 179 179 174 179 181 181 182 181 182 181 181 184 182 181 182 183 184 184 177 183 184 184 184 184 186 186 184 175 176 185 186 187 186 185 186 187 188 187 186 187 188 185 188 188 186 180 187 184 186 186 185 181 185 181 174 185 186 185 185 185 184 184 183 182 180 178 179 178 166 94 8 1 2 1 -1 1 -1 0 1 1 0 0 -3 0 -1 1 1 0 0 -1 -1 1 0 5 0 -1 0 1 3 0 -1 0 0 0 0 2 1 0 0 0 0 0 0 1 0 1 2 0 -3 0 0 4 3 0 1 1 0 1 1 1 2 0 -1 1 0 -3 1 -1 -2 0 0 1 -1 1 0 1 0 0 0 0 2 0 3 0 -1 1 1 0 0 1 1 0 0 0 0 1 -1 1 6 1 1 -1 1 0 0 1 -5 0 0 0 0 1 2 6 0 0 -1 -1 0 1 0 0 1 0 1 1 0 1 1 0 1 0 -1 0 1 4 2 0 0 1 1 0 -5 1 4 0 -5 0 -1 -1 0 0 1 -2 1 2 -1 -3 0 0 1 1 1 1 0 0 1 0 2 -1 0 0 1 0 1 4 1 0 1 4 2 -1 2 0 1 2 5 0 1 2 1 1 0 0 1 0 -1 0 -5 0 1 
0 0 0 0 1 -1 0 2 1 -1 0 0 0 1 1 0 0 1 1 -1 0 1 0 1 2 0 0 1 0 0 0 1 0 -1 0 1 1 -1 1 0 -1 -2 -1 0 -2 -1 1 0 1 1 0 -1 0 4 1 0 0 0 0 0 0 1 0 -1 -1 2 1 7 5 1 0 0 -2 2 2 0 -1 -1 2 1 -1 -1 1 0 -1 2 1 -1 1 2 1 1 -2 0 1 1 1 2 1 1 0 -5 -6 2 0 1 1 2 2 0 4 1 0 0 0 0 0 -1 0 1 -1 0 -6 0 -1 2 0 0 1 1 0 1 0 0 0 0 -1 2 1 0 1 1 1 2 2 2 1 -2 0 0 0 0 0 0 0 2 0 0 1 0 0 1 1 0 0 1 0 -5 1 1 1 0 -2 0 -1 1 0 0 0 1 -1 1 2 0 1 1 -2 -2 0 0 -1 0 0 1 1 1 1 1 -1 0 0 -1 1 0 0 1 0 -1 0 3 2 0 2 1 0 0 2 1 0 2 9 13 68 107 118 129 135 137 137 135 140 142 144 144 143 144 145 145 145 143 145 143 146 145 146 146 145 148 149 149 149 150 144 150 150 143 151 146 152 153 154 154 154 155 153 155 155 157 155 156 155 157 156 155 149 152 156 155 155 150 157 156 158 158 155 144 155 156 149 158 159 159 158 158 154 160 160 161 158 159 159 159 161 158 161 160 159 161 159 153 161 161 161 161 161 162 160 160 160 159 163 162 155 163 162 162 162 163 162 164 164 163 163 164 165 165 166 167 160 167 168 170 169 163 170 171 172 172 171 171 174 172 173 172 175 175 174 174 173 168 175 173 177 176 178 178 178 173 178 181 179 180 177 180 180 181 183 182 181 182 182 182 181 182 184 183 185 184 184 185 185 177 179 180 185 186 184 185 185 187 185 186 187 187 183 185 186 187 187 187 187 188 187 182 172 178 185 187 185 186 181 184 186 184 181 182 185 183 184 182 177 181 180 179 178 176 171 136 60 3 1 -1 1 0 1 -1 1 1 1 1 1 1 -1 0 2 0 1 -3 -2 1 0 1 4 0 0 1 1 -1 1 1 -3 0 0 0 1 2 0 1 -1 3 -3 -1 -4 -1 0 2 1 1 0 0 2 0 0 1 -1 0 2 1 0 0 5 1 1 -1 0 -1 1 1 0 0 1 1 -1 1 1 0 1 -1 -1 -1 2 1 2 0 1 -1 -2 0 0 1 -1 0 1 -3 1 1 1 1 1 1 0 0 1 0 1 1 0 1 1 2 1 0 2 0 0 2 1 0 0 1 0 0 0 2 -1 0 0 1 1 0 -2 -1 3 4 6 2 -1 0 1 0 -1 1 -1 -4 -1 -1 0 -1 -1 0 0 0 1 0 2 0 -1 1 -1 2 6 0 5 1 -1 1 2 2 2 1 1 3 0 -1 -2 0 1 8 5 1 0 0 -3 1 5 1 1 1 1 -1 3 0 -1 1 -1 1 0 1 4 2 
0 0 1 0 3 1 1 1 1 0 0 0 2 -1 0 1 1 -1 1 1 1 2 3 1 0 1 0 1 1 0 0 -1 1 0 0 0 -1 0 0 1 1 1 0 0 1 0 -2 0 0 -1 -4 0 1 2 0 -2 2 1 1 1 0 4 1 1 -1 3 1 1 1 1 4 0 1 3 1 4 0 0 0 3 0 -4 1 1 -1 1 -1 0 0 -2 0 -1 -1 1 0 1 0 1 0 0 2 1 0 0 0 0 1 2 1 2 6 1 0 0 2 1 -2 1 0 1 0 0 -1 0 1 -2 1 0 0 0 1 3 1 -2 -1 1 0 4 1 0 1 7 2 1 1 0 -1 0 0 0 1 0 -4 1 -1 -1 1 0 0 0 1 -2 -1 1 1 0 0 1 2 0 1 1 0 1 0 0 1 3 1 -1 1 1 0 1 1 1 -1 1 -2 1 -1 -4 -3 0 1 0 0 2 -4 1 1 2 3 2 0 2 0 -1 -1 0 3 1 -1 4 6 0 1 0 1 0 -1 3 22 78 113 124 130 133 130 136 137 133 140 141 142 143 142 141 142 141 136 137 144 143 144 146 145 147 147 147 148 149 149 150 150 146 151 152 152 152 151 152 152 152 153 153 154 150 155 154 156 153 149 154 154 146 154 152 156 156 156 156 148 157 145 136 133 141 157 159 158 157 153 159 158 157 160 158 158 157 153 159 160 159 160 159 159 159 160 153 159 161 162 160 160 161 160 154 161 162 160 161 160 155 161 157 162 156 163 164 162 164 158 163 156 164 166 159 157 167 161 167 169 167 162 170 170 171 171 172 172 173 172 174 173 174 175 174 175 174 176 177 168 176 177 178 176 178 179 177 179 179 171 180 179 180 181 181 181 182 181 183 182 172 178 181 184 177 178 184 184 185 185 184 184 177 179 186 186 185 186 186 186 186 183 183 178 186 184 186 187 186 188 188 186 185 188 186 178 187 186 185 180 185 185 185 183 183 185 179 180 181 179 169 173 173 120 60 7 -1 -1 0 0 -1 -1 1 0 1 1 2 1 0 -1 0 2 1 1 2 1 6 6 -1 0 1 0 -3 0 0 0 -2 2 -1 -1 -1 1 1 0 -1 -1 0 -1 -3 1 0 -4 1 0 0 1 4 1 0 0 0 0 2 5 1 1 0 0 0 -1 -1 1 1 -1 1 1 -2 -1 1 1 0 0 2 1 0 0 3 0 0 0 0 0 0 -4 -3 -1 1 1 1 -1 1 0 0 -1 2 0 -1 -1 1 0 0 3 0 1 -1 0 0 0 0 0 0 1 2 0 2 0 0 1 1 1 0 0 0 1 0 0 1 1 0 0 1 1 -1 1 1 -1 -1 8 4 -3 -5 -1 1 0 0 2 -1 1 4 1 1 0 0 0 1 2 1 0 -2 1 2 2 0 7 0 1 1 2 -2 0 0 1 0 0 0 -1 0 1 1 2 2 1 2 1 -1 0 -1 1 0 0 5 0 -1 1 1 0 2 
-4 0 -2 0 1 1 1 0 3 0 1 0 0 -1 0 1 1 0 2 0 1 0 1 1 2 3 1 1 -1 0 -2 1 4 0 0 1 -1 -1 1 -2 2 0 -1 2 1 -1 1 0 0 -1 0 0 1 0 0 1 0 0 0 0 2 -1 0 0 -3 2 1 0 0 0 0 1 2 0 1 0 2 0 0 0 0 -1 0 2 0 0 1 1 -3 0 -2 0 -1 1 0 -4 -2 1 -4 -1 0 1 0 0 1 1 1 -1 1 1 1 1 2 2 2 0 0 1 1 1 -3 1 1 1 2 8 2 1 2 -1 1 -1 1 5 1 0 0 0 4 5 0 1 1 1 0 0 0 1 0 1 -1 1 0 0 1 1 0 3 2 1 1 0 0 -1 1 1 1 0 -1 1 1 1 1 1 -1 0 1 0 1 1 1 -1 2 1 4 0 0 1 -5 0 1 4 0 0 0 -1 -1 0 0 2 1 0 0 3 1 3 1 -1 0 1 2 0 1 1 1 3 1 0 1 2 0 -1 3 32 87 111 121 128 130 133 135 137 138 140 140 141 138 140 141 143 142 142 140 142 142 143 143 144 145 145 147 147 148 148 149 151 149 150 151 151 151 152 151 148 152 152 153 153 155 150 154 153 153 139 147 155 155 155 155 156 156 156 154 150 155 156 156 156 155 157 156 150 150 151 153 158 159 157 159 158 159 158 154 160 158 157 158 154 160 160 161 160 161 160 154 151 161 152 160 160 154 155 162 161 162 162 163 163 162 163 164 162 163 164 156 155 163 156 165 165 169 168 169 167 169 169 161 165 171 172 172 167 173 174 175 176 176 174 175 175 176 175 177 174 176 178 178 177 179 181 179 179 180 181 175 181 183 181 176 181 179 182 182 183 182 179 180 183 177 184 184 178 184 184 184 185 176 186 186 186 186 185 186 186 186 186 187 185 174 187 187 186 187 185 186 186 184 186 186 186 185 186 185 185 184 183 183 182 183 182 182 179 179 178 176 168 86 12 0 -1 -1 1 2 0 2 0 -1 0 1 1 -1 1 0 1 0 1 1 0 1 2 -1 1 0 0 0 0 0 1 0 1 0 1 0 1 -1 1 0 0 0 0 0 0 1 4 0 0 1 1 0 2 -1 0 1 1 -1 2 1 0 -1 0 -6 2 0 1 0 1 2 0 0 -1 -4 0 -1 0 0 1 1 -1 1 1 0 1 0 1 1 -2 0 0 0 -3 0 1 0 4 0 -1 -1 0 0 0 1 -1 0 3 2 -1 2 1 -1 0 1 -1 1 1 5 2 1 0 -1 -1 0 -1 1 0 0 -2 0 0 -1 -1 0 -1 0 -1 1 -1 -2 1 1 0 1 1 0 0 0 1 -1 1 1 0 1 3 2 0 0 0 1 -1 0 2 1 1 0 5 1 0 0 2 -2 -2 -3 -2 0 0 -2 1 0 -1 1 0 1 0 6 4 2 1 0 0 -1 1 0 0 0 1 0 0 1 1 1 1 
0 0 0 -1 0 0 1 3 1 0 -1 1 -1 -2 -9 -1 0 0 0 0 1 1 3 1 0 1 0 1 2 2 -1 0 -1 0 1 0 1 0 0 0 -1 1 0 0 0 1 -1 0 1 1 0 0 1 2 -1 1 0 1 0 -1 1 0 -1 -1 0 1 1 1 1 2 0 -3 -1 0 0 0 1 0 2 -1 0 -3 0 0 0 -1 0 -1 -3 0 0 0 2 1 0 0 1 0 0 0 1 0 2 2 -1 0 1 -1 1 0 -1 -1 -2 -2 0 1 0 -3 1 0 0 0 0 1 3 2 2 -2 2 0 1 0 2 1 1 0 0 1 -4 1 3 0 -1 -8 -2 2 1 3 2 -1 2 0 0 1 1 13 3 0 6 1 0 1 1 0 7 0 3 0 -1 0 0 1 0 -1 -1 2 0 0 0 6 1 2 0 1 0 2 0 0 1 1 1 1 0 1 -1 0 0 0 0 0 0 1 0 1 0 1 1 1 0 -1 -1 0 1 0 1 2 0 0 0 1 1 1 0 4 43 72 111 111 124 130 132 133 135 136 137 139 136 138 140 140 138 141 139 141 141 141 142 144 143 144 145 144 147 146 146 148 148 149 149 148 151 146 149 150 150 151 152 154 153 147 152 152 153 144 152 155 154 151 154 155 150 154 155 155 157 154 155 156 156 156 157 155 157 157 157 156 157 158 158 155 158 152 158 159 159 157 152 158 159 160 159 161 159 161 159 150 161 158 160 160 160 159 160 162 161 156 162 160 162 154 163 163 164 164 165 161 165 166 157 166 167 168 168 169 170 155 169 167 170 173 172 172 173 173 173 175 173 173 176 175 164 174 174 177 176 178 178 179 179 177 164 171 178 180 180 173 181 182 180 182 182 182 182 182 183 183 183 184 184 184 184 184 184 185 184 185 184 185 183 186 179 181 185 186 187 186 186 186 186 176 178 179 180 182 187 186 186 183 185 175 172 184 185 183 178 169 165 171 181 183 181 178 178 177 174 145 56 3 0 0 1 1 1 1 0 5 2 1 1 1 -2 -1 1 0 1 0 -1 1 7 1 0 1 0 1 1 0 1 0 0 1 1 0 0 1 2 3 0 -2 0 0 -1 0 1 0 0 1 4 1 0 0 0 3 1 -2 0 0 1 0 0 0 -5 1 1 0 0 0 1 0 1 -1 0 -2 1 0 0 0 -1 1 0 0 -1 1 0 0 1 1 0 0 1 0 0 0 0 1 -1 -1 1 2 -1 0 2 0 0 1 1 0 -1 1 1 -1 2 1 0 1 1 -1 0 -1 0 1 -5 -9 -2 0 -5 -2 0 1 0 2 1 1 0 -1 2 0 1 0 0 1 0 2 0 1 1 0 1 1 7 2 0 1 0 0 -1 -2 1 1 -1 1 4 0 -1 2 0 1 2 0 3 0 0 -1 -1 0 0 6 2 2 0 1 1 1 1 1 2 0 -1 0 1 0 -2 0 2 8 0 -1 1 1 -1 0 
0 -1 1 0 1 1 1 0 0 1 0 -1 0 -1 -1 0 1 1 -1 0 1 2 1 1 -1 0 1 -1 0 -1 0 0 -1 1 0 0 2 1 0 0 1 1 -2 2 0 1 0 -1 1 1 0 0 -3 0 2 0 0 0 2 1 0 1 2 0 0 0 -4 0 0 3 1 -1 0 1 1 0 4 1 6 1 -3 -1 1 0 -6 -5 -2 0 1 -1 0 2 2 6 0 -3 2 0 0 1 0 1 0 1 1 1 0 0 -1 1 0 -1 -1 -2 1 -1 -3 0 4 1 0 1 1 1 1 0 3 0 0 0 1 1 0 1 -1 0 1 -1 0 1 1 0 2 1 -1 2 1 0 2 1 0 4 3 0 -1 0 1 -4 0 0 0 -1 1 0 0 1 -1 0 2 1 0 2 0 0 1 0 1 0 0 4 1 0 -2 -2 -1 0 0 1 -1 6 2 1 0 1 0 0 0 -1 0 1 0 0 0 1 0 -1 -1 0 2 0 -3 0 0 2 0 2 4 0 0 0 2 1 2 1 7 39 76 108 117 122 124 130 130 134 134 135 135 137 138 138 138 138 134 138 136 141 144 142 137 143 143 146 145 145 145 141 138 141 148 149 149 149 149 151 149 150 144 152 150 137 141 153 153 153 154 153 152 151 155 153 151 155 155 154 155 154 155 156 156 156 156 156 156 154 156 157 151 157 158 157 152 149 157 155 158 158 158 158 157 159 159 159 159 159 159 149 151 158 160 160 160 160 155 161 161 151 150 154 160 162 163 162 164 164 164 161 165 166 166 166 167 167 167 167 168 160 170 172 171 171 171 173 174 174 175 173 174 176 176 176 174 177 175 177 177 178 173 178 177 176 178 167 170 179 179 180 180 179 175 179 182 182 182 183 182 184 183 182 184 184 183 184 183 183 177 185 185 184 178 185 186 186 186 186 186 187 185 184 178 184 185 186 185 187 184 186 186 186 186 183 173 183 179 184 182 181 164 180 180 181 179 178 176 175 160 80 7 1 1 2 0 0 1 0 1 -1 0 4 1 1 1 0 3 0 0 0 0 1 3 2 2 0 1 0 0 0 2 1 1 1 0 1 1 0 0 1 1 1 -1 0 -4 1 3 -1 -4 0 1 1 1 1 0 2 0 1 0 1 1 0 2 2 -1 0 0 4 2 0 0 1 1 0 0 0 0 2 1 -1 0 1 0 -4 -6 0 7 1 0 2 1 -2 -1 1 0 -2 1 1 -1 1 1 0 0 0 4 0 0 1 1 1 1 1 1 1 0 -4 -1 0 0 0 0 0 1 2 -4 0 -1 0 0 2 0 0 1 1 -1 -1 -5 0 0 2 2 0 1 -1 -2 0 -1 -4 -1 -2 0 -2 2 1 1 0 1 1 2 0 2 1 0 2 1 1 -1 -1 0 0 1 -1 2 2 2 0 3 0 1 0 1 0 -1 1 2 -1 0 0 0 -1 1 1 4 2 1 1 0 0 1 1 0 2 -2 1 
2 0 0 1 0 0 0 0 0 0 0 1 1 1 -5 1 0 1 0 1 1 2 2 1 -1 0 -1 1 1 1 1 0 -1 0 0 0 3 0 1 0 2 2 0 1 1 2 1 0 1 1 1 1 -1 1 2 2 -5 -1 -1 1 0 0 -1 1 -1 3 0 0 1 1 1 0 0 1 -1 1 0 -1 0 1 0 1 -1 1 -1 -1 0 1 1 0 0 0 2 1 -1 3 1 1 0 0 0 0 0 2 3 1 1 1 1 0 0 -4 0 0 0 4 1 1 -1 1 -1 0 1 1 1 4 2 0 1 -6 0 -1 -1 0 0 -4 1 0 1 0 5 1 1 1 1 1 0 -1 1 1 1 7 2 1 2 1 -1 1 -1 0 0 0 0 0 1 1 0 1 0 3 1 0 1 0 1 -1 1 0 0 0 1 -5 0 -3 0 1 1 0 2 0 1 0 0 1 -3 0 1 0 1 1 2 0 1 5 0 -1 -5 0 1 -1 -2 0 1 2 1 3 3 2 1 1 6 4 1 -1 2 23 45 66 89 102 118 121 119 129 132 130 131 133 134 137 134 136 129 136 135 138 139 139 139 141 142 143 144 143 144 139 141 146 147 147 148 147 147 147 150 149 150 149 150 140 150 152 152 152 152 153 153 152 153 154 153 154 152 153 153 155 154 152 154 156 156 147 150 155 156 155 158 158 158 161 156 156 156 157 158 151 157 157 150 157 157 157 158 158 159 158 159 160 160 160 160 160 159 160 160 160 153 161 158 162 162 163 164 164 164 164 166 166 166 167 167 167 169 173 169 164 169 172 165 166 172 169 171 173 173 167 172 176 175 175 175 176 177 177 177 177 177 179 178 178 180 180 178 181 180 181 167 181 182 181 180 182 182 182 181 178 183 184 182 184 184 184 184 183 177 184 184 186 184 184 184 185 185 186 186 180 186 173 185 184 186 181 185 185 181 185 182 185 184 182 183 183 183 175 182 180 182 182 180 179 179 171 175 168 102 21 1 -1 0 1 0 -1 1 0 -3 0 -1 2 -1 0 0 -3 -1 0 1 1 2 0 0 0 -1 0 -1 0 -2 1 0 1 4 -1 -2 0 -1 1 5 -1 1 1 1 1 0 0 1 1 1 4 1 1 1 -1 0 0 0 3 4 -1 0 -3 3 1 1 0 0 1 1 0 0 -1 -3 0 1 1 0 0 0 0 1 1 0 0 -1 0 0 1 0 1 0 -1 1 1 1 1 0 0 1 -1 2 0 1 -1 0 -1 1 0 1 1 -5 0 4 1 0 1 -1 1 0 1 0 -1 0 0 1 0 0 0 1 2 1 0 1 0 0 1 1 -3 0 1 1 2 0 0 -1 0 -5 0 0 1 -6 1 0 1 2 1 0 0 0 0 -1 1 0 0 1 -1 -6 1 0 1 1 2 5 2 1 3 0 1 1 1 -1 1 0 0 0 0 0 -1 -1 -3 2 1 0 1 2 0 0 1 -1 4 3 1 0 -1 
5 0 1 1 1 1 0 1 1 0 0 2 0 0 0 -5 -1 0 -3 0 0 1 0 0 1 1 0 0 0 1 0 -1 -1 -2 1 1 1 3 1 1 -3 2 -1 -1 1 1 2 0 -1 -1 0 -1 1 1 2 -1 -3 0 1 2 1 -1 0 0 1 1 0 1 -4 -1 1 4 1 1 -1 -5 -1 -2 0 1 1 0 0 2 -1 0 0 0 1 1 1 -1 0 1 0 -1 4 6 2 0 0 1 1 2 6 0 0 1 1 0 1 4 0 1 0 2 -2 0 -1 1 0 3 0 1 0 0 0 0 -1 -8 0 1 -2 1 -1 -4 -3 -5 1 0 0 0 0 0 1 0 3 0 2 0 1 2 0 0 0 0 -1 1 1 0 1 -1 1 0 2 1 0 -1 6 2 2 2 0 1 1 0 -2 0 0 1 0 1 1 0 -1 1 1 1 1 2 0 1 1 1 0 -1 1 0 -6 0 1 0 1 0 0 0 -1 -1 1 0 0 0 1 3 0 0 1 -1 2 0 1 1 0 1 1 2 11 45 85 102 113 118 115 127 127 131 130 133 132 128 134 134 124 134 130 135 132 132 136 134 139 140 137 143 142 143 144 142 145 145 145 147 145 148 148 149 149 150 150 150 150 150 150 151 151 151 151 151 151 153 152 154 153 152 152 154 154 154 154 155 153 154 154 151 145 155 156 156 155 157 155 158 160 158 157 157 158 157 157 157 157 158 159 157 157 159 160 158 159 160 159 160 159 160 160 160 161 161 161 160 162 163 161 161 164 159 165 160 166 167 168 168 171 169 170 170 169 170 164 170 171 172 168 174 171 172 171 175 174 175 175 170 175 176 175 177 179 179 178 179 179 179 180 180 179 172 178 180 177 181 181 181 182 183 182 172 182 184 183 184 178 184 183 183 179 184 185 184 186 185 176 184 184 185 184 180 186 175 184 182 185 185 186 185 186 185 177 177 184 179 183 183 185 181 182 181 182 181 171 171 177 176 172 151 72 25 1 2 2 2 3 1 1 0 -1 3 -1 0 1 0 3 1 -2 1 1 0 1 0 1 -1 0 1 0 -1 0 0 2 4 1 0 0 0 0 1 1 0 0 2 1 1 1 1 1 -1 1 0 4 1 -2 0 2 0 2 4 0 1 0 1 2 2 6 0 0 -1 1 2 0 0 -1 0 0 0 1 0 0 1 0 0 5 0 0 0 2 1 2 0 1 1 1 0 0 -4 0 1 0 -5 1 0 -1 -1 0 1 1 1 1 2 -2 1 1 5 2 2 1 0 0 -1 0 0 -3 0 0 -1 0 1 3 0 1 0 -1 0 0 2 0 1 2 0 1 0 0 2 0 -1 1 1 -4 -1 2 1 0 0 1 0 1 0 1 0 0 0 1 -1 1 1 0 0 0 -1 5 1 1 0 0 2 0 1 1 1 0 0 1 0 0 0 0 0 -2 1 2 2 1 0 0 2 0 2 2 1 1 0 0 0 
0 -3 1 1 0 0 -4 0 1 0 0 1 0 1 0 2 1 1 1 0 1 2 1 -3 0 1 1 0 4 0 0 0 1 0 1 0 -1 2 4 2 0 -5 -1 0 -3 0 -1 0 2 -1 -1 0 2 -4 -4 1 0 0 0 -1 -1 -1 1 -2 0 1 0 0 -4 2 4 2 -1 0 1 -2 0 1 0 0 -1 0 -1 0 0 -4 0 1 2 0 0 1 4 1 0 1 -1 0 1 1 1 1 0 0 0 0 0 0 0 -1 -3 -1 0 1 1 0 0 1 -1 1 0 0 1 1 -1 0 -1 2 -5 -5 0 0 -3 0 1 -4 0 -1 0 -3 -3 0 1 1 0 1 3 0 1 -1 -4 1 1 0 0 -1 1 1 4 0 -1 2 0 1 2 4 1 1 1 0 2 1 1 6 1 1 1 1 1 2 1 1 0 1 0 2 1 0 1 1 -1 0 0 0 0 0 0 0 -1 0 0 1 1 1 0 2 1 0 -1 1 0 0 0 0 -6 -1 2 1 0 0 1 1 0 4 1 2 4 9 48 84 100 110 116 121 123 126 127 129 130 131 131 131 125 132 133 132 133 135 136 129 136 132 134 141 141 142 144 143 143 139 146 146 145 144 146 147 141 148 148 148 150 149 151 151 151 151 144 146 151 150 153 151 153 153 153 152 149 153 152 150 153 153 154 155 153 155 155 151 155 156 155 155 157 157 155 156 157 157 158 157 156 158 158 156 158 158 152 158 159 159 159 159 159 157 159 161 161 160 161 162 163 162 164 163 164 165 166 166 166 167 167 162 168 168 170 165 170 170 167 170 171 172 172 172 173 165 173 174 174 174 175 166 175 177 176 177 178 177 177 180 177 179 175 179 170 169 171 181 181 181 182 181 171 180 180 181 182 183 182 182 179 184 183 184 185 184 183 184 185 183 172 175 179 175 185 180 184 174 184 185 183 184 185 184 185 182 184 184 183 175 182 182 182 180 179 180 182 180 179 176 166 172 160 87 9 2 1 1 -1 0 -1 -3 0 1 -1 1 1 1 0 1 1 2 0 1 2 1 1 2 1 6 0 -1 0 1 2 8 7 1 0 0 2 2 -1 0 0 0 0 3 8 2 2 0 0 -3 0 2 2 -5 0 1 5 0 1 -1 0 0 -1 0 1 0 2 1 0 0 -1 1 -1 -1 -4 0 1 1 0 0 0 0 1 0 1 1 0 2 1 2 0 1 -1 0 -1 -1 0 0 0 2 2 0 0 1 -1 0 1 0 0 -1 -1 0 1 1 0 -3 0 -1 -3 1 0 0 0 -1 -2 1 1 0 1 -1 -1 1 0 -4 0 2 2 0 1 -3 0 1 1 1 1 0 1 0 0 -1 -1 -1 0 0 -1 0 0 0 1 0 1 0 0 -3 0 0 1 0 0 0 0 1 1 0 1 0 0 1 0 0 1 5 3 2 0 4 4 4 1 0 0 1 2 1 1 1 7 2 1 0 1 0 -4 0 0 0 
1 -4 0 2 3 1 1 1 0 1 -1 1 0 1 -3 1 0 1 0 0 -1 1 2 0 0 0 1 0 1 1 1 0 0 0 0 1 -1 1 1 -1 1 0 -2 0 1 0 0 3 1 1 0 -1 5 6 1 0 0 2 0 0 0 0 0 1 0 1 1 3 -2 0 2 2 0 2 2 1 0 0 1 0 1 1 0 0 1 1 1 0 0 0 0 0 1 0 0 1 -1 1 0 0 1 2 0 2 4 2 0 1 0 -1 0 1 -3 4 0 -1 1 1 2 0 0 0 2 0 1 1 1 1 0 1 2 0 -4 1 0 -1 2 0 1 0 1 1 1 2 1 0 1 1 3 0 1 5 8 0 2 0 0 1 1 0 1 0 1 2 0 0 1 0 1 -1 2 1 4 1 2 1 0 0 1 0 0 -1 0 -1 0 -1 0 -2 0 2 -2 1 1 0 2 1 1 0 0 2 0 0 0 -1 2 0 0 0 -1 0 1 -1 0 -3 0 0 0 -3 1 -1 1 3 0 0 1 1 1 -1 8 43 67 98 107 113 119 121 123 126 127 127 128 130 131 131 130 125 133 132 131 135 136 137 138 130 140 139 141 141 143 142 144 143 146 144 146 145 146 142 147 147 148 149 145 149 150 150 149 151 150 145 150 148 152 151 152 151 152 150 153 153 153 153 152 155 153 154 154 153 153 153 155 155 156 156 153 156 155 155 155 155 157 157 157 157 157 157 157 158 158 158 156 151 160 159 158 161 158 160 161 162 162 161 162 158 164 166 164 165 166 166 166 167 161 168 169 169 170 170 170 171 163 165 173 170 171 167 175 175 172 174 173 175 176 175 177 177 178 179 176 178 172 177 179 180 177 178 166 180 181 182 178 180 175 170 180 182 176 184 184 183 174 182 183 183 183 185 186 186 185 184 185 183 183 184 184 185 186 184 178 185 184 185 185 184 185 183 183 182 175 181 182 183 182 181 180 180 180 180 177 175 173 142 115 23 0 0 2 0 0 0 3 1 3 -1 0 1 0 0 0 0 1 2 -1 0 1 1 1 -1 2 0 1 -1 1 0 0 4 2 0 0 0 1 1 2 1 0 0 4 2 2 1 -1 1 0 1 0 0 0 -3 -1 2 -3 0 1 1 -1 0 0 0 0 1 1 -2 0 0 1 0 1 0 1 0 -2 0 -1 0 0 0 1 1 0 1 0 -1 0 1 0 0 1 0 0 1 0 0 0 3 2 1 1 1 1 2 0 1 -1 2 3 0 2 0 1 0 0 -1 -3 -1 1 -2 1 0 1 0 1 0 1 1 0 0 0 1 0 1 -1 -1 -1 1 0 0 -1 1 1 0 -2 2 1 -3 0 1 1 2 0 -2 -2 1 0 -1 -1 0 0 -3 1 0 1 0 -1 0 0 1 0 1 1 0 -3 1 1 1 1 1 2 1 5 2 2 1 1 1 -1 1 0 0 1 -1 1 1 2 0 0 0 -1 0 -1 1 
0 0 -1 -5 2 5 2 0 1 0 0 -1 0 -3 -1 0 1 1 1 -6 -5 0 0 0 0 1 0 -1 1 1 4 1 0 0 0 -1 2 3 1 -2 0 1 1 1 -1 0 -1 1 0 0 -1 2 1 2 1 0 1 1 0 0 0 -1 2 1 4 4 4 0 -2 -1 -1 0 -1 -1 -2 0 -1 0 1 0 0 0 1 0 1 1 0 0 1 0 1 3 2 4 1 1 0 1 0 0 1 1 0 0 1 3 0 1 0 1 3 4 0 0 0 1 -1 2 1 -1 0 1 1 1 1 0 0 1 1 2 0 1 0 -2 0 1 0 0 1 0 1 0 0 1 1 0 0 1 0 -1 3 0 5 1 0 1 0 -1 1 0 0 0 1 0 0 0 -2 1 2 4 1 3 1 1 2 0 0 2 -1 1 2 0 0 1 4 1 1 0 0 1 4 2 0 1 1 0 0 3 1 -1 0 0 2 1 0 2 1 0 1 1 0 0 0 1 1 -1 -6 0 0 1 1 1 0 -1 0 1 0 0 -2 12 40 76 96 103 111 116 121 117 119 125 125 125 126 126 130 129 130 131 130 132 132 134 136 136 137 137 139 136 142 140 142 142 144 144 145 141 146 136 144 147 148 149 147 146 146 149 149 149 149 143 150 149 150 151 151 152 150 152 152 152 151 154 152 153 153 153 156 155 153 153 155 154 154 155 154 150 155 155 149 156 156 157 158 156 157 156 158 157 158 151 147 159 160 157 156 159 160 160 161 161 162 163 163 161 163 163 165 158 166 166 167 166 166 168 168 169 169 170 170 170 171 171 164 167 173 173 172 173 174 176 175 175 177 176 175 177 178 178 177 177 171 178 178 174 168 170 179 180 180 181 181 176 179 170 174 181 181 182 182 183 177 183 178 183 183 184 184 183 184 185 183 185 184 185 187 183 184 184 183 184 184 184 183 184 185 175 177 182 175 176 183 182 180 180 180 174 178 177 164 152 165 130 39 12 -1 1 -3 -1 0 1 1 1 6 1 1 -1 1 0 1 0 0 1 0 -3 0 0 3 2 1 -1 0 1 -1 -2 0 0 0 1 1 1 0 0 0 0 0 1 2 0 2 0 0 0 2 1 1 0 0 1 0 1 2 1 0 1 1 -1 1 1 1 1 2 3 1 2 1 2 0 1 0 -4 -1 1 -1 -1 -1 -1 1 0 0 0 -6 0 1 1 1 0 2 -1 0 5 -1 1 1 1 2 2 1 0 0 0 2 1 1 1 0 1 0 1 -3 1 1 -1 1 4 1 0 1 1 0 1 3 -1 0 1 0 1 0 1 4 2 1 1 0 0 0 1 -4 1 1 0 0 2 0 -1 1 1 0 1 1 1 2 3 3 3 0 0 0 -1 0 0 1 1 0 0 2 1 0 1 0 1 1 0 -1 1 0 1 1 1 1 3 1 1 1 0 1 0 -1 1 0 -1 1 1 2 0 -1 1 0 -4 0 0 
-1 1 0 -2 2 0 1 1 2 0 0 0 0 0 0 0 -1 0 1 0 -1 1 2 0 -1 0 1 0 0 1 1 2 1 2 1 0 -1 -1 0 -6 1 2 2 1 1 1 1 0 1 0 1 1 0 -1 0 0 1 -2 1 0 0 1 3 1 2 0 8 1 -1 0 -1 0 1 2 -3 -6 -5 -2 0 2 0 -1 0 0 1 1 0 1 0 2 1 9 1 1 0 2 -1 0 1 1 0 2 0 1 2 2 2 0 -2 -1 1 -1 1 0 0 0 -3 -1 0 1 0 1 -1 -1 2 1 -2 -1 1 1 -1 -1 1 1 0 0 1 1 1 1 0 2 -1 -5 0 0 2 2 -1 1 0 -1 -3 -1 0 0 0 0 1 1 0 2 6 2 0 1 2 1 1 1 5 1 0 1 2 1 1 2 0 1 0 1 0 -4 0 1 0 1 1 2 1 0 0 -1 0 0 0 0 0 0 -2 1 0 1 1 -1 -1 1 0 -1 1 1 1 0 -2 -2 -1 0 0 0 1 0 1 0 1 6 3 -1 0 1 5 35 73 91 100 108 113 117 119 121 122 124 126 125 127 126 128 127 125 130 127 131 133 132 134 132 138 138 138 138 139 139 142 141 142 137 143 145 146 145 146 145 141 147 147 148 147 149 148 148 148 149 149 151 150 151 149 152 152 150 151 152 151 153 153 152 154 153 154 152 154 149 143 143 154 154 156 155 153 154 155 155 157 155 155 158 155 156 155 157 157 158 157 154 158 159 159 163 160 156 160 162 163 163 164 163 163 165 166 166 167 168 168 167 169 169 169 170 170 171 173 171 171 173 173 172 167 161 165 174 174 176 177 176 176 176 176 177 177 178 178 177 178 177 178 179 180 181 179 179 171 179 181 169 178 182 182 182 182 183 183 180 182 183 183 179 184 183 183 178 183 184 184 184 184 185 184 183 184 183 183 183 184 184 183 182 183 181 181 182 180 179 180 182 179 179 178 172 172 141 102 52 3 1 1 1 2 0 -1 0 0 2 1 1 1 1 0 0 4 1 0 1 -1 -1 3 1 -1 0 1 1 0 -1 1 -1 0 1 1 2 1 0 -1 1 0 0 0 0 1 2 0 1 0 -1 2 5 0 0 1 -1 1 2 0 0 1 -3 1 0 -2 1 -3 0 -1 0 0 -3 -1 -1 1 -1 0 0 0 5 1 0 1 0 1 0 -2 0 0 1 1 0 0 0 1 -1 1 0 -1 2 4 1 1 0 1 1 0 0 0 1 -3 1 0 4 0 -1 0 2 1 1 -1 -1 0 -1 0 0 0 -1 1 0 0 0 0 4 0 1 1 0 3 1 1 1 -1 0 1 0 1 2 0 0 -1 1 1 1 -1 2 0 0 1 -1 2 3 1 1 -1 0 0 0 0 1 0 1 1 2 -1 2 0 4 1 1 0 0 1 1 -5 1 0 0 5 2 1 1 0 1 0 0 0 1 0 1 1 3 0 2 0 -1 0 0 
3 0 0 1 2 0 0 0 1 0 0 1 1 2 1 -1 -4 -2 -1 1 3 0 0 0 2 1 0 0 0 0 2 1 0 0 0 -1 1 0 0 0 0 5 0 1 1 2 2 0 -1 0 -1 2 2 0 0 -1 -1 1 -1 -1 1 0 0 0 0 1 2 3 1 0 2 1 0 0 1 0 -1 2 1 1 0 0 0 2 -1 1 1 0 1 1 9 12 2 -1 -2 1 0 1 0 1 0 0 2 1 0 1 -1 -6 -1 -5 2 0 0 1 5 1 1 0 0 4 0 1 1 -1 -1 1 1 0 1 0 -4 0 3 1 0 -5 0 1 1 0 -2 0 1 0 0 1 0 1 1 1 0 1 1 1 0 1 0 5 2 2 0 0 3 0 1 4 0 0 -1 2 6 6 1 1 0 0 1 -1 0 0 0 -4 0 1 1 -1 1 0 -1 1 -2 1 1 0 1 0 1 -1 1 4 2 0 -1 0 -1 -1 -3 1 1 0 0 -1 1 0 1 -1 2 -1 0 1 1 0 1 0 1 1 2 1 4 7 0 5 34 68 82 98 105 112 114 117 119 120 122 123 123 124 125 125 126 126 126 129 130 128 133 134 135 137 137 134 137 139 142 141 139 135 143 143 144 138 143 145 145 145 145 146 147 147 146 148 148 144 148 149 149 150 149 150 150 149 151 150 150 151 147 150 153 151 152 148 152 140 151 135 154 153 154 155 155 155 154 148 155 155 155 157 154 157 156 155 157 157 158 153 158 158 158 161 161 160 162 161 163 163 164 164 164 157 162 167 165 166 161 168 168 164 170 169 167 171 171 171 172 166 173 172 172 158 174 174 174 174 174 176 177 178 176 177 177 173 175 177 173 177 166 172 179 180 170 171 179 180 180 174 180 176 175 181 182 182 182 173 184 182 181 184 184 182 183 184 184 184 183 183 183 183 183 183 182 174 169 184 184 184 183 183 181 182 177 181 171 179 181 178 179 178 176 171 170 145 65 6 -1 -2 0 1 -1 -1 -4 0 0 2 1 -1 0 -1 1 1 0 0 -1 1 0 0 0 2 1 6 5 2 -1 0 0 0 0 1 1 1 0 3 0 3 1 1 1 1 -1 0 0 1 0 0 1 2 -2 1 -1 0 1 -1 1 1 1 0 0 1 0 0 -1 0 1 1 1 0 1 3 5 2 1 0 0 2 0 1 0 0 0 1 2 0 0 1 0 -1 0 0 -1 1 0 1 1 1 0 1 1 0 1 0 2 0 2 0 0 0 2 0 1 -1 1 0 -2 2 1 1 2 1 0 0 -1 -1 0 1 -5 -1 1 1 1 0 0 0 1 1 1 0 2 1 0 0 1 0 1 0 1 1 1 -2 -1 0 1 1 -1 -2 0 1 -3 0 1 1 1 2 1 -1 3 0 0 1 1 4 1 1 0 -2 1 1 -3 0 0 1 0 1 0 0 0 0 0 0 0 1 1 2 2 0 -1 1 -3 1 1 0 0 0 
-2 0 1 1 0 -1 0 2 0 -2 1 -5 -1 0 0 1 1 0 0 0 1 -1 -1 -3 0 0 2 1 2 0 1 1 1 1 0 -4 1 0 0 0 0 1 0 -1 0 1 2 1 -1 -1 1 0 0 0 1 0 0 1 1 -1 0 -1 0 0 0 -1 0 0 -2 0 1 1 1 1 2 5 1 4 0 1 0 1 1 0 1 2 -1 0 5 1 3 0 0 -1 -1 0 1 1 -2 -3 1 1 2 0 0 1 0 2 0 1 2 1 1 1 2 0 1 1 2 2 1 1 1 2 1 0 0 0 0 1 0 0 2 0 0 0 -3 0 6 1 1 1 1 1 0 0 0 1 1 5 2 1 2 1 0 1 2 0 0 0 4 1 1 2 1 0 0 0 0 1 1 0 2 0 1 1 -3 0 -3 2 -1 0 -1 -1 1 -1 2 1 2 2 -1 1 0 4 1 3 1 -1 0 2 -1 1 1 1 0 0 0 2 2 1 1 1 1 1 0 0 0 -1 -2 1 1 1 -1 0 2 0 0 0 0 1 6 1 5 36 63 84 95 100 98 111 113 116 117 120 122 122 122 124 123 125 125 126 128 131 130 132 132 133 136 134 137 136 137 139 140 139 143 143 138 142 143 135 144 144 146 145 146 147 147 147 147 146 149 146 149 149 152 150 150 150 149 150 150 150 151 147 151 151 152 151 152 135 139 151 153 154 154 149 154 154 153 154 154 156 155 151 154 156 156 157 156 149 157 157 154 159 152 159 159 155 162 153 162 162 165 164 158 163 165 164 165 166 168 163 160 167 159 169 170 170 166 171 170 172 172 173 167 164 173 170 175 175 175 176 176 175 176 170 176 177 177 178 172 178 178 178 180 180 179 180 180 179 180 180 169 180 182 180 181 182 182 177 182 175 181 184 183 183 183 182 183 184 183 183 184 184 184 183 183 182 180 176 182 184 182 183 182 181 180 177 179 180 179 172 176 177 170 171 151 75 8 -2 -3 1 0 1 1 1 0 0 -2 1 1 1 2 1 5 0 0 0 0 1 0 2 0 1 0 7 2 0 -4 1 0 -1 -1 0 1 1 0 1 -1 0 1 1 1 0 -1 0 1 2 2 1 0 1 1 1 2 1 1 0 1 1 0 -1 1 1 0 1 1 1 1 4 3 1 1 0 0 0 0 0 0 1 1 0 0 1 1 -1 1 0 2 -2 -1 0 -1 -2 1 -1 0 0 1 -3 -1 1 1 2 0 1 2 4 0 2 0 3 1 2 0 0 1 1 0 0 1 2 1 0 -1 1 4 2 0 1 1 0 0 3 1 2 0 1 1 1 1 1 1 0 0 2 3 0 0 0 -1 0 4 0 -1 1 9 1 -4 1 0 0 0 1 1 -1 0 4 0 0 1 0 -1 1 0 1 1 0 -1 1 0 0 -3 0 0 1 1 0 1 0 0 0 -3 0 0 -1 0 0 1 0 2 0 1 1 1 1 1 -7 
0 0 0 1 1 2 1 2 1 1 1 -1 1 0 1 0 0 0 2 2 0 -1 1 -5 0 1 7 2 0 2 2 1 0 1 0 1 0 -1 1 1 -1 2 0 0 1 -1 0 0 1 0 0 0 2 1 -1 -1 0 0 -1 1 -2 0 -2 1 0 1 1 0 0 -1 0 -2 0 4 -1 0 1 5 1 0 1 2 0 0 0 2 0 0 -1 0 0 0 -5 0 4 6 1 1 1 0 2 1 -3 0 2 1 0 1 3 1 1 2 0 1 1 1 0 -1 -1 -1 0 0 1 -1 0 0 1 0 3 1 1 1 1 1 1 -3 0 0 2 1 1 1 1 2 1 0 -3 0 0 1 2 -1 2 0 0 0 0 -1 0 0 0 0 0 1 0 0 2 1 0 -1 1 -1 2 0 -1 0 0 0 1 -2 1 1 1 4 0 1 0 1 -4 -4 -1 -1 2 0 1 1 0 1 -1 0 -1 -1 -1 1 4 -1 2 0 1 2 0 0 1 1 -1 1 1 0 0 0 0 0 0 0 2 1 1 7 1 -1 7 4 3 15 29 53 79 92 98 103 110 113 114 115 116 117 113 119 120 123 122 123 124 128 128 130 131 131 133 133 135 137 136 137 138 139 140 137 141 137 141 142 143 141 144 144 144 145 150 145 146 146 146 146 141 148 148 148 148 149 151 150 150 150 146 149 143 150 151 151 153 143 149 143 151 146 152 153 153 155 153 154 153 154 152 154 154 155 157 154 156 154 143 146 158 159 159 160 160 161 156 162 163 163 163 164 165 166 166 166 166 165 166 167 168 167 169 169 163 162 172 171 171 167 172 173 172 175 173 166 167 174 175 175 175 176 177 171 177 177 169 176 177 177 179 179 179 179 180 180 180 181 180 181 172 180 182 182 181 182 183 181 177 181 183 182 181 183 182 181 182 182 184 182 177 181 182 183 184 178 183 182 184 182 180 180 178 174 180 181 178 180 178 178 176 175 173 154 85 11 -1 0 1 1 0 0 1 1 1 0 0 1 2 0 1 3 1 0 0 1 0 1 -1 6 1 -1 0 0 -1 0 2 1 4 1 0 0 0 0 -1 0 -5 0 0 1 2 0 0 2 1 1 -1 0 0 0 0 0 2 1 0 1 1 0 -1 0 0 0 1 1 1 1 3 0 1 1 1 0 0 0 2 1 -1 -3 5 1 0 -1 -3 0 0 1 1 0 0 1 -1 0 0 4 0 0 0 0 0 2 4 1 1 0 1 0 1 0 0 1 0 0 -4 -1 1 1 1 1 0 -1 0 -5 1 2 1 1 1 0 2 -2 0 -1 3 0 0 0 0 1 1 -2 0 -1 2 1 0 1 0 1 -1 0 1 0 -1 1 4 0 1 0 6 2 1 1 2 0 0 1 2 0 0 0 0 0 0 0 0 1 0 0 0 1 0 1 0 -1 2 0 -1 1 0 0 0 -1 1 0 3 1 2 6 1 1 1 0 1 0 0 -6 
0 -2 0 0 5 1 1 -1 1 0 2 0 3 0 0 0 1 1 0 0 1 0 1 1 1 0 7 2 0 1 0 1 2 2 0 1 -1 0 0 1 1 0 -2 -2 -1 -1 0 0 1 -1 0 1 1 0 1 6 0 1 0 5 1 0 1 -2 2 6 2 6 0 1 0 1 1 0 0 1 1 -1 0 -1 0 0 2 1 2 1 1 1 0 0 -2 0 1 0 2 5 0 1 0 -4 0 2 2 0 5 0 1 1 0 0 -2 1 1 2 1 0 1 -1 1 -1 -2 0 0 0 1 -1 2 -1 1 0 1 -1 2 1 1 0 0 4 0 1 -1 0 1 0 3 0 0 -4 -1 -2 1 0 4 1 2 -1 0 1 5 0 -6 1 0 0 1 0 2 1 1 0 3 4 1 2 0 0 0 -1 0 1 1 -1 -1 0 1 0 1 -3 -2 -6 1 1 1 1 0 0 0 1 1 0 1 0 1 0 1 0 -3 0 -4 1 0 0 0 1 0 0 3 2 2 1 1 1 1 0 1 2 0 1 8 1 3 0 1 5 2 20 54 78 89 96 103 105 108 112 113 113 116 115 118 122 119 120 121 122 124 126 127 129 131 131 131 132 134 137 135 136 138 139 140 136 141 138 141 141 143 142 143 145 144 145 145 145 146 147 146 147 139 148 147 148 148 149 148 150 148 149 150 149 150 150 150 145 147 150 143 150 141 147 152 153 153 153 153 154 149 155 154 155 154 156 156 148 152 155 156 159 159 159 159 152 160 161 162 162 163 157 163 163 162 163 166 167 164 164 168 168 169 168 169 165 170 170 173 172 172 170 173 174 174 173 175 173 169 175 175 176 173 176 176 177 173 173 173 177 178 179 178 179 179 180 178 179 181 179 173 180 180 181 181 185 181 180 181 181 182 182 181 182 183 183 184 183 178 180 177 182 183 182 175 182 182 180 181 181 177 180 180 180 177 179 179 178 170 176 175 171 159 99 16 -1 -1 1 1 0 1 1 0 4 0 1 1 2 2 1 0 1 1 0 -2 0 5 1 1 0 1 0 0 0 1 1 1 1 0 0 1 0 -1 0 0 -2 -2 0 0 0 -1 1 -5 0 0 1 0 0 1 0 1 1 2 0 1 0 1 0 0 2 2 1 2 4 1 1 1 0 1 4 0 0 0 0 2 0 -1 0 1 1 1 0 1 0 0 1 0 0 -1 1 -1 0 0 1 1 0 0 0 1 0 1 1 1 1 1 1 0 0 -5 0 0 0 1 -1 1 0 0 2 0 -7 -1 0 0 0 1 3 1 1 -1 0 0 0 -3 0 -1 0 1 3 -3 -1 1 -1 1 1 0 0 0 -1 0 1 0 0 2 0 1 1 1 1 -1 -1 0 0 0 0 0 0 1 -5 0 0 1 1 0 2 0 0 2 -1 1 1 0 1 2 0 2 0 0 1 0 0 2 2 -2 1 6 1 4 0 1 2 4 1 0 1 1 -1 
-4 1 0 1 0 -5 2 2 0 0 -1 0 2 -1 1 4 4 0 0 0 0 1 2 0 3 2 -3 2 -1 -1 -1 1 1 0 0 2 0 0 0 4 2 1 0 0 0 -2 -2 0 2 -1 1 0 1 1 1 2 6 2 -1 1 0 0 0 -1 1 2 4 1 0 1 5 1 1 0 1 1 1 1 1 -1 0 0 0 2 0 1 0 1 0 0 0 0 0 0 6 4 0 1 -1 0 0 -1 -1 0 5 0 -6 -1 4 0 1 0 2 0 0 0 0 -1 1 0 0 1 5 1 1 2 -1 0 0 -1 0 1 1 0 -1 0 -2 1 1 -1 1 0 1 1 2 0 0 0 0 -1 0 1 2 1 0 -4 0 1 0 0 3 2 0 0 -1 -7 -1 1 0 3 -1 6 0 1 1 0 -1 -4 0 -1 1 1 0 0 1 0 1 0 2 1 0 -3 1 -3 2 -1 0 2 0 -1 0 -1 0 1 0 1 -1 1 0 -1 1 1 0 1 0 1 0 2 0 1 1 0 0 0 1 0 2 2 6 4 0 -3 0 2 1 1 22 51 74 84 89 92 104 107 107 109 111 110 112 112 116 117 117 120 116 123 125 127 128 124 120 120 125 127 124 133 137 137 137 137 139 139 137 137 141 140 142 142 142 143 144 144 143 140 144 144 146 145 147 149 148 148 148 146 142 149 148 149 150 149 150 150 150 150 150 138 142 150 153 152 147 148 147 153 154 152 152 154 154 154 156 156 156 153 158 158 159 159 160 158 162 162 162 162 162 157 163 164 165 165 166 168 167 167 169 169 168 169 169 169 170 171 165 168 170 172 172 173 173 173 171 174 171 175 176 175 176 176 178 177 178 178 177 178 178 179 178 180 179 175 177 181 180 180 180 179 181 180 176 182 174 181 181 182 181 182 182 181 181 181 181 182 182 181 182 182 181 180 181 181 182 181 175 182 181 179 170 178 178 177 177 176 170 175 172 161 112 55 4 1 1 0 1 1 0 -1 0 1 1 0 0 1 4 -1 0 -1 1 1 0 -2 2 1 3 3 0 -1 0 1 2 2 0 0 0 -1 1 1 1 -1 1 1 1 1 1 0 0 1 1 0 0 -1 0 2 1 -1 -1 3 -1 1 1 0 1 2 0 0 0 1 1 1 -1 0 1 1 0 1 2 1 0 0 -1 -1 -2 0 0 1 -2 0 0 -1 1 2 1 0 3 0 1 1 2 0 1 0 -6 -1 0 1 1 1 1 3 1 0 1 0 0 -1 0 1 0 1 6 1 1 3 2 -1 0 1 5 -3 0 1 1 5 1 0 0 1 0 0 1 1 0 1 0 0 0 0 0 0 -1 1 0 -1 1 1 0 1 0 0 0 0 1 1 1 0 -1 1 0 -5 2 0 0 1 0 2 2 0 1 2 -1 1 1 2 1 0 1 1 0 0 0 0 1 0 0 3 1 1 0 1 1 1 0 -1 1 1 2 1 1 0 0 -2 
-1 1 0 0 1 -2 -3 -1 0 2 1 3 2 0 0 2 4 -1 -1 0 0 1 0 1 3 1 -1 1 -1 1 -1 0 0 -3 1 1 3 0 0 1 1 1 -1 1 1 1 1 2 1 1 2 1 -2 -1 -3 1 5 0 0 -6 0 1 0 1 0 2 1 2 1 0 1 1 0 -1 1 3 -3 1 6 1 -1 1 0 1 -1 0 1 0 -1 -3 1 0 1 3 1 0 1 -1 0 -2 0 0 -1 2 0 1 0 0 0 1 1 0 0 -1 0 1 0 -1 0 1 1 0 1 2 0 0 1 2 1 0 0 -1 1 1 1 0 0 1 1 2 -1 -1 0 -1 2 0 1 -2 0 -2 0 1 1 0 2 0 0 1 1 1 4 1 1 -3 -5 1 0 0 3 0 1 -1 2 -2 0 -5 0 0 0 -3 -1 0 0 4 2 -1 0 0 2 0 0 1 1 2 0 -1 -3 2 1 -1 0 0 -1 2 0 1 9 2 0 1 -1 -1 0 0 1 0 1 -1 -1 -1 -4 0 0 1 -1 -1 0 1 5 0 0 0 0 1 1 0 2 19 42 69 81 89 95 101 101 101 105 107 108 109 111 109 114 115 118 119 121 124 124 127 126 128 130 131 131 132 134 136 137 136 137 129 134 139 140 127 141 141 142 142 143 143 143 142 144 143 144 146 146 146 146 146 146 133 146 149 148 148 149 148 149 149 145 142 149 137 149 151 149 152 150 142 152 153 152 153 153 154 154 155 155 150 155 157 156 158 159 158 151 152 153 163 162 162 162 163 164 158 166 165 166 166 168 168 168 170 169 169 167 165 171 163 160 172 172 172 168 173 173 174 175 175 175 174 175 174 164 166 176 177 176 177 176 178 178 178 178 179 178 180 181 178 179 176 180 178 174 173 180 180 183 181 181 175 172 181 182 175 166 168 175 171 180 182 181 175 181 181 181 180 177 180 181 179 181 179 178 161 166 178 177 175 173 173 162 113 27 4 0 0 1 0 3 0 0 1 0 3 5 0 0 2 3 1 0 0 1 0 0 0 0 0 2 2 1 0 0 0 0 1 0 -1 6 -2 0 0 0 -2 1 1 0 2 0 0 -1 1 3 1 -1 -1 0 3 1 0 0 1 0 -1 0 0 0 1 0 1 1 3 1 0 8 1 -1 0 0 0 3 0 0 -2 0 1 -1 1 -3 0 -1 -1 -1 1 -2 -3 1 0 1 1 0 1 1 1 -1 -1 1 0 0 0 0 1 6 1 0 0 2 1 0 -1 1 0 -1 0 1 1 1 2 1 3 0 -1 0 0 1 0 -2 0 4 1 0 0 -2 4 0 -1 0 1 2 0 0 -2 -5 -2 0 5 1 1 0 0 0 2 -1 0 1 0 -1 1 1 2 1 1 -2 1 0 1 -2 1 -1 0 -1 0 0 1 1 0 0 -1 -3 1 1 -1 1 0 -2 0 1 0 0 1 1 -1 3 1 0 1 -1 1 -1 0 -1 0 0 -2 0 0 
1 0 -1 1 -1 2 1 0 0 0 0 1 1 0 -3 0 0 1 0 2 0 1 0 -1 1 0 0 0 1 0 2 0 -2 0 1 0 1 0 0 0 0 0 -1 1 1 1 0 6 1 1 0 -4 0 1 2 0 1 1 -4 0 1 1 0 1 0 1 7 2 2 0 1 1 0 1 -2 1 1 0 1 -1 -4 0 0 0 -4 -3 2 1 -1 0 0 1 0 1 0 1 0 0 1 -1 2 2 3 2 1 -1 1 0 1 0 1 2 -1 0 -1 2 2 0 1 6 0 2 1 0 1 0 1 0 1 0 -3 1 3 1 -1 -4 -4 0 0 0 1 0 1 0 -1 1 0 0 0 1 1 1 0 1 1 1 -1 2 -3 4 1 0 -4 0 0 1 0 1 1 1 2 0 0 0 2 -1 1 -1 -1 0 0 -2 6 1 1 0 1 2 4 1 0 0 -1 0 -1 1 0 -1 1 0 1 0 0 2 -1 -1 1 7 1 0 1 0 0 0 1 0 1 0 -4 1 -1 0 2 1 0 0 1 0 1 0 0 -1 2 1 0 1 1 2 9 41 65 77 85 90 89 97 99 101 104 100 105 100 111 112 114 116 118 119 121 122 125 126 128 129 130 130 131 134 132 134 135 135 135 137 139 138 140 140 136 135 141 141 141 144 140 142 142 144 144 143 138 146 147 135 146 149 147 148 147 149 148 149 146 149 150 149 149 150 151 151 151 151 151 149 151 153 152 154 153 154 154 154 155 158 157 159 153 157 160 159 160 162 162 161 162 163 156 154 164 164 166 166 166 166 167 168 167 170 168 170 170 169 170 169 169 171 171 173 164 171 173 174 173 174 171 169 175 176 174 163 160 163 169 177 178 178 178 178 178 179 179 180 171 180 174 175 180 181 181 178 181 181 180 180 181 181 180 182 166 179 180 181 182 180 181 182 175 181 180 172 179 179 179 169 178 177 178 163 165 177 176 174 173 164 100 33 2 1 4 3 0 0 -2 0 2 1 0 0 0 3 2 1 0 0 1 -5 -1 1 0 -1 -2 1 -1 1 0 5 0 0 1 2 1 0 -1 -5 -2 2 1 0 -1 0 1 0 1 1 0 2 1 7 0 0 3 5 2 0 0 0 1 -4 1 1 -1 -2 -1 -1 2 2 0 0 1 1 0 0 1 1 1 -1 -1 0 1 1 0 1 1 0 0 -2 1 1 1 0 -1 -1 2 0 5 2 1 -1 0 -4 0 0 0 1 1 0 1 1 -1 0 1 0 -1 2 1 0 -5 -9 -1 -1 1 1 0 0 0 2 -1 1 1 -1 0 0 0 0 1 -1 -1 -1 1 1 -1 1 1 1 0 -1 -3 0 4 2 3 2 1 -1 0 0 -1 -1 -1 -2 0 -1 -4 1 1 1 0 0 0 0 0 0 0 1 -4 1 0 3 0 1 1 1 0 4 1 0 1 -1 1 3 2 2 2 4 1 0 4 0 0 1 -1 0 0 0 0 0 0 -1 0 0 
0 0 1 0 0 0 0 0 -2 0 -1 -1 1 2 0 0 0 1 0 2 1 1 0 1 1 0 -3 0 2 0 -1 -1 0 0 0 1 -1 1 1 1 0 1 0 2 1 2 2 -2 3 1 -1 0 1 0 3 1 0 2 0 2 3 0 0 1 0 1 5 0 1 0 -1 0 0 0 1 0 0 1 1 0 -1 1 -1 -1 0 1 -1 0 1 0 0 1 1 2 1 0 1 -2 -1 0 1 1 2 3 1 0 0 1 0 1 0 1 0 0 0 0 1 0 -1 2 0 0 0 0 -1 0 0 0 2 1 1 1 1 1 2 2 -1 0 3 1 1 0 1 -3 -1 -1 -2 -1 0 1 0 0 7 1 0 1 -1 1 0 0 0 1 0 1 1 0 0 0 0 1 1 0 1 0 1 1 2 0 -1 -1 1 2 1 4 -1 1 -1 0 2 -1 0 -4 1 0 0 -1 0 1 0 -1 0 1 0 0 1 -1 0 0 0 1 2 2 0 1 0 0 2 0 0 -2 1 0 2 1 1 1 0 0 0 1 0 0 1 4 1 1 2 0 4 8 35 58 70 78 80 91 94 96 98 94 100 103 107 107 110 111 114 117 117 119 121 122 114 125 126 128 130 126 131 132 133 134 134 135 135 137 137 138 138 139 139 139 136 140 140 133 137 143 143 143 140 144 146 145 143 144 146 144 147 147 145 143 148 148 148 149 149 149 148 150 149 151 151 150 150 152 153 153 147 152 155 152 157 156 156 156 158 159 159 155 160 162 162 160 162 164 163 164 165 165 166 166 166 166 168 168 168 169 169 162 169 170 157 170 164 171 172 165 171 159 172 175 174 174 174 176 175 174 168 168 174 168 176 178 178 175 177 178 178 179 178 179 180 178 173 179 179 180 180 180 181 179 181 180 180 182 181 180 181 181 181 181 180 181 180 176 180 176 176 180 180 180 180 177 168 177 177 177 175 174 173 173 167 131 40 14 2 1 1 1 1 0 1 0 1 0 -5 0 2 5 2 0 2 1 2 0 -1 1 -2 1 0 5 0 0 4 3 1 -1 1 1 1 0 -4 -1 0 0 0 1 1 0 2 0 -1 0 2 0 -1 1 1 -2 -4 1 1 1 1 1 0 0 2 -1 0 0 1 0 1 0 1 1 0 0 1 1 1 0 0 1 3 1 1 0 0 0 1 -1 1 -3 0 -1 4 0 -2 3 1 1 -1 0 2 -1 -3 -1 0 -2 -1 1 -1 0 0 0 0 0 -1 1 2 0 0 0 -1 1 1 0 0 1 1 1 2 1 0 1 0 0 -1 0 1 -1 -1 0 0 0 1 0 0 -1 -3 1 -1 0 1 6 1 3 0 1 1 -1 0 1 1 1 1 -3 0 0 0 0 2 3 0 -1 0 -1 1 1 -2 -2 -1 0 0 0 0 2 0 0 1 4 1 0 0 0 0 0 1 1 0 -2 0 0 0 0 1 0 2 0 0 0 0 0 0 0 2 2 
1 1 -1 -3 1 -1 0 1 -1 -1 0 1 0 1 1 0 0 0 -1 0 1 1 0 0 0 0 -1 1 -1 2 -1 -2 -1 1 -4 1 -4 0 0 -2 -1 -2 0 1 -2 0 1 0 3 0 0 2 1 0 0 0 0 0 0 -1 1 0 0 0 0 1 -1 2 0 1 1 -1 0 0 1 0 0 0 1 0 0 1 0 0 0 0 0 0 1 1 1 2 1 1 0 1 1 1 0 1 0 -1 0 1 1 3 1 0 0 1 1 1 2 0 -1 0 2 1 -4 1 2 4 4 2 3 0 0 -1 2 0 1 1 0 0 0 3 0 0 1 0 0 1 0 -2 0 1 1 1 -1 1 0 0 0 0 1 2 2 0 -1 0 0 0 -1 1 1 0 1 1 0 0 0 0 0 0 1 7 3 1 4 0 -1 0 -1 0 0 0 0 -1 0 1 0 0 -4 0 1 0 1 1 0 1 1 0 0 -5 -3 -6 1 -3 0 0 0 2 2 1 -1 1 -1 1 0 1 1 0 -2 2 -1 0 3 1 1 1 2 2 0 6 0 0 -1 0 1 1 6 26 47 63 70 79 85 90 92 93 96 97 99 101 104 108 109 107 112 115 104 118 110 110 123 118 123 129 129 130 130 132 132 132 134 134 135 134 136 137 138 139 139 139 139 140 142 142 142 143 143 145 144 143 144 143 136 145 146 146 146 147 147 147 151 148 148 149 149 147 149 148 150 150 151 151 153 151 151 149 154 155 155 156 151 154 158 157 159 160 150 160 161 160 160 163 162 163 164 164 161 166 167 167 167 158 162 169 168 169 169 169 164 170 170 172 168 172 171 156 171 174 173 174 175 174 172 172 177 177 177 175 175 175 176 178 178 177 177 177 179 177 178 172 179 179 181 180 176 178 179 174 181 180 179 180 181 181 180 182 182 182 180 181 180 172 179 171 180 180 171 178 178 178 176 178 177 176 175 174 172 168 140 74 5 1 0 0 0 -1 1 1 1 0 1 1 0 -1 -3 -3 5 4 1 1 1 -1 0 0 1 0 1 1 1 1 1 2 3 0 0 -1 -1 2 1 0 1 0 0 0 1 1 0 0 -1 0 1 0 0 1 0 -4 -1 0 1 2 4 1 -1 1 1 1 1 1 0 1 1 0 0 3 0 0 1 -4 -2 1 1 0 1 1 1 0 0 1 -3 0 0 -1 1 0 0 1 0 0 1 0 -3 0 1 1 1 0 0 1 0 -1 -1 0 0 1 0 0 0 0 1 -1 -2 1 1 0 -3 1 1 1 -1 1 0 0 1 -4 -1 0 -1 -1 0 2 0 -1 0 0 0 -1 0 2 1 1 0 1 3 -1 2 1 0 0 2 -1 1 0 1 -1 1 0 0 1 1 0 1 0 1 -1 0 1 1 1 1 -1 1 1 0 1 0 3 0 1 2 1 -1 0 1 0 1 0 -1 2 0 0 1 1 1 1 -1 0 0 0 1 1 1 0 3 0 1 0 
0 2 0 2 0 -1 1 1 0 -1 1 0 0 -1 0 -1 -1 -2 0 1 0 1 0 0 0 1 1 -1 0 2 -1 0 -1 -1 2 2 -4 -1 -1 -1 -4 0 0 1 0 3 0 1 0 0 0 0 0 0 0 -1 0 0 0 1 1 0 0 1 0 1 1 0 1 1 0 1 2 3 1 -1 0 1 4 1 1 0 0 6 1 -1 0 -1 7 1 0 1 0 1 0 -1 0 1 -4 -1 1 0 0 2 0 1 0 0 -2 1 4 -1 0 0 -1 0 0 0 0 0 0 -1 1 -1 1 1 0 0 0 2 1 -1 0 -2 6 2 5 1 0 1 0 0 -2 2 1 1 2 6 1 3 1 1 3 3 1 0 -1 0 1 1 0 1 1 1 0 0 1 0 1 0 1 0 1 0 0 2 4 1 0 0 -1 -4 -4 0 1 1 1 1 -1 -1 1 1 0 0 -1 2 0 1 0 2 0 0 1 -5 -1 -2 1 1 1 4 4 1 1 0 -1 0 5 2 1 0 1 1 1 0 0 1 2 2 -1 1 1 0 2 -2 2 0 2 1 3 6 7 3 13 36 51 63 72 79 83 88 90 91 93 87 97 100 104 108 108 111 97 114 117 119 115 122 124 126 127 128 127 130 128 129 131 130 133 133 135 134 128 137 137 131 137 138 139 140 138 142 142 141 138 143 142 143 142 144 146 145 145 143 146 145 147 145 147 147 148 149 149 148 148 149 150 150 152 152 150 153 155 155 155 148 155 157 157 158 159 159 154 159 161 161 161 163 162 165 163 163 162 165 165 166 165 166 168 168 161 167 162 169 169 170 166 171 170 163 172 171 164 172 174 174 174 175 173 175 176 170 176 172 175 172 169 176 178 179 175 178 178 168 170 177 179 176 180 180 180 180 175 178 174 179 179 181 179 180 181 180 180 178 181 180 180 181 180 178 177 179 179 178 177 177 170 172 176 174 174 164 168 141 60 30 3 -3 -2 0 -3 0 1 -1 1 1 -1 -1 -1 1 0 1 1 0 1 0 -1 1 1 2 6 1 0 2 0 1 1 1 0 -4 0 0 1 1 0 0 0 1 -1 -2 -2 4 1 -2 1 1 1 1 0 1 0 -1 0 0 1 1 0 0 1 1 1 2 2 6 0 6 -2 0 -1 -1 2 1 0 0 -1 2 1 0 0 1 1 0 -1 0 0 -1 -1 1 0 1 1 1 -1 1 1 0 0 -3 -2 -1 2 4 1 1 1 0 1 -2 1 0 0 0 -1 -3 0 1 0 0 -5 -1 0 0 1 0 1 -1 0 1 2 0 0 0 -3 2 1 2 0 0 -1 3 0 0 0 0 1 -1 -1 1 0 -1 1 1 -1 2 0 1 0 1 -1 1 1 0 -2 1 -1 0 -1 0 1 0 -1 0 2 1 0 -1 0 2 0 0 2 1 0 1 1 1 -5 0 0 1 -1 1 0 1 2 0 1 3 1 0 0 0 0 0 1 3 5 0 1 -1 0 -1 
0 0 -1 1 -1 1 0 0 1 1 1 1 -1 -1 0 1 0 -1 -1 1 1 -1 0 0 -1 0 4 -1 2 0 0 -1 0 1 1 1 0 0 1 -1 0 1 -1 0 0 1 1 0 0 2 0 1 1 0 2 0 0 -1 0 2 3 2 1 1 -1 -1 0 -1 -2 1 1 0 3 1 1 1 -1 1 0 0 0 -3 1 2 1 0 1 2 1 1 3 3 1 0 -2 0 0 -5 0 0 0 0 1 1 0 -1 1 0 0 1 2 1 2 2 2 1 1 -1 0 4 0 0 0 -3 -5 0 1 0 0 -1 0 3 0 -1 1 0 0 1 -1 -1 -1 1 -1 -1 1 1 4 5 1 0 0 1 1 0 1 0 -1 1 0 2 1 1 -1 0 1 0 1 0 -1 0 1 0 0 0 1 2 -1 1 0 -2 0 1 1 1 1 0 0 0 4 0 0 0 0 1 1 0 1 0 0 1 0 -1 2 1 -1 -1 1 0 1 1 2 0 0 0 -1 4 5 1 4 -1 3 1 0 1 2 0 3 0 1 2 0 0 0 0 0 0 1 0 1 1 2 9 6 5 25 33 54 63 72 78 83 86 87 83 82 93 97 102 105 107 105 110 114 117 117 120 121 123 122 125 125 126 128 129 128 126 131 131 131 133 135 134 132 130 136 137 134 138 139 138 139 140 141 141 142 143 143 144 143 142 144 144 145 145 145 146 146 148 147 147 145 148 148 148 149 152 149 151 152 152 154 154 155 152 155 156 157 158 159 159 160 159 162 161 162 161 161 155 163 162 165 165 164 166 155 157 166 161 166 168 168 155 163 170 170 161 156 159 157 172 171 173 172 174 173 174 175 174 167 174 171 175 168 176 176 165 176 178 178 176 177 178 177 180 179 179 178 171 178 179 178 180 179 180 180 179 180 180 180 178 180 179 179 180 179 179 180 178 179 179 170 178 177 177 176 175 172 172 170 169 144 67 7 2 5 0 -1 0 0 1 1 1 0 -5 0 1 0 0 3 1 1 1 11 2 -1 0 2 7 -1 0 0 0 0 2 5 2 1 1 0 0 2 2 -1 0 0 1 1 1 -3 0 1 0 1 0 1 2 1 -2 1 0 1 0 1 0 1 0 0 0 8 2 0 0 2 0 0 -2 -1 1 1 0 -1 1 1 1 0 2 0 0 0 0 0 0 1 -1 2 0 0 2 0 -5 1 0 0 0 0 0 1 1 0 0 1 -1 1 0 0 1 2 -2 -2 -6 -2 -1 1 1 1 0 -1 0 1 2 1 2 4 0 0 0 2 1 1 1 1 1 1 0 0 1 0 7 0 2 1 -4 -1 1 2 1 0 -1 2 -1 -5 -5 1 0 1 1 0 0 2 1 2 0 0 2 0 1 2 -1 1 -1 -1 -3 0 0 1 1 0 -5 1 0 2 1 3 -1 -2 1 1 0 2 1 2 0 1 0 0 0 1 1 1 -3 -1 0 1 0 0 2 -1 0 2 0 
0 0 0 1 0 0 1 1 0 2 0 0 0 -2 2 0 0 -2 1 1 1 0 0 0 0 0 1 1 1 0 0 2 1 0 -1 -3 1 1 -1 4 -1 0 1 1 0 1 0 0 0 0 3 0 1 1 1 1 -1 0 0 2 1 1 1 1 0 -5 1 0 0 0 1 1 1 0 1 1 -2 1 -5 -4 -2 1 1 0 0 -2 1 1 1 0 2 0 2 1 0 0 1 -2 0 1 0 -4 2 0 1 -1 2 0 0 6 1 3 0 1 10 0 0 1 1 1 0 0 1 0 -1 0 1 -1 1 1 1 0 0 -1 1 1 1 0 0 0 0 0 1 -1 1 0 1 0 0 -2 1 0 0 0 0 1 1 0 -1 0 1 0 0 -1 0 1 4 2 1 1 1 0 2 0 1 1 1 0 1 1 1 0 0 1 0 0 0 1 1 1 0 1 0 0 2 -1 1 1 2 2 1 -1 0 1 0 0 -1 -1 1 0 5 1 1 0 0 1 2 6 0 1 0 1 1 -3 1 0 0 1 1 0 0 2 0 0 2 0 0 0 0 1 2 1 1 0 1 10 30 44 52 63 72 78 80 82 84 87 90 93 98 103 105 108 109 112 114 116 116 115 119 121 124 125 126 126 119 127 127 128 130 131 131 133 127 133 136 138 135 128 137 133 140 137 140 137 140 141 141 142 142 143 144 142 144 145 145 144 146 146 146 147 148 147 140 147 148 149 151 151 153 152 153 155 152 155 156 148 155 157 158 158 158 151 160 161 162 156 162 162 164 163 164 164 164 166 164 161 167 168 167 161 167 158 164 169 171 170 170 170 164 171 172 172 173 173 175 174 175 174 174 175 176 176 169 175 176 170 177 176 178 176 177 172 178 178 178 172 178 179 168 172 178 170 171 180 171 168 180 178 180 180 179 180 179 179 178 178 172 178 172 178 178 176 176 175 168 175 172 171 158 147 72 8 0 0 1 0 0 1 0 0 4 0 0 0 0 6 1 -1 1 2 0 0 1 0 0 1 0 0 0 2 2 1 2 0 3 0 0 -1 1 -1 1 4 0 2 1 5 1 -1 -1 2 -1 1 2 -1 2 0 1 0 1 1 1 0 0 0 0 0 1 4 1 0 0 0 3 0 1 -1 1 1 1 -2 0 -1 1 -1 -2 0 -1 -1 -3 0 -1 -4 1 2 0 2 1 -1 -2 -4 -1 -1 0 1 0 1 0 -3 -2 -1 0 2 0 4 2 0 1 0 0 1 0 -1 0 2 1 0 -1 1 1 0 0 0 2 0 2 0 0 -1 -1 7 1 1 1 1 0 0 2 0 0 4 1 0 -1 -1 1 1 2 0 0 1 1 0 -1 -4 -4 -3 0 0 -1 2 0 1 -1 0 0 1 0 2 -1 0 1 1 1 0 -5 0 -1 -5 0 0 0 1 3 2 0 0 -1 0 1 1 2 0 0 0 1 0 -7 -1 -2 0 -1 0 0 0 1 0 -1 -1 1 1 
0 1 0 0 1 1 0 0 0 0 0 0 0 0 0 0 0 0 0 -1 -5 -1 0 1 -1 1 1 1 0 0 0 1 0 -1 0 0 -1 0 2 0 -1 -5 -3 1 0 1 0 0 1 1 1 -1 1 -1 -4 -1 -1 -1 0 3 4 0 2 1 1 0 0 -1 0 1 0 1 -1 -1 2 1 0 -1 -1 0 0 0 0 1 0 -2 1 0 -1 1 1 -1 1 0 1 1 0 1 0 1 0 1 1 2 0 0 0 -4 -1 6 2 2 0 1 1 1 1 1 0 0 0 5 1 1 3 0 1 1 0 2 0 4 1 0 2 0 -1 1 1 0 1 3 1 0 2 0 3 2 0 0 1 -3 0 0 1 0 1 0 0 0 1 0 1 0 0 -3 -1 -1 -1 6 1 0 0 -1 1 1 0 0 1 1 -1 -1 -1 1 0 0 1 0 -4 1 -1 3 -2 -1 0 -1 1 1 1 0 1 0 0 1 2 -1 6 0 -3 0 2 1 1 1 -1 1 -1 1 2 2 0 5 2 0 1 1 -1 2 -1 1 1 1 2 0 7 1 0 1 -1 0 0 1 1 -4 0 -1 3 17 32 44 55 64 66 75 75 78 82 86 90 93 100 103 102 107 110 111 110 115 115 117 119 122 126 117 124 125 125 125 128 126 129 131 131 132 133 134 136 136 137 136 138 138 138 138 138 140 140 140 141 140 142 142 142 142 143 143 145 144 146 146 148 147 149 148 148 150 141 149 152 152 154 154 156 155 155 144 156 158 156 157 151 158 160 161 160 161 161 162 163 163 164 164 168 164 160 167 167 158 168 168 169 168 168 170 170 170 169 167 172 174 164 169 173 173 172 174 175 176 174 173 175 175 176 175 166 169 177 178 176 176 173 177 170 177 173 178 178 174 177 178 172 178 178 179 177 180 178 168 171 178 170 168 172 178 178 178 177 178 176 177 176 175 170 174 172 171 166 166 148 77 8 -1 1 1 1 -1 1 0 0 1 0 4 -1 2 -1 0 1 -4 -1 1 -3 -1 -2 -1 0 1 1 0 -1 0 5 1 1 2 -1 1 0 -1 -4 1 -2 3 1 0 2 0 2 0 0 -5 0 -1 1 1 5 3 1 -3 -1 0 3 3 0 1 -3 -2 -1 0 2 -1 1 0 1 6 0 1 1 0 0 1 1 0 0 2 0 1 -1 0 0 -1 -6 -1 1 0 -3 0 0 -1 -3 0 0 -4 0 -1 1 -1 -4 0 1 2 2 2 0 0 0 0 1 1 1 1 2 1 1 1 1 -6 1 1 0 -1 -1 0 1 1 1 1 1 3 -3 8 0 1 -3 1 0 -1 1 0 2 1 0 1 2 2 1 1 -1 1 0 2 0 1 1 -7 -3 0 1 0 1 2 0 6 1 0 1 0 1 0 0 -5 -1 0 1 -2 0 1 0 -1 1 0 0 0 1 2 -6 -3 1 4 1 0 0 -1 0 -1 1 1 -1 0 0 0 0 2 1 2 0 -1 1 -3 0 -1 
0 1 1 0 1 -1 0 -1 0 5 1 2 2 1 -1 0 1 1 1 1 -1 0 1 1 0 0 4 0 0 1 1 0 1 -1 1 1 -1 -1 0 1 1 -1 -1 1 -1 0 1 -1 0 1 -2 0 -1 -1 -5 0 0 1 0 2 3 1 1 3 0 1 1 1 1 1 1 1 0 2 1 -2 0 0 0 2 0 0 -4 1 2 0 0 0 2 1 1 0 1 -2 1 1 1 1 1 1 1 2 1 3 1 1 3 0 0 1 2 0 0 1 1 1 -1 0 -1 1 3 0 0 0 0 0 -1 5 1 0 1 0 8 1 2 0 1 0 0 1 0 0 1 0 0 5 1 0 2 0 1 2 2 0 2 1 2 1 0 -5 1 1 2 0 1 -5 1 0 1 2 4 1 -3 1 1 0 1 0 0 1 1 1 -1 2 0 1 0 2 -1 0 0 -1 0 5 0 2 0 -2 1 -1 -1 -1 1 1 0 0 1 1 0 0 0 1 0 0 4 2 0 0 0 3 0 0 1 1 1 1 4 2 0 1 0 2 2 1 0 2 0 1 0 0 0 0 -1 0 1 0 0 2 13 25 35 44 54 63 69 73 74 78 82 85 92 97 100 103 104 107 108 111 112 116 117 116 118 119 123 124 123 124 127 128 128 129 128 130 132 133 133 134 134 136 135 137 137 133 137 139 138 138 139 140 140 141 141 141 142 142 134 136 144 145 146 146 147 148 147 149 149 150 151 148 152 154 154 153 155 156 156 158 157 159 150 157 160 160 162 162 164 163 162 164 163 164 165 163 165 165 164 157 166 168 167 168 169 169 169 169 169 170 168 171 168 171 172 172 172 173 174 174 175 175 173 175 175 175 175 176 175 177 177 178 176 176 177 177 176 173 179 178 177 167 171 170 178 179 178 178 178 170 177 178 179 178 178 178 170 177 177 177 170 175 177 174 174 172 170 168 164 143 79 10 1 1 1 0 1 1 3 0 0 0 0 1 3 1 0 0 2 1 1 1 -1 -1 1 1 0 3 0 -2 1 1 0 -1 -2 -1 -5 0 1 -3 -5 -1 2 1 1 0 2 2 1 0 -2 -1 1 -1 2 0 1 1 0 0 0 0 -1 3 0 2 0 -5 -5 -1 0 1 0 1 -1 1 1 0 0 4 1 1 -1 0 1 0 1 0 -1 0 2 1 1 -2 1 1 0 1 0 -4 -1 -1 0 1 1 -2 0 1 1 0 0 0 3 1 1 0 1 0 0 0 0 0 1 0 -1 0 0 -1 0 0 0 0 0 0 1 0 0 0 1 -1 1 1 1 0 -1 1 0 -3 2 0 1 1 0 0 0 -1 0 0 0 -2 0 1 0 0 1 -1 1 0 0 0 0 1 0 2 1 0 0 -4 0 -1 -1 -8 3 0 2 -1 1 -1 1 1 1 1 1 0 2 0 -4 -6 0 0 0 0 1 0 -1 0 0 1 0 0 1 0 -4 1 0 3 1 0 -1 0 0 -1 
-1 1 1 1 0 1 -5 1 0 1 0 1 2 -1 0 -3 1 1 -4 0 0 1 1 0 -1 0 1 1 0 1 0 0 1 0 1 1 0 0 0 2 1 0 0 0 0 0 0 1 -1 0 2 1 0 1 -1 0 0 3 0 0 -2 1 1 4 1 2 1 1 1 0 3 0 0 0 1 1 1 0 0 0 1 0 -1 -1 0 0 0 1 -1 0 1 1 -1 -1 1 0 1 1 1 1 0 1 1 0 1 0 1 -1 1 0 0 2 7 3 0 5 6 1 -1 0 1 1 -3 -1 -1 0 1 1 2 1 5 2 1 4 1 0 0 -4 2 2 1 1 -1 0 1 1 3 1 1 0 0 -1 1 4 1 0 2 0 1 1 1 0 1 -1 1 0 0 1 1 4 -1 0 0 2 1 0 2 5 1 -1 -2 0 2 1 0 1 -1 1 1 1 0 0 1 0 0 7 1 -1 -6 -2 2 -1 0 1 0 0 1 -1 0 -2 1 1 1 0 2 0 1 0 -1 2 2 0 0 -3 0 0 -1 0 -2 0 1 -1 2 3 3 1 3 0 1 0 1 0 1 -1 2 0 0 0 0 3 10 23 34 48 55 62 68 69 71 77 82 88 91 96 100 102 106 106 108 109 112 113 115 116 114 119 121 122 124 125 125 126 128 126 129 131 129 132 137 132 133 133 135 134 129 137 138 137 138 140 139 137 140 141 141 135 128 142 136 143 144 145 146 146 146 149 150 150 151 151 153 153 152 155 156 154 155 156 156 153 157 159 159 156 160 162 162 162 162 162 162 163 164 164 159 162 166 167 166 167 167 169 169 169 170 170 163 171 172 172 172 162 163 169 173 172 173 172 175 175 166 170 173 176 175 176 174 175 175 175 177 177 177 177 178 177 177 176 176 175 176 178 176 178 179 178 170 177 172 176 168 175 178 177 176 175 176 177 173 174 168 174 172 171 167 159 110 61 8 0 3 0 0 1 7 6 2 1 2 1 1 -1 1 1 1 7 2 3 -1 1 -1 0 3 0 1 1 1 0 2 1 -2 0 0 -1 0 1 5 2 0 1 3 1 1 0 0 -1 -7 0 1 1 4 0 0 0 0 0 0 1 -1 1 0 0 -1 2 8 2 -1 -1 4 4 -1 2 1 0 0 0 -2 1 1 0 2 1 1 0 0 0 -1 0 1 1 1 1 0 -2 7 0 0 -3 0 0 -3 -1 1 0 1 0 5 0 0 1 1 1 -1 1 0 -1 -1 -6 -1 0 2 3 0 -1 -1 -1 -1 1 1 0 0 0 -1 1 5 1 -1 0 -1 -2 1 1 1 0 2 1 0 0 -4 1 1 -2 -1 1 1 0 0 1 1 1 3 5 0 0 -6 0 1 0 0 1 0 -1 0 0 0 -5 -1 0 0 -1 1 3 2 1 0 1 0 1 -1 0 2 -4 -1 1 1 0 1 4 1 1 0 4 1 1 0 0 1 3 0 0 2 -1 1 0 0 1 0 2 1 -1 
1 -1 -7 0 -1 1 1 1 0 1 1 0 3 1 2 1 0 -1 -1 1 1 0 -3 0 1 0 3 1 0 0 1 2 1 -1 0 0 0 0 -1 0 0 -2 0 0 -1 0 0 0 1 3 2 1 -2 -1 0 0 1 0 -1 0 2 2 5 1 0 0 4 3 3 -3 2 2 0 0 0 0 1 -1 0 1 0 0 0 -1 1 -3 1 2 0 0 0 -3 -5 0 1 0 1 0 0 2 1 -1 0 0 1 0 1 0 1 1 6 2 1 -1 0 0 6 1 2 0 -1 1 4 1 0 0 1 1 0 1 -1 -1 1 7 7 0 -1 0 0 0 1 4 0 0 0 -3 -1 1 0 1 -1 1 0 2 3 1 1 1 -1 -1 -1 1 5 3 1 3 2 0 0 0 -1 2 4 0 0 0 0 2 0 -3 2 0 -4 -1 -3 -3 0 0 1 0 -1 0 2 1 1 4 0 0 0 1 1 1 1 1 0 0 -1 1 -1 0 2 2 -2 0 0 4 2 0 -4 0 -1 1 0 -3 1 1 0 1 0 -1 -2 -3 2 1 0 1 1 1 1 1 2 1 -1 2 0 2 0 0 1 -1 1 3 11 25 40 46 49 60 64 67 72 77 84 88 91 96 99 102 103 106 107 109 110 113 114 116 117 118 115 122 120 123 124 119 126 126 129 128 130 131 130 129 132 127 134 135 138 137 137 137 136 126 138 139 139 140 141 141 142 143 144 146 145 141 148 148 143 150 149 150 154 153 153 150 154 150 151 156 158 158 158 158 158 159 161 160 160 161 161 163 163 163 164 164 164 164 165 165 167 167 168 167 166 168 164 166 170 171 168 172 173 172 172 173 172 173 173 174 174 173 174 174 174 175 174 174 166 169 175 170 177 177 177 176 178 174 177 167 178 178 177 177 179 176 178 178 177 177 175 157 158 175 177 173 175 174 176 175 175 174 173 165 169 166 155 112 39 25 2 0 0 -1 0 1 7 0 1 -1 1 -1 2 6 0 1 0 -1 0 0 1 -1 -1 0 0 0 1 0 -1 1 1 1 0 1 0 0 1 2 7 9 7 0 2 0 1 -1 0 1 0 0 -1 1 0 1 0 1 0 0 1 1 1 0 0 0 2 4 1 1 0 1 1 1 -1 0 -1 0 1 2 0 1 1 0 0 0 0 1 0 1 1 1 0 0 0 0 1 0 7 1 1 3 0 2 0 2 2 1 1 0 1 0 0 1 2 1 1 1 1 1 2 1 -1 1 1 0 -3 1 1 1 0 -1 1 1 0 1 0 1 1 1 1 0 1 0 -1 0 1 1 1 0 1 0 -4 -5 0 -4 0 1 0 1 0 0 1 0 0 2 1 0 0 1 2 1 1 0 2 0 1 1 1 -1 1 1 1 1 2 0 1 1 0 2 0 -1 -1 1 0 1 0 0 0 0 2 0 0 -1 0 0 1 4 0 0 2 0 1 2 3 0 1 0 1 0 1 0 2 0 
-1 0 -2 0 0 -1 1 3 1 8 2 -1 3 0 1 0 1 0 0 3 0 1 1 0 0 -1 0 0 1 0 0 0 0 1 0 2 -1 1 0 0 1 0 1 -3 1 0 1 0 1 1 1 0 0 1 0 -3 -1 0 1 0 0 1 1 0 0 -2 0 1 0 0 0 -1 0 -1 1 0 0 0 0 -1 0 2 0 1 1 1 1 0 0 -5 -1 0 2 0 1 1 3 1 0 1 -1 -6 0 0 2 0 0 0 0 -2 1 2 0 0 0 0 1 2 1 1 1 1 1 0 1 0 0 0 1 3 0 1 2 0 2 0 1 0 -1 0 1 0 1 -1 0 -1 2 0 -1 0 0 0 1 0 0 1 0 6 0 1 2 1 0 2 2 1 0 0 1 -1 1 1 1 0 0 0 0 2 -1 0 -1 0 -4 1 -1 0 0 1 0 0 0 1 0 -1 0 -3 -2 1 1 0 0 1 0 1 0 1 1 0 2 1 0 2 2 -1 -4 0 0 5 0 -1 0 2 0 1 -1 -2 3 0 0 1 1 0 0 -1 1 1 1 1 0 4 7 1 0 1 0 -1 -1 1 6 1 1 0 1 18 14 22 35 46 53 58 61 71 71 76 81 88 91 96 98 99 102 105 103 110 110 111 111 107 106 119 120 121 120 114 124 119 125 128 127 128 129 126 129 130 130 129 133 134 134 135 128 129 137 138 140 139 139 142 141 142 141 145 145 145 146 147 147 149 150 150 150 151 152 153 153 154 147 152 157 158 157 158 151 159 161 159 162 162 162 163 163 164 164 165 163 164 166 167 167 167 167 167 158 168 169 169 169 168 172 169 170 172 172 171 171 167 172 173 173 170 173 174 170 174 174 176 175 176 175 174 176 176 177 175 176 177 176 177 177 177 170 175 177 176 177 176 177 176 171 168 175 169 175 171 174 173 174 174 173 171 166 169 164 146 91 22 3 1 1 1 1 0 1 1 0 2 1 1 0 -1 2 1 1 1 0 0 0 2 0 0 0 1 1 3 1 0 1 -1 -1 -1 -1 1 1 0 0 0 0 1 3 0 0 0 0 0 0 1 -1 2 1 0 0 0 1 -2 0 -1 0 1 1 1 0 0 2 1 -2 4 0 0 1 2 0 -1 2 1 -1 -2 1 1 1 2 1 0 0 1 0 -1 1 4 1 -5 2 1 1 0 2 2 1 1 0 -1 4 1 1 0 -1 0 0 0 1 0 1 2 1 0 1 7 1 1 -1 0 1 1 -1 0 1 1 1 0 1 2 -2 0 1 0 0 0 0 0 -1 1 0 0 1 3 -1 2 -1 -1 -4 1 -1 -1 3 1 1 0 1 2 0 0 1 1 1 2 1 0 6 2 2 0 3 1 0 3 1 0 3 0 -1 -1 0 0 -1 -1 -4 0 2 0 0 2 1 4 0 1 -1 0 1 0 0 0 2 1 -1 2 1 0 1 1 2 1 4 1 0 0 0 2 0 1 1 0 
0 0 -3 -1 -4 1 1 2 0 0 2 0 0 0 0 -1 0 1 0 1 2 0 0 0 1 0 0 0 1 3 1 0 1 1 0 -1 0 1 0 1 0 0 2 1 1 1 0 3 0 1 1 2 0 1 0 1 -2 0 1 0 1 0 0 1 0 0 0 -3 -4 1 1 1 0 0 0 -3 0 0 2 0 -1 1 1 0 2 4 0 1 0 -1 0 0 1 1 0 0 1 -2 1 1 0 -1 1 0 0 0 1 1 0 -1 0 0 0 -1 0 -1 1 0 -1 1 -1 -4 -4 0 0 0 0 0 1 1 2 0 -1 2 1 1 1 1 -1 1 0 -1 1 0 -4 -2 1 1 0 2 1 -1 1 -1 1 -1 1 2 0 -1 2 0 1 0 0 -1 1 0 -4 0 0 0 0 0 0 1 0 0 4 1 1 1 0 1 1 -1 1 1 0 1 0 0 0 -1 1 0 -1 1 0 -1 -1 1 0 3 0 -3 1 2 1 1 1 0 0 0 1 0 2 1 0 1 1 1 3 0 -1 0 1 -1 0 1 1 1 0 1 0 -1 1 0 1 2 5 1 1 0 0 -1 -1 1 0 0 0 0 1 3 7 5 19 26 37 44 50 56 60 64 69 76 82 87 89 88 97 98 100 104 103 108 109 111 113 115 116 118 113 120 121 122 124 122 126 123 126 121 128 129 128 131 132 130 134 133 136 127 136 137 139 138 140 141 140 142 143 143 145 145 145 147 148 149 150 152 150 147 148 152 153 155 155 154 157 156 159 159 158 159 159 157 160 161 159 161 153 158 163 164 165 165 164 163 166 167 166 167 157 155 168 166 169 170 169 171 171 170 170 167 172 172 165 169 173 168 174 169 174 170 166 175 168 175 175 176 172 176 175 175 170 175 176 176 173 176 177 176 176 176 175 167 175 177 175 175 173 175 174 174 174 174 172 172 171 170 167 159 133 67 37 2 1 0 1 1 0 1 1 1 0 2 2 1 1 1 0 0 0 1 1 0 1 0 1 -3 0 -1 -1 0 2 1 1 0 0 1 0 0 0 0 1 0 0 0 0 0 1 -1 0 1 1 0 0 1 0 0 0 0 1 0 -2 -1 1 1 0 1 0 0 0 -1 -1 1 2 3 5 1 0 0 0 0 0 0 -1 0 0 0 0 -1 0 0 4 5 0 1 0 0 0 1 1 1 0 1 0 -3 3 3 1 -1 0 -1 -2 1 0 0 -5 -1 1 0 1 0 3 1 0 0 0 0 1 4 2 2 0 0 0 1 0 1 1 2 2 1 0 2 0 -1 1 0 2 1 -1 1 -1 0 1 -1 2 3 1 1 0 0 0 0 -1 -1 1 1 2 0 1 0 0 2 1 1 -1 -1 -1 0 2 2 0 -1 0 0 -1 -3 0 1 0 0 0 1 0 -2 1 1 1 0 1 0 0 -4 0 -5 1 1 -2 1 -1 1 1 0 -1 0 -1 -5 1 0 0 5 1 3 1 1 0 1 
0 1 0 0 0 1 0 0 0 0 1 0 0 -3 -3 -1 1 0 0 1 0 -3 -3 -1 1 1 0 0 0 0 0 0 0 0 0 0 0 0 0 0 2 1 0 1 0 0 1 2 -1 3 1 0 1 -1 1 2 1 0 2 -1 0 0 1 0 0 1 2 0 1 1 0 4 0 -2 0 -1 0 0 0 0 2 0 -1 1 3 1 2 0 1 -1 0 0 1 1 -1 0 1 0 -1 1 0 0 1 1 0 1 0 -1 0 0 1 0 1 1 1 -1 0 2 2 1 0 0 -2 2 0 0 1 -1 0 0 1 1 -1 0 0 1 0 -5 1 1 1 1 2 0 2 0 0 0 1 1 2 1 0 1 -2 0 1 2 4 0 0 1 0 0 -1 0 0 1 0 1 1 0 0 1 2 0 1 0 0 0 0 1 1 1 -4 0 0 0 1 0 1 0 -5 0 0 0 1 0 0 -1 0 0 -1 1 0 0 0 0 1 1 1 1 1 0 0 0 1 1 0 2 1 0 1 3 0 0 0 1 1 1 0 1 0 1 1 0 1 3 1 2 0 0 3 1 0 5 -1 -3 0 1 0 0 2 1 1 1 2 11 15 27 33 40 48 47 55 62 68 74 71 83 89 93 96 99 101 103 104 104 104 111 113 114 114 117 118 120 120 118 122 125 124 116 127 127 128 129 130 129 131 131 133 125 135 138 137 137 139 139 136 141 142 143 143 147 146 146 147 146 148 150 153 151 152 153 154 144 153 151 150 156 156 158 155 160 160 159 160 161 160 161 154 161 159 162 165 160 165 158 164 165 166 168 167 159 167 167 168 169 169 171 170 170 166 170 163 171 172 173 173 172 172 174 174 175 173 174 174 175 174 176 175 175 175 175 175 175 170 174 176 174 176 177 177 175 167 174 175 175 176 174 175 173 174 173 172 172 172 171 169 165 129 112 43 22 3 1 0 1 -1 1 2 1 0 1 0 1 1 0 0 0 -1 1 1 1 0 3 0 0 -1 -3 0 0 1 0 -6 -1 1 0 0 7 0 2 0 2 1 1 1 1 0 0 2 1 1 0 0 1 -1 1 3 0 1 -1 0 0 0 0 -4 0 2 2 0 1 1 1 1 1 0 1 1 1 -2 0 0 1 1 0 0 0 0 2 -1 1 1 1 1 2 0 0 0 1 0 0 2 0 -1 -1 0 0 0 0 1 0 1 1 0 1 -1 -2 0 -3 0 0 -1 0 0 1 0 1 0 0 -1 2 0 1 1 0 0 0 1 1 0 4 4 1 1 1 6 0 0 0 1 0 -1 1 4 -1 -1 0 0 2 4 -1 0 2 1 4 0 1 3 -2 1 0 -3 3 1 0 1 -1 -2 0 1 0 -1 0 -1 0 -4 1 0 1 2 3 0 2 0 0 -7 0 0 1 0 0 -1 -1 -1 1 0 2 0 1 1 0 1 1 0 1 0 1 0 1 0 1 1 0 -1 3 1 1 2 1 
0 1 0 0 1 0 1 1 1 0 1 0 0 1 1 -1 0 -1 0 2 -1 0 0 0 0 -1 0 1 -1 0 2 0 0 2 2 1 0 1 1 0 1 0 1 0 -1 0 3 -1 0 0 0 1 -2 2 0 -1 0 0 -1 0 0 0 3 3 1 1 1 0 1 0 1 1 0 -1 0 0 3 1 0 1 -2 1 0 1 3 0 -1 1 0 1 1 0 0 1 1 1 0 1 -1 0 1 -1 0 3 0 1 1 0 1 1 0 1 2 3 0 1 1 1 -2 4 0 -5 0 5 1 0 1 -2 0 -1 0 0 1 -1 1 0 1 6 1 1 1 1 1 1 1 1 1 1 0 0 -1 1 2 3 1 0 -3 0 5 1 0 1 0 2 1 1 1 1 1 -1 0 1 1 1 1 -1 0 0 0 2 1 2 3 -1 0 -1 0 1 1 -1 0 0 -1 -1 2 1 0 0 1 0 -1 0 1 1 0 1 1 0 0 1 0 0 0 0 1 1 1 1 1 0 2 1 -1 0 1 3 1 3 0 0 -4 1 0 0 1 1 4 1 1 1 0 0 4 -1 1 1 0 2 -2 0 1 0 1 1 0 1 -1 1 1 5 10 21 27 33 42 47 55 62 64 74 79 82 88 93 94 99 101 102 103 103 106 109 112 115 116 115 116 108 119 121 122 123 124 124 118 128 124 127 130 132 121 121 134 135 137 137 138 136 140 142 143 136 141 145 145 147 146 146 148 149 149 150 152 153 152 152 143 153 156 155 157 155 159 159 159 160 159 160 161 160 163 162 163 164 163 163 163 164 159 166 166 166 167 167 167 163 168 169 169 169 171 166 170 162 170 172 171 172 171 173 172 173 173 173 172 175 173 171 165 169 174 174 175 175 175 175 173 175 174 170 175 175 175 175 177 174 172 174 174 174 174 173 168 172 172 171 169 168 164 146 91 23 2 0 -1 2 0 -1 1 7 2 1 0 -1 0 1 1 -1 1 1 1 3 0 2 2 -1 1 1 3 0 0 1 -1 -4 0 0 0 2 -2 1 0 -4 0 1 0 1 -1 0 0 -3 1 0 0 1 0 1 1 1 1 -3 1 0 1 1 1 0 0 -1 1 1 -1 0 0 1 0 2 2 7 1 -2 -2 2 1 0 0 1 -1 -4 -1 1 0 0 1 0 1 -1 0 0 1 0 0 -1 -1 -3 0 1 1 0 1 0 -1 1 2 0 5 2 1 0 -1 0 0 1 -1 0 0 0 -1 -1 0 4 0 1 3 2 0 -2 0 1 -1 -1 0 0 2 0 0 2 1 0 1 0 -1 0 1 2 0 -1 1 5 1 1 0 1 0 2 0 2 0 1 0 -1 1 5 2 2 0 1 -1 -1 1 -1 1 1 1 0 -5 -2 2 -1 2 2 1 1 1 1 -2 -7 -2 0 0 -4 0 0 1 1 1 2 0 0 0 1 0 2 0 0 0 1 0 0 -1 1 1 1 -1 0 0 0 0 1 0 1 
-1 0 1 1 -1 2 0 -2 0 0 -1 1 1 -1 0 1 1 1 1 1 0 1 -1 0 2 0 -3 1 1 0 5 1 0 1 1 4 2 -3 0 1 2 0 2 2 0 -1 1 1 4 1 0 0 0 0 0 3 -3 0 0 -1 0 1 1 -1 0 0 1 2 1 -1 1 1 0 -1 1 4 1 -1 2 0 0 1 -3 0 1 0 1 0 0 -1 -1 0 0 0 1 1 3 -1 1 0 3 0 0 5 7 2 1 2 1 0 1 0 -1 1 0 0 1 0 0 1 1 1 0 1 3 1 0 0 2 1 1 0 0 0 0 1 3 1 -1 -1 -8 0 2 1 1 0 1 0 1 1 0 0 0 1 0 1 3 -1 1 1 2 0 0 -2 2 0 1 1 1 1 -1 -2 0 0 1 1 1 0 1 -4 1 -1 0 0 -4 1 0 -1 -1 1 2 1 1 0 0 1 0 2 1 0 2 2 2 1 0 -1 1 1 -1 1 1 -1 0 1 0 3 5 -1 0 0 0 -2 -4 -2 1 0 1 2 -1 0 0 5 3 2 -1 -2 0 1 0 0 1 0 3 2 1 1 0 0 1 2 1 0 1 1 6 1 0 1 2 5 2 1 5 13 20 28 38 44 46 61 67 71 77 83 88 91 96 97 97 100 104 97 106 109 111 112 114 114 117 118 119 120 122 122 124 126 125 127 126 128 130 127 133 134 135 135 138 138 138 141 142 138 140 145 145 146 146 147 148 148 149 150 151 151 146 150 153 154 155 156 155 156 157 158 157 158 160 160 161 160 161 163 162 163 163 163 157 164 162 166 165 166 168 167 167 167 166 165 168 168 169 170 169 157 155 167 170 172 171 172 171 172 172 167 172 174 175 174 174 173 167 162 173 175 173 174 174 175 175 174 174 174 170 174 172 173 161 164 173 172 172 171 171 170 168 169 166 150 133 67 10 1 8 1 3 -1 1 0 0 0 1 1 2 2 2 -1 0 0 1 2 2 1 1 0 1 -1 2 -1 1 0 1 0 1 -2 1 4 1 -1 -3 0 -1 1 0 1 0 0 -7 0 1 -1 0 0 1 2 1 1 0 -1 2 0 1 1 1 0 0 0 -1 1 2 1 0 1 0 1 1 2 4 1 1 0 2 2 1 2 1 0 0 -3 0 1 1 0 0 0 3 2 0 2 -5 0 -1 1 2 -4 -3 1 0 0 1 0 -1 6 1 1 0 0 0 -1 1 1 0 0 1 1 -2 -1 1 2 0 0 1 1 0 2 0 -1 -1 1 1 -1 2 2 -1 0 1 0 1 3 0 0 0 0 0 6 2 1 1 6 3 1 -2 -2 2 1 -4 0 0 2 0 1 0 0 0 2 1 1 1 -1 1 1 0 0 2 -2 -2 1 1 1 -1 -1 0 3 -1 -1 0 0 1 0 1 0 -5 5 1 1 -2 0 0 1 0 7 2 1 0 0 0 0 0 -4 -1 0 0 2 -1 1 1 2 0 -1 0 0 
-1 1 0 0 1 1 -1 -2 0 -2 1 0 -1 1 -1 -1 2 0 0 1 0 0 0 0 0 -2 2 1 0 3 1 1 0 0 0 0 0 -2 0 0 0 -1 1 1 0 0 0 0 -3 3 0 1 1 0 1 2 -1 0 1 0 -1 0 1 2 4 1 0 0 1 -1 0 0 2 2 0 0 -3 1 1 1 0 0 1 1 -1 0 1 -4 0 0 1 2 -1 0 1 1 1 5 2 0 0 1 0 1 2 1 0 0 1 0 3 -1 0 0 0 -1 1 0 1 0 5 0 1 1 3 1 1 1 0 2 0 1 3 0 1 -1 0 1 1 -1 -1 -3 0 1 0 1 5 -1 2 0 0 -4 0 2 1 0 0 2 0 0 -1 -7 -6 -1 0 -1 1 0 0 -1 0 1 -4 0 0 0 0 0 0 2 -1 1 1 0 -4 0 0 1 -4 0 1 1 0 -1 -1 0 1 1 1 0 0 2 1 -1 0 -1 1 2 2 1 -1 0 1 1 1 1 4 1 -1 -4 0 -4 -1 0 -1 0 1 1 1 1 0 1 1 1 1 0 1 2 1 1 2 -1 0 0 2 1 0 1 0 2 1 0 0 1 0 1 0 2 1 0 1 -1 4 8 4 6 19 27 37 45 53 60 66 73 78 83 87 85 93 98 93 92 103 104 107 105 109 111 112 111 116 118 120 120 121 122 123 125 122 129 129 130 131 133 134 130 136 139 136 140 141 141 142 143 144 144 145 147 146 150 148 149 150 150 151 151 154 153 153 156 156 153 157 156 158 159 158 159 158 149 160 162 161 163 163 162 163 163 164 164 167 164 166 167 165 167 168 168 169 169 169 169 169 156 150 151 158 169 170 172 172 176 172 171 173 173 173 172 174 174 169 172 172 173 175 173 174 173 173 173 168 174 173 174 172 173 167 171 172 171 171 169 170 162 159 166 156 118 43 6 1 0 7 0 -1 1 1 1 1 1 0 0 1 -1 1 1 0 -1 0 1 0 0 1 1 2 1 9 0 1 0 -1 0 2 0 1 1 1 1 -1 1 4 0 0 0 0 1 -5 -2 1 0 -3 0 1 0 1 -1 -1 1 0 0 -4 0 2 0 1 1 0 0 1 0 -1 -2 0 1 0 -4 1 -1 0 0 1 0 1 0 0 1 0 0 0 0 1 0 1 1 8 1 0 0 -1 -1 1 7 4 1 1 1 1 2 5 0 1 1 1 0 0 2 2 0 0 -1 1 -3 1 -1 0 0 1 0 1 -4 1 1 4 0 1 -1 0 0 0 1 0 1 0 1 1 2 0 2 1 1 0 2 2 0 -1 0 0 1 1 0 1 0 0 0 -1 0 1 0 0 1 2 0 5 1 0 1 -1 0 0 1 1 -2 2 1 0 1 0 0 0 0 0 1 1 0 0 0 -1 0 0 2 0 0 1 0 1 0 0 1 0 0 0 1 1 1 1 0 -2 -1 0 1 1 3 -1 -2 1 0 1 1 0 -4 
0 0 0 0 0 1 1 0 0 0 1 1 0 -4 -2 -5 -6 0 1 1 5 2 2 7 2 0 0 0 -1 1 0 0 0 1 1 0 -2 1 0 0 1 2 0 1 1 0 1 0 -1 0 0 0 -2 0 1 1 0 0 1 -2 1 0 1 0 0 1 1 0 0 0 -1 -5 -1 1 0 0 0 0 0 -1 0 0 1 -1 0 0 0 1 0 1 0 0 0 -1 0 1 0 0 -1 0 1 1 -1 -5 0 1 1 1 0 3 0 -2 1 1 0 -1 0 1 0 2 1 2 5 7 1 1 2 -1 -2 1 1 1 -1 1 2 5 2 2 6 0 0 1 0 1 2 0 0 1 1 0 1 0 -4 1 1 0 0 3 3 0 1 0 0 0 0 -1 0 0 -4 -5 1 0 1 0 -1 0 0 0 1 1 2 -1 2 1 0 0 1 0 -1 0 0 -1 0 -1 0 -1 -1 0 -2 0 0 1 5 0 1 2 0 1 1 1 1 1 0 -1 2 1 1 0 0 -1 0 -1 1 0 2 0 6 -1 0 4 0 -1 0 3 -2 0 1 1 1 0 1 2 1 0 0 0 0 1 0 -3 1 0 0 -1 1 -1 0 1 1 1 0 -1 0 0 1 0 3 4 17 29 40 48 55 61 68 73 77 83 84 91 94 97 100 100 103 105 107 108 110 112 114 115 117 119 121 122 122 124 124 127 129 130 131 132 134 134 134 136 129 139 139 141 136 141 144 140 144 147 147 147 150 149 149 146 151 152 154 153 148 153 155 155 156 151 158 155 158 153 144 142 159 161 160 162 163 162 162 164 164 164 163 165 164 166 166 166 167 168 167 167 169 170 169 168 169 168 159 169 170 171 171 168 171 171 170 173 173 173 172 172 174 172 173 173 173 172 173 173 173 172 161 172 173 167 173 171 172 171 167 168 169 159 165 165 162 147 94 27 3 0 1 0 1 1 0 2 2 1 -5 -3 1 0 0 1 0 -1 0 1 0 3 2 0 -3 1 2 0 1 1 0 1 0 2 -1 1 0 0 -1 1 1 2 1 0 0 0 1 -4 1 0 -3 3 -2 0 1 -2 1 1 0 0 0 1 1 1 1 1 0 1 3 0 0 -2 -1 2 0 0 1 0 0 -2 0 -1 -3 1 1 1 0 1 0 2 0 -2 3 2 0 1 0 0 0 -3 1 1 1 1 0 1 -1 0 0 2 1 1 0 1 0 2 1 1 1 -1 1 1 -1 0 1 0 0 1 1 4 1 1 1 1 1 1 0 0 1 1 0 -1 0 1 2 1 -1 0 -2 3 5 2 0 -1 1 0 0 -4 -2 -1 0 1 0 1 -1 -4 1 -1 0 -1 0 1 3 -2 1 1 0 -1 0 1 2 2 2 1 1 1 0 0 1 2 1 0 3 1 1 -3 -5 3 0 1 0 -1 0 -2 0 0 1 -1 0 1 1 3 1 1 1 1 -1 -4 0 1 1 0 1 0 1 -1 0 0 1 1 1 1 
1 0 1 0 0 -1 -1 1 -2 -1 -1 -2 -5 0 1 1 1 0 4 1 1 1 3 0 1 1 0 1 0 1 1 1 1 -1 0 0 0 -1 0 0 0 1 0 0 0 1 5 1 0 0 1 0 0 1 0 1 2 0 1 0 0 2 1 -3 4 4 0 1 0 0 -6 -1 -2 0 -1 0 -1 0 1 1 0 -1 -1 1 1 1 -1 0 3 0 1 1 0 0 1 0 0 1 -1 1 2 1 0 0 2 -1 -1 0 3 0 1 2 -1 -2 1 -1 -3 0 0 1 0 6 8 1 1 0 0 1 1 1 0 0 0 2 0 0 3 4 2 1 1 0 -2 0 3 2 1 -1 1 0 -1 0 -3 -1 0 2 0 0 0 1 -2 2 1 0 -2 2 0 0 1 0 0 0 -1 0 1 1 -1 2 0 0 -1 1 1 1 0 0 2 0 -5 1 -1 1 0 0 1 1 0 -1 0 4 1 2 1 0 0 1 1 1 0 0 -4 0 -2 2 1 2 3 1 -2 -6 0 0 0 -2 2 1 1 0 1 -1 -2 -3 0 1 1 4 7 5 0 0 0 1 0 2 1 0 0 0 1 1 1 -4 1 0 0 1 1 0 1 1 -1 0 -1 0 2 1 0 0 3 12 22 34 44 53 56 63 69 75 78 86 89 93 95 98 99 101 103 105 106 107 112 112 113 115 117 120 122 119 118 119 128 128 129 132 132 133 135 135 133 137 137 140 140 141 142 143 144 142 147 146 146 147 144 148 143 150 151 151 152 153 154 149 155 156 157 157 158 157 153 158 159 160 160 162 162 161 162 163 164 163 165 164 165 165 161 165 167 166 168 165 168 169 167 169 168 169 169 170 170 163 170 168 170 164 167 171 172 172 172 172 172 173 173 171 168 172 172 171 168 172 171 171 171 170 171 171 170 168 165 166 159 164 148 156 107 67 14 2 1 3 1 0 2 2 0 -4 1 3 0 -5 -1 1 0 0 0 0 0 1 0 -1 3 0 2 1 0 2 7 0 -1 1 2 0 -1 -1 2 1 2 2 1 2 -4 0 1 2 -4 0 0 1 0 1 0 0 0 0 1 0 4 0 -1 1 1 -1 2 0 0 0 0 1 1 0 1 3 -4 0 0 1 0 0 1 0 -2 0 -1 1 0 0 1 1 4 -1 -1 1 0 -5 -2 1 -1 0 0 0 3 -1 -1 -2 1 1 2 0 0 -8 0 1 1 1 -1 4 1 0 2 1 -1 0 0 0 1 0 0 -1 2 0 0 0 1 0 1 0 2 0 1 -5 1 1 0 1 0 0 1 -1 0 0 0 1 0 -1 1 0 2 1 1 2 1 -1 1 -1 -1 0 0 -1 -1 0 1 1 2 -1 2 0 0 1 0 0 0 1 2 1 0 1 0 1 0 -1 0 2 -1 0 0 1 1 -1 0 -1 1 2 1 1 -1 2 1 1 1 4 -4 -3 1 1 0 -3 0 0 1 0 1 -1 1 1 -1 1 3 2 1 4 
0 0 0 0 0 1 0 0 0 1 2 2 -6 0 -3 0 0 -1 -1 1 -1 -1 1 0 -5 0 1 0 -6 -1 1 1 2 0 2 -1 0 0 1 0 1 1 1 0 -1 0 0 -1 0 0 -1 0 0 3 1 -1 2 -1 3 0 0 1 0 0 1 1 -1 -3 2 -1 -1 0 0 0 0 1 0 0 -2 2 1 0 0 2 0 1 0 0 -1 0 1 1 1 0 2 1 1 1 0 -1 0 0 0 0 0 -2 1 0 1 1 1 0 0 -1 0 0 -1 -1 0 0 0 0 4 6 5 0 0 -1 -1 0 -1 5 2 0 0 0 0 0 0 0 1 5 1 1 0 1 0 0 2 1 2 -1 -1 1 2 -1 1 -1 -1 3 1 1 0 1 0 0 1 1 2 0 1 1 0 0 0 0 1 -1 0 2 1 1 0 0 0 2 -1 0 0 -2 1 1 1 0 1 1 -3 1 0 2 1 0 0 0 3 0 0 0 0 -4 0 -1 1 0 1 2 0 1 1 1 0 2 2 0 0 0 -1 0 2 -1 1 -1 2 -1 0 0 1 1 1 0 -1 0 0 -1 2 1 0 0 2 0 0 0 1 0 2 0 1 0 1 2 0 0 0 1 1 -1 0 -1 2 7 4 14 29 39 47 55 61 67 71 77 82 86 89 94 96 94 98 101 103 106 108 108 111 114 116 118 120 120 122 124 124 127 129 129 130 129 131 129 137 137 139 140 139 142 141 142 142 144 145 144 142 149 148 148 143 145 151 145 152 153 154 155 154 155 154 148 158 159 158 158 159 159 160 160 161 162 162 158 163 164 164 163 162 164 163 165 157 162 165 167 167 168 168 161 167 167 169 169 170 170 170 170 171 170 168 169 169 170 170 172 172 171 172 166 170 170 172 171 164 169 164 170 170 170 172 168 168 167 158 164 163 157 127 113 47 6 0 1 3 1 1 1 -1 0 0 1 0 -3 -1 -1 1 1 -1 0 1 -1 -5 -1 1 0 0 1 1 1 1 5 2 0 0 0 0 1 2 0 2 1 0 -1 1 0 0 0 -1 0 0 3 1 0 1 -1 -2 1 -1 1 0 0 0 -2 0 -1 0 0 0 0 0 0 -2 -1 1 -1 3 2 0 0 0 1 0 1 0 0 0 2 2 1 -1 1 2 0 1 0 1 -1 0 -1 -4 -1 1 1 0 0 0 0 1 0 0 -2 1 0 -4 0 2 1 -3 1 2 1 0 1 1 0 0 0 0 0 1 0 1 -2 3 0 0 0 -1 1 0 1 -1 2 0 1 -1 1 0 0 -3 0 0 0 0 0 2 0 0 1 0 1 1 0 1 -4 0 3 1 -1 1 0 1 1 1 1 2 6 5 3 2 5 0 1 2 1 0 -2 1 0 2 -3 1 2 0 0 2 -1 1 0 3 1 0 0 0 1 0 1 0 1 1 1 1 -4 0 1 -1 2 1 0 -1 0 1 0 1 0 -1 -1 -1 0 2 -1 0 0 0 0 
1 1 0 1 0 5 0 1 -1 0 1 0 0 -4 -6 0 1 0 -1 0 -1 0 0 -1 1 0 0 0 -2 0 1 1 1 -1 0 0 0 1 1 2 -1 0 1 3 2 1 1 0 0 0 -4 1 0 -1 -1 0 -1 2 0 -2 0 0 1 1 1 0 1 0 1 0 0 0 2 0 1 2 0 2 0 0 -1 1 2 1 0 -1 -8 -2 -3 -2 1 2 1 -1 0 1 0 2 0 0 0 1 0 0 -1 0 0 1 0 -1 -1 0 0 -1 0 0 0 0 0 0 0 1 1 1 1 0 0 2 0 -1 0 1 1 -1 0 1 -1 1 1 -1 0 1 1 0 0 0 1 0 0 0 0 0 1 1 1 0 1 0 2 1 0 0 0 -1 0 0 4 3 1 0 1 0 2 1 1 -2 -1 0 0 5 0 1 -4 1 -1 -1 -2 0 0 1 1 1 0 -1 2 1 -3 1 0 2 0 -1 0 0 0 1 1 6 0 -6 0 1 1 2 1 1 0 0 0 1 1 -1 0 1 0 2 1 2 4 0 0 1 -3 -3 -1 0 0 1 0 0 1 1 -1 2 2 -1 0 1 0 1 1 1 4 -1 0 0 1 -8 0 2 5 1 0 0 0 1 2 1 0 2 0 1 7 22 36 45 53 59 65 71 74 79 84 88 91 93 98 99 101 99 97 99 108 112 114 115 116 116 120 111 124 126 126 126 129 132 133 133 135 136 137 136 139 140 136 140 142 144 143 144 145 144 147 149 148 150 150 151 151 146 152 153 154 155 154 145 157 157 158 159 157 160 160 159 161 161 162 161 158 163 160 161 164 163 164 165 165 166 166 161 166 167 160 168 168 168 167 168 167 166 169 169 166 155 159 169 168 157 169 169 162 169 171 170 169 163 170 171 169 169 168 170 160 167 166 167 166 164 162 159 152 109 73 21 3 1 5 1 0 0 -1 1 0 0 1 1 1 0 2 1 0 -1 0 0 -2 0 1 -3 1 1 1 0 -1 -1 1 0 -2 1 -1 0 0 0 1 1 2 -1 1 1 -5 0 0 -1 1 0 0 1 0 -3 0 0 0 0 3 1 2 0 1 0 0 1 1 4 -4 -3 -1 2 0 0 0 1 0 1 0 1 0 0 1 2 1 1 1 1 1 0 1 1 -1 1 1 1 1 2 1 1 0 -7 0 0 0 -1 -1 0 0 1 6 0 0 1 0 0 1 4 0 2 1 0 1 1 3 1 1 0 -1 0 1 0 -1 1 0 -2 0 0 1 0 -1 1 0 0 0 0 -1 0 1 0 1 -1 1 2 0 1 -2 1 -1 0 0 0 0 1 -1 -1 0 0 0 1 1 1 1 3 0 1 2 4 1 -3 0 1 0 3 -1 0 -4 -3 1 -1 5 2 1 1 1 -7 -1 1 0 0 -1 0 3 1 1 1 0 -5 2 0 2 0 0 1 0 -3 0 2 5 1 1 1 0 0 1 0 1 0 0 -5 -1 1 0 1 0 0 
2 -1 -2 1 2 1 1 1 1 1 -1 1 0 -1 0 1 2 0 1 7 8 0 -5 -1 1 0 0 0 2 -1 0 1 1 1 1 -1 -3 1 1 1 0 1 1 1 1 1 0 0 1 1 0 0 0 0 -1 0 -2 0 0 1 1 0 0 0 0 -1 0 1 2 -1 -1 2 -1 1 2 -5 1 1 0 1 -1 1 0 -1 1 -1 1 0 0 0 3 1 0 0 2 1 1 1 -2 0 3 1 0 0 -1 0 4 2 1 1 2 1 0 1 0 0 0 0 1 1 -2 1 0 2 0 0 -1 0 0 1 0 1 -1 1 0 0 0 0 1 2 -4 -1 0 1 5 1 0 1 -2 -1 1 1 0 2 1 -1 0 1 0 0 -1 1 0 0 1 1 5 1 1 -1 1 1 1 1 0 0 0 -1 1 1 0 0 0 1 0 1 0 -1 1 0 2 0 1 1 3 2 1 1 0 0 3 0 1 0 0 -1 1 1 0 0 -1 0 2 1 5 2 2 0 0 -1 -4 0 0 1 0 0 0 1 1 0 -1 0 -1 0 0 1 1 0 -1 0 -3 0 6 1 4 1 1 0 0 2 1 1 0 1 0 0 0 1 0 1 2 1 1 1 0 0 0 1 0 1 0 1 1 12 16 29 40 52 59 63 70 73 79 82 86 89 92 96 97 99 102 105 107 110 107 113 115 116 120 122 122 124 117 121 128 129 131 132 135 135 136 136 131 126 133 140 142 143 143 144 145 145 144 148 149 144 149 150 151 151 150 145 153 154 154 147 155 156 156 155 158 159 159 160 161 161 161 161 162 163 158 163 164 163 164 165 165 161 164 166 166 166 165 166 167 168 167 168 167 167 167 168 168 153 166 161 151 152 167 169 161 169 169 169 163 169 167 167 170 168 168 167 166 158 164 164 163 140 124 137 101 38 7 0 -1 0 1 0 0 0 1 1 1 2 1 1 0 0 1 0 0 0 3 0 1 0 1 1 1 1 0 -1 0 1 -5 -1 0 -1 -1 0 1 2 1 1 0 2 0 0 0 0 0 0 0 1 1 6 1 0 1 1 0 6 1 -1 3 -1 1 2 0 2 0 0 0 1 1 1 0 0 0 0 0 6 1 1 0 4 1 2 0 1 2 1 3 1 0 1 3 1 0 1 1 0 0 -1 -1 -1 0 0 0 -1 -1 0 0 0 1 0 4 2 0 1 -1 -1 1 0 1 0 -1 -1 -1 0 0 1 1 0 0 1 1 1 1 0 0 -2 0 -1 0 -1 2 1 0 1 -1 0 1 0 0 1 -1 1 1 0 -1 -1 0 -1 1 1 0 1 2 1 -2 0 0 0 1 0 0 1 1 0 0 0 0 0 0 1 -1 -1 2 1 0 4 0 1 1 0 1 0 1 -1 -1 1 1 1 2 1 2 -1 -1 2 0 1 0 1 1 1 5 1 1 1 0 0 -1 1 4 0 1 1 2 0 1 1 -4 0 1 4 0 0 2 -6 
1 1 1 1 1 1 1 1 0 1 1 1 0 0 4 2 1 1 1 2 1 1 -1 0 0 -1 0 -2 0 1 1 2 2 0 1 -1 0 1 0 1 0 4 0 -3 0 2 0 0 0 3 0 1 0 1 1 -1 2 1 0 -1 0 1 0 2 0 0 2 1 0 0 1 2 0 0 1 -3 0 -1 1 0 0 1 1 3 3 1 1 1 2 1 1 0 5 0 -6 -7 0 1 1 2 3 0 0 0 0 2 0 0 1 0 0 1 0 0 0 0 1 0 0 2 -1 0 1 1 0 0 1 -1 -3 0 0 -1 1 -1 -1 0 1 0 1 0 0 1 0 1 1 1 2 1 -1 0 0 0 1 0 -1 2 0 -1 0 0 1 0 0 -1 0 0 1 1 1 1 0 1 1 1 1 0 1 -3 -1 0 0 0 -1 1 1 -1 0 0 0 1 1 1 2 1 0 1 0 1 1 1 1 6 0 1 0 -2 0 0 0 2 1 1 2 -1 3 1 1 7 1 2 0 0 0 1 0 0 0 0 0 0 0 0 -1 0 1 2 1 -1 0 1 -1 0 1 3 1 1 0 0 0 1 0 -1 1 1 2 -1 -3 1 2 1 1 -1 0 -1 -1 2 -1 -1 2 0 1 0 1 2 2 17 21 35 48 57 63 68 73 77 81 84 82 90 94 92 99 104 106 105 106 112 115 115 117 120 121 122 123 126 126 129 130 131 131 133 135 135 134 138 139 139 141 141 135 142 144 144 146 145 141 147 147 148 140 147 143 152 153 153 153 151 155 155 156 155 155 150 154 159 159 159 160 160 161 162 154 162 163 163 164 163 163 164 164 166 165 165 166 166 168 166 167 166 167 166 162 167 157 166 168 167 156 156 169 168 166 167 167 168 167 167 167 166 166 167 168 166 164 162 151 159 137 136 79 50 11 2 -1 2 0 0 1 0 0 0 1 0 0 0 1 1 0 8 1 -2 1 0 0 0 -1 -2 -1 0 0 -6 0 -3 1 0 -1 0 0 -2 -3 0 1 0 0 -2 0 -1 -1 1 0 0 0 0 -1 1 2 8 1 -1 2 3 1 0 1 4 2 1 1 0 4 0 -5 0 -1 0 -2 1 1 -1 1 0 0 2 -1 0 1 1 0 0 -1 -1 1 0 1 1 1 0 -5 -1 1 1 1 0 -1 0 0 2 1 0 1 -1 1 1 1 0 1 1 -1 0 4 1 0 1 1 0 0 0 1 1 -1 0 0 3 0 0 -4 0 1 1 0 0 2 0 -1 1 0 0 1 0 0 -1 0 1 1 0 1 0 1 -1 1 0 0 2 2 0 0 0 1 0 0 -2 1 0 0 0 -4 0 -1 1 1 1 -2 -3 0 -2 1 1 1 1 2 0 0 0 0 0 0 0 7 3 1 1 2 0 5 0 1 1 -1 -1 -1 0 0 0 1 0 -3 -1 0 1 1 0 -7 0 2 4 3 1 3 0 2 1 0 1 0 0 0 1 -1 -3 2 -1 
0 -3 -4 0 -1 0 1 2 1 1 1 1 -1 1 0 1 1 1 0 0 0 1 0 4 2 0 0 0 -1 1 1 2 1 -2 0 0 1 0 2 0 0 1 0 0 0 1 0 1 6 0 1 1 0 1 -2 -1 0 0 -1 0 0 0 1 0 0 0 1 1 1 1 2 1 1 0 0 2 0 0 1 2 1 0 0 0 1 0 0 2 1 2 0 1 -1 -1 -1 0 -1 2 4 1 -2 0 1 1 0 0 0 1 1 1 -2 1 0 0 1 0 -1 0 0 0 -3 0 3 1 0 1 4 2 0 0 0 1 -1 -2 1 -1 3 1 0 0 0 1 -1 1 5 1 0 0 -3 -1 0 0 1 0 0 1 -1 2 1 1 0 -5 0 1 0 0 0 -1 1 0 -1 0 0 1 0 1 1 -1 -1 1 1 -1 2 1 1 1 0 0 -1 1 0 0 2 1 0 0 0 -6 0 0 4 1 -5 -7 0 1 0 0 1 0 0 0 -1 -1 0 4 0 0 1 6 0 1 0 0 0 3 1 1 -1 1 1 -1 0 -6 1 1 0 3 0 -2 1 0 1 0 0 1 0 1 1 1 6 2 5 1 -1 1 0 1 3 1 1 0 2 0 0 5 0 1 1 4 0 1 0 -6 1 9 14 13 27 42 53 58 65 68 75 78 82 88 87 92 94 97 96 97 106 109 111 112 116 109 118 121 122 119 124 126 129 130 132 131 133 130 130 135 138 137 134 140 140 132 130 133 142 146 143 147 148 142 147 150 148 142 147 152 154 153 155 155 155 150 154 156 158 157 159 158 165 159 159 161 161 162 162 159 162 162 160 162 164 165 164 165 164 166 167 165 166 165 167 168 163 167 162 166 167 167 167 167 168 166 167 166 167 167 167 166 164 167 167 164 163 163 161 143 153 140 102 49 11 1 1 2 1 0 0 1 0 1 1 3 1 2 1 -1 0 0 1 0 0 -7 1 0 0 0 1 0 0 2 1 0 -2 0 0 1 0 -1 -5 0 -1 1 1 1 0 0 1 1 1 -1 0 0 0 1 2 1 1 1 2 -2 0 -1 0 1 1 0 1 1 0 1 0 1 2 0 1 3 1 1 0 0 2 -1 -1 1 1 2 -1 0 1 2 0 2 0 -1 0 0 1 -1 1 0 0 1 2 0 -1 1 0 -1 1 0 0 1 0 0 1 -3 0 -1 -1 0 0 -2 0 1 2 0 0 0 1 1 2 1 2 2 0 1 -2 -3 -1 1 3 2 -1 1 2 1 1 1 4 1 1 1 0 1 -1 1 0 2 1 1 0 1 0 0 0 1 -1 -1 0 -5 -8 -2 1 0 0 0 -4 0 1 -1 0 1 1 -1 0 -3 -1 0 2 2 1 0 -1 -1 1 6 1 0 1 3 0 1 1 0 1 1 0 0 -4 -1 -1 0 1 0 1 1 4 -2 0 1 1 1 -1 0 0 2 5 2 0 0 1 1 5 0 0 1 0 0 1 1 0 -4 
-2 0 0 -1 0 1 4 1 0 1 1 0 1 0 1 4 0 1 0 3 3 2 1 0 0 1 6 1 0 0 0 1 2 0 -1 2 2 -1 2 0 1 0 -1 0 3 0 0 1 0 1 1 1 4 1 1 -1 1 0 0 1 0 0 0 1 -1 0 -2 0 -1 0 1 0 0 0 2 1 1 0 -1 1 0 1 -1 0 0 -3 0 0 2 1 2 -1 0 1 0 0 -2 0 5 0 -1 1 -1 1 0 1 0 2 1 0 -6 -6 0 2 0 0 0 -3 0 0 0 1 1 1 1 0 0 2 0 1 -2 0 4 -1 1 0 0 0 0 0 0 0 2 0 0 0 1 2 0 1 2 0 1 0 0 0 2 1 2 0 -3 1 0 2 -1 0 -2 0 0 -3 2 0 0 1 0 0 -1 0 0 0 0 0 1 0 0 0 -1 -1 -1 1 2 1 0 2 0 3 -1 0 0 1 0 0 -2 -9 -4 1 1 1 -1 1 1 -1 0 0 1 1 0 1 4 1 0 1 0 1 1 0 0 0 0 0 1 -1 1 1 1 1 0 1 0 0 0 1 3 0 0 0 0 1 0 2 1 1 1 1 -1 -2 -1 -1 3 1 0 1 0 1 0 0 2 -1 -1 0 1 0 1 0 -1 2 1 3 10 18 30 39 53 61 66 71 75 80 85 79 79 93 96 98 102 105 108 105 112 114 117 119 117 121 123 125 126 128 129 130 131 133 134 135 136 137 138 132 139 141 140 135 144 145 145 146 147 148 149 149 150 150 150 152 153 152 151 154 155 155 156 157 155 156 157 157 159 159 160 159 162 161 162 159 161 162 162 160 162 164 164 163 157 165 164 163 164 166 165 166 166 166 167 165 165 166 167 163 166 166 164 165 162 165 165 158 165 161 163 162 161 159 151 115 106 66 12 2 0 1 1 2 1 2 1 -1 3 1 0 3 7 2 1 1 1 -1 -1 -1 0 -1 2 0 3 1 1 -1 1 0 3 -1 1 1 0 0 -3 1 -1 3 1 1 1 0 0 0 2 0 -1 4 1 0 1 0 0 1 0 1 0 0 -1 0 1 0 0 -1 0 1 1 0 2 0 5 2 2 -1 0 0 0 0 0 1 0 1 1 -3 -1 1 0 2 1 -4 0 -2 0 1 0 0 -1 1 1 4 0 -3 -4 -1 0 0 1 1 1 1 2 1 -1 0 1 -6 -1 -1 0 1 2 1 1 0 2 0 1 0 1 0 1 1 -3 -4 -1 -1 1 -2 1 2 -2 2 1 0 0 0 1 0 2 0 1 0 1 4 7 1 0 1 1 0 1 0 0 4 1 2 0 -3 -3 1 1 1 -1 1 0 0 1 1 -1 2 1 1 0 1 -1 1 0 1 0 1 0 -5 1 0 4 0 0 1 0 1 0 1 1 -1 0 0 1 1 4 1 1 2 -1 1 0 1 -1 1 0 -1 -3 0 0 0 2 -1 1 1 2 2 0 1 1 0 0 1 -2 2 1 1 
0 1 1 1 2 1 0 1 -1 1 1 1 0 2 -2 0 4 -1 1 0 0 1 0 5 2 0 0 0 1 -1 1 0 0 6 1 2 4 2 1 -2 1 1 0 1 0 0 1 1 1 0 1 0 1 1 1 1 1 1 0 1 1 0 0 1 1 2 1 8 -1 0 1 0 1 0 0 0 2 1 2 1 0 -1 1 0 0 -2 0 0 0 1 0 0 1 1 2 -1 1 0 0 1 0 1 1 0 0 0 -1 0 0 -1 -2 0 0 1 1 1 -1 0 0 0 0 -1 5 1 1 0 1 1 1 -1 1 1 1 0 1 -1 1 0 1 1 -1 -1 -2 -1 0 0 -1 0 1 2 0 0 0 0 1 1 0 0 0 1 0 0 2 0 -1 -4 0 2 1 1 -1 0 1 0 1 0 1 0 0 2 1 0 0 -1 -1 -2 1 0 0 0 0 2 0 1 0 -1 0 1 0 0 1 1 0 1 0 1 1 5 -1 -3 0 0 -5 1 4 6 2 2 1 4 2 2 0 0 1 -6 -1 1 0 1 5 1 2 0 1 1 0 -5 0 0 1 0 0 1 0 2 0 1 0 0 0 0 0 -1 1 1 -1 2 5 1 0 -1 0 2 -1 -2 1 0 2 0 -8 -6 -1 0 -1 -1 -1 1 0 2 16 20 33 42 45 59 66 72 76 72 69 78 91 95 98 94 102 97 109 112 110 116 117 120 123 123 125 127 127 128 124 131 131 133 133 136 137 136 131 138 140 141 142 143 144 144 142 146 147 148 147 150 151 151 150 151 154 154 154 153 150 156 157 156 157 158 156 159 154 158 160 160 160 160 162 162 162 158 162 157 163 155 162 163 162 163 164 165 159 165 165 165 164 151 155 164 165 165 164 166 164 165 164 164 162 158 156 160 159 156 152 140 105 55 33 4 2 3 1 1 1 1 0 2 0 0 2 0 1 -1 -3 0 1 2 4 1 0 -1 0 0 1 2 -1 0 1 1 1 1 0 1 0 0 0 0 1 1 5 1 -1 0 0 1 3 4 1 1 0 0 0 -1 0 -1 1 0 2 1 1 0 6 1 1 1 1 1 0 0 -2 1 1 2 1 -2 1 0 0 0 1 0 2 1 1 1 1 2 1 0 0 -1 0 1 5 2 0 0 1 1 -1 2 6 1 1 1 0 0 2 1 0 -4 0 -1 0 1 1 1 0 -6 -1 -1 1 -2 0 0 0 1 3 1 0 0 0 -1 1 1 1 -5 -4 0 1 1 -3 -1 -4 1 0 0 -2 -3 1 1 1 1 0 0 1 1 1 0 0 2 0 0 0 0 -1 -1 1 0 1 0 0 1 1 0 -1 0 2 0 -1 0 1 0 -1 -1 0 1 2 1 0 3 -1 0 0 1 2 0 1 0 0 -2 0 0 1 1 2 2 3 1 1 -1 0 1 0 1 -1 1 2 -1 1 0 0 1 1 2 3 0 1 0 1 0 1 1 0 -1 1 -2 0 2 2 1 1 1 
0 2 0 1 -1 3 1 1 -1 2 1 0 1 2 1 0 -1 0 2 1 0 0 0 1 2 0 0 1 1 0 0 0 1 0 0 1 -1 1 1 0 0 1 1 6 1 0 0 1 0 -1 0 1 0 0 1 1 0 6 5 1 2 0 1 4 0 -1 1 -1 0 -1 1 1 1 1 0 -1 1 0 1 1 0 1 1 1 0 -2 1 -1 -1 0 0 5 2 -1 0 0 0 0 -1 0 2 1 2 -1 0 0 0 -1 1 0 1 0 -6 -6 -1 1 1 1 1 1 1 0 0 5 0 1 1 -2 0 1 0 -1 0 1 0 0 1 1 0 0 1 1 -3 0 -2 -2 -4 1 0 0 2 0 0 1 0 -1 2 0 0 -1 -1 -1 0 0 1 1 6 2 0 -1 0 0 0 0 1 0 0 2 2 3 0 0 1 1 0 0 0 4 0 0 0 1 1 -2 1 1 4 5 2 0 0 0 0 0 1 1 1 1 1 2 1 0 -4 1 1 2 0 2 0 2 2 1 0 1 0 0 -1 -1 -1 0 -1 -1 1 2 1 0 0 0 0 0 1 0 1 0 6 4 1 0 0 2 3 -1 -1 0 0 1 2 0 -1 1 0 0 0 1 -1 1 1 -3 0 0 -6 -2 -3 0 1 1 -1 0 1 0 4 1 6 16 24 38 50 54 67 70 78 81 87 89 92 89 97 101 105 109 110 112 108 117 119 122 122 124 126 125 126 120 129 131 126 130 134 136 137 137 138 131 142 142 143 143 144 144 140 146 148 150 148 150 148 150 151 153 152 153 153 155 155 156 156 156 150 156 156 158 158 159 158 159 160 161 161 161 160 158 161 162 162 162 162 158 163 162 162 163 162 162 163 152 163 163 164 162 155 162 162 162 162 161 161 159 159 156 127 102 76 53 14 3 2 1 2 2 -1 2 0 2 0 1 1 1 4 -2 0 0 0 0 1 0 0 1 0 -4 0 2 0 1 0 0 0 0 1 2 0 1 4 1 0 0 0 0 1 0 -2 1 1 0 0 2 1 1 -1 0 0 1 1 0 1 0 4 1 0 1 0 0 0 0 -1 0 2 0 0 0 0 1 0 1 0 4 1 0 0 3 -2 0 0 0 1 -1 0 0 2 1 1 1 1 2 1 -2 2 1 1 2 0 1 0 1 -1 -1 2 1 0 0 1 2 2 1 2 1 0 -1 0 1 1 -2 -2 0 1 -1 1 5 1 0 0 0 1 0 0 0 2 -1 0 0 0 -2 1 -2 2 6 1 -1 2 2 2 0 -2 -2 -2 0 0 0 1 -1 0 2 0 0 -1 0 1 1 0 1 3 2 0 0 1 2 0 0 0 1 1 -1 0 2 0 1 0 1 2 5 1 0 2 0 0 2 1 0 0 0 -1 0 3 1 0 0 0 -2 1 0 2 0 0 6 -1 1 3 0 0 0 -1 -1 0 0 -1 0 0 -1 0 1 0 1 0 1 1 0 1 1 0 0 1 0 
-5 3 2 2 0 0 1 -1 1 1 0 1 -3 -2 0 1 0 1 0 2 0 -1 1 2 0 1 1 2 0 -1 0 0 0 1 0 -1 -2 1 0 2 0 1 0 0 1 1 -1 0 1 1 1 1 0 1 0 -1 -1 0 1 7 -1 0 2 2 0 1 0 0 0 -1 0 -1 0 0 0 1 2 5 -1 0 1 -1 0 0 1 2 1 1 1 4 1 4 0 3 2 0 1 1 1 0 0 3 1 1 4 2 4 1 0 -2 -2 -5 1 0 1 0 1 -2 1 0 0 0 0 6 0 1 -1 -2 0 1 0 0 1 0 0 1 0 0 0 -1 2 2 1 -1 1 0 -1 1 1 0 1 7 2 1 -1 -1 1 -1 0 1 0 0 -1 1 0 0 1 1 0 0 -7 -2 0 1 0 0 1 1 5 2 1 1 1 1 1 -1 1 2 0 0 1 1 1 1 1 4 1 1 1 -1 0 -1 0 -1 0 0 1 0 0 -1 -1 0 0 0 -1 1 -1 1 1 0 1 1 0 0 1 0 -7 -1 1 1 -1 1 6 7 5 -1 0 1 1 1 0 1 1 1 6 0 -1 -5 0 -4 0 1 0 0 1 1 0 -4 -3 1 0 1 2 0 -2 -1 0 -3 0 0 -1 0 3 1 -1 -2 0 0 3 0 3 -1 1 1 2 13 24 35 48 57 66 74 78 84 82 91 94 99 99 103 106 108 107 112 116 117 118 112 122 126 126 127 128 127 130 132 132 128 135 137 138 137 140 141 143 143 143 133 133 146 146 147 149 148 147 147 150 151 152 150 151 153 154 153 148 155 153 149 156 158 156 157 158 159 159 159 160 159 160 160 163 160 155 161 161 161 161 155 162 157 161 162 154 163 161 159 161 162 161 158 158 158 157 157 146 154 151 138 106 52 11 2 0 1 4 0 2 -1 1 0 1 1 0 6 4 3 8 2 0 0 0 0 0 0 1 3 0 2 1 2 -2 1 0 0 -2 0 0 -1 1 -1 -1 1 1 1 0 0 1 1 0 1 2 0 1 0 -1 -1 0 0 1 0 -1 0 0 1 4 1 1 1 -1 -2 -4 0 1 1 1 0 0 0 0 2 1 1 0 1 0 1 0 1 0 2 2 1 0 2 2 0 0 1 1 0 2 -2 1 0 7 7 1 1 0 -3 -8 1 1 0 1 1 -1 1 1 1 0 1 3 1 1 0 1 1 1 3 8 0 -3 0 0 4 0 1 2 1 6 1 -3 0 0 0 -1 1 2 0 1 1 0 1 2 0 2 0 -1 1 1 0 -1 0 -1 1 2 0 2 1 0 2 0 0 -1 0 1 0 2 -2 0 0 2 4 1 1 1 -1 2 -1 1 1 1 1 1 0 0 0 0 1 1 1 0 0 0 0 2 0 0 -1 1 -1 1 1 2 -4 0 0 1 3 4 1 0 0 1 1 0 0 -2 0 -1 0 0 0 0 -1 -2 1 1 0 1 1 0 1 0 -1 -3 0 3 2 
1 -1 7 1 1 0 2 0 1 0 1 -1 1 -6 0 0 -1 2 1 0 0 0 0 1 1 1 0 0 0 0 1 2 3 0 0 -1 0 0 0 0 1 1 5 1 0 0 0 2 1 1 1 1 -2 2 1 1 1 0 1 1 1 0 3 0 0 0 1 1 1 0 0 2 0 0 1 1 2 1 2 0 2 0 1 0 1 0 0 1 0 1 2 1 -1 0 0 1 1 -1 -1 0 -1 2 0 0 1 0 0 0 1 1 0 0 1 -1 0 1 0 1 1 0 -1 0 5 3 1 1 -1 1 0 0 1 1 1 -1 0 -2 -4 -1 0 0 1 1 0 1 0 0 0 0 2 1 -1 1 1 3 3 -1 -1 0 2 2 2 1 1 -1 -1 1 0 1 0 2 0 1 1 0 2 0 4 0 0 1 1 -4 -1 2 0 -1 0 1 4 2 1 1 0 1 -1 1 1 1 0 2 1 0 -2 0 0 2 0 -2 2 -1 -1 0 1 1 0 0 -1 -1 1 -1 1 0 0 -2 1 1 0 0 1 1 1 1 0 0 0 1 0 0 0 0 2 0 0 1 5 4 1 1 0 -6 1 1 1 0 1 -2 -1 1 0 1 0 1 1 -1 0 0 0 0 0 3 -1 -6 1 4 1 0 0 1 5 1 -1 0 1 -2 2 0 4 11 22 31 46 55 64 71 79 84 88 92 94 98 102 106 107 105 107 113 116 115 110 121 123 123 126 128 129 130 113 115 133 136 136 133 136 138 139 140 131 131 142 144 145 146 146 146 147 147 148 149 149 141 150 148 152 153 152 148 153 153 155 155 156 155 157 157 157 158 159 160 159 158 160 158 160 159 153 160 155 160 159 160 161 160 161 151 159 161 159 158 150 145 143 140 154 152 134 133 88 55 16 19 11 1 1 1 1 1 1 0 1 2 1 -2 2 1 2 0 0 0 0 1 2 1 0 0 0 2 0 1 0 1 0 1 0 1 1 2 4 1 1 0 0 1 0 2 1 1 1 0 0 0 0 0 1 1 0 2 0 -3 0 0 1 -3 1 2 1 1 6 0 0 0 1 1 0 0 0 1 -1 0 -1 2 1 0 0 0 0 -1 0 0 -7 0 0 -1 2 1 1 1 0 1 1 1 0 0 -1 -1 1 6 2 3 0 -1 -4 0 0 0 -1 1 -6 0 -1 1 0 -1 0 -1 -3 0 0 3 1 7 5 1 -1 1 -2 1 0 1 0 1 -5 -1 -1 -1 -1 0 1 -2 -1 -1 0 0 0 1 3 1 2 -1 0 2 0 -1 -3 1 1 0 1 0 8 5 0 1 0 0 1 1 0 1 -4 0 1 1 2 -1 2 0 0 1 0 0 0 0 1 -1 0 1 0 0 1 1 0 1 0 1 -1 -1 0 -1 -3 -1 2 0 0 4 4 -1 0 1 3 -1 0 0 1 0 1 2 2 0 -2 -1 0 0 1 0 0 1 -1 0 0 1 -1 0 1 -3 1 1 2 1 2 1 
0 -1 1 2 -1 1 0 0 0 0 2 0 1 0 0 -1 1 0 0 0 0 0 -2 0 0 1 -1 1 2 1 0 1 0 2 -1 0 0 0 4 -1 0 -2 0 0 2 0 1 1 -1 1 0 0 -1 0 -1 1 2 1 0 2 1 1 0 2 0 0 1 1 0 0 0 7 -2 1 2 1 -1 -1 -1 2 1 1 1 1 0 1 -1 1 1 0 0 0 0 0 4 0 1 0 1 -1 1 1 1 1 1 1 1 1 1 1 -1 1 0 0 1 1 2 1 0 1 1 1 0 0 1 -1 0 1 0 1 -1 1 0 -1 1 -1 -5 2 -4 0 -1 1 1 2 0 0 0 -3 -1 0 2 0 0 1 0 0 1 1 1 0 0 -2 1 0 1 0 0 1 0 1 6 3 1 1 1 1 1 1 0 -2 0 0 -3 0 -2 1 -1 0 0 0 0 0 1 3 1 1 -1 1 0 0 1 1 0 0 1 0 1 1 -1 0 -5 2 1 0 1 -1 2 1 1 2 1 1 0 1 0 0 1 0 3 0 0 1 0 1 2 0 0 2 0 -1 2 0 0 0 1 1 1 1 0 1 0 1 2 1 -3 0 0 0 0 1 2 -1 0 0 1 0 0 1 1 1 -3 -8 0 1 -1 0 2 1 1 1 0 0 0 1 2 1 -1 1 2 7 18 27 42 54 64 71 77 85 89 93 92 100 103 106 106 109 111 114 114 117 119 120 123 122 125 124 115 112 130 133 134 134 135 137 138 138 140 141 142 142 143 143 142 145 145 134 145 140 143 148 150 149 151 150 152 152 139 139 152 154 154 156 150 154 149 155 149 155 157 158 157 158 157 155 158 159 159 151 152 158 159 159 158 156 157 154 146 154 150 150 148 148 142 130 105 56 14 2 1 1 1 0 0 1 1 -3 0 0 3 2 1 1 -2 -1 2 0 0 -1 0 1 1 1 -1 1 1 0 2 1 1 0 -1 1 2 1 1 4 1 0 0 0 0 1 0 0 0 -2 -3 1 -1 2 1 0 0 0 0 0 -2 -1 -4 -1 -5 0 1 2 2 -1 0 0 0 1 0 5 0 -1 1 1 0 0 0 2 1 4 0 0 2 0 1 1 -2 -4 -1 1 0 5 0 0 1 0 0 2 0 1 -3 3 2 1 -2 -2 1 -1 1 0 0 1 0 -1 1 0 1 0 1 1 0 1 0 0 2 6 1 1 -1 0 0 1 1 1 1 2 2 1 1 0 1 1 1 1 1 0 1 1 1 0 -1 1 1 2 0 2 0 3 6 1 1 0 0 0 0 2 3 0 1 -3 1 1 0 -1 1 0 -4 0 0 2 1 1 1 0 -1 -1 2 1 2 -1 2 2 -1 1 1 0 0 1 0 1 4 0 1 1 -1 1 1 1 -1 -3 0 -1 1 0 0 1 0 1 0 -1 0 1 7 1 1 -1 1 0 -1 -1 0 1 1 1 5 4 1 -1 0 1 2 1 4 4 1 -1 0 0 
0 -1 0 1 -1 -1 0 -1 0 1 2 -1 1 0 0 0 0 1 2 0 -1 2 -1 0 2 0 0 0 0 0 0 0 0 1 0 1 -1 -3 1 -1 -4 0 1 0 0 1 0 0 0 0 1 0 1 3 0 0 1 0 0 0 0 0 1 0 0 0 0 0 0 0 1 0 2 1 0 1 1 -1 1 0 0 1 1 2 2 0 0 0 0 0 0 -2 0 0 1 1 -1 1 0 0 1 -2 1 0 2 1 0 2 -1 -2 -1 2 3 0 0 -1 0 0 0 0 -1 -1 0 -1 0 0 0 0 0 2 0 4 1 1 0 0 3 -1 0 1 0 0 1 -2 1 1 2 -1 0 -2 0 1 -1 0 0 0 1 1 -1 2 0 0 1 3 1 -1 0 -1 1 1 6 1 1 0 1 0 0 -1 -4 1 1 0 0 2 1 0 1 1 3 1 -1 0 5 2 5 1 0 0 1 1 0 0 1 1 0 0 1 0 -4 -1 0 1 1 0 1 0 1 1 2 2 0 -1 1 -1 1 0 2 0 1 5 1 -1 1 1 0 0 1 0 0 -1 0 0 -1 1 -1 0 -1 0 1 0 0 1 2 0 2 -1 1 -2 1 1 1 1 -3 0 0 0 0 -1 2 0 1 -1 -2 2 1 0 0 0 1 4 1 0 0 -1 0 1 0 0 1 1 1 6 17 29 41 52 61 69 78 83 88 93 97 99 94 97 106 109 110 112 115 115 112 119 120 123 124 126 126 129 132 132 128 129 135 136 131 140 139 134 141 143 142 140 144 144 145 146 146 147 149 147 145 148 144 150 138 137 151 152 153 155 155 150 154 154 155 155 156 155 156 156 156 157 155 156 156 157 156 153 156 158 153 153 149 153 151 148 143 115 125 104 76 47 39 5 -1 1 2 -2 1 1 1 1 -1 -2 0 2 1 0 1 0 0 0 0 2 1 1 0 0 1 2 0 -1 -1 -5 1 0 -1 0 0 1 6 1 1 -1 2 0 0 0 0 3 0 0 0 1 -3 -1 -1 1 1 0 0 6 1 1 -3 0 0 -5 -4 1 0 7 2 -2 1 1 2 -1 -1 1 1 -1 1 0 1 2 3 0 2 0 0 -2 -3 -3 0 1 2 1 0 0 1 4 0 -2 3 1 0 0 1 0 0 0 1 0 2 4 1 0 0 1 -3 1 0 -1 2 -1 0 0 1 -1 0 1 0 0 4 2 0 0 1 1 2 1 0 1 0 0 0 0 1 0 -2 1 0 5 0 0 2 -1 1 1 -2 1 1 1 1 1 1 -2 0 1 0 1 1 0 0 0 1 1 0 0 0 1 1 1 -5 -1 -3 0 0 -3 2 2 5 0 1 0 0 1 1 1 1 1 0 -1 -1 1 1 0 0 0 1 0 1 3 2 0 0 1 2 1 0 2 0 1 1 2 -1 0 1 2 5 -1 0 2 1 0 1 2 -2 1 1 1 -1 0 1 1 0 1 0 1 0 0 0 0 0 -2 1 0 
0 0 0 -4 0 1 0 1 0 0 -1 1 -1 0 1 1 0 1 0 1 2 2 0 1 -1 2 2 0 0 0 0 -1 1 1 0 0 -1 0 1 -2 -2 0 1 -1 0 1 3 0 3 0 -1 0 1 1 2 4 1 1 0 0 -4 0 -3 0 2 0 0 2 0 2 1 0 -3 -1 -1 1 1 1 1 1 0 0 3 0 1 1 0 0 0 0 1 1 1 0 -1 1 1 -1 0 1 8 1 -1 0 1 0 1 1 2 0 -3 0 1 1 0 -1 0 2 2 1 1 -4 -1 1 1 0 1 0 -1 0 0 1 0 -1 -1 -1 0 0 2 2 -1 2 0 1 2 5 1 0 4 -1 -3 1 3 1 2 0 0 4 0 0 0 -1 1 1 4 0 1 1 4 1 1 -1 1 -1 0 1 0 0 0 0 1 0 4 1 0 1 0 -1 1 2 1 2 1 0 1 1 2 0 0 0 0 0 -1 0 1 1 1 1 0 2 1 0 0 2 0 0 1 -2 2 -1 0 -1 0 0 0 0 0 2 1 1 0 0 1 0 -1 -1 0 -1 0 0 -2 0 0 -2 0 0 1 5 5 0 1 1 1 0 0 -1 2 0 1 1 -1 1 0 -1 0 2 0 1 2 1 1 1 -2 0 -3 0 -2 -5 0 3 1 0 1 2 0 2 1 -1 -1 0 1 0 1 9 12 25 37 43 59 68 76 76 85 80 93 97 96 95 105 109 111 108 102 117 118 113 114 117 124 125 128 124 124 131 133 135 134 138 139 138 135 140 142 141 142 146 143 144 145 146 146 147 146 148 142 147 149 150 144 150 153 151 153 152 150 153 152 153 152 153 154 153 154 154 154 151 155 153 148 154 147 152 152 150 146 140 131 99 93 64 38 14 3 3 0 0 1 3 0 0 1 1 6 1 0 3 1 -1 6 0 0 1 0 0 1 1 -1 0 0 0 -1 4 0 0 1 0 -5 1 0 1 1 0 1 -1 1 2 0 2 0 0 1 0 0 0 4 1 1 -4 0 0 -4 -1 1 2 0 -1 1 2 1 1 1 1 1 0 1 1 1 4 0 -1 1 1 0 2 2 0 0 -1 -1 0 3 1 -2 2 3 1 5 8 1 1 0 0 0 0 1 1 -3 -1 1 1 1 0 -5 1 0 1 5 1 1 -1 0 0 0 2 0 0 0 2 2 1 0 0 -1 0 1 1 5 0 0 0 1 -1 0 3 -3 0 1 4 1 0 0 2 1 -1 1 1 2 3 1 1 0 6 2 2 0 1 1 1 1 1 0 0 1 0 1 0 1 1 1 0 1 0 0 0 0 -3 2 0 0 0 0 1 1 0 0 1 0 0 1 0 0 0 1 1 -1 0 1 -2 0 1 1 0 1 -3 -1 0 1 -1 0 0 2 1 0 -1 0 1 1 0 0 0 0 0 0 1 1 1 1 1 3 2 1 0 3 1 0 0 -1 1 2 2 0 0 -4 0 0 0 -1 1 0 0 
3 0 1 1 0 0 0 2 1 1 0 0 1 2 1 0 0 1 1 -1 1 -1 -4 -1 -3 0 2 1 1 0 0 -2 0 0 1 3 0 1 1 1 -1 1 1 1 2 0 4 0 -1 0 0 0 1 1 7 2 0 5 8 3 2 1 0 0 0 0 -1 1 7 2 1 0 -1 0 0 -1 0 1 4 0 0 0 1 0 1 -1 0 1 1 0 0 2 0 2 4 0 1 0 1 0 1 1 0 0 0 0 -3 2 2 -1 1 1 -1 -2 1 1 1 1 0 0 0 0 1 0 1 -1 0 0 -1 1 1 0 2 1 0 0 0 1 -2 2 -1 -3 0 0 1 0 0 0 2 1 0 0 2 0 0 0 1 1 1 2 0 0 3 1 1 3 2 5 0 -1 -1 2 -3 2 0 1 4 0 1 0 2 -2 0 1 0 0 -1 -6 1 2 0 1 0 0 -1 -1 1 1 0 0 0 0 1 0 0 0 0 0 -1 -3 1 0 1 -1 1 1 0 2 0 0 -4 1 1 0 2 1 1 0 6 1 1 0 0 1 0 1 1 0 2 -1 0 0 2 1 0 0 1 1 1 0 0 0 0 0 0 1 -2 1 2 -1 1 0 1 0 0 0 1 0 4 1 0 2 0 1 -3 0 -2 1 0 0 0 1 0 2 0 1 0 0 0 0 1 1 1 -2 2 2 8 20 34 46 55 60 67 74 78 84 87 93 97 101 103 105 108 110 113 114 116 115 120 122 123 125 127 129 130 131 133 134 134 136 137 133 138 138 139 140 138 141 143 142 142 144 144 145 147 146 147 148 149 148 148 149 149 150 150 151 150 150 150 149 150 152 150 150 150 150 150 150 149 145 148 143 136 102 107 76 55 27 9 4 2 1 0 0 -1 -1 2 -1 -1 0 0 4 2 1 1 1 2 1 1 1 1 1 0 0 1 -1 -4 1 1 -1 1 0 1 1 0 1 0 0 1 -1 1 1 0 -1 0 1 0 0 1 1 2 0 0 0 0 0 -1 1 1 0 0 1 1 1 1 0 0 1 0 1 0 -1 -1 1 0 1 5 0 -1 -2 -1 1 0 1 1 1 1 -2 2 -1 0 -1 1 1 0 0 0 1 1 0 1 2 1 1 5 0 0 1 1 -2 -1 0 1 0 1 -1 1 0 2 1 1 1 1 0 0 0 1 1 1 0 -3 0 6 -1 1 2 0 -1 6 0 -1 0 2 3 -1 0 0 0 1 0 1 1 0 1 -1 -3 0 1 1 -3 1 2 4 0 1 0 1 0 0 -1 3 0 1 0 -1 0 0 1 0 1 4 -1 -1 0 1 1 2 1 0 5 1 0 0 1 0 -3 -1 0 1 0 2 1 1 1 1 0 -2 0 0 0 1 0 0 1 0 -1 0 2 0 0 -1 1 0 1 -3 0 2 2 1 1 1 1 0 1 0 1 -4 0 1 0 3 0 1 4 0 0 -1 0 -1 0 1 0 0 1 1 3 1 0 1 1 
-1 -3 2 1 0 0 0 -1 1 0 1 0 1 2 2 0 2 0 5 5 4 2 -4 0 1 0 1 0 0 0 1 0 2 -1 1 -1 0 4 1 1 -1 0 1 0 0 1 0 1 0 -1 0 1 2 1 9 2 0 1 0 1 1 0 -1 1 1 -1 -1 1 0 0 0 1 1 3 1 1 0 1 4 1 1 -1 1 0 0 -1 1 -1 0 0 1 0 1 -1 0 1 3 1 1 1 1 1 0 1 1 -1 -1 1 4 1 -1 0 0 -1 0 0 0 3 0 0 1 0 -1 1 2 -4 0 1 0 0 -2 2 1 2 1 0 0 1 -1 0 -1 -4 -1 0 4 8 3 -1 -2 0 1 1 3 -1 1 1 4 1 1 0 0 2 1 2 1 0 0 2 -1 -1 0 1 0 0 1 0 0 1 -1 1 5 1 -2 0 1 1 1 -1 3 -1 0 0 1 1 -1 -4 1 1 1 0 1 0 0 -1 1 1 0 1 -1 0 0 0 -1 -5 -4 1 -1 0 1 1 0 0 0 0 1 1 0 0 1 4 3 1 1 0 -3 1 2 0 0 1 0 0 4 1 0 1 0 0 -4 0 -1 1 1 1 1 1 0 0 0 -1 0 1 1 0 1 -1 2 1 2 -5 0 2 2 0 0 0 2 -1 1 -2 0 0 1 0 0 3 6 1 -1 0 0 1 1 -1 0 -1 1 1 4 12 28 32 42 50 58 64 72 76 79 85 86 93 93 102 106 103 110 113 115 118 117 119 124 124 125 127 128 130 131 132 133 133 134 136 135 136 138 138 140 139 140 140 141 141 143 145 145 144 140 143 147 147 146 146 146 146 148 147 146 140 146 146 147 145 146 147 144 144 142 132 121 102 77 48 20 5 3 0 1 0 0 1 1 0 3 8 1 1 1 1 1 5 1 1 1 0 1 0 1 2 2 1 1 0 -1 -4 0 0 -1 2 0 -8 0 1 1 0 0 1 0 1 0 -1 2 1 1 2 0 -1 2 0 0 1 1 2 0 0 2 0 0 2 2 1 2 2 1 0 4 4 -2 -1 0 0 0 0 -1 1 1 -3 -4 -1 1 1 0 2 1 0 -1 0 -2 0 0 1 0 1 -2 -1 1 0 0 0 2 0 0 4 0 0 1 4 0 1 0 0 1 -1 -3 1 1 0 0 0 2 1 0 1 0 0 0 0 -1 0 0 -1 0 -1 0 1 0 0 1 0 -1 1 2 7 1 0 -2 1 -5 -2 1 -1 0 0 -1 -1 0 0 0 -2 0 0 2 1 0 4 1 0 0 0 -1 1 0 1 0 -2 1 0 0 1 -1 -2 0 0 0 0 0 0 5 0 2 1 0 1 1 0 0 -1 2 -2 1 1 0 1 -1 -1 0 1 2 1 1 0 0 0 -1 0 1 1 0 1 1 1 0 -3 -1 0 0 -1 1 0 -2 -1 0 1 0 2 0 0 0 0 0 1 0 0 1 3 0 0 1 1 0 0 1 1 2 1 1 0 0 0 
1 -1 0 -1 1 1 0 -1 -1 1 5 6 0 0 0 -1 2 1 -1 1 0 -1 0 1 1 0 0 1 -1 -1 0 1 0 2 0 0 0 2 0 0 1 1 1 0 1 1 0 1 0 -1 2 1 1 3 1 0 0 1 1 1 1 1 0 1 1 -1 0 -1 1 0 1 2 0 0 0 0 1 1 0 1 2 2 -1 1 0 1 -1 -4 0 -3 -1 0 4 0 2 1 1 1 1 -1 1 2 0 0 0 0 2 1 0 0 -1 0 0 0 1 1 0 0 1 0 3 0 0 -1 0 3 2 0 1 0 -1 0 -1 2 0 1 0 -4 1 -2 1 0 -6 -1 1 1 0 0 0 0 0 0 2 1 1 0 1 5 1 0 0 1 0 1 0 1 0 2 0 0 0 0 1 0 0 1 1 4 -1 0 0 1 0 0 0 1 0 1 0 1 2 2 0 1 1 1 1 1 0 0 0 2 1 2 -1 1 2 0 0 1 -1 1 3 1 0 0 1 0 -1 0 0 1 0 1 1 1 0 1 0 1 2 1 1 0 0 0 1 0 0 0 1 1 1 1 2 0 -1 0 0 0 -1 -1 -5 0 3 0 -1 2 1 0 1 4 0 1 0 0 2 4 -1 1 0 2 0 1 -2 1 2 1 2 0 0 0 -1 -1 1 2 2 1 0 1 1 2 0 -1 0 1 1 0 1 1 6 1 4 21 20 30 40 48 57 64 71 76 82 87 92 95 99 103 107 111 113 114 118 120 121 123 120 124 126 127 129 128 130 131 131 135 133 134 135 126 137 137 138 140 140 140 140 142 142 143 142 142 142 142 142 136 142 131 134 140 141 140 139 132 138 133 126 94 91 63 37 15 18 2 2 0 0 -1 0 5 1 0 3 1 9 2 1 1 1 1 1 1 -1 0 0 2 0 0 -1 1 -1 2 0 0 2 0 0 0 7 -1 0 0 0 0 0 1 -3 0 0 -1 -2 -1 0 -1 0 1 1 0 1 -1 -1 1 0 0 2 0 1 0 1 0 1 1 0 1 1 1 2 0 4 3 -1 -1 0 0 2 1 0 0 0 0 0 0 1 1 0 1 2 1 2 0 1 0 0 1 -1 1 1 0 1 -2 0 0 1 1 2 1 0 1 1 2 0 1 1 1 0 -1 -1 1 1 1 0 -1 0 1 1 0 1 0 1 0 0 1 1 0 0 1 1 0 0 0 1 0 0 1 1 1 1 1 0 -1 -1 0 -1 1 0 1 2 3 1 1 0 -1 1 1 2 0 1 0 0 1 -1 1 1 0 1 1 0 0 2 7 0 1 0 1 1 0 0 0 0 2 0 1 0 1 0 0 2 0 1 0 -3 0 1 0 0 1 1 -4 2 0 -1 0 0 1 1 0 0 0 1 -4 1 1 -1 1 1 0 0 0 1 0 0 0 1 1 1 -1 -3 1 0 1 1 0 0 1 1 3 -1 0 2 0 0 1 0 1 2 1 2 1 0 0 
2 1 -1 0 -1 0 -1 1 1 2 0 1 1 -1 1 1 6 0 1 1 0 2 1 2 -1 -5 2 1 1 1 0 0 -3 1 2 1 0 0 -3 0 3 2 1 0 -1 0 2 1 0 0 0 2 0 1 1 0 0 0 -2 1 5 0 0 0 1 0 0 0 1 1 1 0 1 0 4 7 1 1 1 2 1 1 2 0 0 1 0 0 0 1 1 -2 1 5 0 4 1 2 1 1 0 0 2 0 -2 1 5 2 1 0 -1 0 0 1 0 0 1 1 0 0 0 1 3 0 1 1 0 0 2 1 0 0 0 0 1 -5 -1 0 1 1 -1 0 -8 0 -1 -6 1 0 1 1 2 -1 -1 0 -1 -1 0 2 5 1 -1 -1 0 -1 -1 -1 1 -1 0 0 1 0 1 2 1 0 1 -3 0 0 0 0 0 0 1 1 1 0 0 1 -1 1 1 4 2 0 0 0 1 1 1 2 -1 1 0 0 0 1 1 1 0 -6 0 1 1 1 1 -1 1 -2 -1 0 1 1 0 0 1 0 0 -1 0 3 1 -1 1 0 1 0 0 1 1 0 -1 0 0 2 0 -2 -4 1 0 1 1 1 0 1 1 4 2 -2 1 2 0 -1 -1 -1 0 2 1 1 0 0 -1 0 -1 1 1 1 -3 1 1 1 0 -1 1 2 3 0 2 0 0 0 0 2 -2 0 0 1 0 1 0 2 1 1 7 2 4 6 12 24 34 45 54 63 70 71 82 88 92 97 100 104 108 111 113 115 107 118 119 120 123 122 122 124 127 127 129 129 130 130 133 133 133 135 135 136 137 136 138 138 137 137 137 128 122 122 132 130 128 126 109 118 113 106 78 82 56 23 9 3 0 0 1 0 -1 1 0 0 7 6 0 3 1 1 0 0 1 2 2 1 3 1 0 -1 -2 0 2 1 1 2 0 0 2 2 3 1 -1 0 4 4 1 0 0 -1 -5 1 1 1 0 0 1 0 1 -1 2 0 0 1 1 0 1 0 -2 0 0 -1 1 1 1 -2 0 0 0 0 1 0 -1 0 2 3 0 -3 0 1 1 1 2 0 0 0 0 0 0 0 -1 0 1 1 0 -1 0 -1 1 0 0 1 1 5 1 0 0 1 0 1 0 3 0 1 1 8 3 1 -1 1 1 0 0 1 1 1 -2 0 -2 1 0 1 -1 1 0 2 -3 0 0 -1 0 1 -1 -4 0 0 0 1 2 3 -1 0 2 -1 0 0 1 2 -1 0 1 1 0 1 1 0 0 0 1 1 0 0 1 1 1 1 1 0 2 2 0 1 -2 0 0 1 0 0 -3 1 -1 1 1 -1 1 1 5 1 0 0 0 0 -1 6 2 -1 0 0 1 1 -1 0 -1 0 1 0 0 0 -1 1 0 1 0 4 2 0 0 0 -1 2 0 -1 1 -7 -2 1 1 2 0 0 1 1 0 1 1 1 3 -1 1 0 0 1 0 -4 2 -1 1 1 1 1 2 0 1 1 -1 1 
1 0 -1 0 1 5 2 8 4 1 5 4 1 0 -1 1 0 1 1 1 3 1 0 0 0 0 0 2 1 1 0 1 0 0 0 1 1 2 2 0 2 1 0 0 -1 -1 1 -1 0 1 2 0 0 0 1 2 1 1 1 2 0 2 0 2 -1 1 3 0 1 1 2 1 1 -1 0 1 0 0 0 -1 0 3 1 0 0 1 1 4 1 0 -1 2 1 1 1 1 0 2 2 1 1 0 0 1 1 1 1 11 5 0 -1 2 0 1 0 3 1 1 1 0 0 -4 -3 -5 1 1 1 2 1 2 2 7 0 1 0 0 1 0 0 2 0 0 0 1 0 -2 0 -2 0 1 0 0 0 -4 0 0 0 0 0 0 0 0 -1 -4 -1 1 1 1 1 1 0 1 1 0 1 1 0 1 6 2 1 2 3 0 2 0 0 3 1 0 1 0 1 7 2 0 -1 1 0 0 1 -1 1 0 1 1 0 0 0 2 1 -1 1 0 6 8 2 -1 1 0 1 1 0 0 0 1 0 2 1 1 0 0 1 2 -1 2 0 1 1 -1 0 -1 0 -1 0 -1 -1 0 0 -4 0 0 1 1 0 0 0 2 1 1 0 1 -2 -6 -6 -7 0 1 2 0 1 -3 1 1 -3 -1 0 2 2 1 2 4 1 0 0 1 1 0 2 1 1 0 -1 0 -1 2 0 1 1 1 2 1 1 0 1 1 0 -3 2 1 2 3 7 16 26 38 48 60 68 76 83 89 93 96 98 95 102 106 106 108 111 111 111 105 116 117 118 117 119 122 123 123 126 126 127 129 127 116 128 126 115 119 118 112 108 101 95 88 75 65 54 42 42 19 11 6 3 2 1 1 1 -1 2 1 1 1 0 1 1 1 -1 1 1 1 0 1 1 0 2 -3 2 1 1 1 1 2 0 1 1 1 3 2 2 0 -1 1 1 0 1 2 -2 0 1 1 0 1 0 0 2 2 6 1 2 -1 1 0 -3 1 -1 0 1 3 0 0 0 1 0 -1 -1 1 1 0 0 0 -3 0 2 0 -1 0 0 1 1 4 -1 0 0 0 0 0 1 0 1 -4 1 0 0 0 -1 1 1 1 0 1 -1 1 3 1 -1 0 7 -1 0 1 0 1 0 0 3 3 1 -1 0 1 1 1 -2 0 0 1 1 0 1 1 1 -1 1 0 1 0 0 1 1 1 -3 2 2 0 -5 -1 2 0 1 1 0 -3 2 -3 2 0 0 -4 0 0 -1 0 1 0 1 0 1 0 0 -2 1 6 4 1 0 0 2 0 0 1 1 1 2 0 0 0 -1 1 0 0 -5 1 1 1 1 1 1 -1 0 1 1 6 -1 0 0 1 0 1 1 0 0 1 1 0 1 1 1 2 1 0 1 1 1 1 0 0 1 0 1 2 3 1 -5 -10 -6 0 -1 -2 1 0 1 5 1 1 1 -1 0 0 -1 2 0 0 1 -4 0 0 0 0 0 1 1 1 2 2 1 1 
2 2 2 1 0 5 -1 -4 1 1 -1 0 1 1 0 1 0 0 1 0 0 1 0 -1 0 1 0 1 1 0 1 0 1 1 -4 2 0 0 2 1 1 1 1 0 0 1 0 -3 0 1 -3 0 2 0 -2 0 1 1 1 -1 1 0 -1 2 0 0 2 1 0 -1 0 0 0 1 1 1 1 3 0 1 0 1 1 0 1 0 0 0 1 1 2 1 0 1 1 0 0 3 0 0 1 1 0 1 0 0 0 5 5 1 2 0 -6 0 1 1 0 2 1 1 1 4 1 0 4 0 5 0 0 1 1 1 1 1 1 2 0 0 -1 1 1 0 1 -1 1 1 0 0 0 1 6 1 -4 -1 1 7 2 1 -2 1 1 1 0 0 -1 1 2 -1 0 -1 0 0 -1 0 0 -2 0 2 1 -5 -1 0 0 -1 0 1 2 0 2 2 0 2 0 1 2 1 2 2 -1 0 0 1 2 0 1 4 1 2 1 -1 0 -1 -4 1 1 2 0 0 0 2 -1 0 1 0 0 2 0 1 1 1 0 0 -1 0 0 -2 1 0 1 2 1 -1 1 1 1 2 1 1 0 0 0 2 1 1 -1 0 2 -1 2 1 -3 -3 0 -2 -2 -2 1 0 2 0 2 2 1 0 0 -1 0 -1 1 0 0 1 -1 1 1 -2 0 6 1 0 2 1 1 1 0 0 0 0 -4 2 0 1 4 -3 -2 0 0 0 2 0 0 0 1 1 5 1 4 9 18 29 41 50 57 60 64 67 71 73 76 78 81 83 71 87 79 94 95 96 90 101 105 105 99 109 109 105 86 96 91 82 67 63 51 40 30 20 12 6 6 3 2 1 1 1 5 2 0 1 0 1 1 0 4 9 2 0 1 1 -1 -1 -1 0 0 0 0 1 0 0 -2 0 1 1 1 0 0 1 0 -2 0 0 0 0 1 1 -1 1 1 1 1 2 6 0 1 0 0 5 1 2 0 2 0 1 1 1 4 -1 1 4 -4 -4 0 2 1 0 1 1 1 1 2 0 1 0 1 0 0 0 2 1 1 0 0 1 0 4 2 3 1 1 0 1 0 1 -2 0 1 0 0 1 0 0 0 1 0 1 0 -3 1 0 1 1 1 -2 1 1 0 0 0 1 0 1 0 0 -3 -1 0 0 5 1 1 1 2 0 0 0 -1 -1 0 0 0 -2 0 0 0 -1 2 0 0 1 -1 -6 -1 1 4 1 0 -1 0 0 -3 1 0 -1 0 1 1 -1 -1 2 0 1 0 -1 0 1 5 2 -1 4 0 1 0 2 0 1 1 1 1 0 0 1 -1 0 0 0 1 0 -1 2 0 0 0 0 2 1 1 1 1 0 0 1 0 -2 1 0 0 1 0 -4 0 2 0 0 4 1 1 0 0 -2 -1 -4 0 1 0 0 0 1 0 -5 -1 0 1 1 1 0 1 1 -2 0 1 0 1 0 -2 0 1 -1 -2 0 1 0 1 1 0 0 0 3 0 1 0 0 
0 -1 -1 1 5 0 2 0 0 1 0 -1 0 -1 0 3 -1 2 1 0 0 -1 0 1 2 0 0 0 1 2 0 1 0 0 -4 1 1 0 0 0 0 1 0 1 2 2 0 -1 0 0 1 -5 1 0 2 -1 1 1 1 1 0 0 -2 -1 1 1 0 1 1 1 2 1 1 1 0 -1 0 3 1 0 1 0 0 1 2 1 0 0 0 3 0 0 -4 -1 2 0 -1 -1 -1 1 1 2 0 2 0 1 0 -1 2 1 1 1 0 0 1 1 1 3 2 5 2 2 1 4 4 1 0 3 1 1 1 1 0 3 1 -1 -1 0 2 1 0 -1 1 3 2 1 0 0 1 1 1 1 -1 1 1 1 1 1 0 0 0 3 1 1 1 -2 0 -1 1 0 -1 0 -1 0 1 -1 0 1 1 -1 -1 0 1 1 2 1 0 2 0 1 0 1 -2 -2 0 0 0 -1 1 2 1 0 0 0 -1 1 0 -1 0 1 0 0 -4 0 1 1 0 1 1 -1 1 0 0 1 1 1 -3 1 2 1 1 0 2 2 -1 1 1 0 5 0 0 0 6 2 1 0 4 1 1 -1 -8 -4 -1 0 -4 1 0 0 1 1 -1 -3 1 0 1 2 -1 4 0 0 3 0 1 0 0 0 1 -1 0 0 -1 0 0 -1 3 1 1 1 5 0 1 0 2 0 1 1 0 1 0 0 -3 1 1 -1 0 0 -1 1 2 2 2 5 1 0 -2 -1 1 -1 0 3 3 3 4 5 7 7 8 10 12 15 18 20 22 28 39 33 37 40 42 46 49 51 54 52 48 38 28 19 11 8 3 4 3 5 2 -1 -2 0 -2 0 -3 -2 0 2 7 2 4 0 0 1 0 -1 1 1 2 0 1 0 0 0 0 3 1 0 0 1 1 0 0 1 1 0 1 0 0 -1 -2 -6 0 1 1 0 1 1 0 0 0 0 -1 1 -1 3 0 -1 1 1 2 0 0 -1 0 1 1 0 1 0 0 0 0 -5 0 3 0 1 1 0 0 1 2 -1 0 0 0 -1 -4 1 0 1 7 5 0 2 0 0 2 0 2 0 -4 -5 1 2 -3 2 1 1 1 1 0 5 1 2 0 1 1 -1 -1 -1 0 1 1 1 0 0 0 -1 0 2 1 1 1 1 0 -3 1 1 1 0 -1 0 -2 0 0 1 -4 -4 1 -1 1 0 -1 1 -1 1 1 -1 1 -2 0 1 -4 0 0 0 0 2 0 2 1 -1 1 -2 -1 0 -1 0 -2 0 -1 2 0 1 0 2 1 0 0 0 1 2 2 0 0 0 1 0 0 -4 -4 1 0 1 1 0 -1 -1 1 2 -1 -3 0 0 0 0 1 0 1 0 0 -2 2 0 1 0 1 0 2 0 0 -2 1 1 1 -1 -1 1 0 0 1 0 1 1 4 2 1 -3 0 1 1 1 1 2 -1 -1 0 1 0 -2 0 0 0 -1 2 0 -1 -2 0 1 0 1 1 0 1 1 1 2 1 0 -2 -7 
0 1 2 0 2 2 2 0 1 2 1 4 1 0 0 3 0 0 1 0 0 0 0 0 -1 1 -2 1 -1 -3 1 -1 0 -1 0 -1 0 1 0 1 1 0 1 1 1 2 1 1 0 0 1 1 -1 2 -4 0 2 6 1 1 0 5 0 0 0 1 -1 2 1 0 1 1 1 1 2 2 1 1 0 0 1 0 -3 0 1 5 0 -1 0 1 1 1 1 0 2 0 1 -6 0 0 0 1 0 0 -6 0 0 -1 0 0 0 -3 -2 -1 0 -1 0 2 5 2 -1 1 -1 1 1 0 -3 1 1 0 0 2 0 -1 1 0 0 0 -3 1 1 1 0 2 3 0 0 1 1 0 2 2 1 1 4 1 0 -4 -4 0 1 1 1 0 0 -9 0 1 0 0 2 1 0 -1 1 1 1 -1 0 2 1 -1 1 4 2 -4 -4 0 0 1 1 0 1 -1 0 0 0 1 2 1 2 0 1 0 4 0 2 1 0 -1 0 -1 0 2 0 0 -2 -1 0 -2 1 1 2 0 1 0 -1 0 1 0 0 0 0 1 0 0 1 1 1 0 1 -1 0 0 1 1 0 0 2 1 -1 2 1 0 0 1 1 2 1 1 1 1 1 1 0 0 -2 0 -2 -1 2 1 0 1 0 1 1 -1 -1 0 -5 0 1 0 1 1 1 0 -6 0 1 1 1 1 1 0 1 0 1 1 2 -1 0 0 0 1 1 6 1 5 0 2 2 -2 -3 -1 -1 0 1 0 -1 0 0 -1 -1 -1 0 -1 -1 6 0 1 0 1 1 1 2 3 4 13 17 4 4 2 3 2 3 9 1 0 1 -1 1 4 1 0 1 1 2 1 1 0 -4 1 1 1 -1 0 0 1 0 0 0 1 -1 0 0 1 0 1 1 0 -3 2 0 0 2 0 -1 1 -2 -1 1 2 0 1 0 0 -1 0 2 0 0 0 0 -1 -1 -4 -1 -4 -1 1 0 0 0 0 0 1 0 -7 -1 -2 0 0 0 -6 0 2 0 1 0 1 1 2 1 0 0 1 0 0 0 0 0 2 0 0 -2 1 1 1 0 0 1 2 1 -1 1 1 1 -1 0 5 -1 0 1 1 0 0 1 0 0 0 -1 0 1 1 0 1 0 0 -1 2 0 1 0 0 0 1 0 0 0 -1 -2 -2 -1 -1 1 1 -4 0 0 2 0 0 -1 1 1 0 1 1 -3 -1 -1 2 1 1 1 0 0 1 -1 1 0 -1 0 0 -1 -1 2 2 1 -1 -1 -4 0 1 4 1 1 0 1 1 4 0 0 0 1 0 2 1 1 -1 0 0 2 1 0 0 0 1 2 1 0 -1 0 1 0 0 0 0 1 1 0 1 0 2 -1 2 4 1 1 0 0 -1 0 1 -3 -1 0 -3 0 0 1 0 1 1 -1 1 2 2 -1 0 0 1 1 2 0 1 5 1 0 2 -1 0 0 0 1 1 0 1 1 3 1 0 0 0 0 1 0 -1 -6 0 1 4 0 0 1 1 -1 -7 
1 1 -2 0 2 0 1 -1 -1 1 0 1 2 1 0 0 1 5 0 0 0 0 -4 1 1 4 1 0 0 1 1 1 0 1 0 -3 0 0 -3 0 0 2 -1 -1 0 0 0 1 -1 0 0 2 2 0 1 1 1 1 0 3 0 1 1 1 0 0 1 0 1 0 1 5 -1 -1 0 1 0 1 0 0 0 -2 0 1 1 5 1 0 -1 1 0 1 1 -7 0 -2 -1 -2 0 -1 1 0 0 1 -2 1 0 1 0 0 1 0 1 1 0 0 0 1 0 1 -1 1 -1 0 0 0 -1 0 1 1 2 1 2 -1 1 2 0 -1 1 0 0 0 2 0 -2 0 0 0 1 1 2 8 0 0 1 0 0 -2 -1 7 1 0 1 1 0 -1 -1 1 1 0 1 0 -1 0 1 3 2 0 -3 0 1 0 0 -1 0 2 1 0 0 1 0 0 0 1 1 0 1 -3 4 0 0 0 0 1 0 1 1 1 0 1 1 0 1 0 2 4 1 0 0 1 1 1 0 0 1 1 0 5 -1 0 0 1 1 0 0 1 1 1 0 -4 -1 0 3 1 -2 0 -1 1 -1 0 -1 2 1 1 5 2 0 0 3 -1 0 0 0 -2 0 0 1 -1 -1 1 5 8 1 1 7 2 0 0 -4 -1 -1 1 1 -1 1 0 0 4 0 1 -1 0 0 0 1 0 1 0 0 -3 0 0 -2 1 1 1 -1 0 3 1 -1 0 1 0 -1 0 0 -6 -3 1 0 4 -1 0 1 3 0 1 2 0 0 0 1 1 2 -1 0 1 4 0 0 0 1 -1 -3 0 4 1 1 1 1 0 1 2 0 2 0 0 1 2 0 0 0 1 0 1 1 1 0 0 0 0 0 1 2 0 1 1 1 1 -2 1 0 1 0 0 -5 1 1 0 1 0 3 1 -2 1 0 0 4 1 1 1 0 1 2 2 0 -4 -1 0 -1 1 -1 1 0 0 0 0 1 -1 0 1 0 1 0 0 2 0 1 1 2 3 1 1 1 1 1 2 2 1 1 0 -2 -3 0 0 1 0 1 -1 0 1 1 1 6 -1 1 2 1 1 -1 1 1 4 0 -1 -1 0 2 2 0 2 1 6 4 0 3 0 -1 0 0 0 0 2 1 1 0 1 0 0 -1 1 0 1 5 1 -1 0 -1 -1 1 2 -1 0 -1 1 0 0 2 3 0 -2 0 1 0 1 2 -3 0 2 2 -1 0 2 1 -1 1 1 1 -1 1 3 1 -1 1 0 0 1 -1 -1 1 1 1 0 -5 -2 1 1 0 0 0 -1 0 0 1 0 2 5 1 2 0 5 8 -1 2 0 4 0 1 1 0 0 1 0 0 1 1 0 1 -1 0 1 3 1 0 1 0 -1 0 1 1 0 0 -1 -2 0 0 1 1 1 2 1 0 0 0 2 1 -1 1 1 1 1 1 0 0 0 3 1 0 1 0 0 0 1 2 2 0 0 0 0 -1 -1 0 0 0 0 3 0 0 0 
2 -1 0 -1 1 1 0 0 -1 1 0 0 1 1 0 1 -1 2 1 2 1 1 0 1 1 2 2 1 1 0 1 0 -2 0 -3 0 0 1 0 -5 0 -1 0 0 2 -3 0 0 1 -1 1 0 2 -2 0 0 0 -1 1 1 1 -1 2 0 0 0 2 0 0 1 -1 0 1 0 0 0 -3 0 1 1 -1 1 0 0 0 -3 1 1 0 -1 2 -1 1 0 -3 -1 -1 1 1 0 1 0 1 0 1 4 -1 0 1 1 2 0 0 1 0 2 0 -1 1 1 -1 0 1 1 0 0 -1 0 0 1 3 0 4 0 -1 -1 1 0 1 0 0 0 1 0 -1 -1 0 2 1 0 0 1 1 1 1 1 1 0 1 1 1 1 2 -1 -2 1 -5 0 0 2 1 0 2 -1 0 0 0 0 0 0 1 -1 0 -1 1 0 0 2 0 0 -1 -6 -1 1 0 0 0 0 0 1 2 3 0 1 -2 0 2 -1 0 0 0 1 1 0 0 1 1 0 -2 0 2 1 3 0 0 2 1 0 0 0 2 1 1 0 0 0 0 0 0 -1 0 0 1 -4 2 0 -2 1 -1 0 0 2 -1 1 0 1 0 2 2 -1 1 -1 -5 -4 -1 -5 -6 -2 2 1 0 5 5 1 1 0 -1 0 0 0 1 -1 -1 0 -1 0 1 1 1 0 2 1 2 0 1 -1 -1 1 2 0 0 0 -1 0 0 1 0 1 1 2 1 1 3 2 0 -4 0 1 0 0 1 0 1 0 1 0 -1 0 0 0 -1 1 0 2 -1 1 -7 1 0 2 -2 1 0 0 3 1 1 0 -2 0 -1 2 0 0 -1 -1 1 -4 0 1 0 -2 1 0 0 -1 1 0 1 5 1 0 0 0 0 1 0 1 0 0 0 0 0 0 0 1 0 0 2 2 -4 -1 0 0 0 0 0 2 1 1 5 0 2 1 2 1 0 2 -2 1 0 0 1 0 1 1 1 0 0 1 0 0 0 1 0 0 -1 -4 0 0 0 2 0 1 0 -4 1 0 0 1 -3 1 0 -1 0 -2 0 0 0 0 6 1 1 1 0 0 -1 0 1 1 0 0 1 2 1 -1 0 0 2 1 0 0 0 1 0 2 3 1 1 0 0 3 0 1 1 0 0 0 0 1 1 -6 0 1 0 0 0 2 1 1 2 1 0 1 0 0 1 1 2 0 1 -3 -2 0 0 0 3 0 0 3 2 1 1 -1 1 3 1 -1 0 1 -1 0 1 1 1 0 1 1 2 2 2 0 0 1 1 -1 0 2 0 -3 -4 0 -3 2 0 0 1 0 1 1 0 2 9 0 4 3 1 0 1 1 2 -1 -5 -1 -1 -3 -1 0 0 0 1 -1 -1 0 0 -1 1 1 0 1 0 0 0 -1 1 0 1 1 0 -3 0 2 -1 0 3 0 0 0 0 -1 1 -1 1 0 0 1 0 1 -1 1 1 1 3 1 3 0 0 1 0 1 0 0 0 2 1 0 1 -1 0 -3 
1 0 1 1 0 4 0 2 2 2 0 0 0 0 0 1 1 -1 2 0 2 1 4 1 1 0 0 -1 1 2 0 0 -1 0 -2 1 -2 0 1 0 0 0 2 -1 -1 -1 1 0 1 0 0 -1 1 0 -1 1 0 2 0 -3 -4 1 0 0 0 2 0 1 0 0 1 2 0 0 1 1 -1 -1 0 0 1 2 0 0 0 2 -2 1 1 -2 -2 -5 -1 1 1 1 0 2 0 2 0 3 6 -1 0 1 1 0 0 0 0 1 0 -1 2 1 1 0 0 1 0 -1 0 0 0 1 -1 1 0 1 2 1 1 -1 1 0 0 1 -1 1 -1 0 1 1 1 2 1 1 2 -1 1 0 0 0 1 -1 1 0 0 1 1 1 -1 -6 -1 0 -1 -3 0 1 1 0 0 0 -1 -2 1 1 0 0 1 1 -1 2 -1 1 0 0 1 2 0 -1 0 0 0 -1 2 2 0 0 -1 1 1 1 1 0 2 2 1 -4 -1 0 0 1 3 5 0 2 1 1 1 -1 0 0 0 1 4 1 0 2 3 1 0 -7 -1 0 1 -1 1 1 1 1 1 0 0 -6 -1 0 1 0 2 0 -4 0 2 1 0 1 1 0 -4 0 2 4 0 -1 0 0 0 0 1 1 1 1 1 0 0 0 2 1 0 0 -2 -4 -1 -1 3 1 1 -1 2 0 0 -2 1 0 1 0 1 3 1 1 1 1 2 0 1 1 0 0 0 1 0 0 0 2 1 4 1 0 0 0 0 0 -1 0 1 1 -2 0 0 1 1 -1 -3 -1 -3 -4 0 0 0 1 1 -1 0 0 5 0 -12 0 -4 0 1 1 0 0 1 0 1 1 0 0 2 0 -1 2 4 2 0 1 -1 1 2 4 1 3 1 -1 0 1 0 1 1 0 1 0 1 0 -2 1 1 0 -2 0 1 1 1 0 1 1 0 2 0 2 1 0 0 1 0 0 1 2 4 1 0 0 2 0 0 2 0 0 1 5 1 0 0 1 1 1 3 0 0 -4 -1 0 0 0 0 0 2 1 1 1 1 -1 -4 7 2 2 0 0 0 0 1 2 1 1 4 0 -1 0 1 0 -1 -1 -1 1 1 0 1 0 0 1 1 0 1 1 1 1 0 1 2 0 5 2 0 2 2 1 -1 1 2 1 -2 1 1 1 1 0 0 2 0 2 1 1 1 1 1 0 1 1 0 0 0 1 1 1 -3 1 1 -1 1 0 -1 3 5 1 1 0 0 -4 1 -2 0 -2 0 1 3 1 1 1 0 1 1 0 1 0 0 0 1 1 0 1 1 1 0 2 1 0 0 1 1 1 0 1 1 0 0 -1 0 -1 -1 0 0 -1 -1 0 0 -1 0 -10 -8 0 1 -2 0 3 2 0 1 0 1 1 4 0 1 0 0 0 -6 -1 -2 2 -1 -2 2 1 -3 0 0 0 1 1 0 0 0 1 4 2 0 0 0 0 0 -1 0 1 1 1 0 -1 1 1 1 1 2 1 1 -1 
1 1 0 0 1 0 1 -3 0 0 -2 0 2 0 1 0 1 0 -1 1 0 1 0 2 1 0 0 0 -1 1 2 0 0 0 1 -1 0 1 0 1 0 3 3 2 -1 0 0 0 0 1 0 2 0 1 1 -3 0 1 1 -1 0 2 1 0 1 0 1 -1 1 0 -2 -2 0 1 0 -1 0 -4 0 1 -3 0 0 2 -1 1 -1 0 -1 0 1 1 1 0 1 0 1 0 -1 2 3 2 2 2 4 1 1 4 0 1 0 0 -1 0 -1 1 0 3 0 0 2 1 0 0 1 -1 0 2 1 3 0 0 2 0 1 -2 0 0 0 0 1 1 0 2 5 2 2 0 1 1 0 1 0 -1 0 -3 1 1 0 1 0 -1 -4 -1 -1 -1 0 1 0 0 1 0 0 0 1 1 0 0 1 1 5 0 1 0 1 0 0 0 2 -1 -1 -2 -5 -1 1 -1 1 0 0 0 1 2 1 1 0 -2 0 2 1 1 -2 1 0 0 1 1 2 -1 -5 -1 2 -3 1 0 0 1 0 0 0 4 2 2 1 1 1 7 2 -1 0 1 -1 0 1 1 1 0 -3 -1 0 0 1 0 1 0 1 0 0 1 1 0 -1 0 1 1 -1 -1 1 1 1 0 -3 -1 1 0 0 3 1 -1 1 0 0 -1 0 1 0 3 -1 -1 0 -6 -1 0 0 0 0 1 1 0 1 0 1 0 0 1 2 1 1 0 0 1 1 0 0 0 0 0 1 0 1 1 2 1 1 0 6 0 0 0 1 0 1 0 2 0 1 0 1 3 0 0 0 1 1 -1 1 1 1 1 1 1 1 1 1 0 1 0 0 0 1 0 1 0 0 1 0 0 1 1 0 0 0 -1 1 1 0 0 -1 0 0 1 1 1 -4 1 0 2 -2 -1 1 1 0 -1 0 0 2 1 4 -2 -3 1 0 0 2 -1 0 -1 -1 1 0 3 0 0 0 0 0 1 0 -4 0 -1 -1 1 1 2 -4 0 1 0 3 0 1 0 0 1 -1 3 2 2 0 -1 2 1 1 0 0 1 0 1 0 4 1 1 -1 2 -2 -1 1 0 0 0 -2 0 1 -1 0 0 1 1 -7 0 1 1 -5 -2 1 1 1 1 3 0 0 1 2 2 1 -1 1 0 0 -1 -1 2 4 4 0 0 4 2 4 2 -1 1 0 1 1 2 1 0 5 1 1 1 0 1 -1 0 0 0 0 -5 -3 -4 -1 0 3 2 1 1 1 1 1 0 -3 -1 -1 1 -1 1 1 1 0 0 1 1 1 1 1 2 1 1 0 1 1 0 6 1 1 -1 1 -6 0 0 0 -1 1 0 0 1 0 0 2 1 0 1 1 -1 0 1 -1 0 0 -4 0 1 2 0 1 1 0 2 1 1 2 0 1 0 0 0 1 0 -1 1 1 0 0 0 0 0 -2 1 0 1 0 0 0 1 0 0 1 -1 0 1 -1 0 0 0 0 0 0 0 0 1 0 1 1 0 0 -2 0 0 
1 -1 0 1 -1 0 1 1 0 1 0 0 0 2 3 2 0 0 1 -1 0 0 1 -1 0 0 0 0 0 0 0 0 1 1 0 1 1 2 1 3 0 1 -1 1 0 2 0 1 0 1 1 0 0 0 0 0 0 1 0 1 2 3 1 0 1 0 1 -3 -1 1 -3 -1 1 1 0 0 0 -1 0 0 1 -1 1 1 0 2 1 -1 1 -4 -1 0 1 0 2 0 5 0 0 3 2 0 3 1 2 0 3 0 0 -3 -2 1 0 1 0 1 1 0 1 1 0 1 -1 -1 1 0 1 1 0 1 0 -2 0 0 2 0 0 1 1 1 1 2 0 -1 0 2 6 1 -1 1 -1 1 2 0 -5 -1 2 0 2 -1 0 0 1 1 1 1 -1 0 0 0 0 1 1 1 1 0 1 0 0 1 -1 1 0 0 1 -3 0 1 1 0 1 -1 -1 0 0 1 0 -1 -2 2 0 1 1 0 2 0 0 2 0 1 0 2 -1 0 0 0 1 1 -3 0 0 1 0 0 0 0 0 0 0 1 0 -1 1 0 -1 1 2 2 1 0 1 0 1 1 2 -1 0 -1 0 1 0 0 1 3 2 1 1 1 -1 3 1 1 2 1 -1 0 0 1 0 0 2 1 0 2 1 1 1 0 2 1 0 0 1 0 1 1 0 -8 -5 -1 0 1 1 0 1 1 1 1 0 1 0 0 1 0 1 0 1 1 3 1 2 -5 0 1 0 0 2 1 0 0 1 0 1 1 0 1 0 0 1 0 0 0 2 1 -1 5 2 2 1 0 0 0 2 1 1 -2 0 5 1 -5 0 0 0 1 0 1 0 0 0 0 2 0 1 -2 3 -1 1 0 1 2 4 1 1 1 1 0 1 1 2 0 0 0 -4 0 1 2 -1 2 2 0 0 0 2 1 1 0 0 2 2 1 -1 0 0 -2 0 0 -3 0 0 0 -1 1 1 1 0 -1 1 0 0 2 0 1 1 0 1 1 1 1 0 0 2 1 0 1 0 3 4 1 0 1 0 1 1 1 1 0 0 1 1 1 1 0 -1 3 3 4 1 1 0 1 0 0 -1 1 0 0 0 -1 1 -3 -1 -4 0 1 0 1 0 1 0 0 0 1 0 -1 -1 0 0 0 0 1 1 1 -4 -1 0 1 1 2 1 1 -1 0 -1 2 2 4 1 -1 0 0 0 -1 1 1 1 0 2 1 1 -1 0 0 0 0 3 0 1 0 0 -2 0 0 -1 3 1 2 -4 0 0 0 3 1 1 -1 0 0 1 0 7 4 1 0 1 -1 0 1 2 1 1 1 0 1 3 0 1 0 2 2 1 -6 -1 1 -1 1 0 1 -1 1 -1 0 0 -2 1 2 0 0 0 1 -1 1 1 1 0 -1 1 0 0 2 1 0 0 0 0 -1 0 -1 0 -1 -4 1 1 1 0 0 2 1 0 0 1 0 0 -1 1 -1 1 0 0 1 0 -4 1 0 2 -1 0 1 0 1 0 3 
1 1 1 1 0 0 0 -1 -1 1 0 -1 -1 -1 0 1 1 2 1 -1 0 1 0 2 0 0 0 0 0 0 2 -1 -1 0 5 2 2 0 0 1 1 0 0 1 0 1 0 0 1 0 5 2 1 -1 0 1 1 1 1 0 0 1 2 0 0 2 0 1 0 0 0 0 -2 -3 1 -3 1 -1 0 0 5 2 1 0 2 -2 1 -1 1 1 0 0 1 3 1 -1 0 0 1 0 0 -1 2 0 0 2 0 3 1 -4 0 1 2 1 1 2 0 0 1 2 0 0 0 2 0 0 2 0 0 0 0 1 0 -2 2 0 0 0 -5 1 1 0 1 0 3 5 1 1 0 1 -1 -5 -1 1 2 0 0 0 1 -1 1 -1 0 0 1 0 0 1 1 0 0 1 0 -1 0 1 2 1 0 1 1 -1 -4 0 2 1 -1 1 0 0 0 0 0 1 0 1 0 0 1 1 0 1 0 -2 0 2 1 0 -2 0 0 2 1 1 0 -1 -2 -2 0 0 1 5 0 1 0 0 1 0 1 -1 1 2 1 0 0 -2 3 0 0 1 7 1 0 1 1 1 -1 1 0 0 1 1 -1 1 1 1 1 -1 0 2 1 0 5 1 1 0 1 0 1 -1 0 0 1 1 1 5 1 0 1 0 0 1 0 -5 -2 0 1 0 0 1 1 -1 2 8 4 5 0 1 -1 1 -1 2 0 0 0 1 1 2 0 0 1 -7 2 0 0 -1 0 -1 2 1 0 0 -1 1 0 4 0 1 3 0 0 1 1 2 1 1 4 1 0 2 1 0 1 1 1 -1 -3 1 0 -1 1 2 0 1 1 1 0 1 0 1 0 -4 0 0 2 3 0 1 1 1 0 0 -1 -1 1 -1 1 0 3 0 0 0 -1 1 0 0 0 1 -5 0 1 0 0 2 1 1 1 0 -1 0 1 5 0 0 0 1 0 0 0 2 0 0 1 1 3 0 4 0 1 1 5 3 1 0 4 0 1 0 1 2 7 2 2 1 -1 0 2 3 1 0 -1 0 -4 -2 1 -1 2 1 0 0 1 0 2 1 0 1 -1 1 0 1 -1 0 0 1 2 0 0 0 1 0 -1 -1 1 0 1 0 3 0 1 1 1 1 0 0 0 0 -2 -2 -2 8 0 0 1 0 1 0 0 1 0 0 -2 -2 1 0 2 0 -1 0 1 1 1 1 0 1 1 0 0 0 2 0 0 2 1 0 3 2 -1 1 2 -1 0 0 0 1 2 0 0 0 -2 1 -3 0 2 0 1 0 0 -4 1 1 2 -1 -1 1 0 0 0 6 1 0 0 -1 1 -1 0 -1 0 1 0 -4 0 0 0 0 1 2 3 2 1 1 -3 0 1 0 0 1 0 0 0 0 0 0 1 0 0 -1 0 0 0 0 -3 0 -1 0 1 0 0 1 -1 0 -1 0 2 1 0 2 0 1 1 1 1 -1 -1 -2 0 1 0 0 1 1 0 0 -1 0 0 4 0 -6 -1 0 
1 1 1 -1 -1 1 0 0 0 1 2 0 0 -4 0 2 1 1 1 -1 0 2 0 0 0 1 -1 0 0 1 1 2 0 0 1 0 -1 -1 0 0 0 2 1 -1 1 0 1 1 3 2 0 1 1 0 -1 0 0 2 6 1 -1 0 4 1 0 0 -1 3 2 1 0 1 0 -1 1 1 3 1 -1 1 1 1 0 2 1 3 0 0 0 0 -1 0 1 0 1 3 2 1 3 0 -5 -1 0 2 0 1 5 0 0 0 0 1 0 2 1 1 0 0 1 0 0 2 0 1 0 1 6 0 0 0 0 1 -1 1 -1 0 1 1 0 1 0 -1 0 2 -1 1 2 0 1 2 -1 1 2 1 -2 -1 1 0 0 2 0 0 1 1 0 0 0 2 5 1 0 0 1 0 1 2 0 0 -1 1 1 0 1 -1 0 1 0 0 1 0 0 1 1 0 -1 -1 0 4 1 0 0 0 0 2 1 0 -1 1 1 -1 1 0 0 0 0 0 1 0 0 -1 -2 1 -1 1 -1 -1 3 0 0 0 0 4 0 1 0 1 -1 1 0 1 5 1 2 1 0 1 0 0 -6 -1 -1 0 0 1 0 0 7 0 1 5 2 1 1 0 1 0 1 0 0 -4 0 1 0 -1 1 1 1 0 1 6 1 0 -1 0 0 1 0 2 2 1 1 1 8 7 4 0 0 2 0 1 1 5 1 0 -1 0 0 1 0 -1 1 -1 0 -1 -1 0 0 1 2 3 0 0 0 0 0 2 2 1 1 2 1 0 0 0 1 0 0 0 1 -1 2 1 0 1 0 0 1 1 1 0 1 0 0 1 0 0 0 0 1 2 2 1 1 0 0 -1 0 1 1 0 0 3 2 0 -1 1 0 -1 -1 0 -1 1 1 0 -2 1 -1 1 0 0 0 1 2 0 0 -1 0 1 0 0 2 0 0 0 -2 0 0 1 0 0 1 -1 -1 1 2 0 -1 1 0 0 1 1 1 0 0 -1 0 1 1 2 3 1 5 6 1 1 -1 1 1 6 2 0 1 -4 -2 1 0 -1 2 1 -1 1 -2 0 1 2 1 0 0 0 -1 0 0 0 -1 2 1 1 0 -1 0 0 1 1 -1 1 0 -1 -5 0 7 8 0 -4 0 0 1 0 1 0 1 1 2 1 6 8 1 0 -1 1 1 0 0 1 1 0 2 1 2 0 0 1 1 0 0 0 1 0 0 0 1 -1 0 0 0 1 0 1 0 0 0 -1 1 -1 1 0 1 0 0 1 1 -2 -1 -1 1 0 0 -1 4 0 0 1 2 -2 0 0 0 2 3 1 2 1 3 1 1 0 0 -1 0 0 -1 1 0 -1 1 1 0 1 -1 0 -1 1 0 3 1 1 0 0 1 3 0 0 0 0 2 2 -2 0 0 1 0 0 0 1 2 2 -1 1 0 1 0 1 0 6 1 0 1 1 -1 1 0 1 0 1 0 0 0 0 1 2 1 1 0 1 1 -1 -4 -2 1 1 
2 1 0 2 1 0 2 0 2 0 1 1 1 1 0 0 0 0 0 1 -4 1 -1 -1 -1 1 2 1 -1 0 0 0 1 1 0 0 2 -1 0 0 -1 1 1 -1 -5 0 0 1 1 1 1 2 0 -1 -4 0 1 1 2 0 0 0 1 1 0 0 0 0 4 5 1 0 0 0 -1 2 1 0 0 -1 0 -1 0 0 0 1 0 0 1 0 1 1 1 0 0 0 1 0 -1 0 -1 0 -5 1 -1 0 1 1 0 0 0 1 0 3 1 0 1 0 -1 2 0 0 0 1 -1 2 3 0 3 0 1 -1 0 0 -1 0 1 1 -2 0 1 0 0 0 0 -2 0 2 2 1 0 -1 1 1 -1 0 2 1 -3 4 1 1 0 3 1 1 0 0 1 1 0 1 0 0 0 2 1 0 0 1 1 1 0 1 3 1 0 1 0 0 3 0 1 2 0 0 0 1 0 -1 0 1 1 -3 0 0 3 2 2 1 4 1 0 0 1 3 0 1 2 -1 0 0 2 0 0 -4 -3 1 0 1 0 0 0 -5 0 0 -1 0 2 3 -1 0 -1 1 1 0 1 1 2 1 1 0 2 0 1 0 1 1 1 1 0 0 1 0 -1 1 1 0 0 -1 0 0 0 0 1 1 0 0 0 0 2 1 2 2 2 -1 3 1 1 0 2 1 1 0 1 1 5 1 3 1 0 0 2 -1 0 0 0 0 0 0 0 0 -4 0 0 0 -1 2 1 1 1 1 0 1 0 1 1 -1 1 5 1 0 0 0 0 0 1 1 0 1 0 2 1 1 -1 0 1 0 1 0 1 1 1 2 -1 0 1 1 1 1 2 5 1 1 1 0 0 0 1 1 0 1 2 -1 1 1 -1 1 2 1 1 0 0 1 0 0 -1 0 6 1 0 1 1 1 2 0 0 0 0 0 1 0 0 0 0 0 1 0 0 0 4 1 0 0 0 1 3 0 -4 -1 0 -1 -1 -3 0 2 0 0 1 1 0 1 8 0 0 1 1 0 1 3 5 1 0 1 -1 -2 1 0 2 0 3 0 2 0 1 0 -8 -3 1 0 2 0 1 0 0 0 1 2 0 0 -2 -2 -1 0 0 1 -1 1 0 0 0 -2 0 1 -1 0 1 0 0 -1 0 0 1 5 2 0 0 1 1 -2 1 3 0 1 0 1 0 2 1 0 1 0 3 0 0 2 1 -2 -1 2 2 -3 0 -1 1 0 1 1 1 0 2 0 0 -1 -1 1 7 0 2 1 0 0 1 1 1 3 -1 0 2 2 1 0 2 0 1 1 1 -1 2 1 0 0 0 0 1 0 0 0 0 0 0 0 0 1 1 2 0 1 1 0 0 1 0 1 0 1 1 -2 0 3 1 2 0 0 0 -1 -1 0 -1 1 1 -5 1 0 2 1 1 0 0 2 0 0 0 2 1 -1 1 4 1 5 0 -1 0 2 0 0 -1 1 -1 1 1 0 0 0 1 0 1 0 0 1 
-1 0 0 0 1 1 1 1 1 0 0 -1 0 0 1 1 -1 0 0 0 -1 0 0 -1 1 0 0 1 1 0 0 2 0 1 -1 1 1 0 0 0 0 -1 -1 -1 -6 -2 1 0 3 2 1 1 -1 2 1 -9 -7 1 0 1 -1 0 0 1 3 1 0 0 0 0 1 1 0 1 1 -1 -3 0 0 1 -1 1 0 0 -2 2 1 1 0 2 1 -1 2 1 2 1 1 -1 2 1 1 5 1 1 2 1 0 0 -1 -1 1 5 0 0 0 4 1 0 3 0 1 1 0 2 2 0 1 0 -1 1 0 -1 0 0 1 0 1 1 0 0 1 1 1 1 4 1 1 1 -1 1 0 0 0 -2 1 0 0 0 0 0 -1 1 0 0 -2 0 0 0 0 -1 4 1 0 -1 1 2 0 1 0 2 0 0 1 0 2 0 2 -1 0 0 0 1 0 2 1 1 2 0 0 0 0 0 -1 0 1 -1 0 0 3 5 2 1 0 1 -1 0 0 0 1 2 0 1 4 0 1 1 0 0 -1 -2 0 0 -3 -1 -1 -2 1 2 2 1 -1 1 1 0 0 1 0 0 3 5 2 -1 0 0 7 -1 1 1 2 -5 -2 1 0 -4 0 0 0 0 1 0 0 1 0 -3 0 0 0 2 0 1 0 1 0 0 1 -1 1 1 2 1 0 1 -2 1 1 1 2 1 0 0 0 -1 0 0 -1 1 0 0 1 1 1 -7 1 1 1 0 1 1 0 4 1 0 1 1 0 0 0 1 0 7 3 1 0 0 1 1 0 1 1 1 0 0 -3 0 0 0 0 -1 0 0 1 1 -1 -1 1 2 1 1 0 -1 -3 -2 2 0 2 0 2 1 1 4 0 0 2 1 1 1 -3 4 0 2 -2 -2 1 0 2 0 1 1 0 1 0 -1 0 0 -1 0 2 1 0 0 -1 -1 0 5 0 1 1 1 -2 1 1 1 2 1 -4 2 4 0 0 0 1 1 1 1 2 -3 -3 -1 1 -1 0 1 1 1 0 -1 3 2 2 1 6 1 3 -1 -1 0 -1 1 0 2 1 1 0 4 2 2 -2 -2 -3 1 1 1 1 -1 0 1 1 -1 0 1 1 2 -1 -6 -3 -2 0 1 1 3 0 -1 1 0 0 1 4 1 0 0 0 -1 5 2 0 -1 0 1 0 -1 -2 -1 0 0 -1 1 2 0 1 0 2 1 0 0 0 0 0 2 1 -1 0 1 -1 1 1 0 0 1 0 1 5 1 0 0 0 0 1 1 0 0 -5 -2 3 0 1 1 0 2 4 0 1 1 1 0 0 1 1 5 0 1 1 2 0 1 1 0 5 1 -1 0 1 1 1 0 0 1 0 0 1 0 -1 0 0 -1 0 0 1 -1 -1 1 0 0 1 -3 -3 0 -1 0 0 1 1 -1 0 1 0 -2 3 1 0 2 1 2 -1 0 0 0 1 1 0 1 0 -1 0 -1 1 1 0 0 0 -3 1 1 1 0 2 1 1 -2 0 1 
-3 -1 1 2 2 0 4 0 1 0 0 0 0 0 0 2 0 0 0 2 1 1 2 1 2 0 0 1 1 0 0 1 1 1 0 2 0 1 4 0 1 1 0 1 -3 -8 1 1 1 1 0 0 2 0 0 -1 0 1 0 1 0 0 -1 4 1 0 0 0 1 4 0 0 0 1 1 1 1 0 1 -1 1 1 1 1 0 1 1 -1 1 1 0 0 0 2 1 1 -2 0 0 1 2 5 6 1 1 0 -2 -4 1 1 1 1 0 1 1 0 0 2 1 2 0 0 0 4 -1 -1 -2 0 0 0 1 0 2 6 1 1 0 0 -1 3 0 0 1 1 1 0 -1 0 0 0 1 1 0 0 0 2 0 1 0 1 0 0 1 3 2 0 0 1 0 1 0 1 1 1 -3 0 0 1 5 0 1 -1 5 0 0 1 0 0 0 1 0 1 -1 1 0 1 -4 0 0 0 1 1 -1 1 -1 0 0 0 2 0 1 0 0 0 1 2 1 0 1 0 0 1 1 0 0 4 1 1 -1 -1 -2 -1 0 0 -1 3 -1 0 0 -1 0 1 -1 1 0 0 1 0 2 5 4 2 1 -1 2 -1 0 1 1 0 0 0 0 -2 0 0 1 0 0 1 3 0 0 0 1 0 1 0 1 1 0 0 1 0 4 -2 -1 0 -3 0 -4 -1 1 1 1 3 1 11 0 1 0 2 1 0 1 0 1 -5 0 0 0 0 2 1 2 1 0 2 1 2 3 1 -1 2 0 -3 0 0 0 0 0 1 0 3 4 0 5 0 4 1 0 1 -3 -2 0 0 2 1 1 1 0 -4 -1 0 1 0 0 2 0 1 0 -3 1 0 1 -1 0 0 2 -1 0 1 0 1 0 0 0 0 1 0 1 0 0 0 0 0 5 1 -2 1 0 -2 2 1 0 0 0 -1 -1 0 1 0 1 1 -1 1 3 1 1 0 0 4 1 1 0 -3 0 1 5 2 0 0 0 1 0 0 -2 -1 0 0 -1 -3 0 -1 1 1 -2 0 -1 -1 0 3 0 1 0 0 1 0 0 0 0 0 0 1 0 1 2 1 -1 0 0 1 1 0 1 1 1 0 3 1 -1 1 1 1 0 1 0 1 0 1 1 1 -1 0 -4 0 1 1 0 -4 -1 1 5 2 0 1 0 0 1 0 -1 1 1 0 3 1 0 0 0 0 0 1 0 0 0 1 0 0 1 2 0 0 -3 0 0 1 0 -1 1 0 0 1 0 1 0 1 -1 0 0 -4 -9 -1 0 0 1 -1 -2 0 0 0 1 4 1 0 0 1 0 1 0 1 3 1 1 0 0 0 1 0 0 2 6 0 0 -1 2 -1 1 2 3 0 0 -2 1 0 0 -1 0 2 1 -3 -1 1 -6 -4 -1 0 -4 0 1 2 1 1 1 1 0 -3 0 0 1 0 2 1 1 1 1 0 0 0 -1 0 0 2 -1 1 1 -2 1 1 1 1 0 0 0 4 0 -1 1 3 0 0 
-5 -1 1 0 0 0 1 0 0 2 0 0 0 -1 0 -1 0 0 1 3 -1 1 1 1 2 0 0 1 0 -1 1 0 1 1 1 2 0 1 6 2 0 0 -1 0 1 -1 -1 1 0 -1 0 0 1 0 0 -4 1 1 0 0 0 0 1 0 0 0 1 -2 1 0 1 1 1 0 0 0 2 -2 0 0 -1 0 0 -2 0 0 1 3 3 0 0 1 0 1 1 0 0 1 -1 0 2 0 1 0 0 0 1 -1 -7 -1 0 1 1 1 0 1 0 0 0 0 0 0 -1 1 0 -3 0 -4 0 0 1 1 0 1 1 1 1 0 0 1 1 1 5 1 0 0 1 0 1 1 1 0 1 1 1 4 0 2 0 1 1 0 2 0 3 1 0 -4 1 1 0 -2 1 2 1 1 0 -1 0 0 1 -1 1 2 0 1 -1 -1 0 3 -1 0 0 0 2 0 -1 0 2 0 1 0 -1 1 -6 0 0 4 0 -4 0 0 1 1 -2 1 0 6 1 1 0 -1 1 0 1 -1 0 1 0 0 0 1 2 0 -1 4 1 1 -1 0 1 1 4 1 0 2 1 1 1 1 0 0 -1 0 0 2 1 0 3 1 1 0 2 -1 1 1 1 0 1 0 0 1 1 0 1 1 -1 1 0 1 1 1 0 1 0 1 0 0 -1 1 0 1 1 0 1 1 0 1 0 3 3 0 0 0 0 1 0 0 1 0 2 5 0 -1 0 2 0 1 0 -3 0 0 0 0 0 1 1 0 1 1 1 1 2 6 1 2 -1 1 0 1 2 0 1 0 -6 0 1 0 1 2 1 -5 -3 0 1 0 -1 -1 0 0 3 0 0 0 -1 -1 1 1 1 -2 -1 0 -1 1 0 1 0 0 0 -1 1 0 0 0 0 0 1 0 1 -1 1 1 3 1 0 0 1 1 0 0 0 0 1 0 1 1 2 2 1 0 -1 0 0 0 0 0 -1 1 2 7 3 0 1 1 0 0 0 0 -1 1 1 -1 1 1 1 0 1 -2 0 0 0 2 1 0 -1 0 0 0 0 2 1 0 1 0 0 0 -1 0 0 0 3 1 -3 0 1 1 -1 1 2 1 0 1 5 0 -1 1 2 4 1 0 1 -2 1 0 1 0 0 2 -1 0 0 -1 1 1 1 -1 -4 -2 -1 1 2 -5 -1 2 1 1 0 1 0 0 0 -1 1 1 0 0 2 1 0 1 -1 0 1 1 1 1 0 0 1 0 -6 -5 0 -1 0 -1 0 1 0 -1 -1 -1 -2 0 -1 0 1 1 1 1 0 0 1 0 -1 0 1 0 1 0 3 1 1 3 -1 0 0 1 -1 0 1 -1 0 5 0 0 1 0 -4 -1 1 0 2 3 -1 1 0 1 0 1 0 0 0 0 0 0 0 1 0 1 1 0 0 1 0 0 0 1 4 1 0 0 -1 1 4 0 -1 0 1 2 1 0 0 2 3 1 1 1 1 0 1 -1 0 2 1 0 1 2 0 -3 
-2 1 1 -1 0 0 0 0 0 0 0 0 0 0 0 -1 1 -1 -2 0 1 -1 -1 0 0 1 0 1 0 1 -8 0 0 0 2 4 5 4 1 2 0 0 0 0 1 1 2 0 -2 1 1 0 1 0 -1 1 0 -1 -1 0 0 1 -1 0 0 0 1 0 2 0 2 0 1 -1 1 -1 1 1 0 0 0 0 1 -1 1 1 0 1 0 0 1 0 6 0 0 -2 1 0 0 1 4 0 0 1 2 1 0 2 0 0 0 1 0 0 -1 0 1 1 1 0 0 0 -2 1 -1 -1 0 0 0 1 1 0 0 0 0 0 0 1 1 1 0 -1 2 -2 0 0 1 0 -1 0 1 1 0 0 1 0 0 0 -1 1 -1 0 -2 -1 -1 0 1 0 -1 1 -6 0 -4 -1 0 1 0 0 -1 1 0 1 2 1 -1 1 1 1 0 0 1 1 1 1 0 -1 0 1 0 6 0 1 0 1 -1 -2 -3 1 1 0 0 1 -1 1 1 0 1 1 0 0 1 1 -1 1 1 0 0 1 0 1 0 0 1 0 1 2 1 0 1 0 0 2 2 0 -2 0 0 1 0 0 -4 1 1 0 1 -1 1 -1 1 1 1 6 1 1 -1 2 1 2 0 0 1 0 -1 2 0 0 -1 -5 -1 1 1 2 1 -1 1 0 0 -3 -1 0 0 0 -1 1 1 1 -4 -1 2 0 2 1 3 0 1 1 0 -1 0 1 -1 1 0 0 0 1 1 0 1 -2 -1 1 1 0 -2 4 1 0 0 0 0 0 -3 -5 1 1 1 0 -3 0 0 0 0 -1 0 -3 0 1 4 1 1 0 -1 -1 -4 0 -1 0 -1 1 -1 3 -4 1 -1 1 2 3 2 1 0 -2 0 0 1 0 1 1 0 1 0 1 1 0 1 2 0 -1 1 1 0 1 1 1 -2 1 0 -1 -2 1 1 0 0 1 1 1 0 3 1 1 0 1 0 2 -1 1 1 1 -1 2 1 1 1 1 0 2 1 0 0 0 0 -3 -9 0 0 -1 0 0 0 0 0 0 0 0 0 -1 2 0 2 3 1 0 0 2 -1 1 2 1 -1 0 -3 1 0 1 0 0 1 -1 0 0 1 1 0 1 -1 5 0 -2 1 -1 0 0 1 0 0 1 0 1 0 0 1 0 1 0 0 0 1 0 0 1 2 2 0 1 0 0 0 0 2 0 0 1 1 1 0 0 0 0 -6 0 -1 -2 1 0 0 0 0 2 0 -1 -1 0 0 1 3 0 2 5 1 2 1 2 0 1 5 0 1 0 2 2 1 -1 0 1 0 2 1 -1 0 0 0 0 2 1 1 0 1 5 3 1 1 1 0 6 1 1 0 1 -1 1 0 1 1 1 1 0 0 0 0 1 0 -1 0 0 1 1 2 2 -1 2 0 0 2 0 -1 1 1 0 1 1 1 0 -2 0 1 0 -4 0 0 -1 1 1 1 -1 2 0 -1 -2 0 0 0 1 0 0 0 1 1 1 0 0 
1 -1 2 -1 -1 0 0 0 0 1 0 0 1 0 -1 1 0 1 0 -5 -1 2 0 0 0 1 0 0 0 -2 -1 0 1 2 5 2 1 0 1 1 1 2 0 1 1 0 3 0 1 1 1 2 1 2 0 0 1 1 1 1 2 1 1 0 -1 0 2 0 0 0 0 0 0 2 0 0 3 1 0 1 1 1 2 1 1 3 0 2 0 1 0 1 1 0 0 -1 1 1 1 1 0 1 0 1 0 0 2 0 1 0 0 1 -1 -1 -1 0 1 0 0 2 1 1 0 0 0 0 1 0 1 -1 0 -3 0 3 2 0 1 0 0 1 1 1 0 0 1 0 1 1 0 -6 -1 0 0 0 0 0 1 0 0 1 -1 1 1 1 4 0 0 6 0 0 0 0 -1 1 1 0 5 2 1 1 0 0 0 -1 1 0 1 1 4 1 1 1 0 -1 0 -2 0 0 0 0 0 0 6 1 2 1 0 0 1 5 0 2 1 1 2 0 -1 0 3 0 0 0 0 2 5 0 1 0 1 1 1 1 3 1 1 0 2 6 2 0 -1 -1 -6 0 -7 -1 -1 0 0 1 1 5 1 0 0 0 1 -1 4 -1 2 1 -1 0 -1 0 0 0 1 5 0 0 0 0 0 0 -1 0 1 4 1 0 1 0 1 1 -3 -1 1 0 -1 0 0 0 0 0 0 0 -1 1 1 -2 1 0 1 1 0 -4 -4 0 -3 0 0 1 0 -1 0 1 -2 1 -1 -1 1 0 1 0 0 0 3 0 1 0 1 -9 -1 5 0 -2 0 1 2 -2 0 -1 0 0 0 1 1 -1 0 2 1 1 -2 -1 -5 1 0 2 8 0 1 0 1 1 0 1 0 0 -2 2 -1 0 1 -1 1 1 -2 0 1 2 1 1 0 1 0 0 6 1 0 1 0 0 1 2 1 1 -1 1 0 1 1 6 1 2 -1 1 4 0 1 -3 2 0 1 1 1 1 -1 0 1 0 2 -1 -1 0 0 1 1 0 4 -1 -1 2 0 1 0 0 -1 1 -1 0 1 0 -1 1 -4 1 1 0 0 2 2 1 0 3 2 1 1 0 1 0 1 0 1 1 1 1 0 1 0 1 1 2 0 1 0 -4 0 1 -1 1 0 0 0 2 0 1 1 1 0 1 0 0 1 0 0 -6 1 0 1 0 0 1 0 0 -1 1 1 -2 0 -2 1 1 1 0 1 0 -1 -2 -3 0 0 1 0 -1 6 0 0 1 0 0 1 0 1 1 0 1 1 0 1 5 -2 2 1 1 0 2 1 5 0 2 1 -1 1 1 0 0 1 1 1 1 0 3 5 1 0 4 4 7 2 0 0 1 1 1 2 1 -1 0 1 -1 -1 -4 1 -1 -3 -1 -1 0 1 1 1 -1 2 1 1 1 0 -2 1 0 4 2 -1 0 1 1 1 0 1 1 0 1 -1 0 0 1 0 0 1 0 0 0 -1 -1 0 1 0 -4 1 1 0 0 0 0 1 1 1 1 
1 1 -1 0 0 0 0 1 0 0 0 3 0 2 0 2 2 1 1 -1 1 1 0 2 1 0 -1 -1 0 1 1 1 0 -1 0 0 0 1 0 0 1 0 0 1 1 1 -1 1 -1 -1 0 -3 0 -1 1 1 -2 -1 0 1 1 5 0 1 1 0 0 0 0 0 0 0 1 1 1 1 0 0 -1 1 0 1 0 1 0 0 0 9 5 1 2 2 0 0 4 -1 0 1 0 0 0 1 1 0 1 0 0 2 0 -1 1 1 0 1 0 -1 1 2 0 -3 0 -4 0 1 0 0 1 1 1 -3 -1 0 -1 0 2 2 0 1 1 0 -3 0 1 0 1 0 1 1 1 0 -1 -2 1 1 0 -2 1 -2 0 0 -1 1 0 5 2 1 -1 1 6 1 1 -1 0 -1 1 1 2 1 -1 -1 0 0 0 -1 0 1 1 -1 1 0 0 1 0 1 0 -4 1 0 1 -1 -3 0 2 1 1 -2 -3 -1 2 6 1 0 0 2 2 1 1 1 1 1 0 2 0 1 0 -3 0 1 2 0 0 1 1 5 1 0 2 0 0 0 2 0 0 1 -1 2 2 0 0 0 1 1 5 4 -6 -4 2 0 1 0 1 1 0 1 0 2 1 0 1 0 1 -1 0 0 0 -1 0 1 1 0 -1 0 1 0 -1 1 0 1 5 6 1 0 0 1 -1 0 2 1 0 0 1 1 0 0 -1 -2 0 -2 0 1 0 0 0 2 1 0 2 1 1 0 1 -3 0 1 0 0 0 1 2 1 -1 0 0 -3 1 1 1 -4 0 0 1 0 1 1 0 0 1 3 1 0 1 -4 -2 -1 1 2 -1 -1 -1 1 2 0 0 0 0 0 1 1 0 0 0 1 0 0 2 1 0 0 0 -1 0 1 1 0 0 0 2 1 1 2 1 1 1 0 1 0 0 0 0 0 1 1 1 0 -1 0 1 3 5 0 1 0 1 0 1 1 1 0 0 0 1 0 0 1 1 1 0 0 -1 1 1 1 4 2 0 0 0 1 0 -1 0 1 1 1 -6 0 1 1 1 0 -1 0 1 0 1 0 2 1 0 0 1 0 0 0 -1 0 0 5 0 0 0 0 0 0 -1 -1 0 1 0 0 1 2 1 0 1 1 0 0 1 0 1 -1 1 0 2 0 -1 0 1 0 1 0 0 -1 -1 1 1 1 2 -1 1 1 0 0 1 0 0 0 1 -1 0 -5 -1 1 0 -1 0 0 -1 2 0 0 0 -1 0 0 1 0 1 0 0 0 2 1 1 1 1 0 0 0 0 -1 1 1 3 -1 1 -3 0 0 -1 -1 1 1 0 3 1 -5 0 2 0 -1 1 0 2 2 0 1 1 1 0 -1 0 1 -2 0 -4 0 -3 0 5 1 0 0 1 1 0 1 -1 -3 2 1 1 0 0 2 2 2 2 0 1 1 0 0 0 -3 0 1 0 0 0 0 6 3 -1 0 1 1 1 0 1 1 -1 2 1 0 0 1 0 0 
0 1 1 0 0 0 0 1 -2 -3 0 1 0 -2 0 2 0 1 1 0 0 0 -1 -1 0 1 0 1 3 0 0 1 0 -1 -1 1 -1 2 -1 1 0 2 0 1 3 1 1 1 0 -4 0 0 1 0 0 0 0 -1 1 1 1 1 0 0 4 4 1 -1 2 0 0 -1 1 1 1 0 0 1 0 1 -1 0 1 8 0 -2 0 2 2 0 1 0 0 0 1 0 1 0 2 0 -1 1 1 0 0 0 0 2 1 2 2 3 0 1 1 2 1 1 -1 1 0 -6 -4 -1 2 -1 1 0 0 1 0 0 -1 1 0 1 0 0 0 1 0 0 2 -2 0 1 1 0 2 0 4 1 -1 0 1 -1 0 1 1 -2 -5 -1 0 0 0 0 0 1 1 3 0 1 0 2 1 1 1 1 0 0 0 1 0 1 3 0 0 0 0 0 1 -1 3 1 0 0 -1 2 0 0 1 0 1 -1 1 0 0 0 2 6 0 0 0 -1 1 2 3 1 0 1 1 0 -1 2 0 1 2 0 0 -1 1 0 -1 1 1 0 0 0 0 -1 1 -1 1 1 0 0 1 2 0 0 0 2 1 0 0 0 1 2 0 0 1 3 0 -2 0 1 1 1 0 1 1 1 0 0 0 0 1 1 -1 0 0 0 1 0 0 1 1 0 1 1 1 1 0 2 -2 0 -1 1 1 0 0 1 0 0 1 -5 0 0 0 0 0 0 0 0 1 -1 2 0 1 1 1 -3 -1 1 1 0 0 1 1 0 0 1 1 3 2 0 0 0 1 0 1 0 0 2 1 0 1 1 2 1 0 -2 -1 0 0 0 -1 1 0 0 -1 0 1 1 3 1 0 1 0 1 2 0 2 1 0 0 -1 1 1 1 1 2 1 2 5 3 7 2 0 1 8 2 1 0 -3 -1 2 0 0 -2 0 0 5 1 0 1 0 0 1 0 0 2 0 0 -1 3 0 1 1 0 -5 0 1 0 1 1 0 2 -2 0 0 0 1 1 3 -2 2 0 1 -1 1 1 0 1 1 0 0 2 1 -1 -3 1 -1 0 -1 0 0 0 1 0 2 1 -1 1 0 -3 0 1 1 -1 1 1 1 0 -4 -4 0 -1 -1 -2 2 1 1 1 -1 1 5 0 1 2 0 -1 1 1 1 0 1 0 -4 1 2 0 0 0 0 2 -1 0 0 0 0 -3 0 0 0 -2 -2 1 0 2 0 -1 0 1 0 1 0 1 -1 0 -1 1 0 1 0 1 1 1 0 0 5 0 0 0 1 3 0 0 1 0 -2 0 0 0 0 0 -2 1 1 1 0 1 2 0 0 2 1 1 0 2 0 1 1 1 2 2 1 1 1 1 0 -1 1 0 1 0 -1 0 0 1 1 1 0 -1 1 1 1 3 0 0 5 2 1 0 1 0 1 0 2 0 1 1 0 1 1 -1 2 0 0 0 1 2 1 0 1 0 0 -1 1 0 0 -1 -5 2 1 1 0 2 0 0 
1 -1 1 0 0 0 0 2 0 0 0 -1 -1 -3 -1 1 1 1 0 1 0 -1 -2 2 0 0 -1 -3 1 0 0 0 0 0 0 1 0 -1 -3 0 3 0 1 -1 0 2 0 -1 0 0 0 -5 1 0 1 3 6 0 -1 0 0 1 2 0 1 2 1 1 0 1 1 1 0 0 1 0 -1 1 3 1 0 0 1 -1 1 0 0 1 0 -1 1 1 5 0 3 1 0 0 0 1 1 1 -2 1 0 0 1 1 0 1 1 1 -1 -1 1 2 1 0 0 1 -3 -6 1 1 0 0 0 1 1 1 0 -1 0 0 0 1 -2 1 0 0 3 1 1 1 0 0 0 1 0 0 1 1 1 1 0 1 0 0 0 0 0 0 1 0 0 0 1 1 0 1 -1 -1 1 0 2 1 1 0 0 5 2 1 0 0 0 1 0 0 1 0 0 0 2 -1 0 0 0 1 1 1 1 -1 -1 0 1 1 0 -1 0 1 0 0 2 3 0 1 1 0 0 1 0 1 1 1 5 5 7 1 0 -1 1 1 2 0 0 0 1 0 0 0 1 1 1 -1 -1 0 0 2 3 1 0 0 7 1 0 2 0 1 1 1 0 2 0 -1 0 0 1 2 1 0 1 4 1 0 0 1 0 0 4 0 1 0 1 1 4 1 1 0 2 -1 0 0 1 1 3 -1 -5 0 0 2 0 0 0 -3 1 0 -1 1 1 0 0 0 0 -6 0 0 1 0 0 0 0 0 0 1 0 1 2 -1 -1 1 1 0 -3 0 1 -1 1 0 0 0 1 -4 1 0 1 -1 2 1 0 0 -1 0 0 0 0 0 0 0 1 0 1 0 0 0 0 -2 0 0 -4 -1 2 0 0 1 -1 0 -1 1 0 2 0 0 0 2 1 2 6 0 1 -3 0 1 0 0 0 0 2 1 0 -5 0 2 0 1 0 0 0 0 1 0 0 1 1 0 4 0 0 1 0 3 0 0 -1 0 1 6 1 1 1 1 0 1 -1 1 0 -1 1 1 0 0 0 1 0 1 2 1 1 0 0 0 0 0 1 1 0 1 1 1 0 1 -1 1 -1 1 1 0 0 0 0 0 2 2 1 0 1 -2 -1 -3 0 1 0 0 0 -3 0 2 1 1 3 0 -4 -2 1 0 -5 1 0 0 1 1 1 2 0 0 3 -1 1 0 0 0 -1 -2 0 0 0 0 -2 -1 -3 1 0 0 0 1 0 0 -1 -4 -1 0 0 1 1 1 0 -1 -3 0 -1 0 1 0 0 0 0 0 1 2 1 0 -1 1 1 -2 0 0 0 0 2 1 0 0 1 -1 1 0 0 1 0 1 1 1 1 -3 1 1 0 2 1 1 1 2 2 1 0 0 1 1 0 0 0 0 0 0 0 -1 1 1 1 0 1 -1 0 0 -4 1 5 -1 1 0 1 0 0 3 6 2 2 1 -1 0 2 2 0 -2 0 1 1 1 -3 0 0 0 0 1 2 2 1 0 0 -1 
1 0 0 0 0 0 2 -1 -1 -1 -8 1 0 -1 0 2 -1 2 1 3 1 1 0 1 0 0 1 0 1 -1 0 0 0 0 4 1 1 0 0 1 0 1 1 1 4 1 1 0 -1 1 1 -1 1 1 1 0 0 3 2 -1 -1 0 0 1 0 1 0 0 1 1 2 2 1 1 2 0 0 -1 0 0 1 0 1 0 1 0 0 1 0 1 0 4 1 5 0 0 1 2 0 0 0 2 3 2 1 0 1 4 2 2 0 -3 0 2 1 0 0 0 1 -4 0 0 0 -1 -6 -1 -3 1 1 5 0 1 1 1 1 -1 0 1 -1 0 0 0 0 2 1 -1 0 1 1 1 1 0 1 0 1 1 2 0 1 1 1 2 0 0 1 1 0 0 1 -1 1 1 0 1 1 0 1 0 0 1 6 0 0 -1 0 -1 0 0 2 7 0 0 0 1 0 1 1 0 0 0 0 -2 0 0 1 0 0 0 -1 -1 1 0 1 0 -1 0 2 0 0 0 1 -1 1 0 0 1 1 -1 -2 0 1 0 0 0 -1 0 1 -3 0 1 0 1 -7 -1 0 -1 0 -1 2 -1 2 2 0 1 1 -1 0 6 1 1 0 0 1 -1 -1 0 0 -1 2 0 5 1 0 0 2 -1 -1 1 0 1 0 -1 1 1 1 0 1 6 1 0 1 0 0 1 0 1 0 -1 -2 0 1 0 1 1 -1 0 0 1 0 1 0 1 1 2 0 1 3 0 4 1 0 1 1 1 -1 2 0 1 0 1 -3 -5 -1 -1 1 0 -1 1 0 -1 0 0 5 4 0 -7 -2 1 0 0 2 1 1 0 -6 1 1 -1 0 -1 -1 0 0 -1 0 0 1 1 0 -2 0 1 0 -1 0 0 -4 -5 0 0 1 -3 -2 -1 -6 -4 0 0 0 0 -1 0 2 -1 1 4 0 -2 1 3 0 0 -2 -1 1 0 1 0 3 2 -1 2 6 2 1 0 1 0 -1 0 1 2 0 -4 0 0 1 0 1 0 2 1 1 0 0 1 0 1 -1 1 2 -1 0 0 2 1 1 0 -1 0 1 2 0 1 -1 1 1 3 1 0 2 3 3 0 1 1 -4 1 1 0 1 3 1 0 -5 -1 0 2 0 1 1 1 -1 0 -1 0 0 0 1 0 -4 1 1 0 0 1 0 1 0 1 0 4 1 0 2 1 -2 -1 -2 2 0 0 0 1 -3 -1 1 1 1 0 1 0 1 0 1 1 0 -2 0 0 1 0 0 1 0 0 1 0 1 1 0 1 1 0 0 1 1 1 7 1 1 2 0 -1 0 -1 0 -1 0 0 0 0 0 -1 -3 1 -1 1 1 2 0 -1 -5 -2 -1 0 0 0 0 2 1 1 6 5 2 1 0 1 0 1 1 0 2 -1 -1 0 0 1 1 0 1 -2 0 -1 1 6 1 1 -1 -3 -1 1 1 1 1 1 2 0 3 1 0 0 -5 -1 0 0 1 0 -2 0 1 -1 1 1 -1 -1 0 0 -1 0 
0 1 0 0 -1 0 1 0 1 0 1 -3 0 1 0 0 2 3 -1 1 0 0 1 0 0 0 -1 -2 0 0 1 1 2 1 1 1 1 2 0 1 1 0 4 1 1 0 1 1 -1 0 0 1 2 2 1 0 0 1 -1 0 0 -1 -1 0 1 1 1 0 0 1 0 1 1 1 7 1 1 0 0 4 0 1 1 1 0 2 0 1 -1 1 0 0 -1 1 1 1 1 0 2 0 1 2 0 0 1 1 0 2 1 0 1 -1 -8 0 0 1 0 0 -2 0 1 1 5 1 4 0 -1 0 0 2 1 0 4 0 3 1 0 1 0 0 1 1 0 2 1 1 0 2 1 1 0 1 0 0 1 -1 1 2 1 7 1 0 0 0 1 0 0 1 1 1 0 -1 3 2 1 0 -1 -1 1 1 -1 1 -1 1 0 1 1 0 1 0 1 -2 -1 1 1 -1 1 1 -1 -1 1 0 -3 2 1 -3 -1 1 -4 0 -1 1 -1 1 2 0 1 0 0 0 1 1 0 -1 0 3 0 1 0 0 1 1 -1 0 0 0 2 1 1 0 0 0 -1 0 1 3 0 1 -1 1 0 1 0 1 0 0 0 0 1 1 0 -7 0 -2 -6 0 0 2 0 2 0 -1 2 1 0 -1 1 1 0 0 0 1 1 1 0 -1 0 1 1 1 3 -1 0 -2 0 0 0 2 1 0 0 1 1 1 2 1 -1 0 2 -1 1 1 1 0 0 1 2 0 0 0 -1 0 0 0 0 -3 0 0 0 0 -1 1 0 0 2 0 1 4 0 1 0 0 1 -1 1 0 1 1 -2 1 -1 -7 -1 0 0 -1 0 0 -2 2 0 1 1 0 0 1 4 4 2 1 2 0 -3 0 -1 0 0 0 1 0 -1 1 -1 1 1 0 0 -1 0 5 2 0 -5 0 0 4 1 -2 1 1 0 0 0 0 1 0 0 1 -4 -1 0 2 0 1 0 0 1 0 0 -1 1 1 1 1 0 1 1 1 -1 1 0 3 2 1 0 5 4 -1 -1 -1 0 0 -4 0 0 3 0 -1 1 0 0 0 1 0 1 -2 1 2 0 0 0 0 2 1 2 -1 0 0 0 1 -1 1 3 1 0 0 1 0 1 2 1 0 0 2 3 1 0 1 2 1 1 0 0 0 2 0 1 2 0 1 0 1 1 1 4 -2 1 1 0 2 -1 -1 1 2 0 0 -1 -1 1 2 0 1 3 2 5 1 1 0 1 5 -1 -1 3 1 1 4 1 1 1 0 3 1 -1 0 0 2 0 6 0 1 0 0 0 1 0 -1 -1 1 2 0 -1 -1 0 0 -1 1 0 2 -1 -1 1 1 0 1 1 -1 -4 3 0 0 0 1 -1 0 1 1 0 0 1 1 2 1 1 0 2 4 0 3 1 0 1 0 0 0 0 2 -1 0 0 0 -1 1 0 0 0 1 -3 1 0 0 0 0 1 0 1 0 0 0 0 0 0 0 0 -1 -1 -2 -1 -5 1 1 
0 1 0 -1 -5 0 1 1 0 1 0 4 0 1 3 0 -1 0 0 0 0 0 1 -1 1 -1 -1 -2 0 1 0 2 -1 1 -1 1 0 0 1 1 -1 0 6 2 3 1 -1 1 1 1 1 1 -1 0 -1 1 0 0 0 0 1 1 0 -1 3 1 -1 2 0 1 -1 -2 -1 -5 0 0 5 3 2 0 3 5 1 1 -1 2 2 0 -3 -1 1 1 0 1 1 0 1 -1 1 1 0 1 -1 1 1 0 0 1 1 0 0 0 -7 0 0 -4 -3 1 0 0 0 2 0 1 1 0 0 0 0 0 1 7 2 2 0 0 1 0 4 3 0 1 0 1 1 0 1 2 1 1 1 -4 -1 1 5 -1 1 0 1 0 1 0 1 1 0 0 0 0 0 0 1 0 0 1 1 1 0 0 0 -1 -1 2 0 0 0 2 1 0 0 -1 0 -1 1 4 0 -1 -1 -3 -7 1 0 2 0 0 0 1 1 0 0 -4 -3 1 3 1 1 0 0 1 0 6 1 0 1 1 -2 1 1 1 1 0 -3 0 1 1 0 3 1 1 0 0 0 0 1 0 0 2 1 1 0 0 2 1 0 1 0 2 1 1 7 -1 0 -6 -1 0 -2 1 0 1 0 0 1 0 1 1 3 1 1 0 3 1 -5 -1 0 6 1 0 1 0 0 1 8 2 1 -3 -1 0 0 1 1 0 1 -4 1 -2 -4 0 0 1 1 2 0 2 0 1 0 1 0 0 0 0 1 2 -1 3 0 1 -1 -2 1 2 -1 -1 1 1 1 0 0 1 1 -1 1 0 -1 1 1 0 0 0 0 0 1 -4 0 1 2 1 -1 1 2 -1 -1 0 -2 -1 0 0 2 9 2 5 1 0 0 0 0 2 0 0 1 0 0 0 1 5 1 0 4 0 1 5 1 6 0 1 2 6 1 0 1 1 0 -1 -1 0 0 -1 1 0 -1 1 1 0 -1 0 6 1 -4 0 0 0 0 -5 2 1 0 1 0 -4 -1 1 1 2 0 1 -4 1 2 1 0 1 0 4 0 1 0 0 1 0 0 -2 0 0 0 2 5 1 -3 1 1 1 1 -3 0 0 -1 2 2 1 -4 0 0 1 -1 -1 1 3 1 1 0 0 0 0 0 0 0 1 0 -1 0 1 1 1 1 0 0 0 -1 2 1 1 1 0 -4 1 0 1 1 -1 0 3 0 -1 0 1 1 0 1 0 -3 0 1 7 1 0 0 1 2 0 0 -2 0 0 1 -1 -1 -1 1 0 0 0 1 1 -1 1 -2 0 2 0 2 0 -1 1 5 1 1 1 1 1 -1 -1 -1 0 1 -1 0 1 0 1 2 0 1 0 -1 2 -1 0 0 1 0 1 -1 1 1 1 0 1 1 2 1 2 2 2 1 1 0 1 0 0 0 -1 0 0 -4 1 1 0 1 2 0 1 0 2 0 -6 2 0 1 1 1 0 0 -1 1 0 1 1 0 1 0 1 -1 -1 2 2 2 0 1 1 0 1 
1 0 0 0 0 0 0 0 1 0 0 1 1 0 0 0 1 0 2 0 -2 1 0 1 1 -1 1 0 0 0 3 1 0 1 0 1 0 0 -1 1 0 0 1 1 -3 1 0 0 0 0 1 2 1 1 1 0 -1 0 1 0 0 0 1 1 2 1 -1 0 0 1 0 0 -3 0 0 0 1 6 2 2 0 0 0 2 0 -1 1 -2 0 0 1 0 0 0 -3 3 0 4 1 0 1 0 1 -2 0 2 0 0 -3 0 3 1 -1 0 -1 0 1 1 0 0 0 1 1 0 -1 0 1 0 1 0 1 1 8 1 0 1 0 0 0 0 3 0 0 1 3 1 -2 1 1 0 -5 1 0 1 0 -1 0 -1 1 2 0 2 1 4 0 1 1 1 0 1 1 0 -2 -7 0 1 1 1 -1 -1 0 1 0 0 1 1 3 0 0 0 0 1 -2 0 0 0 0 0 0 0 0 2 -2 0 0 0 1 0 1 1 0 2 -1 0 2 0 1 0 1 2 3 -1 0 1 1 1 1 0 0 -1 0 0 -4 -3 1 0 0 2 2 1 1 -2 -1 1 -1 0 1 0 1 0 0 0 2 6 6 1 1 1 2 1 1 1 0 0 -1 1 0 0 1 1 0 0 1 0 1 1 1 0 1 2 1 -2 0 1 0 1 2 0 0 -2 1 1 1 1 -3 -1 -1 0 0 0 1 3 0 -1 -5 -5 0 0 0 1 0 0 1 0 1 0 0 -2 0 1 -1 1 2 -2 -1 0 0 1 0 0 0 0 -1 1 1 1 1 1 1 5 3 1 1 0 0 0 1 1 5 0 1 0 2 1 1 0 -2 -4 1 1 -1 0 0 1 1 1 2 2 1 0 1 0 1 0 1 2 0 0 1 0 0 1 9 7 1 1 0 0 4 1 0 0 5 1 0 2 0 1 0 0 1 2 0 0 0 1 -1 0 1 0 1 1 1 0 0 0 0 2 1 0 -1 1 1 1 -4 1 0 1 0 0 0 0 -1 1 1 0 1 0 0 0 1 1 2 1 0 -3 1 -2 1 0 2 0 1 0 2 2 1 3 1 1 0 0 2 2 1 -1 0 0 1 -3 -1 1 0 -1 1 5 -1 0 0 -2 0 0 -1 0 0 0 1 4 1 0 1 -1 2 0 1 1 5 1 1 3 -2 1 1 3 0 0 0 -1 1 0 -1 1 0 1 -2 -3 1 -1 0 0 1 0 0 1 0 0 1 1 1 0 1 1 0 0 -3 -1 1 0 0 0 2 0 0 0 1 0 0 0 0 0 1 1 2 3 1 1 0 0 0 0 0 0 2 0 0 1 2 0 -1 -1 1 1 1 3 1 -6 0 1 0 1 -1 0 1 3 1 2 4 1 0 -1 1 1 0 0 -1 0 1 0 0 1 0 2 0 0 1 0 1 0 0 0 -1 1 1 -2 0 -1 2 1 0 0 -3 -1 0 1 0 1 0 3 3 3 0 1 4 0 1 3 0 -2 -4 -1 
2 1 2 2 0 0 1 1 1 1 -1 1 0 -3 0 1 0 0 0 4 1 1 -1 1 -1 0 0 1 0 0 1 1 0 0 1 -1 0 0 0 1 -1 0 -1 0 -1 2 1 0 -1 0 1 4 2 0 0 0 0 2 1 1 1 0 0 -1 0 5 -1 0 1 0 0 1 1 2 1 -1 0 0 1 2 0 0 -2 0 0 1 0 -1 0 1 1 -1 1 -1 -1 0 0 1 6 1 1 0 1 0 0 2 1 -1 1 1 1 2 1 2 1 0 1 1 5 1 0 1 0 0 0 -1 0 1 1 1 0 1 4 0 0 1 1 0 -1 1 1 1 0 1 2 0 0 1 1 1 0 3 1 0 -1 1 0 0 0 1 0 1 1 11 1 2 -1 1 1 1 0 -1 0 0 1 0 2 0 1 0 0 1 -1 -2 -1 1 0 0 0 1 1 0 0 0 1 1 1 -5 1 0 -1 0 0 0 1 -1 1 0 0 1 -1 0 0 1 0 1 0 0 0 0 2 1 1 3 1 3 0 1 -1 -1 -3 0 0 0 -1 1 1 7 5 0 1 0 -3 -1 0 1 2 2 0 0 7 1 0 2 1 -1 0 0 1 0 0 0 0 1 -2 0 1 1 -1 0 1 -1 -1 0 0 2 1 0 1 0 4 0 -1 0 -1 0 0 1 1 1 0 0 2 1 1 -1 1 -1 -2 0 0 0 0 -1 0 0 0 0 0 0 0 5 1 0 1 1 0 1 1 2 0 -1 1 -2 0 0 0 0 0 0 0 1 0 1 2 1 1 1 1 1 0 2 1 0 1 0 -1 0 -1 1 -1 2 1 -3 1 -5 0 0 1 0 1 0 0 0 0 1 0 -4 1 0 0 0 2 1 0 0 -1 -1 0 1 1 0 0 1 0 0 0 0 1 0 1 0 1 0 0 0 1 0 -1 -1 0 1 1 -1 0 1 1 2 0 0 1 0 0 -1 1 1 0 1 0 0 1 0 2 0 0 0 0 1 7 0 1 1 0 0 0 0 0 1 0 -3 -1 2 1 0 1 0 0 1 3 0 0 -2 1 1 0 2 1 1 1 0 0 1 0 0 1 0 -1 1 4 1 0 1 0 1 1 0 0 1 0 0 4 2 0 4 0 1 1 1 0 1 0 1 1 0 1 1 0 0 2 1 1 1 1 1 2 1 1 0 1 1 -1 -3 1 1 -1 1 1 1 1 -4 0 -1 1 1 0 1 -1 0 -1 0 1 -1 -1 -1 0 1 0 1 2 2 2 1 -1 1 2 -1 0 0 1 0 0 0 1 0 0 0 0 -1 -1 2 1 5 1 -1 1 0 0 1 0 1 1 -1 1 3 1 0 -1 3 0 0 0 1 1 1 1 0 1 1 0 1 1 2 0 1 1 1 1 1 1 1 1 1 0 1 -1 0 1 0 0 0 0 0 1 0 -1 0 0 0 1 0 1 -1 1 2 1 -1 0 0 1 0 0 0 1 -2 0 0 0 -4 1 0 
-2 1 1 1 1 0 0 2 6 1 0 0 -1 0 1 1 2 0 1 0 -1 0 0 1 0 -7 0 2 1 1 1 1 0 1 0 1 0 0 0 2 -1 -1 2 1 0 1 0 -1 1 0 2 0 2 3 2 -1 0 0 1 1 1 1 1 1 0 1 0 0 0 0 0 1 -1 1 0 0 0 1 0 1 -1 -1 -1 0 -1 1 0 3 0 0 0 1 1 0 2 -1 -2 0 -1 2 1 0 0 1 1 0 1 1 1 -1 1 1 0 1 0 2 1 0 0 -4 0 0 0 -1 3 0 0 0 4 1 -2 -2 1 2 0 2 1 1 1 1 1 -1 1 -1 -1 1 1 4 0 2 1 0 0 1 2 0 0 -1 1 1 1 0 2 0 1 0 -1 0 -1 0 3 1 1 1 3 0 0 0 0 1 2 0 -1 -1 1 3 2 2 1 0 1 1 -3 1 1 1 1 2 0 1 0 -1 0 0 1 1 -3 0 0 0 1 -6 -2 1 -2 0 6 2 0 -1 1 1 2 2 1 1 1 0 1 1 1 4 -2 -1 0 1 1 0 2 0 -1 0 1 1 0 -1 -1 0 3 4 0 -1 -1 1 1 2 1 1 2 4 -2 -1 0 -1 -4 2 0 1 0 1 1 1 0 0 1 1 0 -1 3 0 0 0 2 0 1 1 0 -1 0 2 0 1 1 1 0 0 0 0 0 0 1 -1 4 1 1 1 1 0 -1 0 0 1 1 -2 6 1 0 0 0 0 -1 1 1 1 0 0 0 1 0 0 0 0 1 0 -1 0 -1 1 1 2 1 0 1 0 1 0 1 0 1 1 1 5 0 -1 1 0 0 1 1 3 2 1 2 1 2 2 2 1 1 -1 2 1 -1 0 -3 0 -1 1 1 -3 -1 0 -2 0 1 0 1 1 1 1 1 0 -1 2 0 0 0 0 -1 0 1 0 1 -1 1 0 0 1 0 1 -3 1 1 -1 0 0 0 -1 1 2 0 1 2 1 0 0 0 0 1 4 0 0 -2 -1 0 1 1 0 0 0 0 2 6 0 -5 -1 1 0 -1 0 1 -1 0 0 2 1 -1 0 -1 0 1 0 -1 0 1 2 -1 1 0 2 2 1 1 0 1 1 1 1 0 0 2 5 1 1 0 -1 1 0 1 3 0 -1 5 0 0 0 0 1 4 0 1 0 3 1 1 1 0 -5 1 1 0 1 1 0 -1 0 -1 0 0 0 0 0 0 1 5 0 1 1 4 -2 -1 1 1 0 1 2 4 0 1 1 0 0 0 2 0 0 0 -1 -2 0 2 0 1 0 0 3 1 2 2 2 2 0 1 1 -1 0 1 0 -1 0 0 1 2 0 0 0 0 2 8 2 0 0 0 0 0 2 0 0 -2 4 0 2 -1 1 0 4 2 0 -1 1 1 0 -1 0 -1 -3 0 1 0 1 0 0 -1 1 2 1 0 1 0 0 0 -4 -1 0 0 0 1 0 0 0 0 -1 -1 0 -1 2 0 1 1 1 
0 0 0 0 2 0 1 1 1 1 2 -1 -1 1 2 1 1 0 4 0 1 0 1 0 1 0 1 1 1 -1 1 0 0 1 0 1 1 -1 1 0 4 0 0 0 2 1 1 1 1 0 -5 0 5 1 1 3 1 0 0 2 1 0 1 2 2 1 0 0 1 0 -2 -3 1 0 0 0 1 0 -1 1 0 0 1 1 -1 0 0 1 4 -1 -3 0 1 0 0 1 0 1 1 0 -1 1 1 1 -2 1 1 1 1 0 2 1 0 1 1 0 1 0 0 0 0 1 0 -3 1 0 1 0 1 1 0 -1 3 2 2 0 0 1 -2 -4 -1 1 1 1 0 -1 0 0 1 0 1 0 -1 -1 1 0 0 2 1 -1 0 0 0 0 0 1 1 0 0 0 2 0 -1 0 1 0 0 1 1 1 -1 1 0 1 0 -1 1 1 -1 -1 0 2 1 2 1 -1 1 3 1 0 1 0 0 5 5 0 -5 -3 1 0 1 2 -1 1 0 1 2 0 1 1 0 2 1 1 -1 3 1 2 0 2 1 -1 1 0 -1 2 0 1 0 1 2 3 0 0 -1 0 2 0 2 0 0 0 1 0 -1 3 0 1 2 1 0 1 1 1 0 -2 0 2 -1 0 -1 1 -1 1 0 0 -1 0 -1 0 0 0 1 0 1 -5 -1 0 0 0 0 1 -1 1 0 1 -1 0 -1 0 1 1 0 0 3 0 5 1 1 2 0 0 1 0 2 0 0 1 1 1 1 2 8 1 -1 -2 2 0 1 0 0 1 -4 1 1 2 1 0 0 0 2 0 -5 1 0 -3 1 0 1 0 2 0 -3 0 -2 0 5 0 0 0 1 0 1 0 -1 0 3 1 1 1 2 0 1 -1 0 1 2 -1 1 1 0 1 0 0 0 0 -1 0 1 0 1 -1 1 0 2 -1 0 1 1 0 -1 0 0 0 1 1 3 -1 0 0 1 4 2 0 0 2 -2 -1 1 1 0 3 0 0 1 6 1 0 -2 -1 2 1 0 -1 1 -1 0 0 -1 1 1 4 1 1 0 0 0 0 0 0 0 1 -5 -1 0 0 -3 0 -1 1 1 0 0 0 1 0 1 0 4 1 2 0 1 1 0 0 1 1 2 2 -1 1 1 1 1 3 1 1 6 0 0 1 1 1 -1 0 1 1 5 4 1 1 1 1 -1 0 -1 -1 0 2 0 0 1 0 -1 0 0 -1 -1 2 0 0 0 2 -1 1 0 0 2 0 1 1 -4 0 0 0 -2 -2 2 1 0 1 1 2 0 1 2 -1 1 -3 1 0 3 1 0 1 0 0 1 1 1 0 0 0 -1 1 0 0 -1 0 0 1 0 0 0 -1 0 3 5 0 0 0 1 0 1 1 1 -1 0 -2 1 1 0 0 2 1 0 0 -2 0 1 1 1 0 0 1 1 0 0 3 0 1 0 2 2 1 1 1 4 1 -1 -1 -1 -1 1 -1 1 1 1 1 1 0 2 0 1 0 0 0 0 0 
3 2 0 -1 0 1 0 0 0 4 1 1 2 0 0 0 -1 -1 4 0 3 3 1 0 0 1 1 0 3 0 0 0 0 1 0 1 0 0 -2 2 1 0 1 -1 -1 0 -3 1 1 0 0 1 2 0 1 1 2 2 2 0 1 0 1 0 0 1 -1 0 0 0 0 -1 2 0 0 1 1 1 1 0 1 1 -1 0 -1 1 0 0 0 1 -1 -1 -1 -1 1 1 1 0 0 0 0 0 0 0 0 0 0 1 -1 1 3 2 3 4 1 -2 0 0 1 1 2 2 0 0 1 2 -1 -4 0 1 1 0 2 0 1 4 1 0 1 0 -1 0 0 0 0 0 -1 0 1 0 2 0 1 0 0 0 0 1 -1 0 -1 0 0 2 0 0 0 1 0 0 1 -1 2 0 0 0 0 -1 0 1 1 2 1 -1 0 1 0 1 2 1 4 2 -1 2 0 0 0 0 0 -1 0 0 0 1 0 -4 1 0 0 0 0 0 0 0 0 1 3 1 2 3 -1 0 1 0 1 1 0 1 1 0 -4 0 2 1 2 1 -1 -1 1 1 1 1 3 2 3 0 0 -5 4 0 -1 1 8 0 0 0 0 2 1 0 0 1 0 0 -2 0 3 0 1 1 -1 1 -4 0 2 0 2 0 -1 -3 1 0 1 -4 0 -1 -1 0 1 2 1 1 -1 0 -2 1 0 2 0 2 0 1 1 0 0 0 7 8 1 1 -1 1 2 2 6 1 0 0 1 1 2 6 5 -1 1 0 0 -3 0 1 -1 -1 1 0 0 0 0 0 0 0 1 -2 -3 0 -1 2 1 0 1 1 0 1 5 1 0 1 0 1 -3 1 2 1 -1 0 1 0 1 1 1 0 2 -2 -1 0 -1 0 0 0 0 1 1 1 0 1 1 0 0 1 0 2 1 0 0 -1 3 4 7 2 1 0 0 1 0 1 0 -1 -4 0 1 1 0 1 0 1 -1 7 0 0 0 0 1 0 0 1 0 1 2 1 -1 0 3 6 0 -1 0 0 1 0 0 2 2 1 1 0 1 1 1 1 0 3 6 1 0 0 0 -1 -1 -1 1 -2 0 -1 0 3 1 -1 1 1 1 0 2 0 -3 0 0 0 -1 1 0 0 -1 0 1 0 0 0 0 1 2 1 1 1 0 0 0 0 0 0 0 3 4 1 0 1 0 3 -1 0 1 1 -3 1 0 1 0 1 0 -1 2 1 1 1 -1 0 0 1 1 1 0 1 0 4 1 2 1 2 1 0 2 1 2 0 0 -1 -3 -6 -2 0 1 1 0 1 1 0 0 -1 0 1 0 1 0 -1 1 2 0 2 0 0 0 1 1 2 0 -1 1 3 0 0 1 0 0 0 -5 -1 1 0 -7 0 1 0 1 2 2 1 1 1 1 1 1 1 0 2 1 -1 0 0 0 0 0 -1 -4 0 0 1 -2 0 1 1 1 2 1 0 -1 -1 0 1 0 2 2 1 -1 1 1 0 2 1 1 1 0 1 
1 -2 -3 1 1 -1 0 1 1 2 1 2 1 0 1 0 0 1 1 3 1 0 1 0 0 0 2 0 0 3 5 5 1 1 1 0 1 -1 0 0 1 1 1 0 1 0 0 0 1 0 0 1 1 1 1 1 0 1 1 1 0 3 1 1 0 0 1 2 2 0 0 0 1 5 1 0 1 1 2 -1 0 3 0 -5 0 0 2 1 -1 0 1 1 -1 1 -1 1 -1 -3 -1 -2 0 0 0 0 1 1 0 0 0 0 0 1 4 0 0 0 1 0 0 -1 0 0 1 1 0 -1 0 2 1 0 1 0 0 1 0 1 1 0 1 1 0 0 0 0 1 0 0 -1 -8 -7 -1 1 1 0 1 0 -1 0 1 3 1 0 0 0 0 1 0 -1 0 0 0 -1 -3 -3 -1 1 -1 1 0 1 0 0 1 0 0 1 -2 -1 0 0 1 6 1 1 -2 6 3 1 1 0 1 1 0 2 0 -1 0 2 4 0 1 1 0 1 1 1 -4 0 -3 -4 0 0 0 1 0 0 1 4 0 1 1 0 0 1 -1 1 3 1 0 0 1 -1 0 6 2 2 0 -1 0 1 0 1 0 0 0 2 0 -3 1 1 0 -1 -3 0 1 -2 0 0 -3 -1 -4 0 0 0 1 1 0 0 -1 -3 1 1 -4 0 3 0 -3 1 0 1 2 0 0 2 0 0 0 0 1 -4 -1 -2 -1 0 1 -1 1 0 -6 -1 1 -3 -4 1 0 6 1 3 0 0 2 0 1 4 4 2 1 0 5 1 1 1 0 0 -3 1 0 -1 1 0 1 0 -1 0 -3 0 2 1 1 0 3 -1 2 0 2 -1 -5 0 0 1 1 2 1 1 0 0 1 0 1 1 1 0 0 0 0 0 0 -1 0 -3 1 -1 1 0 2 0 0 0 0 1 1 1 -1 0 1 1 1 2 1 0 0 4 8 3 1 2 4 1 0 -1 -1 0 1 -1 0 0 -10 -5 0 1 2 1 -1 -1 0 1 0 -1 2 5 1 5 2 5 -1 -7 0 1 1 0 0 0 0 1 -3 0 1 0 0 3 1 2 1 0 1 1 -1 0 1 2 0 0 -1 0 -1 0 -1 1 3 6 0 0 1 2 1 2 2 1 -1 0 0 1 1 2 0 0 0 0 -1 5 0 1 1 0 1 2 2 0 0 0 0 -3 1 0 -1 0 0 1 3 -1 0 1 1 -1 3 2 2 2 1 1 1 -2 -1 3 1 1 1 1 1 0 1 -1 0 1 0 1 1 1 0 0 0 0 0 -1 0 -1 0 0 2 1 1 1 -4 0 1 0 -3 -1 0 0 6 2 0 0 0 -1 2 2 -1 0 1 -2 -7 0 0 1 0 0 1 1 0 1 0 -4 1 0 0 0 1 -2 -2 0 0 0 0 0 0 0 1 1 -1 0 0 0 -1 0 0 1 0 0 1 0 2 1 1 1 4 1 -1 1 1 1 0 -1 -1 1 0 5 0 1 0 0 1 2 1 0 0 -2 -1 0 
0 1 -1 0 2 3 0 2 0 1 2 0 1 0 5 1 -1 2 0 1 1 -2 1 2 2 2 1 0 0 1 1 -1 0 1 0 0 0 0 -1 -1 -1 1 0 -2 0 1 1 3 2 1 1 1 2 1 1 1 1 0 0 1 0 2 0 -1 0 0 5 2 2 0 1 1 5 2 0 1 1 0 2 -1 1 0 1 1 0 1 1 0 0 0 2 0 0 1 1 0 0 0 1 1 0 2 0 1 -3 1 1 1 0 0 -1 1 -3 0 -1 -1 0 -4 0 0 0 0 1 -1 1 0 2 -1 0 1 0 0 -2 -1 0 -1 1 0 0 1 1 -1 0 0 -1 1 0 -1 -2 0 -1 0 0 1 0 1 -1 1 2 -1 0 0 1 1 1 2 0 2 0 1 1 4 0 0 1 0 1 0 1 1 2 0 -1 1 0 -2 1 0 3 0 0 1 0 0 0 0 0 1 0 -1 0 0 0 2 -1 1 1 0 1 0 1 2 1 4 1 0 2 2 1 0 1 0 1 0 -1 1 1 0 0 1 1 0 1 -1 0 0 0 2 -1 -1 0 1 -2 2 1 0 0 0 0 1 3 0 1 -4 1 1 1 0 0 1 1 0 1 0 1 1 1 1 0 0 0 1 0 1 1 2 1 0 1 1 0 0 0 -2 -1 1 2 0 -1 -1 1 -4 0 1 0 1 0 1 1 0 0 0 -3 0 0 0 -1 -1 0 -7 0 1 0 2 0 1 2 0 0 1 -1 0 1 1 0 1 1 1 1 1 2 2 1 1 2 0 0 0 0 4 2 0 1 0 0 0 -1 0 -1 -1 1 1 3 1 2 2 0 2 0 0 0 1 0 -1 1 0 -3 -1 -2 1 0 1 0 1 1 -1 1 1 -1 0 -1 -2 1 1 1 -1 1 1 0 2 0 1 -1 1 1 0 0 0 -1 -2 0 0 0 -1 1 3 1 2 0 -6 0 0 1 1 1 0 -2 0 2 1 1 0 1 1 0 0 2 2 0 -1 1 1 4 2 1 -1 0 0 1 2 1 -1 0 5 1 1 1 1 -1 0 0 0 -1 1 1 -1 1 -1 1 1 -2 -1 4 5 0 -1 1 -1 0 0 2 1 1 0 1 1 0 1 -1 0 0 -1 0 0 0 0 1 1 3 1 1 1 1 1 -1 1 0 -1 -2 0 1 0 0 0 1 -1 -1 0 0 0 0 6 1 1 2 2 3 0 1 0 0 -1 -1 1 0 0 2 0 2 1 0 0 0 1 1 3 1 1 0 0 1 -2 0 1 0 0 -1 1 0 1 0 0 -1 1 0 -4 1 -1 1 -1 0 0 0 0 0 0 0 -3 1 0 1 0 0 -1 0 0 1 2 1 1 1 1 0 1 0 0 -1 0 0 -2 0 0 -1 0 -1 -5 0 1 0 0 0 0 0 0 -1 0 1 2 0 0 0 1 1 0 0 1 1 1 0 0 1 0 2 -1 1 1 0 -1 1 1 1 0 0 0 5 1 1 1 1 1 
0 -1 0 0 -6 0 1 1 1 1 0 1 0 0 0 0 -3 1 0 0 0 -1 -1 1 0 0 0 1 1 0 0 0 0 1 -1 -1 0 1 1 1 0 1 0 0 0 1 1 0 2 1 5 -1 1 -1 1 1 1 1 1 0 0 1 0 0 2 0 0 0 -1 1 1 0 2 0 -1 1 -1 0 1 1 1 0 0 0 -1 0 -1 -3 2 0 1 -2 1 1 -1 0 1 1 -1 1 2 1 -1 -1 0 0 0 2 1 1 2 -4 0 0 1 2 2 1 1 -1 -1 1 -2 3 0 -1 2 1 1 0 1 0 1 -2 -1 1 0 0 -3 0 1 0 0 0 0 -1 2 0 1 0 -1 0 0 5 9 1 0 0 -2 0 0 3 0 1 2 1 1 -1 -1 0 1 -1 1 0 1 2 0 1 -1 -1 1 0 -1 1 0 -1 -1 1 2 -1 1 0 1 -3 0 -1 -4 0 0 0 1 -3 -1 0 1 -1 -1 0 2 1 1 -2 -4 -1 0 -5 0 0 0 0 -2 -1 0 2 6 0 0 0 -1 1 1 0 1 1 0 0 1 1 1 1 -1 5 4 1 1 -1 2 0 1 1 -1 1 3 -1 -1 0 1 -1 1 1 3 0 -1 1 0 0 1 1 2 0 0 0 1 1 1 0 0 0 1 0 1 1 2 8 0 1 2 1 1 -1 0 2 2 3 0 1 4 2 2 2 4 1 1 -4 -4 0 0 2 0 1 -3 0 0 0 0 0 0 -1 1 0 3 1 1 1 0 0 0 -1 1 0 -1 0 0 1 0 1 0 0 2 0 -1 1 1 1 1 -1 1 1 5 1 -1 0 1 1 2 1 1 1 0 -1 1 -5 -1 0 0 1 0 1 1 6 2 1 0 0 -1 0 -1 0 0 6 1 0 -2 1 0 1 0 -3 0 -1 2 0 1 -1 1 1 0 0 1 -2 0 0 0 1 0 0 -2 -1 0 1 2 1 0 0 3 1 -1 1 0 1 1 1 1 2 0 0 0 1 1 0 3 1 1 1 -1 1 0 2 1 1 0 0 0 2 1 1 1 0 1 1 0 1 1 1 0 0 0 1 2 1 0 1 1 0 1 0 1 0 0 0 1 2 0 0 1 2 1 2 1 2 5 1 1 1 1 1 0 1 0 -1 1 2 0 1 1 0 1 1 -2 -2 1 3 1 0 3 -3 0 1 0 1 0 2 1 1 0 4 -1 0 -5 0 0 0 1 2 1 1 0 0 -1 1 1 1 0 1 -1 0 1 1 1 0 0 1 1 0 1 0 1 1 0 0 -1 1 0 0 -4 -1 1 1 0 -1 -1 -1 0 0 1 -1 0 -2 0 4 0 1 1 0 0 2 1 0 1 1 0 1 1 1 -2 1 3 1 2 0 0 -5 -1 2 1 1 -1 -2 0 1 2 1 0 -1 -1 0 0 1 0 1 0 0 2 -1 0 1 -5 0 0 1 -1 0 0 0 -1 1 -1 1 1 1 1 1 0 0 0 0 2 5 7 2 
0 -1 1 -1 0 0 0 -1 1 2 0 0 -1 -1 1 0 0 1 1 0 1 0 -5 0 1 2 0 0 1 2 3 2 0 0 0 0 -1 0 0 0 0 0 1 0 1 0 1 0 1 0 1 1 2 2 1 -1 2 0 0 1 -1 1 0 3 7 3 0 -1 -5 1 1 -2 0 -1 0 4 1 0 0 0 1 0 -1 1 0 2 0 -1 0 2 2 1 0 2 -2 -1 0 -1 -1 -6 1 0 0 0 -1 1 0 3 6 2 0 1 1 -1 0 2 0 3 1 0 1 1 1 3 0 -2 0 -1 1 0 1 1 0 0 -1 0 0 0 -2 1 0 0 0 0 1 0 0 1 0 0 0 -5 1 6 7 2 2 1 1 1 0 -1 1 1 -3 -3 0 2 4 1 1 0 2 1 0 3 3 2 1 0 0 0 1 -1 0 0 1 0 0 1 -1 0 -1 0 2 0 -3 0 0 0 0 0 0 2 1 -3 -1 -1 0 0 0 2 0 1 0 0 0 1 2 1 -3 2 0 2 1 0 -1 1 2 2 0 1 1 2 0 0 0 1 0 1 1 -1 0 1 0 0 1 7 0 0 1 0 2 0 1 1 0 2 -1 0 0 0 3 0 0 1 1 1 0 -1 0 1 -1 0 -4 -4 1 4 1 0 0 -1 0 0 1 0 1 1 2 -1 0 1 0 2 0 1 1 -1 0 0 -1 1 -1 0 1 0 1 1 1 0 -1 0 -4 0 0 3 2 0 1 1 0 -5 1 1 -4 -7 -1 0 0 2 1 1 1 0 -1 0 0 0 0 -1 0 1 1 1 1 0 3 3 0 0 1 1 0 1 1 0 -1 1 0 0 0 0 1 0 2 1 0 0 1 1 1 -1 0 3 0 1 1 0 1 3 1 0 0 1 1 1 2 1 0 1 0 1 2 2 1 -1 0 1 2 1 0 1 2 1 1 0 0 0 -1 1 1 -1 1 0 -2 0 0 0 1 1 0 0 1 0 4 1 2 0 1 -1 0 0 0 3 1 1 0 0 1 0 1 0 2 1 1 0 0 4 2 1 1 0 1 1 0 0 1 0 1 -1 0 2 -1 1 -1 -1 0 -1 0 1 5 3 1 0 -1 -2 1 0 2 0 1 0 0 0 0 -1 1 1 2 1 0 1 1 0 2 0 0 2 -1 -2 0 1 1 2 1 -1 0 0 1 1 0 1 0 3 0 2 0 -1 -1 1 0 0 2 -1 1 2 1 1 0 0 4 1 0 -1 0 0 2 0 0 0 0 0 0 1 1 0 1 -1 0 1 0 2 0 0 0 3 -1 -2 -1 -2 0 -1 1 1 -1 0 -1 0 2 1 2 1 1 1 1 1 -1 1 1 0 0 0 2 0 1 -1 1 1 0 1 -1 -1 -4 0 2 -2 -1 1 0 2 2 1 2 -2 2 0 0 1 -1 0 0 1 1 2 1 -4 0 1 4 2 1 0 1 0 0 0 0 1 -1 1 1 0 2 -1 0 2 2 2 2 0 
1 1 1 1 6 2 0 1 0 1 0 -3 -1 1 0 -3 1 -1 0 -1 2 0 -1 4 1 0 1 1 0 1 1 1 0 0 -1 1 0 1 0 1 0 1 0 -2 -5 -1 1 0 0 0 1 1 -1 1 4 1 0 -1 0 1 0 0 0 5 1 1 0 1 0 1 0 2 6 2 1 -1 6 1 1 1 0 0 1 1 0 0 0 1 1 1 1 0 1 -1 0 -1 0 1 -3 -3 0 0 1 1 1 1 1 1 1 0 0 0 0 0 0 0 -1 -2 0 0 0 1 1 2 1 3 0 0 0 1 0 1 4 2 0 1 0 0 -1 0 0 -1 1 0 1 2 2 1 1 -1 0 1 0 2 2 2 -2 1 1 10 1 2 6 0 1 0 2 2 0 1 1 0 0 -1 -1 1 0 0 -3 -3 0 0 1 1 0 -1 0 0 1 -2 1 0 1 0 1 1 0 1 1 2 0 0 0 -5 0 0 0 0 1 -1 -1 1 1 1 1 0 1 1 -1 0 0 2 0 0 0 1 1 2 6 1 -3 0 0 0 0 -1 1 0 1 0 -1 0 0 1 0 1 0 4 0 -1 1 1 2 2 0 0 1 1 1 1 -1 0 0 0 -3 0 0 1 0 0 1 2 1 0 -1 0 1 0 0 0 0 -3 -2 0 0 0 0 1 0 2 1 1 1 0 -1 -2 0 0 2 0 1 0 2 0 1 0 0 -1 1 1 5 1 0 0 0 1 1 1 -1 1 0 0 1 0 1 0 0 0 1 0 -1 1 0 1 1 -2 0 1 1 3 1 1 0 0 0 1 0 1 0 -6 -1 4 1 0 0 0 0 -1 1 0 -4 1 0 0 1 0 0 1 -1 1 1 0 1 -4 0 -2 2 1 1 0 -5 0 1 -1 0 1 -5 -1 -1 0 1 0 1 -1 1 1 1 1 -1 1 0 0 0 0 -1 1 -1 2 0 1 1 1 0 0 0 1 0 0 1 1 2 0 2 1 1 -2 -3 0 5 1 1 0 1 1 -1 2 -1 0 -1 -2 1 -1 1 1 -1 1 5 3 -2 0 0 2 3 1 2 0 0 4 1 -1 -1 0 0 1 0 -1 -1 1 0 0 -1 0 0 1 -1 0 0 1 2 0 0 0 -1 0 -1 0 -1 1 -1 1 0 1 0 1 0 0 -1 1 3 1 0 1 -1 0 1 1 1 1 -1 -1 1 0 0 -1 -1 2 0 1 -1 1 -2 2 5 0 1 -1 0 0 1 2 7 1 1 1 0 0 0 3 -1 2 -1 3 -1 0 3 0 0 0 1 1 0 0 -1 0 0 0 -1 0 -1 -5 -2 1 0 0 0 3 1 1 -1 -1 2 -1 -5 0 0 0 -2 0 2 1 1 1 1 2 0 0 0 0 1 1 0 1 -3 2 1 1 1 1 3 1 1 6 8 1 0 1 1 0 0 2 1 0 1 1 0 0 1 0 0 0 0 1 0 2 3 1 1 2 0 4 -1 0 1 0 1 0 0 0 0 1 
0 2 -1 2 3 1 0 0 0 1 0 0 0 1 0 -1 0 0 -2 1 1 -2 -4 0 2 0 1 2 1 5 -1 0 2 5 -2 1 1 1 0 0 1 0 0 1 -4 -2 0 1 0 1 1 -1 0 1 2 2 0 -1 0 2 1 1 2 1 0 1 -1 0 0 1 1 4 2 1 2 2 0 1 0 -1 2 -1 -1 0 1 0 -3 1 1 2 5 1 1 -1 1 0 3 3 -4 -1 0 0 0 1 2 6 0 0 -1 0 0 1 -4 0 0 0 1 0 0 0 0 1 2 2 0 0 0 0 0 0 1 0 1 0 0 1 -1 1 0 -1 -2 2 5 0 4 1 1 1 3 0 0 -1 0 0 0 0 0 1 1 1 2 5 3 0 -1 0 1 -1 0 -1 0 0 0 0 -1 -1 0 0 0 1 0 1 0 1 1 0 1 0 -1 1 1 -1 0 0 -1 0 0 -1 1 1 0 1 -1 0 1 -1 0 0 1 0 -2 0 -3 -1 0 -2 1 1 1 1 -2 1 2 2 1 1 0 0 0 2 1 -1 0 0 0 0 0 -1 0 0 1 0 3 2 -1 0 1 1 2 2 1 1 2 1 0 -1 1 1 2 1 0 -1 1 -1 0 0 1 2 1 0 1 0 0 2 1 1 0 1 1 0 1 0 0 5 1 0 0 0 1 1 0 1 -1 1 0 -2 0 0 1 2 0 3 2 0 -1 0 0 1 0 0 0 0 2 1 2 0 0 0 -1 0 1 1 0 -1 3 -1 -1 0 1 1 0 0 2 -2 0 0 0 1 1 0 4 8 0 0 0 -6 0 1 0 0 1 1 1 -2 -3 1 0 -2 1 1 2 0 -1 0 1 1 1 4 1 0 -3 0 1 -4 1 -3 1 1 -1 -3 0 1 -1 -6 1 0 0 0 0 1 0 1 0 0 -4 1 -1 0 -2 0 2 0 1 1 0 0 -1 0 1 2 0 1 -1 1 0 1 0 -3 -1 0 0 1 1 2 0 -1 0 1 3 -1 1 0 0 0 4 8 -1 -2 1 -1 -2 0 1 1 1 0 1 1 -3 0 4 1 1 0 2 2 1 0 0 0 1 0 3 1 0 0 0 -1 1 2 2 1 1 2 2 0 2 1 1 0 1 2 0 0 0 0 2 0 1 0 0 -1 1 0 1 0 0 0 2 3 1 2 1 1 1 1 -1 0 1 2 5 2 -1 0 1 -1 -4 0 -3 0 1 0 1 2 0 0 -3 1 1 1 1 0 0 0 0 3 1 1 1 0 -1 -1 -5 -1 2 0 0 0 0 1 1 0 1 0 -1 -1 1 0 -1 1 1 1 0 0 0 0 -1 0 1 1 1 1 0 -2 0 0 -1 2 1 0 1 1 1 -1 2 0 0 -1 3 0 0 -2 0 0 0 1 1 1 0 0 0 2 0 2 3 1 2 1 1 2 0 0 -1 0 1 4 1 -1 1 0 1 -1 1 -1 1 0 -6 0 1 0 0 1 1 1 1 1 1 -1 0 1 
1 1 2 0 0 0 0 0 0 3 0 0 0 0 0 0 0 1 1 1 -2 1 0 2 0 0 0 2 2 1 1 2 0 1 0 -1 1 0 1 0 2 0 2 1 1 3 6 0 0 2 2 0 1 1 0 1 0 1 0 0 0 0 0 0 1 0 -1 0 0 1 -1 0 -2 0 2 1 0 0 0 0 -1 0 0 0 5 2 -1 2 -1 1 0 -1 0 0 2 1 1 0 5 1 -2 0 1 -2 0 1 1 0 -2 -1 1 0 0 0 -1 1 0 2 1 1 1 2 4 0 1 0 -1 1 0 0 1 1 1 0 -1 0 1 5 0 1 1 0 2 1 5 0 1 0 0 0 -1 0 -1 -3 0 2 0 0 -1 1 0 1 1 1 0 2 -1 -2 0 1 1 1 0 2 1 1 0 0 0 0 -1 1 0 0 -3 -5 0 0 1 2 0 1 1 1 2 0 0 1 1 2 0 0 1 -2 -1 -1 0 0 0 0 1 -1 0 1 0 1 2 -1 0 1 0 0 0 3 3 0 -1 1 1 1 0 1 1 -2 0 0 0 1 0 1 0 1 5 5 1 1 3 0 1 1 0 -5 -1 -1 1 1 0 1 1 1 0 0 0 1 0 -1 1 0 0 2 0 1 1 -2 0 0 0 1 0 1 1 0 1 3 0 0 -1 -1 1 1 0 1 0 -4 0 4 1 1 0 1 2 2 0 2 1 2 0 1 -1 1 0 1 1 0 0 1 -2 0 0 2 1 1 3 0 1 1 2 1 -1 0 0 1 -5 0 0 1 1 0 -1 1 1 0 1 1 0 -1 1 1 0 1 0 1 4 0 6 6 0 1 0 1 0 0 0 1 1 0 1 2 -1 0 1 2 2 1 0 2 0 -3 -3 0 1 1 0 -6 0 0 3 4 4 1 0 0 0 1 0 1 1 0 1 1 3 4 1 2 -1 0 0 -1 -1 0 -2 1 5 1 1 1 -4 0 0 -1 2 0 2 -1 0 0 0 -2 0 0 -6 0 -1 0 2 6 1 1 0 0 0 0 1 -2 -9 -1 -1 1 1 2 2 0 1 0 1 1 0 0 -1 0 0 3 1 0 1 1 0 -1 0 2 0 -1 2 1 1 0 2 0 2 1 -1 -1 -1 -1 0 1 2 1 0 0 0 -2 0 0 -1 1 1 1 1 0 -1 -1 0 -1 1 1 1 0 1 0 1 0 0 -1 1 -3 -4 0 2 0 0 0 0 1 0 0 0 0 2 0 1 1 0 1 0 0 1 1 0 1 -1 0 1 1 1 0 3 7 0 0 0 1 0 -6 -1 0 0 -1 1 0 1 2 1 1 0 -1 0 1 2 4 0 0 0 1 1 0 3 2 0 0 1 1 0 0 1 0 0 -1 1 -1 -1 0 -2 0 1 1 1 1 0 0 0 1 1 0 1 1 0 0 0 0 1 3 2 1 -1 0 -2 0 2 -1 0 0 0 -1 1 0 -2 -4 -1 -2 0 -1 1 0 2 0 0 1 2 1 
-9 1 1 0 1 2 1 0 0 1 0 -1 2 1 1 0 0 1 -1 0 1 1 1 2 0 2 4 1 -2 0 0 1 1 -1 0 1 0 0 0 1 2 1 6 1 1 3 0 -2 1 2 1 0 0 1 1 0 1 1 1 2 1 0 -4 0 1 0 -2 0 2 -1 0 0 -1 -1 1 0 0 0 1 1 -1 0 1 0 0 0 1 -1 -1 1 1 1 3 1 2 1 0 0 2 -1 -4 1 -4 0 -1 0 0 0 0 1 2 1 0 1 -1 2 0 -1 2 -1 0 1 1 1 1 3 0 0 2 1 1 -1 2 0 1 3 0 0 1 3 0 0 0 0 1 0 0 0 0 1 1 0 -5 -1 0 0 0 0 -1 0 1 1 3 3 0 1 0 1 0 0 -2 1 0 0 0 0 0 -1 1 1 -3 0 0 -1 -2 0 0 0 0 0 -1 1 2 -1 1 0 1 0 1 1 1 1 1 0 2 0 1 0 1 2 3 2 1 2 -1 -3 -1 1 0 1 -1 0 0 1 1 1 1 0 1 -1 1 0 1 1 0 0 -2 0 1 2 0 1 3 1 0 1 1 0 0 1 0 0 -1 1 1 -1 -5 -3 1 1 1 0 -3 1 0 -2 1 1 4 1 -1 0 0 -1 2 0 1 2 0 1 -1 1 0 0 2 0 1 1 0 2 0 2 0 1 2 2 3 0 1 -1 2 0 0 -1 0 1 0 2 2 1 1 1 0 0 1 0 -1 0 1 -1 0 2 0 1 0 1 1 0 0 0 0 -1 0 3 1 0 0 -1 1 1 0 -1 0 -2 0 1 3 3 0 0 0 1 0 1 4 2 -1 1 3 1 1 0 1 1 1 1 1 2 0 1 1 0 1 1 0 0 0 4 1 -1 1 0 -1 -1 1 0 2 1 0 1 1 -3 0 1 8 1 2 0 0 1 0 1 -4 0 1 2 1 1 1 1 1 -5 0 1 1 2 1 0 1 1 1 0 0 1 0 -1 -1 0 -4 0 0 -1 0 0 -1 0 1 0 4 0 0 -1 0 0 1 1 2 0 0 0 1 2 -3 1 1 0 1 0 0 0 0 1 2 4 1 -1 0 1 1 -1 1 1 2 6 0 2 1 -4 -2 0 0 -2 0 0 -3 1 1 0 -1 1 0 0 0 0 0 4 0 1 1 0 2 0 0 0 0 -1 1 0 -1 0 0 1 -4 -1 -1 0 -1 0 0 0 0 3 2 0 2 -2 1 -1 0 1 1 1 0 1 0 0 3 4 1 -1 -1 1 -1 1 1 0 1 2 4 0 -1 0 1 0 0 0 1 1 -1 1 0 0 1 -1 1 1 -1 2 2 1 0 0 0 1 0 0 4 2 0 1 0 0 1 -4 0 1 0 0 1 1 -1 0 1 0 0 2 -1 0 0 1 -1 -1 1 1 1 2 -1 1 1 1 0 0 -1 2 0 0 0 2 0 -1 0 3 0 0 -1 1 0 0 -1 0 1 1 1 1 0 4 0 0 1 1 
-1 -1 -1 -1 0 -3 0 0 0 1 1 4 2 1 1 0 1 2 1 1 1 -1 1 -1 0 -1 2 1 0 -1 0 0 0 -1 2 2 2 -1 -1 2 5 9 0 3 1 1 1 -2 -1 0 -1 1 0 1 2 0 1 8 2 1 1 1 0 0 1 -1 0 2 1 1 1 0 1 1 3 0 1 0 0 1 1 -4 -1 1 1 0 0 0 2 4 0 0 0 0 2 0 0 1 0 0 0 1 0 1 0 -4 -1 1 1 2 1 1 1 0 0 -4 -1 0 0 0 5 2 0 4 0 1 0 3 1 0 0 -2 0 0 -1 -1 1 -1 0 1 1 1 0 -1 1 1 8 1 -3 -5 1 1 0 1 -1 1 1 2 0 1 4 0 1 3 2 1 0 0 -1 1 0 4 2 0 2 -4 1 0 0 1 1 1 1 0 1 1 0 -1 0 1 0 0 1 1 0 1 1 0 1 0 -1 1 1 2 0 0 2 4 1 0 1 -1 1 1 1 0 0 -1 1 0 0 0 0 0 1 1 1 1 0 1 0 -2 1 2 0 -1 0 0 -1 0 1 0 0 1 1 -2 -4 0 0 1 0 0 1 1 1 1 0 1 2 1 0 0 -1 -1 0 0 0 1 1 0 1 0 2 1 1 3 0 1 1 1 1 1 -3 0 0 0 0 1 0 1 0 0 1 0 -1 -1 1 1 1 0 0 1 0 -1 0 1 1 2 1 0 0 0 -7 -4 0 -1 1 1 0 0 0 1 1 0 0 -1 1 -1 1 1 1 0 1 0 -1 1 1 1 1 0 1 0 -1 0 1 0 -1 0 0 0 1 1 0 1 0 0 -1 0 0 -2 1 1 0 0 -7 -1 0 -1 1 1 0 0 0 1 -1 0 1 3 1 0 -1 0 0 2 1 4 1 2 0 0 0 0 0 0 1 0 0 0 1 0 0 1 1 1 1 0 0 3 -3 1 0 1 -1 0 0 1 -3 1 -1 0 5 0 -2 -5 -1 1 1 -2 -1 0 -1 0 1 1 0 0 1 -1 0 2 0 -1 -1 0 1 0 -1 -1 0 1 1 0 5 -3 1 1 4 3 3 0 0 0 0 0 -4 0 2 0 0 0 1 0 0 0 0 1 0 0 0 0 2 -1 0 1 1 1 -2 0 0 0 1 0 -3 -1 0 3 1 0 0 0 0 0 -1 0 1 0 0 1 -3 0 0 3 0 1 0 0 1 0 1 1 1 0 1 0 -1 -2 0 0 2 0 -1 0 -2 -1 -1 1 -1 3 1 1 1 0 -1 -4 -1 1 0 -1 0 2 1 3 1 1 0 0 1 3 1 0 1 2 -1 0 1 0 1 1 1 0 1 0 -4 0 0 0 1 2 1 1 0 -1 0 0 -1 2 0 1 0 1 -1 1 0 0 1 1 0 0 0 1 0 -5 1 0 1 0 -1 0 1 2 1 0 0 1 1 2 0 1 0 -1 1 -2 1 -1 1 0 0 -2 -3 0 1 4 1 1 3 0 0 0 1 4 
1 1 1 1 1 -3 -1 1 0 1 2 4 6 4 0 2 1 0 0 1 1 1 0 0 0 -1 1 -1 0 1 3 0 -2 0 2 2 1 0 1 1 0 1 -1 0 0 -1 1 1 1 0 1 1 0 -4 -6 0 2 1 -2 1 2 1 0 1 1 0 1 0 0 0 0 0 0 0 1 -2 1 7 2 1 1 -4 0 -1 0 3 1 0 0 0 1 1 0 1 1 0 1 1 1 0 -1 1 0 1 0 1 -1 -4 1 1 -2 -1 0 1 3 -2 0 2 1 1 1 1 1 1 0 0 1 1 0 1 4 1 0 -1 -4 0 0 0 1 1 0 1 -1 -1 0 2 1 1 -1 0 0 1 0 2 1 1 1 0 1 1 4 2 1 1 -1 0 1 1 0 0 0 1 0 1 1 0 -2 2 1 -1 0 0 2 1 1 5 1 0 0 -1 0 1 0 -1 0 -2 -1 0 1 0 -2 0 1 1 -1 0 1 5 1 1 1 0 1 2 1 3 2 0 -2 0 1 1 1 1 1 0 1 1 0 1 3 1 1 2 3 0 0 -1 0 0 1 0 1 -1 1 0 0 0 0 0 1 1 1 0 0 1 1 2 7 1 2 1 -1 -3 -1 0 1 0 0 1 -1 1 -1 1 0 0 0 5 1 1 -1 0 1 1 1 -1 0 4 4 -1 0 0 -1 0 -1 -3 1 1 1 5 1 4 2 -2 0 4 -1 -1 1 1 0 1 0 0 0 0 0 -2 0 -1 -1 -5 0 0 0 0 1 1 1 0 0 1 0 1 0 1 1 -5 0 0 2 -1 -3 -1 -1 0 0 0 0 0 1 1 1 0 0 -1 2 0 -4 -1 0 1 0 -9 -6 -1 0 -2 0 1 4 1 -4 0 -1 0 0 2 3 1 0 1 1 1 0 1 1 3 1 0 0 -4 1 1 1 0 -1 0 0 1 3 0 1 -1 1 0 0 1 0 0 1 1 1 1 0 1 -1 1 1 -1 1 6 1 0 0 -2 1 0 1 1 -2 1 1 0 -4 0 1 -2 0 0 0 -1 1 1 2 1 -3 1 -1 1 0 0 1 1 0 -1 -1 1 1 2 1 4 -1 -3 2 1 1 -1 0 -6 -3 -3 0 1 1 0 0 -4 0 3 3 -1 -2 1 1 1 1 0 -2 -2 0 1 1 1 1 0 0 0 0 -1 1 2 1 0 -1 0 0 0 1 1 5 0 1 0 2 5 2 2 0 -2 1 1 0 0 1 -1 0 -2 0 0 2 1 0 1 1 0 -4 0 0 -1 2 1 3 -1 0 1 1 0 0 0 -1 0 -4 0 1 1 0 1 0 0 -1 2 0 1 1 5 1 0 1 1 2 -1 0 2 1 -1 0 0 1 1 1 0 1 2 1 1 0 1 0 1 0 -1 1 0 0 -1 0 1 0 0 1 0 1 0 0 0 0 0 0 0 1 0 1 1 1 0 4 2 -1 0 -4 0 1 0 1 2 0 1 0 1 1 0 2 0 0 1 0 -1 0 0 
1 0 -5 1 1 0 1 4 5 1 2 0 0 0 0 1 0 0 0 0 0 0 1 1 1 -2 0 1 0 1 1 1 0 -1 0 0 0 0 -1 0 -1 -1 3 0 -1 0 1 -1 2 0 -1 -1 0 0 0 1 1 0 1 0 0 1 0 4 -1 0 -1 1 -5 -1 2 0 0 1 5 1 4 1 0 0 0 0 0 -1 0 1 2 0 1 0 1 0 -1 2 0 0 -1 1 3 1 1 1 2 0 -3 1 -1 1 0 1 0 0 0 0 2 0 1 1 -1 1 0 0 0 0 0 2 2 1 0 0 1 1 0 1 2 -1 -1 1 -1 0 -1 2 1 0 0 2 1 1 0 1 0 0 1 1 0 1 -1 2 0 -1 0 0 1 -3 0 0 1 0 1 -1 0 0 1 0 0 1 -1 -1 1 0 -1 -2 2 4 6 6 0 1 0 -4 1 0 1 -1 1 1 1 1 2 0 0 0 1 1 0 1 0 0 -1 1 1 -3 1 1 0 4 1 1 0 -4 0 0 0 2 0 0 0 1 1 1 1 2 3 0 -1 0 2 2 1 1 0 0 0 0 0 0 1 -1 0 1 2 1 1 2 0 0 0 2 0 2 0 0 1 1 0 2 0 0 5 2 1 1 1 1 -1 0 -1 0 1 0 -1 0 0 0 0 -2 1 1 -1 1 0 0 0 1 0 0 -1 1 1 0 0 0 1 1 0 0 1 1 1 1 1 1 1 0 1 -3 2 2 0 0 0 1 0 1 1 0 3 -1 0 1 0 0 2 0 1 3 1 0 3 0 1 0 -1 1 0 -1 0 0 0 -1 1 0 2 1 4 1 1 5 0 0 1 1 0 0 -1 -1 0 1 0 0 -2 1 -1 1 0 -1 0 4 0 0 0 1 2 1 -1 0 0 -4 2 2 1 1 -1 0 0 -1 1 0 1 0 -1 -4 -2 1 0 0 1 2 0 1 1 0 1 0 0 0 1 3 1 0 1 -1 0 0 -2 0 -1 -1 0 0 0 -1 0 -4 -1 1 2 1 1 0 1 -1 0 1 0 0 -1 -4 1 1 0 1 -1 0 1 1 0 -2 1 0 1 4 1 0 0 -1 1 3 1 -1 -1 0 0 1 2 0 2 1 1 0 0 -2 0 1 5 1 1 0 -5 -2 -1 -1 2 2 1 4 0 -4 0 1 1 1 0 -2 0 1 1 2 1 0 0 0 1 1 0 1 1 0 0 -1 1 1 2 3 3 2 1 -1 0 -1 1 -1 -1 0 2 -1 0 2 0 1 3 0 1 1 1 0 0 1 0 0 0 0 0 0 1 1 1 0 0 1 0 2 0 4 0 1 -1 3 2 1 0 0 -2 1 0 2 0 0 1 1 0 1 1 0 0 0 0 1 1 0 1 1 0 1 1 1 0 1 0 -3 1 1 0 1 3 0 1 0 0 0 4 1 0 0 0 2 1 2 0 -1 0 0 0 0 0 0 0 5 0 0 0 0 2 1 2 1 1 2 0 0 
0 -4 0 -1 1 0 -1 0 1 1 1 0 0 0 -1 1 0 0 -1 1 2 1 0 1 0 0 2 -1 0 0 1 0 1 1 0 1 1 0 0 -1 1 1 0 0 -3 -7 0 0 1 1 1 5 1 1 -1 0 0 -1 1 -1 1 1 1 -1 -2 -5 1 2 -1 1 0 -1 1 4 7 2 1 1 2 1 0 -5 0 2 1 0 1 0 0 1 0 0 1 1 3 7 1 1 0 0 0 0 -1 0 0 0 0 0 0 1 1 1 1 0 1 0 1 0 0 -2 1 1 3 1 1 0 -2 -1 0 0 0 -3 1 0 0 0 1 1 0 1 2 0 0 0 0 1 1 2 -1 0 1 0 1 2 1 -1 2 2 0 0 -1 0 0 -1 1 0 1 0 1 2 0 0 0 0 0 1 0 1 0 1 0 -1 -1 1 4 1 -1 0 -1 0 0 -1 0 6 0 -1 1 -3 1 1 1 1 1 2 1 -1 0 0 1 1 0 0 0 -1 1 1 0 0 0 1 1 0 1 0 0 -1 0 0 -2 1 1 1 -1 -1 -3 -5 1 2 1 4 0 -1 0 0 -1 0 1 0 2 1 0 1 1 0 0 1 1 2 -3 1 -1 1 1 -1 1 0 0 1 0 1 0 0 0 3 0 0 0 -1 1 2 2 2 1 0 3 1 0 1 1 -2 -1 0 0 -1 -8 1 0 0 1 0 1 0 -1 1 4 0 1 0 0 -3 0 1 0 -1 -3 -1 -1 0 0 0 0 0 1 4 0 0 0 0 0 1 0 3 1 1 0 0 0 0 0 1 1 1 2 0 0 -4 2 4 1 -3 0 1 0 2 0 -4 0 0 -1 -1 0 2 -1 1 -1 1 0 0 -1 -3 1 1 -2 0 0 1 1 2 1 3 2 0 1 0 0 0 -1 1 1 1 0 1 0 0 1 -3 1 1 -1 0 -7 -1 1 1 4 1 2 0 -6 0 0 1 -1 0 2 1 1 1 1 1 1 0 0 1 0 1 -3 0 1 1 0 1 1 1 1 0 -1 0 1 0 1 0 0 1 0 0 -5 -3 0 0 1 -1 -2 1 0 -1 0 0 -1 1 1 1 4 0 -1 1 1 2 2 1 0 1 1 1 2 0 0 1 1 0 -3 0 1 0 0 -1 0 1 0 0 0 0 2 0 -1 4 1 1 1 3 2 0 -2 1 0 3 -3 -2 0 0 1 0 0 0 1 0 2 0 0 -1 1 1 1 0 0 0 0 0 1 0 0 -6 0 0 -2 -3 0 1 1 1 1 0 1 0 1 1 1 1 1 0 2 1 1 -1 1 -1 0 0 0 0 2 0 2 0 0 0 1 1 1 1 0 1 1 1 1 1 0 0 -1 0 1 0 1 3 0 1 3 1 0 0 0 0 0 0 0 0 0 -1 0 -1 0 0 -1 -1 -1 0 1 1 0 1 1 3 0 -1 0 1 4 4 1 1 1 2 0 0 0 0 2 0 2 0 0 1 1 -2 0 -1 -3 1 1 0 
0 -1 1 -1 1 0 1 -1 0 0 0 4 1 0 0 0 3 1 1 1 1 0 -1 1 1 0 0 2 1 1 0 2 8 0 1 -1 0 0 1 -1 1 0 -4 -3 0 0 3 -1 -1 1 0 1 0 0 4 2 0 -1 2 1 1 0 -1 1 0 0 0 0 0 1 1 2 -1 0 1 1 2 7 7 4 0 1 -3 0 -1 1 0 0 -1 1 3 3 0 -2 -2 0 0 1 0 1 0 0 0 0 -1 1 0 1 1 1 1 0 0 1 -1 -1 1 1 0 0 0 0 1 2 1 0 1 1 1 0 0 -1 1 1 0 0 1 2 7 1 -1 -1 1 0 1 0 -1 1 0 2 1 0 0 0 0 1 1 -2 -1 1 0 -1 0 1 0 1 1 0 -1 1 0 0 0 2 0 1 -1 2 0 0 3 1 0 1 0 0 0 -1 1 0 -3 -2 0 -1 1 0 -1 0 -3 0 -1 1 1 0 1 -1 1 0 0 1 1 -1 -5 0 1 1 1 0 2 2 1 0 0 1 1 -1 0 -1 0 1 1 0 0 1 0 0 0 -1 1 2 1 1 -1 3 0 1 1 0 -1 1 -2 -1 0 1 0 1 3 2 1 -1 -2 1 0 1 5 0 2 0 1 0 0 0 0 0 0 3 0 1 0 5 5 -1 -1 3 1 -2 -1 -1 1 0 1 1 2 0 0 1 2 0 1 -1 1 0 -1 0 1 3 0 -3 1 0 0 0 0 0 0 1 0 0 1 1 0 -1 2 0 2 1 4 0 1 3 2 1 1 -1 0 -2 -2 0 0 3 6 1 2 1 2 0 3 0 1 -2 -1 0 1 0 0 0 -1 0 0 2 0 0 0 1 1 -1 0 0 1 1 0 1 1 -2 1 -1 0 0 0 0 0 0 0 -5 0 1 0 1 1 1 0 1 0 -1 1 1 0 0 0 1 0 0 -3 0 1 1 1 4 0 3 0 1 0 0 0 0 1 0 -4 1 2 0 2 0 0 -6 0 4 8 1 -1 0 1 1 1 0 1 1 0 1 1 0 -2 1 1 0 1 -2 0 -1 0 1 0 0 0 1 0 0 -1 1 1 0 0 2 3 0 4 2 -1 2 3 0 0 0 1 -3 0 1 1 1 0 0 1 5 0 3 1 0 0 0 0 1 0 1 1 0 1 1 0 3 0 0 -1 0 1 0 -1 -1 0 0 0 2 -2 0 0 1 0 0 1 0 0 0 0 1 0 2 2 1 0 1 1 -1 0 0 2 0 1 -1 0 4 1 -4 -1 0 1 0 3 1 2 0 1 1 1 2 -1 0 0 -1 0 1 0 1 -1 0 0 1 7 4 1 1 1 2 0 0 -1 0 0 2 1 1 1 1 0 1 0 3 1 0 -3 0 -2 1 2 1 0 0 -6 2 1 1 1 1 -2 1 0 1 2 0 1 1 1 1 1 0 -3 0 0 0 0 1 0 1 1 1 1 0 0 -1 2 0 -1 -2 -1 1 2 0 0 1 0 0 
-3 0 -1 0 0 1 1 0 0 0 1 0 0 0 1 0 0 1 -1 1 1 1 0 3 1 1 0 1 0 0 0 0 7 0 0 0 2 4 1 0 0 0 1 0 2 0 1 0 -5 0 2 1 -3 -3 0 2 0 0 1 -1 0 1 1 0 1 1 1 4 1 1 1 -1 1 0 1 -1 0 1 1 2 2 6 1 0 0 0 0 -4 2 0 1 1 7 1 0 0 -1 -1 1 0 1 0 0 2 0 1 0 0 0 1 1 0 0 1 1 -1 0 0 -4 -1 -1 1 2 1 1 0 1 5 1 1 1 2 0 -3 -1 0 0 1 2 1 -5 1 1 1 1 0 1 0 -2 -1 -1 0 0 1 0 -1 0 0 -1 1 0 0 0 -1 0 -1 0 1 0 -2 4 3 1 2 1 2 -1 0 0 0 1 0 0 0 1 -1 1 0 1 0 0 -1 -1 0 -3 0 1 -1 -3 -1 1 -1 1 1 1 0 1 0 2 5 1 1 1 1 -1 1 -3 1 1 1 1 0 1 -1 0 0 4 1 1 1 0 -3 1 1 0 1 0 1 0 -1 0 1 1 1 0 0 2 2 1 1 -1 1 1 1 1 1 1 0 2 1 1 1 -1 0 0 0 0 1 0 1 0 1 0 0 4 2 -1 -1 0 0 1 -2 0 2 0 1 0 0 0 3 1 1 1 0 1 1 1 -1 1 0 0 0 -1 2 0 0 0 -1 2 0 0 0 0 0 3 1 0 -1 2 0 -1 1 1 0 0 1 0 0 1 -2 2 6 1 1 0 0 0 1 -3 -1 0 0 2 3 1 0 2 0 0 0 -4 -1 1 0 0 0 -1 0 0 0 5 0 0 1 0 0 0 0 0 0 0 0 0 1 2 0 -5 -4 -3 1 1 0 0 1 0 1 2 0 0 0 2 1 -1 -1 0 2 0 -3 1 1 1 1 1 0 1 0 2 -2 -1 0 1 3 1 2 2 -1 0 1 0 1 -1 -4 0 -1 -1 0 0 1 -1 -3 0 1 2 9 1 1 1 -1 0 0 3 1 1 1 1 0 0 1 0 0 0 5 0 0 -3 0 2 1 -1 1 1 1 -1 0 1 1 4 0 1 2 0 -2 1 -2 -1 -1 -1 0 1 -1 -4 1 1 0 1 2 2 2 1 1 1 0 1 0 -1 1 1 5 2 0 -1 0 0 -2 0 1 2 0 0 -1 1 0 3 -1 0 0 0 -1 -1 0 1 3 2 1 -1 1 1 -1 1 -1 0 0 0 0 1 1 0 1 1 -1 1 1 1 0 0 -1 0 0 1 0 1 -1 -1 0 1 0 1 0 0 1 1 -1 -2 1 1 2 6 1 0 0 1 0 -1 -3 -1 1 3 0 -2 -1 2 1 0 0 3 0 0 0 0 0 1 3 1 0 0 -1 -2 1 -4 1 1 0 0 1 0 0 2 2 0 0 0 0 0 0 0 1 0 1 0 1 0 0 2 1 1 0 -1 1 0 1 2 2 3 1 4 1 0 1 2 1 
0 2 1 0 0 -1 0 0 -4 0 1 0 -3 0 0 -1 0 0 0 1 3 0 0 -1 1 -1 0 1 0 0 2 2 0 2 0 0 0 0 2 1 1 -1 1 0 0 -1 1 -2 -1 0 0 0 1 1 -2 -2 0 -1 -2 -6 -1 0 1 1 1 1 3 3 1 1 0 1 0 -1 1 -1 0 -1 0 0 1 1 0 0 0 -2 0 1 0 1 1 0 0 1 -1 1 1 -1 -2 0 0 0 1 1 1 1 0 0 0 3 1 1 1 -1 -1 -1 0 1 -1 1 2 1 0 1 1 1 1 1 -1 2 -1 -3 -1 2 2 0 0 -2 3 0 -1 2 0 1 3 1 -1 1 1 0 -1 0 0 0 -3 0 1 1 -1 -3 1 2 0 0 0 1 -2 1 0 1 2 2 0 4 1 1 0 -1 0 1 0 1 1 0 0 0 2 0 0 1 1 1 0 -1 0 1 0 0 -4 -3 -2 0 0 0 1 -1 1 0 -3 -1 2 0 0 3 1 0 -1 1 1 5 0 2 0 -1 -1 1 1 0 2 -5 1 0 -4 0 0 0 0 0 2 -3 -1 3 2 2 3 1 0 1 0 0 1 2 1 2 1 2 1 1 1 2 0 1 0 1 -2 -1 1 2 1 2 3 1 -1 0 0 -1 1 -2 0 1 0 1 1 0 -2 0 2 1 4 0 0 -1 -1 1 1 1 4 0 0 1 1 -1 2 -1 1 -1 -1 1 6 0 4 1 0 -1 0 0 1 4 1 0 2 0 1 3 1 1 1 0 0 -3 0 3 1 1 1 2 0 1 0 -1 1 1 1 1 0 -1 0 0 1 1 1 0 -1 -1 -7 1 -1 0 1 0 1 3 0 1 0 1 1 0 0 0 1 0 0 0 0 0 -1 -1 0 1 -3 -1 2 1 1 0 2 0 2 3 9 1 1 0 1 1 -1 1 0 0 0 1 1 1 1 2 -1 0 1 1 0 7 1 0 2 0 0 0 0 1 1 1 -1 0 1 1 1 0 -1 0 0 2 3 1 0 0 2 1 0 -2 -1 2 0 2 1 -2 0 1 0 1 4 1 0 -1 -1 0 -1 0 1 0 1 0 0 1 0 0 -1 1 1 3 5 1 -1 0 -1 -4 0 0 1 0 0 2 -3 -3 -3 1 1 2 0 1 7 7 1 0 -1 -1 -1 -2 -1 1 0 2 0 -4 1 1 0 -1 3 1 1 1 0 1 0 1 0 0 0 0 0 1 0 -1 0 0 1 1 1 0 0 0 1 -1 0 0 1 1 0 0 0 -5 -2 1 -1 0 1 1 -1 1 0 1 -1 -1 0 0 1 0 0 -4 0 1 2 5 -2 0 0 1 0 0 -1 0 0 1 1 -1 1 1 -1 -2 1 1 1 1 0 1 1 -1 1 0 0 2 1 3 3 0 0 0 1 2 1 2 -3 -1 2 0 0 6 -1 0 1 1 1 -1 0 0 -1 1 4 4 -1 1 0 -2 0 0 0 1 1 1 1 1 0 1 1 1 -1 -1 0 -6 
-1 1 1 0 -1 -4 0 -1 -2 -1 1 0 4 -1 0 0 1 0 1 1 -1 0 0 -1 1 -2 -3 -1 0 -4 -1 1 0 0 2 0 0 -1 0 0 1 0 1 1 -1 0 3 2 1 0 1 1 1 0 1 1 1 -1 -1 -1 0 1 0 4 1 0 0 0 1 0 1 1 0 -1 0 0 -4 0 2 0 1 2 0 0 0 1 2 -2 0 0 0 0 0 0 1 0 2 0 0 1 3 0 0 0 1 1 1 0 0 1 1 0 0 2 0 1 1 0 10 1 0 0 -1 1 0 0 0 1 1 1 1 -1 -3 -1 1 0 0 0 -1 2 1 1 0 0 0 0 1 1 0 0 0 0 -3 0 0 2 4 0 1 1 1 1 1 0 2 0 1 1 -1 1 0 2 0 -1 -5 0 1 1 0 0 1 0 0 0 1 0 1 0 0 0 0 1 1 -1 0 1 0 2 0 0 0 0 1 0 -1 -5 0 1 0 0 0 0 0 1 1 1 1 1 0 1 1 0 0 2 1 1 1 2 1 1 1 -1 -3 -3 0 1 2 1 1 1 0 1 2 1 4 1 0 1 -1 0 -1 1 4 4 0 1 0 -1 1 3 1 -3 -1 0 -1 1 0 1 5 1 1 1 1 1 -3 7 2 -1 0 0 0 0 -1 0 1 0 1 0 -1 1 1 1 1 -1 1 1 1 1 1 1 -3 -1 1 -3 3 0 -2 -3 -4 2 5 1 0 0 1 1 0 1 1 1 1 0 0 1 0 2 -1 0 0 -3 -1 -1 0 1 0 0 0 0 1 0 1 2 -1 -3 2 1 2 0 2 0 1 -2 0 1 0 -1 1 0 -3 -1 1 2 2 2 1 -4 -1 0 1 1 0 -1 0 -1 1 0 0 1 0 1 -1 1 0 1 0 1 1 1 1 7 8 1 0 0 -2 1 1 1 -1 0 0 0 0 0 0 0 -2 -1 2 0 0 1 0 0 2 0 5 0 1 1 1 0 -7 0 1 0 3 -1 2 1 0 1 0 0 1 1 0 0 1 -1 1 0 1 0 2 3 1 0 -1 0 0 0 0 -1 0 2 0 1 0 -1 0 1 2 0 1 1 -1 0 0 0 1 0 1 1 0 -1 -1 1 0 1 0 0 1 1 -5 -4 -1 0 0 1 1 1 2 0 2 1 -1 -1 2 0 1 1 0 0 0 1 -1 0 0 0 0 0 6 0 2 1 0 0 1 0 -1 1 -1 2 1 0 2 1 -1 1 0 0 0 0 1 0 1 1 -1 -1 -1 1 1 2 1 2 1 0 0 1 1 0 1 1 1 0 1 1 1 0 1 3 2 0 0 0 1 -1 1 3 -1 1 0 1 1 0 2 1 2 1 2 2 0 0 1 2 1 -1 0 0 2 2 1 3 0 1 1 1 1 1 3 0 0 0 1 1 1 0 1 4 1 -1 1 0 0 0 -1 1 0 -1 1 -1 0 0 0 0 1 0 -3 -2 0 0 0 1 -1 1 -1 -1 -1 -6 
0 0 0 0 0 0 0 0 -3 0 -1 1 1 0 0 -1 1 1 1 0 -1 2 0 2 1 0 0 0 1 0 1 -1 0 0 1 0 -1 -1 1 1 0 0 0 1 -1 1 0 0 0 0 0 0 1 0 -1 1 3 1 1 0 0 -1 0 1 0 2 1 -1 3 5 3 0 -4 -1 0 1 1 0 0 0 0 1 1 1 0 0 1 2 1 0 1 0 0 0 0 1 1 1 1 1 0 1 2 1 2 1 2 0 0 0 0 0 0 0 2 1 2 0 0 -1 -1 1 0 1 1 1 2 1 0 0 0 1 1 -1 1 0 -1 0 0 0 0 5 1 1 1 0 1 0 0 1 0 1 0 1 0 0 1 1 5 5 0 2 1 0 1 1 1 1 1 -1 -2 1 0 0 0 -1 1 1 0 2 1 1 1 0 0 2 1 1 -1 1 0 0 1 0 -5 2 1 -3 0 0 -1 1 1 0 2 -4 2 0 3 1 0 0 0 2 0 1 5 5 -1 0 -1 1 -1 1 0 2 1 10 7 1 4 4 0 0 1 1 0 1 1 -1 0 0 1 -1 1 -5 0 -4 0 1 0 0 3 2 1 3 -1 1 5 2 0 0 0 7 1 0 1 1 0 -1 1 1 0 1 0 1 1 2 2 1 2 2 -2 0 -1 -4 -2 0 0 0 0 1 2 3 0 0 3 1 0 0 0 0 0 1 1 0 -1 2 0 2 1 1 1 2 4 -1 0 2 2 0 0 0 1 1 -1 1 1 0 0 1 0 1 1 -1 0 0 2 0 -2 1 1 1 1 -1 3 0 0 1 0 0 1 1 0 1 0 1 0 0 0 1 1 0 1 -1 1 1 0 -1 1 0 1 -1 0 0 -1 2 -1 2 0 1 0 -1 1 1 0 0 -3 0 1 0 0 1 2 0 1 -1 -1 0 -3 0 5 0 0 1 1 1 0 1 1 0 -2 0 -5 -1 2 1 1 1 0 1 5 1 -1 1 0 -2 -1 -7 0 0 1 0 1 -3 -1 0 1 0 1 -2 -2 -2 1 1 -1 0 1 1 0 1 0 -1 -1 0 1 1 0 2 -4 0 1 0 0 1 0 0 1 0 0 -1 0 0 0 2 -1 0 1 0 1 -4 0 1 1 2 0 -7 -1 -3 0 0 -1 0 0 2 0 1 2 0 1 1 0 0 1 1 2 0 0 0 1 1 0 1 0 1 2 4 0 0 0 0 2 1 -1 0 -3 1 1 0 0 1 0 0 -1 0 1 1 -3 0 0 0 0 5 0 2 2 1 1 0 1 0 0 1 1 0 1 0 -1 1 1 1 1 2 -2 0 0 0 0 0 0 -4 1 1 -3 -1 4 1 -1 1 0 1 1 0 1 1 -1 0 1 0 0 0 4 0 2 0 2 2 0 1 2 -1 0 0 1 1 1 0 0 1 0 2 1 0 1 -2 0 -1 -3 0 0 1 1 -2 0 5 0 0 0 0 -1 0 1 1 1 0 -7 -1 3 -2 -1 1 
0 -1 0 -1 1 -1 0 0 -1 0 1 1 1 0 1 0 1 1 0 1 -1 3 1 1 2 3 1 0 0 1 2 -2 0 2 0 0 1 0 1 5 1 0 -1 1 1 0 0 1 0 1 0 1 1 2 0 -1 0 -1 1 0 1 1 2 1 -1 1 1 -1 1 0 3 1 2 0 -1 0 1 3 2 1 -1 1 -1 -1 0 -4 1 -1 0 0 -2 -1 1 1 0 0 0 -1 -1 -1 1 1 0 0 1 4 1 2 1 2 1 0 0 0 -1 0 -1 0 1 1 0 1 1 4 0 1 1 -3 1 0 5 1 0 0 1 0 -1 1 0 2 3 1 -2 1 1 0 1 -1 1 1 3 1 2 5 1 1 0 2 1 1 0 2 1 0 0 0 1 0 0 1 -1 2 0 -1 -1 -1 -1 0 1 6 2 -1 2 0 0 1 1 -1 0 0 0 0 0 0 -6 0 0 1 0 0 0 1 1 0 0 2 1 1 0 -2 1 2 1 0 1 1 0 2 5 -1 2 0 2 0 1 1 1 3 2 4 2 1 -1 0 1 0 0 1 0 0 1 1 1 1 1 0 -4 2 2 2 -1 -1 -7 1 2 1 1 2 1 9 2 0 2 4 0 1 1 0 1 -1 1 0 -1 0 0 5 -1 1 1 2 1 1 0 2 0 1 0 -1 0 1 2 0 -1 0 1 0 0 -1 -1 1 1 2 0 0 1 0 1 0 0 2 1 2 2 1 0 1 1 1 0 0 1 0 0 0 1 0 1 1 1 3 1 0 0 0 2 1 1 1 0 1 1 -1 1 1 2 0 1 -1 -1 -1 0 0 0 -1 -1 0 1 2 1 -1 1 0 -1 0 1 0 -4 -1 0 -5 0 1 1 -1 0 0 0 -1 0 -1 -1 0 -1 1 1 0 0 1 -1 -2 0 0 0 5 0 -1 1 1 -1 -2 1 7 0 1 1 0 1 1 6 0 -1 0 -4 -2 0 1 1 -1 1 2 7 2 1 0 -2 0 0 1 1 1 1 0 0 0 0 0 0 1 -1 2 0 1 1 1 -1 0 -1 0 1 2 1 0 0 0 -1 0 0 -1 1 5 0 0 2 1 0 -2 0 -3 0 2 4 2 3 2 0 -1 1 1 0 0 0 -4 0 0 0 0 -4 0 0 -2 -5 0 0 1 0 1 1 1 0 0 1 0 0 2 1 1 0 0 -3 1 2 0 1 0 0 2 1 1 0 0 1 0 0 1 1 2 1 0 -1 0 1 1 0 0 1 1 0 2 0 1 1 1 1 0 -1 1 0 0 0 -1 4 0 4 0 0 1 0 1 1 1 0 5 1 4 0 0 2 -5 -1 -5 -1 2 0 1 1 1 0 0 1 -2 0 1 1 1 0 0 1 0 0 0 0 0 0 1 0 1 0 1 -1 0 -1 1 5 3 1 1 0 1 1 0 1 0 1 4 1 -2 -1 -1 0 -4 1 0 1 2 0 -1 1 0 1 1 2 1 1 1 1 0 1 0 0 0 
0 2 1 -1 0 1 -1 0 3 1 0 -1 -1 2 0 1 -1 0 0 1 3 1 0 0 1 1 1 2 1 1 0 0 2 0 -1 1 0 0 1 0 3 -1 -1 0 1 1 1 1 1 1 0 0 1 -1 -1 1 -2 0 1 4 2 1 1 0 0 -1 0 2 0 1 0 -1 1 0 0 1 0 1 -3 -1 1 0 0 0 2 0 0 0 0 2 1 2 0 2 0 1 -1 -1 -1 0 1 1 0 2 1 4 0 2 0 4 0 1 3 -1 -4 -1 0 -1 -1 0 -1 1 -2 0 1 0 -2 0 -1 0 -1 1 1 0 0 1 0 0 2 0 1 1 -1 1 0 2 0 0 0 0 8 1 1 0 1 1 0 -1 0 0 1 2 0 -2 1 2 1 0 0 1 1 0 2 1 1 0 1 1 1 0 0 2 1 0 -1 1 0 2 0 1 1 2 1 0 2 0 -1 0 0 0 1 1 0 0 0 0 0 0 -4 1 0 0 4 1 1 2 1 0 1 2 5 1 0 -1 1 -3 0 0 1 0 0 1 -1 0 1 1 0 0 0 -1 1 1 0 0 1 -1 1 0 0 -1 0 1 0 0 -2 0 1 -1 0 1 0 3 0 0 0 -3 1 0 0 1 -1 1 0 0 0 0 0 -3 1 2 1 0 2 -1 2 0 -1 0 1 0 0 0 1 1 1 2 0 0 1 0 -1 0 0 0 1 0 1 0 1 2 -1 2 2 -1 0 1 1 0 -2 0 1 -1 2 1 1 1 0 -2 3 1 0 -1 0 2 -2 1 -1 -1 -1 0 0 0 -5 0 1 1 0 -1 0 -1 1 0 -5 0 2 0 1 1 0 -1 2 1 1 -1 0 -1 1 2 -5 -1 1 -5 1 1 0 0 1 1 -1 1 0 -1 5 6 0 1 0 1 0 1 0 1 2 -1 2 -1 1 0 -3 -1 1 1 0 0 0 0 1 0 1 -1 1 0 1 1 0 1 0 -2 1 1 0 0 -1 0 -1 -1 0 1 -2 0 -2 0 0 0 1 0 2 0 0 1 1 2 0 0 0 -1 1 1 1 6 7 4 1 5 0 0 0 0 3 1 0 0 2 2 0 1 0 -1 -1 0 1 7 2 0 2 0 0 1 0 1 1 0 0 0 0 -4 0 -1 0 1 0 -1 1 1 0 1 0 0 -1 2 0 0 7 2 1 1 0 1 0 -1 3 -1 0 -1 1 1 5 1 0 0 -1 1 2 1 1 4 0 1 0 1 -2 0 2 0 1 0 3 0 1 2 1 0 0 5 -1 1 1 0 1 0 1 1 2 2 0 0 1 0 0 0 0 0 0 0 1 0 -2 -8 -1 0 2 4 0 1 -1 0 1 1 0 1 0 1 0 0 -3 0 2 2 0 1 0 1 1 0 0 0 1 1 0 0 -2 1 0 -1 1 -1 1 1 1 0 0 1 6 1 1 1 0 2 1 0 -6 -1 1 1 -1 0 0 1 -2 0 0 1 0 1 0 1 1 1 0 -1 
0 1 0 1 1 0 0 0 0 0 1 1 0 2 0 -1 -1 0 -1 1 0 0 1 3 2 0 1 1 0 2 2 1 1 5 2 0 0 0 1 1 1 1 2 0 3 1 1 0 0 0 1 0 0 1 1 0 1 -1 1 -1 0 -3 -3 -1 0 0 -3 0 1 0 0 2 2 0 -2 2 0 0 -1 1 0 0 0 1 4 3 2 0 0 -3 0 5 1 1 1 -1 1 1 -1 1 1 1 0 1 0 0 0 1 1 1 1 0 2 1 1 3 0 0 0 2 1 -1 0 1 1 1 1 -1 0 0 1 0 1 1 0 0 1 1 1 1 4 1 1 2 1 2 1 1 1 0 -1 -1 0 -1 -1 0 0 -4 0 0 2 -1 0 -1 0 -1 1 -4 -1 0 1 1 0 0 -2 0 0 -3 0 1 0 0 0 1 2 2 0 0 -4 0 0 1 0 0 1 1 1 1 -2 1 0 1 -1 0 0 -2 0 0 0 0 0 0 2 0 0 1 -1 1 -1 0 0 1 1 3 -1 -4 0 0 1 -1 1 2 0 1 0 0 0 1 -5 0 0 2 0 0 1 1 1 -1 0 1 -1 1 1 2 1 -2 1 1 1 1 1 0 -1 0 0 2 1 1 1 1 -4 -1 1 1 2 1 1 1 1 0 0 0 4 1 -2 0 1 -2 1 -1 0 0 2 2 1 1 4 -1 -1 -1 0 1 0 1 4 0 0 0 1 -2 1 0 2 1 1 1 0 1 -1 0 0 1 1 0 0 1 1 1 1 0 -1 1 0 0 1 2 0 1 -1 -1 1 1 -2 -1 1 -1 0 1 2 2 0 0 0 0 1 1 1 0 0 -5 -1 1 5 1 1 0 0 0 -2 -1 0 1 0 2 0 0 0 1 0 1 6 1 1 -1 -1 1 0 0 0 0 1 0 0 0 1 1 1 0 1 1 2 1 0 0 0 -1 1 1 4 1 1 1 1 0 0 -1 1 1 2 3 0 0 0 0 1 1 0 1 1 0 0 -3 -1 2 2 1 1 3 2 -1 1 1 0 2 0 1 0 6 2 1 1 2 6 2 4 0 1 0 2 0 1 1 0 -1 0 4 1 1 0 0 1 -2 1 0 1 1 1 1 1 0 -2 1 0 1 2 0 0 1 -1 0 1 1 0 2 -1 -1 1 1 1 1 0 1 1 1 -1 0 0 1 0 0 1 1 5 -1 1 -1 1 1 1 0 0 2 1 3 1 1 1 1 1 0 2 1 1 0 -1 -1 0 2 4 1 1 1 1 0 0 1 0 1 0 1 -1 1 1 0 1 0 -1 0 1 0 0 0 -2 2 1 -2 -5 -1 0 2 0 0 0 -2 1 0 1 1 0 1 1 0 1 0 -3 0 0 0 1 0 3 0 -1 0 0 -1 1 0 0 0 2 0 -1 0 -1 -1 -1 0 1 0 1 6 1 1 0 -1 0 1 1 0 -1 2 0 0 1 0 -1 0 1 -1 1 0 0 1 1 0 0 1 1 0 
0 1 -1 1 2 0 -1 1 0 0 1 -1 0 1 1 -1 -3 2 0 1 0 0 0 1 -1 1 1 2 0 0 1 0 -2 0 1 0 0 1 1 1 0 0 0 -7 0 0 2 1 0 1 1 2 0 0 2 0 0 2 -1 0 -1 0 0 -1 1 -1 1 1 1 0 0 0 1 1 1 1 0 2 0 0 0 1 1 1 1 6 0 0 0 -3 1 -2 1 0 1 -1 1 1 1 1 -1 0 1 0 0 -1 0 1 0 1 0 1 3 0 6 5 0 1 -1 -2 1 1 -1 -2 0 1 1 1 -1 0 1 0 1 0 0 0 0 1 1 0 1 1 -1 1 1 0 1 0 -4 -4 -1 -1 -1 1 1 0 0 1 1 2 0 -5 1 1 1 0 -2 -5 -1 0 0 -1 0 5 0 1 -1 0 1 1 -1 0 -2 -3 -1 0 1 2 1 1 0 2 -1 -5 0 0 1 1 0 2 0 -1 -1 0 1 1 1 0 0 1 -4 1 1 0 1 -2 0 0 0 -1 -1 0 0 1 1 1 5 1 1 1 2 1 1 0 0 0 -1 2 1 1 0 0 0 1 0 1 0 1 2 1 0 0 0 1 0 0 0 1 0 -2 1 1 -1 -1 0 1 1 1 0 2 0 0 0 -1 0 1 1 0 1 1 1 1 1 1 0 0 0 1 0 1 1 1 0 1 1 1 -1 2 1 0 1 1 1 0 0 1 2 0 1 1 1 0 1 -1 0 0 -1 1 0 1 -1 0 -1 1 1 0 0 1 0 1 0 0 -3 1 0 5 1 1 0 1 -2 0 0 -1 0 0 2 -1 -2 1 1 0 0 0 0 1 1 1 2 -1 1 -2 3 0 1 1 0 -1 1 0 3 1 0 1 0 1 0 3 1 -4 1 0 1 0 0 -5 -3 1 -1 -1 -1 0 1 -1 0 0 0 0 1 1 1 0 -1 1 0 2 -1 2 6 1 0 -1 1 0 2 2 0 2 1 1 1 0 2 -1 1 -1 0 -1 0 0 3 0 1 0 1 1 2 0 -4 0 1 -1 -2 0 1 1 1 1 1 0 0 -1 0 -1 1 1 0 1 0 0 0 1 0 1 1 1 1 2 5 2 0 -1 1 -1 1 0 0 0 0 0 0 1 -1 1 5 3 6 0 -5 0 1 1 0 0 1 -2 0 2 -2 0 1 2 -2 1 2 1 0 0 3 0 -2 -1 2 1 0 0 0 1 -2 0 1 1 0 0 2 2 1 0 0 -1 1 0 4 0 0 0 0 1 2 1 0 0 1 0 -1 0 0 1 0 0 -1 0 2 0 -1 1 0 1 0 0 0 0 0 1 0 -1 1 -1 1 0 0 -1 0 2 0 3 2 2 1 1 0 -1 1 0 0 2 0 2 -1 1 1 0 -1 1 1 1 0 0 1 1 -1 0 1 0 -1 0 0 1 0 -4 1 1 0 0 2 1 1 1 0 0 -1 1 0 0 -2 0 0 0 0 2 0 1 0 1 0 2 0 0 1 0 
0 1 1 1 1 0 -1 1 2 1 0 0 1 -1 0 2 1 0 0 0 1 -1 0 0 1 1 0 1 1 1 0 0 1 1 0 0 0 1 1 1 0 1 1 0 1 -1 2 1 3 0 0 1 1 0 0 0 0 2 0 0 0 0 1 1 0 1 0 4 -2 0 3 0 0 0 0 0 1 1 0 1 0 2 1 -1 1 1 9 1 0 0 1 0 0 0 -3 1 -1 1 0 1 1 0 -1 0 0 0 1 3 0 1 -1 1 1 -1 1 0 0 2 0 -1 0 0 1 0 0 -1 0 0 0 1 0 0 1 0 0 -1 0 0 0 0 -1 -1 0 1 0 0 0 0 0 0 -1 1 2 1 0 -4 0 1 1 0 -1 -2 0 1 1 1 0 0 0 1 1 0 2 0 1 0 0 0 1 0 0 -5 -1 0 -4 0 0 -1 1 0 1 4 0 0 1 -1 0 1 -1 -1 0 0 -2 0 -2 1 0 2 1 1 0 0 0 1 1 0 -2 0 1 1 1 0 0 0 0 1 0 0 0 0 0 -1 -1 1 0 0 1 0 -1 0 2 1 1 -2 1 -1 0 1 0 1 1 2 0 1 1 0 4 1 0 -2 0 0 -1 2 0 -1 -6 0 6 4 1 1 0 0 0 1 1 0 2 3 1 0 1 2 1 1 -1 4 1 -1 -2 0 1 -5 2 1 1 -1 1 0 1 0 1 1 -1 0 1 0 -1 1 -1 -2 1 0 1 0 2 5 1 2 0 0 -1 -5 -3 0 6 1 1 0 0 0 1 -2 -1 1 1 1 1 0 1 0 0 0 0 0 0 0 0 1 2 2 1 1 5 1 2 0 0 1 1 0 1 0 1 1 2 0 0 0 0 1 1 0 1 2 0 1 -2 -1 0 0 -1 -2 1 0 -1 -2 0 0 2 0 1 2 0 0 -1 1 1 0 1 -1 1 0 1 1 0 1 0 -1 -3 -1 1 0 1 1 1 -1 0 0 0 0 1 1 -4 -1 -3 0 0 1 -1 -1 0 -1 0 0 0 0 -1 1 1 0 1 0 0 1 1 0 0 -1 1 1 -3 -3 1 0 1 0 1 1 2 0 -1 -2 1 0 1 -2 1 0 2 0 -1 0 0 0 1 -1 1 0 1 1 1 2 2 1 1 1 1 4 1 0 1 2 -1 2 0 1 0 4 1 0 0 -1 -1 0 0 0 0 2 0 0 0 -2 -1 0 0 3 1 2 0 2 1 0 1 0 0 0 0 1 1 -4 0 -1 0 2 1 2 5 1 0 2 1 1 1 1 0 1 1 2 0 -1 1 0 0 2 0 5 -1 0 0 0 3 1 0 1 0 1 -1 1 0 0 0 1 2 9 1 0 1 0 -1 0 -2 1 0 1 0 1 2 3 1 1 0 1 0 1 0 1 0 0 1 0 0 0 2 1 0 0 0 0 -1 1 2 0 -1 1 -1 0 0 1 2 1 1 0 0 0 1 1 -1 -3 -3 0 0 0 0 2 1 0 -2 -7 
2 0 0 -2 -1 1 1 2 -1 3 2 0 0 0 0 7 1 1 1 2 1 0 0 3 0 1 0 1 5 1 1 2 0 0 1 0 0 2 0 1 4 6 2 -1 0 1 0 1 0 0 -2 0 0 1 1 0 0 1 2 0 -2 1 1 0 1 -1 0 -1 -2 0 0 0 1 0 0 0 0 0 1 1 0 1 1 1 0 1 2 5 2 4 0 0 1 1 -1 6 2 -1 1 0 0 0 0 0 2 -2 0 -3 1 0 0 -1 0 1 -1 1 -1 0 -5 -7 0 0 0 1 0 2 0 2 0 -2 0 0 -1 0 0 0 1 2 2 0 0 1 0 0 3 1 2 0 1 1 0 -2 -1 1 0 0 0 1 -1 0 2 0 0 -1 0 1 -1 -1 2 1 1 1 0 1 2 1 -1 0 4 1 1 0 0 1 1 1 -1 -1 -1 1 2 2 1 0 1 0 0 1 1 0 0 4 0 2 2 0 1 1 1 0 1 3 2 0 0 0 -1 0 2 1 0 1 0 0 0 2 1 1 1 1 0 2 0 2 -7 1 0 0 5 1 1 0 2 1 0 0 -1 0 0 1 1 1 1 0 1 0 -1 0 1 1 -3 0 1 0 1 1 1 0 1 2 0 1 0 1 0 -3 1 1 0 0 1 1 0 0 0 0 0 2 1 1 1 0 1 -1 1 1 2 1 1 1 1 -1 1 3 0 2 1 1 0 1 2 0 -1 1 0 1 0 1 0 -1 0 0 -1 1 2 1 0 1 2 1 1 1 0 -1 0 0 0 1 0 0 0 1 0 0 -1 -1 0 3 0 -2 0 2 0 0 2 6 0 -1 -9 0 0 1 0 0 0 1 1 3 0 0 1 0 4 5 1 0 0 0 1 0 1 0 0 2 1 1 -3 -1 1 0 1 0 1 1 1 -1 0 1 1 0 -2 -1 0 0 -3 1 1 -1 0 -1 -2 0 2 0 2 -2 0 -1 0 0 1 0 1 -3 -1 0 -1 1 0 0 2 1 -1 -1 0 0 1 0 -1 -2 -1 -1 1 1 0 0 0 0 0 0 1 1 -1 1 1 4 0 0 2 0 0 -1 -3 0 2 7 1 0 1 1 0 -1 -2 1 0 1 2 0 0 2 1 0 0 0 1 1 -3 1 1 0 2 0 2 1 -1 1 -2 -1 1 0 1 0 1 0 3 1 0 0 1 0 0 0 -3 -7 0 0 0 0 4 1 0 0 1 0 0 0 1 -1 1 0 1 -1 -1 0 -3 0 1 0 1 0 1 1 1 0 0 0 0 0 0 1 0 1 1 1 1 1 1 0 2 0 0 1 4 0 -1 0 0 1 0 0 1 1 6 1 1 2 0 2 0 0 0 0 -3 1 0 0 1 2 1 0 0 0 -2 0 1 1 -2 0 1 1 2 1 1 2 1 0 -1 0 3 2 1 0 1 0 1 0 0 1 0 0 1 2 2 1 -1 0 2 0 1 0 0 -3 0 0 0 2 0 1 0 1 
1 1 0 1 -1 1 1 0 1 1 0 3 0 1 0 0 0 2 1 0 -2 0 0 1 0 0 0 -1 1 0 1 1 1 1 1 0 1 0 2 2 1 1 0 1 1 1 2 0 1 0 2 0 -1 1 0 0 2 0 1 1 0 -2 1 0 -2 0 0 0 -1 -3 -1 -1 0 0 -1 1 0 -2 0 2 0 1 1 0 0 0 2 0 2 2 0 0 1 0 0 -1 0 1 0 0 1 1 1 -2 1 2 0 -1 0 -3 0 1 0 1 1 0 -2 0 1 0 -2 -1 1 1 1 1 1 1 0 1 0 0 1 1 2 1 1 5 -1 -1 2 1 1 2 1 1 1 1 1 1 0 1 0 2 0 -2 -1 0 0 -1 0 0 -1 -3 0 -3 -1 1 5 1 -4 0 -1 0 1 1 -1 0 1 -1 1 0 0 1 1 1 1 -1 -3 0 0 1 1 7 1 -1 2 0 0 0 0 1 -1 1 1 0 1 0 1 1 1 1 -1 -1 0 0 0 0 1 2 0 1 0 0 0 1 0 -1 0 0 1 1 2 -1 0 1 1 1 0 1 1 0 1 1 -3 1 0 0 0 0 0 1 0 0 0 2 1 1 1 1 0 0 1 2 2 1 0 0 1 0 0 2 0 0 0 1 -1 1 2 -1 1 1 -1 -6 0 0 1 1 0 -1 0 1 1 -3 1 0 -1 1 1 -5 1 1 -2 1 4 2 0 5 -1 0 0 1 2 -1 -1 1 0 -1 1 0 3 2 1 3 3 1 1 -3 0 2 -1 1 0 0 1 0 1 0 4 0 -1 0 0 1 2 1 2 2 0 -1 1 -1 0 1 0 6 0 0 -1 -2 0 0 0 1 -1 0 1 0 2 2 0 0 1 0 0 3 1 2 1 1 2 1 3 1 0 2 0 1 0 -1 0 -1 1 1 1 -1 2 4 1 1 1 1 1 1 1 0 -1 0 1 1 -1 0 2 0 0 -1 -1 -1 1 1 1 0 -1 -4 1 1 1 -2 1 2 0 1 1 1 1 0 1 -1 0 0 1 2 2 1 0 0 0 1 1 1 -1 1 1 1 0 1 1 0 2 1 0 1 -1 -1 2 1 1 0 1 1 1 0 2 0 0 0 0 1 1 0 0 0 0 -2 -1 0 -1 0 0 2 2 1 -1 0 1 0 -2 -1 1 0 1 1 0 -3 1 2 1 0 -1 0 0 0 0 1 0 0 0 0 1 0 0 1 0 0 -1 0 0 -6 1 1 0 0 0 -1 1 0 0 2 1 1 0 0 0 1 -2 -3 0 -4 1 -2 -1 0 1 1 -1 0 1 2 -1 -1 0 1 5 -1 0 1 -1 1 2 0 1 1 1 1 1 0 0 -1 0 -1 0 0 -1 1 0 1 0 2 2 1 2 0 1 1 0 -1 0 0 0 0 0 0 1 0 1 0 -1 1 1 1 1 0 1 0 0 0 1 0 1 2 1 1 0 1 -1 1 0 0 0 0 0 0 1 -2 1 0 1 1 2 2 
1 1 3 2 0 -1 1 0 4 0 0 0 0 0 1 1 1 -3 1 2 0 2 1 -1 0 -1 -4 0 2 4 1 1 -1 0 0 1 1 0 1 1 1 0 4 0 0 1 0 -1 0 1 0 -3 0 0 2 -1 -2 0 -2 -3 1 0 -1 1 0 -1 0 -4 -1 1 0 1 6 0 0 1 1 0 -1 0 0 0 2 0 1 1 0 0 1 0 2 1 1 2 4 2 2 -3 0 6 -1 0 5 1 0 1 0 1 2 1 -2 1 1 6 0 0 0 -1 2 1 0 0 1 1 2 2 1 1 6 0 -1 0 0 -1 0 0 1 0 0 0 -5 -4 1 0 -1 0 0 2 0 -2 0 -2 0 1 -1 1 0 1 -2 1 2 0 -3 -3 0 0 -1 0 1 1 1 0 0 0 1 0 0 0 2 1 1 0 2 0 0 -1 -1 0 -1 1 1 -3 0 -1 1 2 0 1 -4 1 0 0 -1 0 1 0 0 0 1 1 1 0 0 0 2 1 -1 1 -1 1 0 0 0 0 0 0 0 -1 1 0 -1 0 -1 1 0 1 0 0 0 1 0 1 1 5 1 0 0 1 0 0 1 2 1 1 0 0 0 1 3 -2 0 -1 0 0 0 2 3 1 1 -1 0 0 0 0 0 1 0 0 0 0 1 2 1 1 1 1 0 0 -7 -7 -1 0 0 2 0 2 0 1 1 0 2 2 1 2 3 1 1 2 0 0 -1 0 0 1 1 0 0 1 2 2 1 0 0 1 1 1 6 0 0 0 -1 0 0 -5 1 0 0 -1 0 -3 -1 -6 0 2 1 -1 1 -4 -2 1 1 1 1 0 -1 1 -1 -1 0 1 1 0 0 1 -7 1 0 1 0 0 0 0 1 1 -1 0 0 0 0 0 0 0 0 1 -1 0 4 0 0 2 0 0 0 -1 0 1 1 1 -1 4 0 1 1 -1 0 0 -1 1 1 -3 0 0 1 1 0 0 0 0 0 1 3 0 0 -2 1 0 0 0 2 0 0 1 -1 -1 0 0 -1 1 2 0 0 0 1 0 0 1 1 0 1 1 0 -1 -3 0 -1 -1 0 0 2 0 -1 1 5 0 1 0 0 1 1 0 1 1 3 0 0 0 1 2 0 -2 -1 0 0 -1 -6 -4 0 4 1 1 2 0 -1 0 -1 0 -1 1 2 1 0 0 0 0 0 1 1 1 0 1 1 1 0 0 0 -1 0 1 0 1 1 1 -1 1 2 0 -2 -1 -3 0 -6 0 1 0 0 1 1 0 1 0 0 -2 0 0 2 0 1 1 2 0 1 0 0 1 1 0 0 1 1 1 0 0 0 -4 -3 2 0 3 -1 1 0 0 2 0 1 -1 -2 1 0 0 0 -1 3 1 0 1 0 2 -1 0 0 0 -1 1 0 1 2 1 0 1 0 0 2 0 1 0 0 1 0 1 0 0 0 0 -1 1 0 1 0 0 1 0 0 1 0 0 0 1 2 1 0 1 0 0 0 1 5 1 9 2 
-3 0 2 1 1 2 -1 0 1 0 0 0 2 0 2 0 0 -1 1 0 1 1 0 -1 0 0 -1 1 1 2 2 1 0 0 0 1 0 1 2 -1 1 3 1 0 0 6 1 1 2 0 2 0 1 1 0 0 1 -3 0 0 1 0 0 0 0 -2 -1 0 0 -1 0 1 1 0 1 0 1 1 0 -1 0 -1 0 1 1 0 0 0 0 0 0 5 1 2 2 6 1 0 -1 0 0 0 1 0 0 3 2 0 3 -1 1 2 2 0 2 -1 0 1 0 0 0 1 -1 1 0 0 0 1 0 0 -1 -3 -4 0 1 1 0 0 1 1 0 0 1 0 -1 0 0 1 1 1 -2 -4 0 -3 -4 2 0 0 3 0 1 0 -5 -2 1 -1 -1 2 1 0 4 1 0 3 1 0 0 0 2 -1 0 0 1 0 1 2 1 1 1 0 -1 0 0 -4 -1 0 0 2 1 -1 0 1 0 -2 -2 1 1 0 0 0 0 1 1 1 1 1 10 2 0 -1 -1 0 1 0 1 0 -1 1 -1 -1 1 1 1 -1 1 0 1 1 0 0 0 1 1 1 0 1 2 1 0 0 0 0 0 0 1 3 -1 0 2 0 -2 1 1 1 0 2 1 1 -2 2 1 0 0 1 -1 0 0 0 0 1 1 -1 1 1 1 2 1 1 -2 1 0 1 2 0 0 -3 0 0 0 -1 0 1 3 -2 -1 0 2 1 0 0 -1 0 0 0 0 -1 1 0 0 0 0 1 0 1 0 1 0 3 1 5 1 0 0 0 0 0 1 -1 0 0 0 0 1 1 -2 0 1 1 2 1 1 2 -1 1 1 -1 0 -6 -1 0 1 1 1 0 -1 0 0 -1 0 1 0 0 0 0 -1 1 1 1 1 1 -1 0 0 1 1 1 1 2 1 0 1 -2 0 -4 0 1 -1 1 1 0 1 3 -2 -3 1 0 0 0 -4 -6 -1 -1 -5 -3 0 0 0 -1 -1 0 1 1 1 1 -1 0 2 2 0 0 0 0 0 1 2 1 2 0 1 0 0 -1 0 2 2 2 0 -4 -1 -1 -1 1 0 0 0 2 1 0 1 0 1 0 0 0 1 0 1 1 0 1 2 5 1 3 1 0 0 -1 -1 2 2 0 0 0 0 1 1 2 2 2 2 1 1 1 -4 0 0 0 0 0 8 1 -1 1 0 2 1 0 0 0 -1 -1 3 -1 1 2 -1 0 0 0 0 -1 1 -1 0 1 0 3 -1 0 0 2 1 0 1 0 0 1 0 0 1 2 0 1 1 4 0 -1 1 0 0 0 1 0 0 1 0 0 -1 0 0 0 1 1 -4 0 4 2 1 1 1 0 1 1 0 1 0 0 0 -3 0 2 1 5 3 4 1 0 0 0 0 5 0 2 1 0 1 1 1 -1 0 5 1 2 0 0 0 0 0 0 0 -1 1 0 2 4 3 0 0 1 1 2 0 0 1 0 0 0 3 1 -1 0 0 1 1 2 1 1 2 1 
-4 1 0 3 0 -1 1 0 0 -1 1 1 0 1 2 1 0 2 1 2 1 1 0 1 1 0 0 0 0 0 0 0 0 0 1 0 1 0 1 0 1 0 0 1 0 1 0 2 0 1 0 1 2 0 1 2 1 1 0 1 -1 -1 1 2 -1 -5 0 0 -1 -4 1 -2 2 1 1 0 0 1 0 2 0 2 1 2 0 0 2 0 -1 1 2 5 1 0 0 -1 4 1 1 0 -1 -2 -1 -4 0 1 0 1 1 0 1 4 0 1 1 0 2 1 1 2 0 -1 0 0 1 -1 1 1 0 -1 0 -1 -1 0 1 0 0 1 0 -1 0 -3 0 1 1 1 1 0 0 1 0 -1 1 -2 1 1 1 0 1 3 1 -3 0 0 1 0 0 1 4 0 -1 1 0 1 0 -2 1 0 0 2 0 0 -3 -1 0 1 0 2 0 -1 1 0 0 1 0 -2 -1 -1 1 1 0 1 0 -1 1 1 0 0 0 2 0 0 0 1 1 1 1 1 0 1 1 -1 0 0 1 1 0 0 -1 0 0 0 5 1 0 2 1 1 -3 0 1 0 0 0 0 1 0 -1 0 2 2 0 -1 2 -1 0 2 0 0 1 0 0 0 0 -1 -1 1 2 1 7 2 -1 -3 0 1 2 1 0 -2 1 0 -1 -1 1 2 1 -1 0 1 1 0 0 -1 2 -1 0 1 0 0 0 0 0 1 2 1 0 0 1 0 0 1 0 1 0 0 0 1 0 3 1 0 -2 -2 1 0 0 0 0 1 1 0 5 0 2 0 0 0 2 2 0 1 1 1 1 0 1 1 0 2 0 0 0 1 2 0 0 1 0 1 1 0 1 2 5 2 1 0 -4 2 1 0 0 -1 0 0 0 0 -1 0 1 0 1 -1 0 -1 0 0 0 -1 0 0 0 0 0 0 -1 0 0 1 0 2 0 1 0 2 0 0 -1 0 0 1 0 -3 -1 2 -3 -3 0 -2 1 -1 1 1 0 0 1 0 1 0 2 1 0 5 0 2 0 2 0 -3 0 1 0 1 0 0 0 -2 -4 0 0 0 -2 -1 0 2 3 0 1 0 0 0 1 0 0 1 -3 0 1 0 2 3 6 3 3 1 -1 0 0 -5 0 0 0 3 2 0 0 2 2 0 1 0 4 0 0 0 1 0 0 1 4 -1 1 1 0 0 1 0 1 4 4 0 -2 1 0 0 1 0 1 0 0 -1 0 1 1 -1 2 0 1 2 4 6 0 0 0 6 0 -3 -1 0 1 1 1 2 0 1 0 0 0 0 0 0 0 0 0 1 0 1 1 -2 4 0 0 0 -1 -2 0 1 0 0 1 0 -1 7 1 0 0 0 -5 0 1 -1 1 1 7 4 0 0 1 1 3 2 1 -2 1 -1 0 -1 0 2 0 2 0 5 1 -1 0 1 1 0 0 -1 0 1 1 -2 1 1 0 1 0 0 0 0 0 -1 0 2 0 2 0 0 -1 0 3 1 0 0 1 2 0 
0 0 1 2 1 0 0 1 0 1 1 2 0 2 0 2 0 1 1 0 1 1 1 2 -1 -3 2 0 -1 1 0 1 1 0 0 0 1 1 1 0 0 -1 0 1 0 1 0 0 1 0 0 0 1 0 0 1 1 1 -3 0 -1 0 1 1 1 1 0 0 0 -1 -1 -1 0 0 -4 0 -1 1 0 0 3 0 0 0 1 0 -1 -1 1 2 0 2 1 0 1 0 1 0 1 0 0 0 0 1 1 0 0 1 2 1 0 1 2 2 0 0 1 0 2 4 3 1 -1 0 1 0 0 -1 1 1 0 1 2 0 1 1 0 0 -1 -3 -5 1 0 -1 3 1 0 1 2 2 0 2 1 1 -1 0 -1 1 3 6 1 0 -1 1 4 2 0 3 2 2 2 0 0 1 0 0 -2 0 1 1 1 1 -1 0 -3 0 0 2 0 0 0 1 0 -2 0 0 0 1 1 1 -2 0 -1 0 0 0 1 1 1 1 0 0 0 1 1 -1 0 1 1 0 1 0 -1 1 0 1 -5 -5 2 1 1 0 0 0 0 1 1 2 2 0 -4 1 0 0 0 -2 0 0 -2 5 0 1 1 0 -3 0 0 1 0 6 0 0 1 -1 0 -1 -1 0 -1 1 1 0 0 0 0 1 1 -1 -3 -7 -7 -1 0 0 -1 0 0 2 1 -4 -5 -2 0 0 0 0 0 2 0 1 -1 3 4 0 0 0 1 2 3 2 2 2 0 1 0 -1 0 2 1 0 5 2 1 2 2 0 -1 0 1 1 1 0 1 1 0 0 -1 1 0 -1 0 -1 -2 0 1 1 0 0 5 2 0 2 0 0 0 1 1 -1 0 1 2 0 1 1 0 0 1 1 1 -1 0 -1 2 0 0 0 1 0 2 -1 2 0 1 0 1 -1 1 0 -4 0 0 1 0 0 0 1 1 2 1 1 0 1 0 0 0 1 1 0 0 0 1 0 1 0 0 -3 -1 0 0 1 0 0 -1 -3 2 0 0 1 0 0 -1 0 1 1 0 0 -1 -5 -2 1 2 1 1 0 1 -1 1 3 1 1 2 -1 1 0 2 4 0 0 0 0 2 1 4 4 0 -1 0 1 0 0 1 1 -1 0 -4 -3 -1 -1 1 0 -1 -1 2 1 2 2 0 2 -2 1 1 2 1 -1 1 -1 1 2 0 -4 1 0 0 1 1 0 1 0 0 1 0 0 1 -1 0 0 0 1 1 0 0 0 0 -2 0 1 1 0 1 0 2 2 2 0 0 0 -4 -3 0 0 1 1 -1 1 0 1 2 0 0 0 1 0 0 1 0 1 1 0 0 2 5 1 1 -1 -1 1 1 0 1 0 3 0 3 3 0 1 5 2 1 1 1 1 0 1 1 0 0 -1 2 2 0 -4 0 -1 -2 1 2 0 2 0 0 -1 1 1 1 2 0 0 1 1 0 0 -1 0 2 1 0 1 3 1 0 1 0 1 -2 0 1 1 4 2 1 2 0 0 0 1 1 1 1 1 
1 1 1 0 0 1 1 0 4 0 1 0 1 0 2 0 0 0 1 0 0 0 0 0 -1 1 1 2 1 0 0 1 1 0 0 -1 -1 1 0 -1 0 0 0 4 6 1 0 1 0 0 0 0 1 0 1 0 3 0 1 1 0 1 0 0 0 0 0 1 0 -1 -1 0 -1 0 1 1 0 1 0 4 1 0 0 -1 0 1 0 1 0 2 0 -1 0 0 1 1 1 0 1 0 1 1 0 2 0 0 0 -1 1 1 0 1 -1 -1 0 1 -2 1 1 1 0 0 1 0 1 0 0 1 6 0 1 1 1 1 0 0 0 1 0 0 1 0 1 1 0 0 0 0 1 1 0 1 0 1 1 1 1 1 4 1 2 1 1 0 2 4 1 0 0 2 0 -3 0 0 2 1 1 -1 1 1 0 1 -1 1 1 -2 1 -1 1 1 1 2 0 0 1 0 1 1 1 1 1 1 0 0 -3 0 1 -1 0 1 0 0 2 1 -1 0 0 0 1 2 5 2 1 0 1 1 -1 -7 0 0 1 1 0 0 0 0 -2 0 0 1 5 0 1 0 1 0 1 1 2 -1 1 1 1 0 2 0 0 1 1 2 1 -1 1 1 1 0 0 0 1 0 1 -1 2 0 0 1 1 0 0 -5 -1 -1 1 0 1 1 1 0 -1 -1 0 -2 -4 -1 1 1 1 1 0 0 0 1 4 1 0 -1 -2 -1 1 1 0 0 2 0 0 -4 1 0 -1 1 1 2 4 3 3 1 4 0 0 0 -1 0 -2 0 0 1 0 2 1 -2 -4 2 0 1 0 1 0 1 1 -2 0 0 1 0 1 1 0 1 0 2 0 2 0 0 0 0 1 0 0 -1 1 0 4 0 -1 -6 -1 -1 0 -1 1 -1 0 1 0 0 0 0 0 1 2 0 -1 0 0 1 6 1 0 0 -1 -1 1 0 -1 0 0 0 1 0 1 4 0 0 1 1 1 1 4 2 1 1 0 1 0 1 -1 1 0 1 4 1 0 1 0 0 -1 0 1 0 1 0 0 0 1 0 -1 1 0 1 1 1 1 2 1 1 1 0 1 1 0 1 1 1 1 3 1 1 1 1 -1 1 0 1 1 0 -3 -1 -1 1 1 -1 2 1 2 1 0 0 1 2 0 -1 0 1 0 1 1 1 1 0 1 0 0 0 1 0 0 0 1 0 0 0 1 -1 0 1 1 1 0 1 0 0 -1 0 0 -2 1 0 0 0 0 0 0 0 0 0 -1 3 0 0 0 0 0 2 2 -1 0 0 0 0 -1 -1 3 0 1 1 1 -1 1 1 0 2 -1 1 1 0 0 1 1 0 -1 2 0 -2 1 1 1 5 1 4 1 0 1 1 1 1 1 2 -1 0 1 -1 -1 1 0 4 1 -1 1 0 0 0 0 0 1 3 0 -1 0 0 0 0 2 0 2 -1 1 1 1 0 0 0 0 0 1 1 1 2 1 1 0 0 2 1 0 1 0 0 1 0 
5 1 0 1 1 1 2 0 2 1 1 0 0 -1 1 1 1 0 1 0 0 0 1 0 1 0 0 0 1 2 0 1 0 -1 -1 1 1 -1 -2 -2 3 0 -2 0 1 1 1 1 -1 0 0 -2 -1 0 1 1 1 1 0 0 0 1 1 -1 0 -2 2 -1 0 1 0 2 -3 0 0 2 -2 -1 0 2 2 1 1 1 1 0 0 4 0 0 0 0 -1 1 0 1 0 0 0 1 1 0 0 1 0 2 1 0 0 -1 0 -3 1 1 0 4 1 0 0 -3 1 0 -1 1 0 1 1 2 0 1 0 0 3 0 1 -1 1 0 2 0 0 -1 0 0 -1 0 0 1 1 0 1 3 0 2 0 1 -1 1 1 0 0 0 -1 0 1 0 0 1 -1 0 1 1 0 1 0 0 0 1 0 1 0 0 0 2 0 0 -1 -1 2 2 1 0 1 1 2 -1 -4 0 0 0 1 1 0 1 1 -1 1 -3 0 1 2 -1 1 0 1 0 1 2 1 1 2 0 0 0 0 0 0 -6 -1 1 -1 -1 1 2 1 -1 0 0 0 4 7 0 0 2 1 1 -1 1 1 5 0 1 0 0 1 0 0 1 0 3 -1 1 0 -1 -2 0 -1 0 4 -1 -1 1 0 0 0 1 1 1 -1 1 3 -1 0 1 1 3 1 1 0 1 0 0 0 -4 1 0 1 1 5 0 0 1 1 0 0 1 -1 1 1 1 1 1 0 0 -3 1 0 1 0 3 1 -1 0 0 0 1 1 0 0 -1 0 0 0 -2 -3 0 -1 -4 1 1 2 0 1 0 0 1 2 -1 0 0 0 -1 1 0 3 2 1 7 5 1 -1 0 -1 1 2 1 2 0 0 1 1 1 4 2 2 -2 1 1 0 1 1 2 2 1 -1 0 1 -1 1 0 0 1 1 5 0 3 6 1 1 -3 0 1 0 0 1 0 0 0 2 0 1 0 -1 0 1 0 1 -3 1 0 1 1 -3 1 1 0 1 0 0 0 0 -3 0 1 -1 1 1 0 0 1 0 0 1 1 0 0 1 1 0 0 -1 1 8 5 2 0 5 2 0 2 1 1 -2 0 2 1 0 0 -1 0 1 0 0 3 5 0 2 -1 1 1 -1 0 1 1 0 1 0 0 -2 0 2 0 1 0 0 1 -1 -1 2 1 2 1 -3 -1 0 0 -1 0 1 3 1 0 0 1 2 0 1 0 0 1 4 0 0 -1 0 1 -5 -1 0 2 0 0 0 0 -1 2 1 3 4 1 0 1 0 1 1 -1 -1 -1 1 1 1 0 2 4 -2 -1 0 1 1 1 -3 0 1 1 3 1 -1 0 1 0 -3 0 0 -1 0 1 0 1 -1 3 -1 -1 0 0 2 0 1 0 6 1 1 1 0 -1 2 1 0 0 0 1 0 0 0 -2 2 1 0 0 -1 1 -1 1 0 1 0 0 1 0 1 -1 -4 0 0 1 1 0 1 2 0 1 0 0 1 1 1 0 1 1 1 0 
1 0 0 1 0 1 0 1 7 1 1 0 1 0 0 0 2 3 -1 1 0 2 1 1 1 0 0 1 1 0 0 0 -1 2 -1 1 1 0 0 1 1 2 0 -1 1 -1 0 -1 -1 1 0 -1 -1 -1 1 1 0 1 1 0 0 0 1 0 0 0 2 -3 -1 0 1 -2 1 1 1 1 0 1 0 1 3 2 2 3 2 -1 0 0 0 -1 0 -1 -1 -1 0 1 0 0 1 -1 1 -1 0 -3 1 1 1 1 1 1 -1 1 2 -1 0 1 0 0 0 1 1 -1 1 1 1 1 0 1 1 -1 -1 1 0 2 1 2 0 0 0 1 1 0 1 0 1 0 1 2 -1 0 -1 1 -1 0 0 3 0 1 0 1 0 0 0 0 1 1 1 0 0 1 1 1 0 1 -1 2 1 -1 1 1 0 -4 -1 2 1 0 0 0 -1 3 0 -1 -1 1 1 1 0 0 0 1 -1 1 -4 3 1 0 1 1 1 1 0 0 0 0 0 2 2 0 1 2 2 -1 2 1 0 1 0 0 -5 0 2 0 0 0 0 0 0 -1 1 5 6 1 0 0 0 0 0 1 1 0 0 1 1 -1 2 1 1 0 1 2 0 2 0 1 -1 1 1 1 2 0 0 0 0 1 -2 0 1 -1 1 4 1 1 1 0 1 1 1 1 1 1 0 1 2 1 0 5 1 0 0 1 -1 1 0 0 0 0 0 0 0 0 1 -1 0 0 1 1 0 0 1 0 -1 -1 1 -3 1 1 1 2 0 1 1 6 0 0 0 0 2 0 1 -1 -1 0 2 0 0 5 1 -1 1 1 -1 1 2 2 1 1 0 3 1 1 0 1 0 0 1 1 1 2 2 7 0 3 1 1 2 1 0 1 -1 0 1 -1 1 4 1 0 4 2 0 0 1 2 3 2 -1 1 1 1 1 0 1 0 -1 0 0 0 0 1 0 2 0 1 4 -1 1 1 1 0 0 0 0 0 -1 1 0 1 2 1 0 0 0 -2 0 -1 0 -1 -2 -1 0 2 0 0 0 0 1 3 0 0 0 0 0 1 0 6 2 2 1 1 1 0 0 0 2 0 0 -1 0 0 1 1 1 0 0 0 0 1 -1 -1 1 1 0 1 1 1 3 6 1 1 0 2 4 1 -2 0 -1 0 1 0 0 0 1 0 -1 0 0 0 0 -1 -1 0 1 -1 0 0 -1 1 0 1 1 1 1 1 0 0 -4 -3 -1 1 1 0 1 1 0 2 0 -1 0 2 6 0 0 0 1 -1 0 1 1 1 2 0 -1 -5 1 1 2 1 0 -1 0 2 0 0 2 1 1 1 0 -1 1 1 1 0 1 0 1 -2 0 0 0 -1 0 0 2 1 -1 0 0 -1 1 -1 0 0 1 0 0 1 -1 0 -1 1 1 1 0 1 -1 1 1 2 0 0 -1 1 1 4 2 1 1 1 1 1 -2 0 -1 -1 0 0 0 0 1 0 0 0 -1 -1 1 0 3 4 2 0 
3 0 3 0 3 1 1 -4 0 1 3 5 0 0 -4 -1 1 3 1 -1 0 3 -1 0 0 5 0 0 1 0 0 0 -1 1 1 -1 0 -1 2 0 0 0 1 0 2 4 1 0 1 1 1 2 1 0 1 0 0 0 0 -1 0 1 2 -1 0 3 1 1 -2 1 5 2 5 4 1 0 2 0 2 2 0 0 1 1 0 0 0 -2 1 0 0 1 1 -1 -4 -2 0 0 1 1 0 -2 0 0 1 -1 1 2 0 0 -3 0 -1 -1 0 0 0 2 1 0 1 0 0 0 0 1 0 -1 1 1 0 0 1 1 1 0 0 1 1 0 0 0 0 1 2 -1 0 1 0 1 0 0 -3 -1 1 0 2 0 3 0 1 1 1 1 1 1 -1 0 0 2 5 1 5 0 -1 1 0 1 0 1 1 1 1 -1 0 1 2 0 1 1 0 0 0 0 0 0 1 1 0 -1 0 0 0 1 1 -3 0 1 0 0 2 1 1 0 -1 -1 1 0 0 -1 0 1 0 2 1 0 1 1 0 -4 3 0 4 2 1 1 0 1 0 -1 0 0 1 -1 1 2 1 2 1 0 1 1 2 1 1 0 -1 0 1 1 1 0 0 -1 0 0 0 1 1 0 0 0 0 2 1 0 5 2 1 2 0 -1 1 1 0 -2 1 -1 1 -1 1 0 0 1 1 0 0 0 0 2 1 0 0 1 0 0 0 -4 0 2 0 0 -1 -6 1 0 0 -1 -1 1 0 0 0 0 1 1 1 6 2 3 0 1 1 4 -1 0 7 1 -1 1 1 0 0 0 0 4 0 -2 0 -5 0 0 1 0 -1 2 -3 -7 -2 0 1 0 2 1 1 0 1 0 0 6 1 2 1 0 1 1 0 2 1 1 1 1 0 1 1 1 0 -3 0 1 -2 -1 -1 2 1 1 -1 0 0 -1 0 1 -1 -1 1 0 -1 0 0 -3 1 1 1 0 0 1 0 0 0 1 0 0 0 2 1 1 0 1 -1 0 0 -3 -1 0 -1 0 0 -1 0 0 -1 0 1 1 0 0 0 2 1 2 1 2 0 0 2 1 1 0 -1 -4 0 4 1 2 0 1 1 0 0 0 0 0 2 1 -1 1 1 1 0 0 0 -1 -1 -1 1 1 1 1 1 1 1 0 1 2 3 1 0 1 0 0 0 0 1 0 3 1 -2 -3 0 1 1 1 2 1 0 -1 1 -1 0 0 1 -1 -2 -4 -7 0 1 0 0 1 1 2 2 0 2 0 0 0 2 1 0 2 1 0 -6 0 2 1 1 1 1 0 0 1 1 -1 -2 0 2 -1 0 0 2 0 1 0 -1 0 1 -1 0 1 0 1 -1 -1 -1 0 1 0 0 -1 1 1 0 0 2 1 0 0 1 0 0 1 1 1 1 1 0 0 0 1 0 -1 -1 0 1 2 0 -1 0 0 -1 1 2 -1 1 0 1 5 1 1 1 0 0 0 1 1 2 1 0 0 0 3 0 0 1 1 1 1 
0 0 1 2 0 0 0 2 1 3 1 2 1 1 -1 0 0 1 1 -2 0 0 0 0 0 0 1 2 1 1 1 -1 -4 0 1 0 -1 1 2 0 0 1 1 0 0 -1 -1 0 0 0 0 4 2 0 1 2 1 -2 1 1 1 0 -1 -1 -3 -1 1 1 -1 1 1 0 0 1 0 0 2 -1 4 1 0 1 -1 0 0 0 -1 1 1 0 1 0 0 1 0 0 1 4 1 1 0 1 0 0 0 -1 0 1 0 1 0 0 0 0 0 1 -1 0 0 1 4 1 1 -1 2 0 0 1 1 3 2 3 4 1 0 0 0 1 0 0 0 2 1 0 -4 1 0 0 0 1 1 1 1 2 0 0 0 1 1 0 1 1 2 2 0 0 0 0 -1 0 -1 2 0 1 -1 1 1 2 0 1 0 -3 -2 -1 2 2 0 2 1 0 2 0 -2 0 0 0 1 0 0 0 0 0 2 4 1 0 0 -1 -4 0 0 1 0 1 0 -1 1 2 0 1 1 0 1 1 3 1 -1 1 -1 0 1 0 -1 0 0 2 0 -3 0 0 -3 -4 0 0 0 0 2 3 0 1 3 -1 0 0 1 0 0 4 2 0 0 -5 -1 0 0 0 0 1 0 1 0 1 2 0 1 2 8 2 -1 1 0 1 1 2 1 1 1 1 0 1 -1 0 1 1 1 0 1 0 -1 -1 1 -1 -7 2 -1 -2 -1 1 1 1 3 0 -6 -1 -1 -1 1 1 1 1 0 0 2 0 -3 1 1 0 0 0 1 -1 1 1 2 1 7 1 0 1 5 1 -1 0 0 1 2 2 0 2 1 0 1 1 0 0 0 0 0 2 0 1 1 1 1 0 -1 -1 0 1 0 -1 1 0 0 -1 -3 -1 0 1 0 1 -1 1 0 0 1 -1 -3 -1 0 1 0 1 1 2 -1 0 0 1 1 2 3 1 0 1 -1 1 0 2 0 -1 1 1 1 0 -3 0 -1 -2 2 0 0 3 1 0 0 1 1 0 0 1 0 0 2 -4 0 -1 0 0 0 0 1 0 -2 0 0 -1 1 2 1 5 0 0 -1 -1 0 0 1 1 -1 1 -1 0 0 1 2 1 1 -1 0 1 1 1 0 1 1 1 1 1 1 2 -1 0 -2 0 1 2 -1 0 -1 0 1 1 1 4 2 1 3 1 0 2 2 0 0 1 0 -1 0 -1 -1 0 1 5 3 1 -3 0 0 0 2 1 0 0 0 0 -2 3 1 0 1 -1 0 -1 0 0 0 0 1 -1 0 0 1 0 -1 -6 0 -3 0 1 1 0 2 0 -1 -4 -1 0 1 1 2 -1 0 0 0 0 1 0 0 -1 0 -1 0 1 1 1 0 -1 2 2 2 1 0 1 1 0 2 4 2 1 1 -1 1 1 4 1 1 1 1 1 0 1 1 1 1 0 0 0 0 1 2 1 -2 0 -1 0 0 0 1 1 0 3 0 1 0 0 1 0 0 0 2 1 2 2 0 0 -2 0 1 0 
-1 1 4 1 0 1 1 0 0 -1 1 0 1 1 1 2 0 0 0 0 0 1 0 0 0 5 1 0 1 2 1 1 2 1 2 2 1 2 1 0 0 0 0 0 1 1 1 3 0 1 -1 0 1 1 0 -1 0 0 -4 1 0 0 0 0 -3 1 0 1 -1 1 0 1 -1 0 0 0 -1 0 0 0 0 0 2 -1 1 0 1 0 1 1 -1 1 -1 0 -1 0 3 2 2 0 1 0 1 3 2 1 0 1 2 0 1 5 1 0 0 0 0 1 1 1 0 -2 3 1 1 -1 0 1 0 -1 0 -1 -1 0 0 1 1 -3 0 1 1 0 1 0 1 1 0 0 0 3 1 1 0 0 2 1 1 1 1 0 0 0 0 0 -1 1 2 0 2 0 0 -5 -1 0 1 2 1 0 -1 0 0 0 0 0 1 1 0 0 1 0 0 -3 1 1 -1 2 2 2 -2 0 1 6 6 0 -1 0 0 -3 0 0 0 1 0 0 1 -1 0 0 1 -1 -1 0 -4 0 1 0 -5 0 -1 2 0 0 1 1 0 1 3 2 1 2 1 0 2 1 1 4 1 1 1 0 1 1 1 2 -2 0 1 3 0 0 1 -2 -4 -1 1 0 2 1 1 0 0 0 3 0 0 1 7 1 1 1 1 0 2 1 2 1 1 4 0 -2 -2 0 1 2 -1 1 2 0 -3 1 1 0 -1 1 1 0 1 0 0 2 1 0 -1 1 0 0 -1 1 1 3 0 -2 5 1 1 1 0 0 1 0 1 6 5 2 0 0 2 0 1 0 0 0 0 -1 0 2 0 -1 1 1 -4 0 -1 0 1 0 -1 0 0 1 -1 1 -1 0 0 0 0 -1 -1 1 -1 -1 -4 -1 1 -1 1 0 1 0 1 3 1 3 1 0 0 1 1 2 0 0 0 1 -1 0 0 0 0 0 1 1 1 2 0 4 0 1 -1 1 0 2 0 0 1 1 1 0 2 -1 0 -1 0 -1 0 0 0 4 1 -1 1 0 0 2 -1 0 3 1 1 1 0 -1 -1 -3 -1 0 0 0 -1 1 0 1 0 1 0 0 2 1 0 3 -1 0 1 1 0 0 2 0 0 2 1 0 1 -2 3 5 4 1 0 -1 1 1 -4 -1 0 0 0 1 0 0 0 0 1 3 -1 0 1 1 1 2 -1 0 1 1 3 1 0 -2 1 0 0 0 2 -1 -2 1 2 -1 0 0 0 0 2 1 1 0 1 1 -1 0 2 0 0 0 1 -1 0 1 -1 -5 1 1 1 0 0 0 1 -1 -1 0 0 1 1 0 0 0 1 2 0 0 0 0 1 1 0 1 1 1 1 0 1 1 1 1 0 1 1 0 0 0 0 1 0 1 -1 1 2 7 1 1 0 1 2 0 1 0 1 1 0 1 0 0 1 0 -2 1 3 0 1 0 2 1 0 1 0 -1 1 1 1 1 1 1 1 0 0 3 0 0 0 0 0 3 0 0 0 -1 0 -3 -4 -1 
1 0 1 1 1 -1 1 0 0 2 1 0 0 0 1 2 1 1 1 0 1 0 5 1 0 1 4 1 0 1 0 0 0 1 1 -1 0 0 0 0 -1 1 -1 0 1 0 4 2 1 0 1 1 2 1 0 0 -1 1 1 2 1 0 3 1 1 0 1 -2 0 1 0 1 -1 1 1 -1 -1 0 -1 -1 2 0 0 1 1 1 0 1 1 0 1 0 1 0 0 0 1 2 1 3 -1 -5 1 -1 2 -1 1 0 0 0 0 0 1 0 1 0 4 1 0 1 -1 0 1 1 0 1 1 1 3 2 0 0 0 1 -1 1 5 1 -1 1 0 0 -2 3 -1 0 0 0 1 0 1 0 0 0 1 1 0 1 1 1 -1 -3 -1 -1 0 0 1 1 1 3 0 4 -1 0 2 1 -2 0 -2 1 0 1 1 1 0 0 0 1 1 0 1 3 1 0 -4 1 0 0 -4 1 1 0 1 0 0 -5 0 1 0 1 1 -1 1 1 -1 0 0 1 0 -5 -1 1 1 1 -1 -1 -1 0 1 0 2 1 1 2 1 -2 1 0 1 1 1 0 1 3 1 0 1 7 0 0 -1 1 -1 -1 1 0 1 2 1 0 0 0 -1 0 0 0 5 0 1 0 1 1 0 -1 -5 -2 -2 0 2 1 0 0 1 1 3 0 2 1 0 -1 0 1 1 1 1 1 2 -1 1 0 0 0 0 1 1 5 1 1 -1 -1 1 0 0 1 0 0 0 -1 -2 -1 0 1 1 0 0 0 0 1 1 0 1 0 0 0 -1 0 1 -1 1 0 1 1 0 4 1 0 0 0 1 -5 0 0 1 -1 0 -1 -1 3 1 0 0 1 -3 -1 1 1 0 5 1 1 1 2 0 0 1 2 1 0 0 0 -1 0 0 0 2 1 1 0 0 -1 0 -1 0 0 -1 1 1 0 3 1 1 1 -1 0 1 2 0 0 1 1 2 0 0 1 0 2 1 2 0 0 1 -2 0 0 0 4 1 0 0 2 1 0 0 0 0 2 1 1 1 1 1 2 0 1 0 -1 1 1 1 1 0 1 0 1 1 2 1 -2 0 0 0 0 0 0 -1 1 1 2 0 1 1 1 1 -1 1 6 1 1 -1 0 4 1 0 1 0 1 1 1 1 0 -2 1 1 1 1 0 0 1 0 -1 1 0 1 0 0 -1 -1 1 1 -1 0 -1 0 0 0 0 0 -2 0 0 0 1 0 3 1 -3 0 0 -4 0 -1 1 0 0 5 1 0 1 1 0 1 3 5 1 1 1 0 -1 0 -2 -1 1 0 0 0 1 0 0 1 1 0 0 1 3 1 0 1 2 1 0 1 0 3 1 0 0 5 1 0 0 1 1 1 1 1 1 3 0 0 0 1 0 0 0 1 0 -1 0 2 1 1 -1 0 -5 0 1 1 0 1 1 0 1 1 1 1 1 1 1 -1 -1 2 3 0 1 1 2 0 -1 2 1 2 2 -2 1 1 2 0 -1 0 -5 
1 1 0 0 0 0 0 0 1 1 0 2 0 1 4 4 -1 0 1 1 1 1 1 0 4 1 0 1 0 1 1 1 0 1 1 2 1 0 -1 0 1 -1 0 1 -1 0 0 3 1 0 0 1 1 1 2 0 1 1 1 0 1 -1 0 1 1 1 -1 0 1 2 1 0 0 -1 1 0 0 0 1 1 1 -1 0 -1 0 1 0 1 1 0 0 0 2 0 0 0 -1 0 1 2 0 0 0 0 0 1 1 1 1 -3 0 0 0 1 0 1 -1 1 -1 1 1 0 0 -1 0 1 1 0 1 0 7 0 0 0 1 0 0 1 -1 -1 -1 -2 0 0 0 2 2 4 0 1 0 2 1 0 0 1 0 2 0 0 0 -1 1 0 -1 0 0 0 0 0 1 1 0 2 2 0 -3 0 0 1 0 0 0 0 1 1 1 0 0 1 0 2 0 1 0 1 -1 1 1 0 1 0 0 1 1 1 1 -1 1 0 0 1 -2 2 0 0 -1 0 0 1 1 0 1 0 -2 -1 1 2 0 1 1 0 0 -4 0 -1 0 0 1 0 1 3 1 2 0 -2 0 1 0 1 2 1 0 1 2 -1 1 0 -1 1 1 1 0 -4 0 -1 0 1 1 0 -4 0 0 1 2 0 0 1 0 2 1 0 0 -1 0 0 0 0 1 0 0 -1 0 1 0 1 0 0 0 1 1 2 0 -5 1 0 1 -1 1 1 2 1 0 0 -2 1 1 -1 0 1 1 1 0 0 0 0 0 1 4 1 4 0 0 -1 1 -4 0 -1 1 2 1 1 0 2 1 -1 1 1 0 -3 0 0 1 2 1 1 1 -1 -8 -1 -1 0 -1 1 0 1 0 0 -2 0 -1 -2 0 0 0 1 2 1 0 1 -4 -1 0 0 0 0 0 -3 -1 0 -1 0 1 2 1 1 1 1 1 3 1 0 3 0 0 0 1 0 1 6 0 0 0 0 0 1 1 1 1 2 -1 -1 0 -2 1 1 -1 1 2 1 -1 1 -1 0 0 -2 1 0 3 1 1 0 0 0 1 1 0 0 2 3 0 -2 0 0 0 0 1 2 0 0 -2 1 0 0 0 1 5 1 0 0 0 1 0 1 1 1 1 0 -1 0 0 -1 2 0 2 -1 0 0 1 0 1 1 0 0 1 0 -1 2 2 0 -1 -1 0 1 3 1 1 0 0 1 1 0 0 0 1 0 0 -1 2 0 0 0 -3 0 3 0 0 0 -1 -1 -1 0 0 0 1 2 1 0 0 3 0 1 1 0 0 0 0 0 -1 1 2 -1 0 1 0 2 0 1 1 1 -1 1 1 2 0 -1 1 0 2 1 1 -3 0 0 -1 0 2 0 1 1 -1 0 0 1 2 0 -1 -6 1 -1 0 0 -1 0 0 1 4 1 1 0 0 0 1 0 1 0 1 0 -1 -1 0 2 1 0 2 1 1 0 0 1 2 1 0 0 3 1 1 3 4 0 0 1 1 1 0 0 0 0 0 1 
1 2 0 0 0 0 1 -1 -1 1 1 0 0 -1 1 1 0 0 0 1 0 0 1 0 5 1 0 0 1 1 1 -1 2 0 1 0 1 -1 1 0 0 0 1 0 0 1 2 -1 0 1 1 1 1 1 1 -1 -2 1 0 1 1 1 -1 0 -1 0 2 -1 0 1 -1 0 0 0 0 0 1 0 0 0 -1 -4 1 0 -1 1 0 1 1 1 1 0 -1 -2 0 0 0 -1 1 1 2 0 0 0 1 2 1 0 -1 0 1 1 -2 0 0 -1 0 2 1 1 2 0 -1 1 1 0 1 1 0 2 1 1 1 1 -5 -1 0 0 0 0 1 2 1 1 6 3 0 1 0 0 1 0 0 2 0 0 1 2 0 0 -4 0 -2 0 0 1 1 1 -1 -3 0 1 0 -1 0 2 -1 1 0 0 1 2 0 0 -2 1 6 0 0 0 0 -1 1 2 0 0 0 1 0 -4 0 0 3 0 1 1 0 1 -2 -1 0 0 -3 0 -1 2 0 -1 -1 0 0 0 0 1 -1 1 0 -1 0 1 0 2 0 -1 0 0 1 0 -1 0 -4 0 -2 1 2 0 0 0 0 2 2 3 1 1 0 0 1 1 3 1 0 1 0 0 -1 1 1 1 1 -1 -2 0 0 0 1 1 0 1 2 5 1 1 1 2 -1 0 2 0 0 1 1 -3 -2 1 -1 0 0 1 0 2 9 0 2 1 -1 2 1 1 2 1 1 0 0 0 1 0 0 0 0 0 2 1 2 2 0 0 1 1 1 0 0 0 1 2 -1 1 0 1 0 0 5 0 -1 0 -1 1 0 1 0 0 -1 0 -1 -2 0 1 1 1 -1 0 0 0 0 0 -2 0 0 0 1 -1 0 -1 -3 -2 0 1 0 1 0 1 0 1 -1 1 1 1 2 -1 1 1 1 0 2 0 0 0 1 1 2 0 0 1 0 1 1 -1 1 1 2 2 5 0 1 0 1 1 0 0 1 1 1 1 0 0 2 0 1 0 1 -1 0 -1 0 1 1 0 0 0 3 1 1 -1 1 0 1 2 2 0 6 1 -1 0 0 1 0 2 1 0 0 0 2 0 0 1 1 0 1 1 0 -1 0 1 0 0 0 0 1 0 1 0 0 0 1 1 2 1 0 1 0 1 1 0 1 0 0 1 2 1 0 1 1 0 1 1 0 0 -1 3 0 -2 -1 -2 -3 0 1 1 0 1 0 1 1 1 2 0 1 2 2 1 0 0 0 0 3 1 1 3 1 0 -1 -3 0 0 0 1 0 1 1 0 0 0 2 0 1 -2 1 1 0 0 0 0 1 0 0 1 1 1 -3 0 1 0 1 1 1 0 1 1 1 1 0 2 1 1 0 0 1 0 0 -1 1 1 0 1 1 -1 0 2 -1 0 1 1 -1 1 0 0 1 0 3 1 1 1 0 0 1 -1 1 1 1 2 -1 0 0 0 0 -1 1 0 1 1 1 -1 0 1 1 0 1 1 2 0 0 3 
-1 2 0 2 1 2 1 1 0 0 -1 -1 1 -3 1 1 0 1 0 1 -1 -2 2 2 1 0 3 4 -2 0 1 1 1 0 0 2 0 1 0 0 1 1 2 7 1 0 1 1 0 1 2 1 1 -4 0 -1 -1 0 1 1 1 0 1 -1 1 1 1 3 1 0 -1 1 1 1 -1 1 1 0 0 0 1 1 0 0 -3 0 0 0 1 1 1 1 1 1 0 0 1 0 1 1 0 5 0 0 1 -1 0 -1 0 -1 1 1 0 -2 0 1 1 1 0 1 -1 1 2 0 -1 2 1 1 0 -1 -1 -3 -1 0 0 -4 1 1 3 1 2 0 0 0 2 1 0 1 0 0 0 0 1 0 -1 6 6 1 0 0 -1 1 0 -1 0 0 -3 1 -1 0 0 -1 1 1 0 -1 0 1 0 1 1 -1 0 0 0 0 0 0 0 -1 -1 1 -3 0 1 0 0 1 -1 0 1 2 2 0 0 0 3 0 2 2 0 0 0 0 1 0 0 0 -1 0 0 2 -1 0 1 1 0 3 0 0 0 2 0 1 0 0 0 0 -1 1 1 5 0 -1 1 1 0 0 0 1 6 2 1 -3 1 0 0 -1 1 0 1 3 0 1 -1 2 1 1 0 1 6 0 0 -3 1 2 -1 0 -5 1 1 0 -2 0 0 1 7 1 3 0 -2 0 -1 2 0 1 1 2 2 4 -1 1 0 2 4 1 0 1 1 -1 -1 -1 2 0 0 0 0 0 0 0 0 1 0 1 0 1 1 0 1 2 0 -1 0 0 1 0 -1 1 0 1 -1 2 2 1 0 0 2 2 4 2 0 1 1 0 0 1 0 0 0 1 1 0 0 0 1 2 0 0 0 2 1 -1 1 1 1 0 -3 1 0 0 -1 0 1 -1 -3 1 1 1 1 0 1 1 0 2 4 1 0 2 0 1 0 0 1 0 0 0 0 0 2 1 1 1 1 0 0 0 -1 1 0 1 0 1 1 0 3 1 1 0 2 6 0 2 2 1 1 1 2 2 5 1 0 1 0 1 3 0 1 3 -1 0 0 1 0 1 1 1 3 1 -1 2 -1 1 0 0 0 -4 1 1 0 0 2 -1 1 1 0 1 2 0 -3 0 0 0 3 2 0 0 0 -4 0 1 0 0 0 1 -3 -1 1 1 0 2 0 0 -3 1 0 1 2 0 0 1 1 0 -7 -5 1 0 0 0 0 1 1 1 1 0 -1 0 1 0 -1 0 0 0 2 0 2 0 0 0 0 1 0 0 0 0 2 4 2 1 0 0 0 2 0 0 2 1 1 0 -3 0 0 0 1 0 -1 1 0 -1 -1 0 0 0 1 1 1 0 0 3 0 -2 1 1 1 0 0 1 0 0 0 1 1 -1 1 1 1 0 0 3 1 0 2 0 1 0 0 0 0 0 1 2 1 0 1 1 1 1 0 1 0 1 -1 1 3 2 1 0 0 -2 -3 0 0 -1 2 1 1 1 1 -1 0 2 
0 1 0 1 0 0 1 0 0 1 1 1 2 4 2 1 -2 1 0 -4 -2 -2 1 1 5 1 0 0 -7 -1 1 0 1 1 -1 0 -1 1 0 1 -1 0 0 1 1 1 -1 0 0 0 1 1 -1 0 0 -2 1 -2 2 0 0 3 -2 -3 -4 1 7 2 0 5 5 3 2 2 0 1 0 1 1 1 -1 0 -1 0 1 1 0 0 -2 0 1 0 1 0 1 2 2 1 1 0 0 1 0 2 1 0 1 -1 0 0 1 1 0 1 1 -3 0 1 1 1 2 0 -2 0 1 1 -1 0 -1 1 0 0 0 -1 0 -1 -1 0 -2 2 0 1 1 2 1 0 -2 0 1 0 1 0 0 -2 -3 0 1 1 2 4 0 1 1 -1 0 0 0 0 1 -1 1 -1 0 0 3 0 -2 1 -4 0 0 -4 0 0 0 2 1 0 1 -2 0 1 1 2 -1 -1 0 -1 1 1 1 2 0 0 0 -1 0 -1 0 0 0 1 0 1 2 0 0 1 0 -5 -1 -1 0 1 -3 1 0 -1 1 0 0 2 1 -1 0 0 1 2 1 1 10 2 1 1 0 2 2 1 0 0 1 0 1 0 1 1 0 -1 1 0 0 0 1 1 0 1 1 0 0 0 0 1 0 -1 1 0 0 1 0 0 1 1 0 0 1 1 1 0 1 1 2 1 1 7 0 -1 0 0 1 -3 -4 1 1 1 -1 -1 0 0 -1 0 1 1 2 3 0 0 0 0 0 -1 5 0 1 2 0 -1 1 0 0 0 1 0 1 1 0 0 0 1 1 -1 -4 0 2 1 1 0 0 0 4 0 -1 1 1 0 1 1 3 1 1 3 0 -5 0 2 -1 0 1 1 0 1 2 -2 -1 1 1 0 2 -1 -1 -1 1 -2 1 0 2 1 1 0 1 1 1 1 1 0 1 3 -1 0 -1 1 -1 0 1 2 2 2 1 0 -1 1 -1 0 2 0 1 2 4 1 2 1 0 1 0 1 1 2 0 0 -1 1 -1 -1 1 1 0 0 1 4 4 0 1 1 1 3 0 6 2 0 0 0 0 1 0 2 0 0 1 1 0 1 1 2 0 1 0 1 0 1 3 0 1 1 1 0 3 0 0 0 1 1 -1 2 0 2 0 0 1 -1 -2 1 1 1 1 -1 -5 -1 -1 1 1 1 1 0 1 1 -1 1 -1 0 1 0 -1 0 0 -1 -1 -2 0 0 1 3 -1 0 -1 1 0 1 0 1 1 1 1 0 0 1 0 -1 3 1 -1 2 1 0 0 0 -1 2 0 6 1 -1 1 1 1 0 1 1 1 0 0 1 1 1 1 0 -1 -1 1 1 1 0 0 1 -1 1 -1 0 0 -1 -1 1 1 -1 1 0 1 -1 -3 1 2 0 0 0 1 0 1 6 3 1 0 0 1 1 1 1 1 1 0 0 0 1 1 0 0 0 1 -1 -1 0 0 2 -2 -3 1 0 0 1 0 -2 -6 1 1 0 0 2 2 1 -2 1 2 1 
0 0 -1 0 -1 1 1 -1 0 2 1 1 3 2 0 -1 0 -1 -1 0 0 0 0 1 -4 0 0 -1 -3 0 0 1 0 -1 0 1 0 0 1 -1 0 0 1 1 1 0 1 2 0 0 -2 0 0 1 1 0 1 -1 0 0 1 0 1 0 -2 0 0 4 1 1 3 0 0 2 1 1 1 0 -1 0 1 0 1 1 2 2 -1 1 0 0 2 1 1 1 1 0 1 1 0 -4 0 1 0 -1 -2 1 -1 0 0 0 2 1 2 1 -1 1 0 1 1 0 0 0 0 0 1 0 0 1 1 3 2 1 2 0 0 1 1 0 0 1 1 0 0 1 2 0 0 0 -1 0 -1 0 0 2 -6 -1 -1 1 -1 1 1 1 0 1 0 1 1 2 0 1 0 -3 0 0 1 0 1 0 0 1 1 2 -1 0 0 0 -2 0 -1 0 0 0 1 -1 -1 -3 1 2 -1 0 0 1 0 0 -1 0 0 0 1 1 1 -2 0 -2 -1 -1 1 -1 0 0 2 1 1 0 -4 0 0 0 2 1 -1 0 1 1 0 0 0 0 0 0 3 0 0 1 1 0 1 0 1 -1 0 1 0 1 0 0 1 -1 0 1 1 0 0 0 1 0 0 -1 1 1 0 -1 0 0 0 0 0 0 0 1 0 1 0 1 0 2 -1 1 2 2 1 1 2 1 0 0 0 0 0 1 1 0 1 0 2 0 1 2 -1 0 1 2 1 0 1 0 1 1 2 0 0 0 -2 1 1 2 1 1 -1 2 2 0 1 -2 0 0 0 1 0 1 0 0 2 1 1 0 0 0 1 1 0 1 -2 -1 0 1 1 0 0 1 0 0 1 -1 -1 -3 0 3 1 1 3 0 1 0 0 0 0 0 0 0 0 0 1 2 0 0 1 0 1 -3 0 1 2 1 -1 1 -2 -1 1 -1 0 -1 0 1 5 0 0 0 0 1 -1 0 -1 0 1 5 6 7 3 2 0 0 0 1 1 1 1 1 1 0 -2 -2 -3 1 0 1 1 2 0 1 2 1 0 1 1 0 -1 0 0 0 0 0 0 2 1 0 2 1 2 2 0 1 2 0 -3 1 0 0 1 0 1 0 -5 -1 1 1 0 1 1 0 0 1 1 -1 -1 1 2 1 0 -1 1 0 0 -1 -4 -1 1 0 1 0 0 1 1 0 -2 2 0 1 1 1 0 -1 -2 0 1 -1 1 1 0 1 1 0 0 0 1 1 -1 1 0 4 0 0 -1 -1 0 4 1 0 0 0 1 1 0 1 0 0 2 1 0 2 1 0 0 3 0 1 3 2 0 2 2 2 0 -3 -2 0 0 -1 -1 1 0 1 0 1 0 1 0 -4 1 0 1 -1 -3 0 1 0 0 0 1 0 2 0 0 1 0 1 0 6 1 2 1 7 0 0 1 0 1 3 2 1 1 1 1 0 0 1 1 0 0 -2 0 -1 0 0 1 1 1 1 2 0 -2 -1 0 1 0 0 1 2 0 0 
2 1 -1 0 -1 1 0 1 0 0 1 -2 1 1 0 1 0 1 -2 0 1 1 0 -1 -1 0 1 0 -1 2 -1 0 0 0 0 1 0 0 0 0 1 2 1 0 1 -1 -1 0 0 -1 -3 1 1 0 2 0 0 1 1 1 2 1 1 0 0 1 4 0 1 1 1 0 0 -1 0 0 0 -1 2 1 -2 1 1 1 1 0 2 4 0 0 1 -1 1 0 0 3 1 1 1 1 2 -1 -1 0 1 1 1 0 1 1 2 2 1 0 1 4 0 1 0 2 -1 1 1 0 -3 1 1 5 -1 0 0 0 1 2 0 0 0 -1 0 -1 0 0 1 1 1 1 0 -2 0 -3 0 2 -1 1 0 -1 4 0 0 -2 1 1 0 -1 1 1 1 1 2 2 1 1 -1 -1 0 0 1 0 0 0 1 0 0 -1 -1 1 0 0 0 -3 0 -4 -1 0 0 0 1 3 1 0 1 2 1 2 0 1 0 1 -1 0 -3 -1 4 2 1 0 1 1 0 0 -1 0 0 1 1 -1 1 -2 0 1 0 1 0 1 1 0 1 0 -1 -5 0 -2 0 2 0 1 0 -1 1 -1 1 0 0 2 0 1 0 0 1 1 1 1 -1 1 -1 0 0 0 1 1 2 -2 0 0 1 1 0 -1 0 0 1 0 -1 -3 1 1 0 -1 0 -1 0 1 0 1 -2 0 0 1 0 -1 0 0 3 1 1 2 1 7 2 2 -3 0 1 1 1 1 0 0 0 0 0 2 0 -1 1 1 -1 0 0 0 0 1 1 1 0 1 0 1 -1 -5 -2 0 0 0 0 0 2 5 0 0 2 4 2 0 -1 1 0 -1 1 1 1 -1 0 3 0 0 0 0 -1 -1 -1 0 2 0 0 -1 0 0 0 2 2 0 0 2 2 6 1 1 0 1 0 0 0 2 1 0 0 1 1 2 1 2 1 0 1 0 -1 -6 0 1 0 0 1 1 1 0 1 0 1 1 1 1 0 0 -1 0 0 2 1 1 2 0 0 1 2 2 1 0 0 1 1 1 1 2 3 0 1 1 1 2 4 1 0 -1 1 0 0 0 1 1 0 1 0 0 1 0 0 0 2 -3 0 1 1 0 -1 0 -1 0 0 1 2 1 0 1 0 2 0 0 0 0 0 0 -1 1 1 1 0 1 0 1 7 5 0 0 0 1 2 0 0 2 1 0 0 3 0 0 -2 0 -1 1 0 0 2 2 0 -1 1 0 -1 0 1 1 0 -4 1 0 1 1 0 0 0 2 0 -1 1 1 1 1 1 1 3 0 -1 1 0 3 2 0 0 6 6 1 0 0 1 1 0 -2 0 0 0 1 -1 0 1 1 1 0 1 0 0 0 1 -1 2 1 1 0 0 -7 1 0 -3 0 0 1 0 2 1 1 0 3 -1 0 -1 -3 0 1 1 -1 3 1 0 1 0 0 0 1 -1 1 0 0 -2 0 0 0 2 1 0 -1 -1 -1 0 1 -1 1 0 0 1 0 
1 0 -1 0 -1 0 0 1 0 2 0 1 1 0 1 5 1 0 4 0 0 1 0 2 0 0 0 1 1 -2 -5 0 1 0 1 0 0 0 1 0 1 0 2 1 0 -1 4 0 0 -1 0 2 -1 0 0 -1 1 -1 0 1 2 1 0 0 1 1 0 1 0 0 1 1 1 -1 0 0 1 0 0 0 0 1 1 0 1 2 0 0 1 1 -1 0 2 1 0 1 2 0 1 1 4 -1 -5 -6 3 2 1 2 1 1 3 1 3 0 0 1 1 0 5 1 1 0 0 0 -1 -1 1 1 1 0 0 2 -1 -1 -6 0 1 0 1 0 0 0 1 0 -1 0 0 1 0 1 0 1 0 0 1 2 0 1 -4 -2 4 9 1 0 1 1 0 0 0 0 1 3 1 0 0 0 0 0 1 -1 1 0 1 0 1 0 0 1 1 -1 -1 0 0 0 0 0 0 -1 1 1 0 5 0 3 0 7 2 1 0 -2 0 0 1 0 1 2 4 1 1 0 1 1 0 0 0 0 0 -1 0 4 -1 3 1 1 0 2 1 0 0 0 -1 -1 1 0 2 0 1 3 0 0 0 2 0 1 5 2 0 1 1 1 0 0 0 -1 0 0 -2 0 -1 -1 0 -2 1 1 1 1 0 6 1 0 -5 0 0 0 1 2 -1 1 0 1 0 2 1 2 1 0 1 0 1 0 1 -1 1 1 1 1 0 0 2 1 1 -1 -1 -1 0 6 1 -1 1 0 3 0 -1 -3 2 0 -1 1 2 0 -1 -1 0 -3 -1 -1 0 1 0 0 1 -1 1 0 0 -2 0 0 2 2 0 1 1 1 0 1 1 3 0 5 0 0 1 0 4 0 1 -1 1 -1 -4 0 1 0 1 1 -1 1 0 0 0 1 0 -1 -1 0 0 0 6 3 0 1 0 0 0 1 1 4 0 1 3 -1 1 0 1 1 -4 -1 3 3 -1 0 0 -1 0 -1 0 0 -1 1 0 1 0 -3 -1 -1 1 0 0 0 0 1 1 1 3 0 1 0 1 1 0 1 0 0 1 1 1 0 9 7 6 1 0 1 0 0 0 -1 2 1 0 0 1 0 0 0 0 0 0 0 1 1 -1 -1 0 1 0 1 -1 1 0 0 2 -2 0 0 -1 1 -4 -4 0 1 0 -1 0 0 2 0 1 1 1 0 0 1 0 0 0 2 2 1 1 -1 0 -1 2 0 1 0 1 1 2 2 1 1 0 0 -4 0 0 1 -1 0 1 0 0 -2 -1 1 1 0 0 0 5 2 2 0 1 1 0 0 1 1 0 1 0 4 2 0 1 1 1 0 0 0 1 0 2 0 -1 -3 -2 3 0 0 0 0 -4 0 0 0 -1 0 0 -1 0 -1 -1 1 0 -1 1 1 1 0 0 -1 1 2 4 0 1 1 0 0 1 -4 0 0 0 1 0 1 -1 0 1 2 1 0 0 1 1 -1 -1 0 0 1 0 1 -2 -2 -1 -1 0 4 -1 0 2 0 2 1 
1 0 -1 0 0 1 4 -1 1 3 1 0 -1 1 0 1 0 0 1 0 0 2 1 2 2 1 -1 0 0 1 1 1 2 2 3 0 3 2 1 1 0 0 1 1 1 1 -1 -3 1 0 0 0 0 1 -1 0 0 1 2 1 1 1 0 -2 4 0 0 -1 0 1 1 -1 -1 0 0 1 0 1 1 1 1 2 1 -1 -4 1 0 0 0 1 0 -1 0 1 1 1 2 1 1 0 1 2 0 -4 0 1 1 1 0 1 0 1 1 1 -5 1 0 0 1 -1 0 -1 0 0 0 1 2 1 4 1 0 -1 0 0 0 1 -1 0 0 0 1 1 1 1 0 1 -2 0 1 -3 1 2 0 1 0 1 5 0 0 1 0 1 0 1 1 0 1 0 1 3 0 1 1 0 1 1 0 0 0 -1 1 1 1 4 0 1 1 0 1 0 0 2 -1 -1 1 0 -1 1 0 3 1 0 1 0 -1 4 1 1 0 -1 0 0 0 2 1 3 5 1 1 0 1 0 0 2 0 -1 1 1 -1 0 0 1 0 2 0 1 0 -1 2 2 -3 1 0 0 0 1 -1 1 0 0 2 0 0 0 4 -1 2 1 0 0 0 1 1 0 0 0 1 0 0 -2 0 -1 -1 3 3 -1 1 0 2 0 2 0 0 0 1 -1 0 -1 3 3 -1 0 1 1 0 0 4 0 1 2 -1 0 0 2 0 -2 -2 1 0 0 7 1 0 2 -1 1 0 0 0 2 1 -1 -1 7 0 -1 1 5 1 1 0 -4 1 0 -1 0 0 0 -1 1 2 2 0 1 0 1 0 -1 0 -1 -3 -1 2 1 -1 -1 2 1 1 0 2 0 0 1 1 2 5 4 8 0 0 1 2 2 4 2 1 0 -2 -7 0 0 1 0 0 1 0 0 1 1 0 0 -2 0 0 2 0 -1 1 2 2 1 1 1 1 1 0 1 0 1 2 1 0 2 1 1 2 0 0 1 -1 0 0 1 0 0 0 0 1 1 2 1 0 0 0 -1 0 0 0 1 5 0 0 0 2 0 1 0 3 6 1 0 0 1 2 0 1 0 -1 1 0 1 2 -1 0 -1 0 0 1 0 0 0 0 0 2 1 1 1 2 1 6 2 1 0 1 0 0 1 1 -4 0 1 1 0 1 0 -2 0 0 -2 0 0 0 2 2 1 1 1 1 0 2 0 0 0 0 2 1 1 1 0 1 1 1 2 -1 -2 0 1 1 0 1 1 1 -1 0 -1 1 1 0 0 -3 1 1 1 1 0 0 1 4 1 2 1 2 2 0 0 3 6 9 5 1 1 1 0 0 0 -1 -1 3 -1 1 1 -1 1 -1 1 0 0 1 0 1 1 -1 1 0 1 0 -1 0 0 1 1 0 -2 -1 0 0 1 2 0 1 1 3 0 0 0 1 1 4 1 -2 0 1 1 0 1 0 0 -1 -8 0 1 0 1 0 1 2 1 1 -2 0 1 0 1 0 1 0 1 2 1 
1 1 -3 1 -1 2 1 1 1 1 0 -1 0 0 0 0 -3 -7 -2 1 0 0 0 0 1 1 0 1 -4 6 8 2 0 -1 1 1 1 2 0 0 1 0 0 0 1 0 0 0 1 0 1 -4 -1 1 0 -1 0 2 2 0 0 1 0 2 0 0 0 0 0 -1 0 0 1 -1 1 1 0 0 2 1 1 0 0 0 0 0 -1 0 0 0 0 0 -4 -1 1 0 -1 0 0 1 1 1 1 1 0 1 -4 1 1 2 2 -1 -2 0 1 1 1 0 1 0 2 1 0 1 4 1 1 1 0 0 1 1 0 0 1 0 0 -4 0 -1 1 0 1 1 0 1 2 0 2 1 -1 0 1 2 0 -1 2 0 -1 0 0 1 2 0 0 2 -2 2 4 0 -1 2 0 0 2 3 0 1 0 1 0 0 -2 2 1 0 -1 0 1 0 -1 1 1 1 -1 0 0 0 1 1 1 1 -1 0 0 0 0 -2 0 -3 0 0 0 -1 1 1 0 1 1 0 -1 2 1 -1 0 1 -1 0 0 1 1 1 1 1 1 0 0 2 0 0 1 0 2 0 1 1 0 0 -1 1 1 0 0 0 1 1 0 0 0 1 -1 1 -1 1 0 -3 -2 3 0 0 1 2 5 1 1 1 0 -1 -1 -1 0 0 0 -5 0 1 -2 -3 0 0 0 1 4 1 5 0 1 0 -3 0 0 1 0 1 1 -1 1 0 -1 1 1 0 0 0 1 0 2 1 1 1 2 1 2 7 1 1 1 1 1 0 1 -1 1 0 1 1 -1 -2 -5 -1 -1 0 1 0 1 1 0 2 2 0 1 0 -3 0 0 0 1 6 0 1 1 1 5 1 0 1 2 5 1 1 1 1 1 2 0 -1 1 0 1 1 0 1 1 1 1 -1 1 -4 1 1 0 -1 2 -1 1 1 0 1 0 1 0 1 0 1 2 1 0 -1 0 1 0 0 0 1 0 3 -1 1 1 0 -1 0 -1 1 1 1 -1 4 0 1 0 -2 -1 0 0 0 1 -3 -1 0 1 1 2 -1 3 3 1 1 2 1 2 0 -1 2 0 0 0 1 0 -2 -3 -1 0 2 4 -3 0 2 0 1 0 1 1 0 0 -1 0 1 1 -1 0 1 1 1 0 -1 4 0 1 -1 1 1 1 1 0 1 0 1 0 1 0 0 1 0 1 1 0 0 0 0 -1 -2 0 1 0 -1 1 -1 0 -1 0 1 0 5 2 2 2 0 2 0 0 1 6 1 -1 -1 0 -1 -3 0 0 4 0 0 0 0 -4 0 0 1 0 1 0 0 1 -1 1 7 1 1 -1 0 2 0 2 0 0 0 0 0 1 1 -1 0 1 0 0 1 -1 0 2 1 1 -2 0 0 1 4 1 2 0 1 0 1 0 0 1 1 0 0 1 1 0 1 0 0 1 0 0 1 1 8 1 -1 0 1 0 0 1 0 0 0 2 0 1 0 0 0 2 0 1 1 0 1 1 1 -1 0 0 1 
0 1 -1 1 0 1 4 1 0 1 0 1 -1 0 -4 -1 0 -1 0 0 1 0 2 0 0 0 0 1 -1 1 1 2 0 1 1 0 2 0 0 0 2 1 -1 0 0 0 0 1 0 1 0 0 1 1 1 1 0 0 0 -1 1 0 3 1 1 0 -2 0 0 0 -1 0 -1 0 -1 -1 1 -1 0 -1 -1 0 0 0 -2 0 1 0 1 -1 0 1 1 0 0 0 -1 -1 0 -2 1 1 0 -3 1 0 1 4 2 2 1 2 -2 1 8 1 2 0 -1 0 -4 1 -1 0 0 0 1 0 0 0 0 1 0 -1 0 0 0 1 -2 1 0 2 1 0 -1 1 2 -1 1 1 0 -2 -1 0 1 0 1 1 1 0 2 10 8 2 5 2 1 1 -1 -4 0 -1 0 0 1 1 0 0 1 1 0 1 0 0 2 6 0 1 0 0 -1 -1 0 0 0 1 0 0 2 1 1 1 1 1 1 1 -2 -1 0 1 0 7 6 0 1 0 0 0 1 -1 0 0 -1 0 2 0 0 3 0 0 1 0 1 0 0 1 1 1 1 0 -1 -1 1 1 -1 0 -1 0 0 0 0 0 0 0 3 1 0 1 -1 0 -1 0 2 -5 -4 0 -1 0 0 0 1 1 0 0 1 1 2 0 1 0 1 -1 1 0 1 1 0 0 -1 0 2 1 -1 -8 -1 0 0 0 0 2 0 -1 3 0 1 1 1 0 0 1 1 2 -1 -1 -1 0 0 1 0 0 0 1 8 8 4 1 5 1 0 0 0 0 0 1 0 1 0 -1 0 0 0 0 1 0 1 -1 0 0 0 2 0 1 -1 -3 0 1 1 3 0 0 1 1 1 -1 -1 0 0 0 4 2 1 0 0 1 0 0 1 1 1 -3 0 2 0 -1 0 4 0 -5 0 0 0 1 2 0 5 0 0 0 1 0 5 3 1 6 1 0 -1 0 1 0 0 2 1 -1 -1 -1 1 1 0 1 -1 1 0 0 2 1 2 0 1 1 -1 0 -3 0 -1 -1 0 1 0 0 0 0 2 1 1 1 2 5 2 0 2 0 1 2 -2 -1 0 2 -5 1 -1 0 0 1 2 1 0 1 1 0 1 1 2 -1 0 -2 0 0 1 1 0 -1 1 0 0 1 -2 1 0 1 0 2 1 1 1 0 -1 0 1 1 2 1 0 1 1 1 0 0 1 0 0 0 1 2 0 2 1 1 1 0 2 2 1 0 0 -1 2 0 0 1 0 -2 0 2 1 0 1 0 1 1 1 0 1 0 0 0 1 0 -1 1 1 0 1 1 0 0 0 1 0 0 -1 2 1 9 0 0 2 0 1 1 -1 1 1 0 1 0 0 -1 0 1 1 1 2 0 -3 -1 0 1 0 0 3 1 0 0 0 0 1 0 1 0 1 0 0 1 0 -1 0 -1 1 0 1 0 0 1 2 1 0 0 0 1 -1 1 1 -1 1 0 -1 1 1 4 1 2 -3 1 -1 0 -4 -2 -1 0 
0 1 1 0 0 0 1 1 0 0 -1 5 1 0 0 1 0 0 1 0 1 1 -1 0 1 0 0 1 2 1 -1 0 0 1 0 0 1 0 0 1 -1 0 0 0 1 1 0 -4 1 1 1 0 1 0 -1 0 1 2 0 0 0 0 2 -1 0 1 1 1 0 -1 -4 -1 1 1 2 0 -6 2 0 1 0 0 0 0 1 1 1 1 2 1 1 1 0 1 0 0 0 0 2 0 1 1 0 0 1 1 0 0 1 0 0 1 0 0 1 0 0 0 1 3 0 0 0 1 -1 0 1 0 -2 -5 -2 -2 -2 0 0 4 2 -1 0 0 0 0 2 -1 1 -3 0 -1 4 0 -1 0 0 -2 -1 0 1 1 0 -1 2 5 7 1 2 0 1 1 2 -1 0 1 1 0 -1 -1 1 1 0 1 0 0 1 0 1 0 -2 1 3 0 0 1 1 1 0 0 0 -1 1 0 1 -4 -1 1 1 0 0 1 0 1 1 4 0 1 -1 1 1 0 1 2 2 0 1 0 -2 1 -5 0 1 1 0 2 0 -1 -1 -1 -2 -2 0 -1 -2 -1 1 -1 -3 1 1 1 0 0 1 0 0 0 -1 1 1 -3 1 0 0 3 1 0 -2 1 1 -2 1 0 1 1 1 1 0 0 0 1 1 1 0 1 2 1 2 1 0 0 -1 0 1 8 -1 -4 2 1 -1 0 1 0 -1 2 0 2 0 0 1 1 0 0 -1 0 2 2 2 0 0 -3 0 0 -1 1 0 1 4 2 1 0 10 2 0 1 2 0 0 0 1 0 1 -1 0 0 1 9 3 0 2 1 0 0 0 1 -1 1 -2 0 1 1 -2 0 1 2 7 0 1 0 4 2 0 2 0 0 2 0 -1 1 -1 0 0 0 1 0 -1 0 0 0 0 1 1 1 1 0 0 -2 0 1 1 2 0 0 1 0 1 1 1 5 1 -1 0 1 0 0 2 1 1 -1 3 0 1 1 -1 -1 -3 1 0 0 1 0 1 0 1 -1 0 1 0 1 1 0 0 0 -3 -5 1 0 0 -1 0 0 0 0 1 0 1 0 0 0 0 1 0 6 0 1 -1 2 1 -1 -5 1 -3 0 0 1 0 1 0 2 1 0 0 1 1 1 -1 4 1 0 0 0 1 0 0 -3 1 0 0 0 1 1 0 1 1 1 1 1 1 1 0 -1 -1 1 1 0 -1 0 1 1 1 2 0 1 1 -1 -2 0 1 1 1 0 0 0 -1 -5 -3 1 1 -2 0 0 0 1 -2 -1 2 -1 0 0 1 6 1 0 0 0 -1 1 -2 -1 0 0 -2 0 0 0 1 0 2 1 0 1 1 4 0 1 2 3 1 1 0 2 1 2 0 1 1 0 -1 -1 0 0 0 0 0 0 -2 1 1 -1 1 0 1 1 1 1 0 2 0 0 0 1 -2 0 0 0 1 0 0 1 -1 0 1 1 3 1 0 0 1 1 0 0 1 1 0 1 1 1 -1 2 0 -1 1 1 
2 -2 -1 0 1 1 1 0 0 1 0 0 0 0 1 -1 0 0 0 1 0 0 1 1 0 3 0 0 2 1 0 1 1 0 1 0 0 4 1 0 1 0 3 0 1 0 0 1 1 1 0 0 0 2 0 1 1 0 0 0 0 1 0 1 0 1 2 0 1 -3 1 1 1 -1 4 0 0 0 -1 1 1 1 0 0 -2 1 1 2 1 -1 -2 0 1 -1 -1 -1 1 2 1 2 2 0 0 1 6 8 1 0 1 1 0 1 1 1 -1 0 1 1 4 1 1 0 1 0 0 1 1 0 0 0 1 0 1 -1 -2 0 0 1 0 1 0 0 0 1 1 0 0 0 2 1 0 -1 1 1 0 0 0 0 4 1 1 0 1 0 0 1 -8 -6 0 2 1 0 0 1 1 1 1 2 1 1 0 0 0 0 -1 1 1 2 1 1 0 0 2 1 0 0 0 0 0 0 0 1 0 0 1 0 1 0 1 0 1 3 2 0 1 1 -3 0 0 1 2 0 -1 0 -1 -1 0 0 -1 -1 1 -1 1 1 0 1 0 0 0 0 0 1 0 0 0 2 1 1 2 -1 -1 1 0 1 0 -4 0 1 0 0 0 2 0 1 0 0 1 -5 -2 -6 0 1 1 0 1 1 1 1 1 0 0 0 1 0 -1 1 0 0 1 1 0 1 1 1 2 1 1 1 0 4 0 0 0 1 1 0 0 0 0 -9 0 -1 1 1 0 0 0 1 1 0 -1 1 0 0 1 1 1 0 1 1 2 1 1 1 1 0 0 0 1 1 0 5 3 2 2 0 1 0 1 1 1 1 1 -1 -1 -6 -2 1 1 0 0 1 2 0 0 0 1 3 0 0 1 0 2 0 0 1 0 0 -1 1 0 1 -1 0 1 1 0 1 0 0 1 1 -1 0 1 0 0 2 0 0 1 0 1 2 2 0 1 0 0 2 0 -1 0 -1 1 1 -1 1 0 1 1 -1 0 1 1 2 0 -1 1 2 1 0 -1 -1 0 0 0 0 0 0 -6 -1 1 1 1 0 1 0 1 1 -1 1 0 1 0 1 1 -1 1 -1 0 -1 0 0 1 1 0 0 0 1 1 1 3 0 1 1 0 0 1 0 1 4 1 0 1 0 1 0 1 1 2 0 1 0 0 1 1 1 -1 1 0 -1 1 6 1 0 1 0 0 0 0 1 2 1 1 1 -1 1 4 0 1 0 1 -1 -1 0 -1 0 4 0 1 6 1 1 0 0 0 0 0 0 1 1 0 1 1 -1 0 0 2 0 0 0 2 1 1 0 1 -1 -1 0 0 0 -2 -1 0 2 1 1 0 -1 -1 0 0 0 0 0 0 2 -1 0 1 0 0 0 0 1 0 0 0 -1 -1 1 -2 1 1 1 1 0 1 1 1 -1 2 3 2 1 -3 -1 1 -2 0 1 0 2 1 0 -1 1 0 1 4 1 0 1 1 0 1 3 0 0 1 0 1 1 1 -1 1 0 2 1 
0 1 -1 -4 0 -1 1 0 2 1 1 1 1 0 -3 0 0 0 2 1 0 0 0 0 -1 0 1 0 0 0 0 0 0 2 0 0 1 1 1 -1 0 0 2 0 1 0 -6 0 1 0 -2 0 0 1 0 0 1 0 0 1 0 4 1 2 0 4 -1 -1 1 -1 1 0 0 0 4 1 -1 1 -1 1 -1 0 1 -1 -2 0 0 0 1 0 1 1 0 0 -1 1 0 0 -1 0 0 0 0 2 2 2 4 5 0 -2 0 0 -1 0 1 1 0 2 4 2 1 0 5 2 1 0 1 0 0 -3 -3 0 2 0 -1 0 0 -1 0 0 -1 1 1 0 -1 2 0 1 11 6 1 0 1 0 0 0 0 0 0 1 1 0 -1 0 -1 0 -1 0 0 1 0 1 1 1 0 0 -1 0 0 1 0 -1 0 0 0 0 0 1 0 0 0 0 0 0 0 0 -2 0 0 1 1 1 -4 0 2 2 1 0 1 1 1 0 0 1 0 1 -5 1 -2 -1 1 0 -2 -1 0 0 1 -3 -3 4 4 0 1 1 0 0 1 0 1 0 1 0 4 2 0 1 0 0 1 0 0 0 0 1 -2 0 7 9 1 0 0 -3 0 -1 0 2 1 0 -6 1 -1 2 2 3 2 6 1 0 2 1 0 0 0 1 0 -1 -4 -2 1 0 1 1 1 0 0 1 2 0 1 1 0 0 0 -1 0 1 0 0 0 0 -5 -1 0 0 1 -1 -3 1 1 3 0 1 -1 0 0 1 1 1 1 0 1 3 1 0 1 1 1 1 -2 1 3 3 2 -4 0 1 -1 0 0 0 1 1 1 0 0 1 -1 1 1 1 1 0 1 1 -6 -1 -3 0 1 0 0 0 5 -1 1 5 -1 1 0 1 1 -3 -1 -2 0 -1 2 0 -1 0 1 0 1 2 2 2 0 1 1 0 1 0 0 -4 0 1 0 1 2 1 1 1 -1 -1 -1 2 1 0 0 -3 0 -1 -1 3 1 0 3 1 2 0 0 2 0 0 -3 0 1 1 -1 -2 1 -1 1 1 0 1 2 3 2 1 0 0 1 1 -2 1 0 -2 3 0 1 0 2 1 0 1 3 1 0 0 0 1 1 0 0 1 0 2 -1 1 0 1 0 0 0 1 0 1 0 0 0 1 1 1 0 0 0 2 0 1 0 0 2 1 0 1 -3 1 0 0 1 1 0 0 1 0 1 0 2 3 2 1 0 1 2 0 0 0 0 0 0 2 1 0 0 2 0 0 0 2 1 -1 -2 1 0 0 1 -1 1 0 0 2 2 0 2 0 0 -1 1 2 0 0 0 1 0 0 1 0 0 1 -1 -1 1 1 3 2 0 1 1 -1 0 1 -3 -1 0 0 2 0 0 1 1 1 0 0 1 -1 0 0 1 1 -1 0 1 1 1 0 -3 1 0 0 -1 1 0 0 1 0 -3 1 -1 1 1 1 2 1 0 -1 1 5 4 2 1 1 0 0 0 -1 1 0 0 1 
1 -1 -1 -1 0 1 0 1 -2 0 1 1 0 -1 0 0 0 0 2 1 0 -1 1 0 1 1 -1 2 1 1 -2 2 4 0 -1 0 4 0 1 0 -1 0 0 1 1 1 -3 -1 2 0 1 0 0 0 2 0 1 0 -1 0 0 -1 0 1 0 0 0 1 0 0 -1 0 -2 1 0 -1 0 0 -1 1 0 1 2 2 1 0 -4 0 -1 1 5 0 1 0 0 0 0 0 -4 0 0 0 2 0 1 10 4 4 1 0 0 -1 -1 -1 0 0 1 0 0 -1 0 0 1 3 0 2 1 1 1 1 -1 1 0 -1 1 0 0 -1 0 0 2 0 1 1 1 1 1 0 0 5 0 0 1 0 2 0 0 1 0 1 -1 -1 0 2 0 1 1 1 1 2 1 0 -1 0 0 1 0 1 1 0 1 2 1 -1 -1 0 1 1 0 -1 1 0 0 1 1 1 1 1 0 0 0 -1 0 1 1 0 -1 0 3 1 1 1 0 -5 -6 0 0 0 1 0 -4 1 0 0 -1 2 2 0 0 -4 0 0 0 -1 0 0 0 -1 1 -1 1 0 0 1 1 -1 0 -5 0 1 0 1 1 2 0 0 2 4 1 2 1 1 0 0 0 -1 0 1 0 2 0 0 5 0 0 1 1 6 0 1 0 0 1 1 0 1 0 1 1 0 1 1 -3 -2 0 0 0 1 1 0 1 2 2 1 2 1 1 0 0 2 0 0 1 0 1 0 0 1 0 -3 1 0 -2 1 -3 0 0 -1 1 3 3 0 1 0 1 -1 1 0 2 1 0 -6 0 0 -1 -1 -1 0 -1 1 0 0 0 0 0 1 -1 0 0 1 -1 1 1 1 2 1 1 0 0 0 0 1 1 1 0 1 -1 0 0 0 4 1 2 1 4 1 1 0 0 2 -1 1 1 1 0 2 0 -1 0 1 1 0 0 -1 0 0 0 -3 2 -3 -2 -1 1 0 -3 1 0 0 0 1 1 1 1 0 1 0 0 0 0 1 1 1 0 1 0 -5 1 0 0 0 -1 -1 2 -1 3 1 0 1 0 2 5 0 1 1 0 -1 1 4 -1 1 0 0 2 1 0 2 2 1 -1 0 0 0 -2 0 1 1 0 -2 1 1 0 0 2 0 0 1 0 1 1 1 4 0 -1 -1 0 0 1 1 0 0 1 0 1 0 -2 0 1 1 -1 0 1 0 1 -1 1 0 1 0 0 -1 1 1 0 0 0 0 0 0 0 -1 0 1 1 4 2 1 1 1 0 1 0 -3 1 0 1 1 1 2 -1 0 2 0 1 1 0 1 2 2 0 0 1 1 0 -1 1 1 -1 1 -1 1 -1 0 0 0 0 1 -1 0 0 1 0 1 0 -1 0 1 2 1 -1 0 -1 0 1 -1 -2 -1 1 1 1 1 0 2 1 1 1 1 0 1 1 0 1 1 0 1 -1 0 1 -3 1 1 1 0 0 0 2 1 0 0 2 -1 4 1 -1 1 0 -5 1 0 0 1 
0 -1 0 2 -4 0 1 1 -1 -1 0 0 1 1 0 1 4 1 0 1 1 1 0 1 0 1 1 2 1 1 1 1 3 0 1 -4 -1 1 -1 0 0 -1 -1 1 2 0 0 1 0 0 1 0 2 1 1 0 1 1 1 1 0 0 -5 -1 0 0 2 0 0 1 1 0 0 1 1 1 1 0 0 0 0 2 0 0 1 0 0 0 1 1 -1 1 5 1 1 2 0 0 0 0 2 1 0 0 1 1 1 2 1 1 0 1 4 0 2 0 0 1 1 2 1 0 0 0 2 0 -1 -1 0 2 3 0 -1 0 2 6 1 0 0 2 0 -1 1 1 0 0 0 1 0 1 0 2 7 0 0 0 0 2 1 0 0 0 -3 1 1 1 0 1 0 1 1 2 0 3 1 1 1 -1 1 5 2 2 1 -1 2 2 0 0 0 0 0 0 1 0 0 1 0 -1 -1 0 0 0 0 1 0 0 0 0 1 0 0 0 1 0 2 -1 0 0 1 0 1 -1 1 7 2 0 1 1 -1 -2 1 -1 -1 1 -1 1 2 3 1 -1 -5 -1 1 5 5 2 -3 0 1 1 -1 1 3 3 1 -1 -1 1 0 -2 -2 0 1 0 -4 -1 0 0 -1 -1 0 1 0 1 1 0 -2 1 0 1 2 0 0 1 1 1 0 1 1 1 1 0 -1 1 1 5 1 -1 1 0 0 1 2 1 -1 1 0 0 0 1 1 1 1 0 1 1 1 2 1 2 1 -2 -1 -5 -1 0 1 1 1 1 0 2 5 4 1 1 -1 0 1 1 0 0 1 -1 1 -1 2 2 1 1 0 0 1 2 0 0 0 2 3 1 0 2 1 3 9 1 -1 0 1 0 0 -1 -4 0 0 2 0 0 1 1 0 0 0 0 1 3 1 -1 -1 0 1 1 2 0 0 1 0 1 0 0 1 1 0 0 2 0 1 0 0 -1 -6 -6 1 1 0 1 0 0 0 0 -3 1 -2 0 0 4 1 0 -1 0 0 0 1 1 1 1 0 0 0 -1 0 1 0 0 0 0 1 1 0 4 1 0 -1 0 1 -1 1 1 0 3 4 0 0 0 2 0 0 0 -1 2 1 0 0 0 0 0 0 0 0 -5 -2 0 0 -1 0 -1 1 1 -1 -4 1 -1 -4 -1 1 0 0 1 1 -1 1 1 0 0 4 1 5 0 1 -1 0 -1 1 0 1 2 1 1 1 1 1 -1 0 0 0 0 5 0 -1 1 0 0 0 0 0 1 -3 1 0 0 0 0 1 1 0 0 -1 -1 0 0 0 2 0 0 1 3 1 1 0 0 1 0 1 -1 0 -2 0 -4 0 1 1 0 -4 0 0 0 0 0 0 0 -1 1 0 0 0 2 0 0 -5 0 -1 0 -1 0 1 -5 -2 0 0 1 1 -1 0 1 0 1 1 0 0 1 0 1 0 1 0 1 2 0 3 1 1 1 0 1 0 1 0 1 5 0 1 0 0 1 1 0 2 3 1 -1 
1 2 1 5 0 0 -1 -2 1 -3 -1 0 2 -1 1 0 1 0 -1 2 0 2 0 1 0 -2 1 1 0 -1 0 0 1 0 0 0 0 0 1 1 1 0 -1 1 1 0 -1 1 3 -3 -1 -1 1 1 1 2 1 0 0 1 1 0 0 0 4 2 0 2 1 -1 0 0 4 0 1 2 2 1 0 1 -1 1 -1 2 0 0 1 0 -1 -2 2 0 8 1 0 0 0 0 0 0 -1 0 -1 -3 -1 0 0 1 1 1 0 0 2 0 0 -1 0 1 -1 0 -5 -1 -2 1 1 0 1 0 1 0 1 0 2 1 2 6 1 0 0 0 -1 -6 1 0 0 0 0 1 1 1 0 1 0 0 0 0 0 3 1 0 3 0 -1 -1 1 -1 0 1 1 3 1 1 2 1 -1 0 0 1 0 4 0 1 1 1 0 -1 0 0 0 2 -1 0 1 -1 2 0 -1 1 2 5 0 -1 0 0 1 -1 0 -1 4 1 2 0 0 1 3 2 0 0 0 0 0 2 1 0 -5 -2 -1 1 0 1 1 0 2 -1 0 0 4 0 0 -3 0 0 0 0 0 -1 1 1 0 1 1 1 1 0 -1 0 0 0 1 1 1 -1 2 0 2 2 0 0 2 1 1 2 0 1 -1 -5 -1 0 1 1 -2 0 1 0 1 2 0 -1 0 1 4 -1 -6 -1 1 5 3 -3 1 1 0 -2 -1 0 1 0 1 3 -1 1 0 2 2 0 0 -1 1 2 1 6 0 -1 1 2 0 1 1 1 0 0 1 0 0 1 2 0 1 1 4 3 2 1 1 -1 1 0 0 0 0 0 0 1 1 0 1 -1 1 3 0 -5 0 0 0 0 1 -1 1 2 0 -2 0 -5 0 0 1 0 0 0 0 -1 1 1 0 1 2 0 0 0 0 0 1 3 -1 -2 1 0 1 2 0 0 5 2 1 1 -1 1 1 0 1 0 0 -1 1 0 -3 0 1 1 -5 0 0 1 1 1 0 0 3 0 0 1 0 -1 2 -1 1 0 1 0 1 0 0 1 0 0 2 -1 1 0 0 1 -2 0 0 0 0 1 0 -1 0 1 1 0 0 -1 -2 0 1 1 0 2 1 2 0 0 0 1 1 0 0 0 1 -1 1 0 6 0 0 -1 0 -1 -1 0 0 -1 2 1 -4 0 0 1 0 0 1 1 1 -3 1 3 0 1 0 -3 -8 0 0 2 0 0 1 1 -1 0 0 2 1 1 1 1 0 1 1 1 0 0 0 3 0 1 0 0 1 0 2 0 1 2 1 1 0 1 1 0 1 -1 0 1 0 -1 0 0 0 0 -1 -3 -2 -1 1 0 0 0 -1 0 0 0 0 0 0 1 0 0 1 -1 -1 1 1 1 0 0 0 0 0 0 0 0 -2 -5 0 0 0 2 1 1 1 0 0 -1 0 -1 0 0 -4 -1 -1 1 1 -1 0 1 0 1 1 0 0 1 2 1 -1 0 1 1 0 -1 0 1 0 0 4 1 -1 -1 
1 2 0 0 1 -1 0 2 0 0 0 -2 -1 1 1 -1 0 0 -1 0 1 0 0 0 0 0 0 -1 2 1 0 1 1 -1 2 2 0 1 2 0 -2 0 0 0 1 1 0 0 1 0 0 1 1 -3 0 1 0 1 1 0 5 1 1 0 1 1 1 0 4 0 1 0 0 -2 -1 0 1 0 0 1 0 1 3 -1 2 0 0 1 -1 -3 -1 0 3 6 1 0 1 0 0 -1 0 -1 2 0 -3 0 0 1 2 5 1 1 0 0 1 -3 1 1 1 0 -1 -1 -3 0 -4 -1 1 1 1 2 1 1 0 0 0 2 -1 1 1 2 -1 0 1 0 0 0 0 0 0 0 0 -2 -1 0 0 0 0 0 -1 1 1 0 1 -1 0 4 2 1 0 1 0 2 -1 0 0 2 0 0 0 1 0 0 2 0 1 0 1 0 4 0 -1 1 1 1 -1 1 0 2 1 4 1 2 0 0 1 1 0 2 -1 0 -1 2 6 0 0 1 -1 0 0 -1 1 0 0 1 0 1 2 1 0 1 0 0 0 1 4 1 4 6 1 0 1 0 2 0 0 0 1 0 0 0 0 0 2 1 1 0 1 0 0 1 1 1 0 1 0 2 1 1 1 0 1 1 0 1 0 -3 1 2 0 -4 -3 0 1 0 0 0 -2 0 2 0 0 1 0 0 0 1 -1 0 -1 1 1 0 1 1 1 1 0 0 0 1 1 1 0 2 1 1 1 0 1 1 0 -2 -1 1 0 1 0 0 0 0 1 1 2 0 1 0 -3 -1 0 -1 0 0 0 -1 -1 0 1 0 0 1 1 0 2 0 0 0 -1 0 0 0 0 -4 1 0 0 1 1 -1 -1 0 0 1 1 1 0 2 0 1 1 1 1 3 2 0 1 -3 0 1 1 0 3 6 0 -1 -1 1 2 0 1 0 0 0 0 0 1 -1 0 0 1 1 0 -1 -1 0 -1 1 1 2 1 1 1 0 1 1 0 -1 0 1 0 0 0 1 1 1 -1 3 4 0 -1 1 1 0 0 -3 2 1 0 0 1 0 0 0 0 1 0 0 0 1 1 0 1 0 -1 0 1 1 1 2 0 0 1 3 0 0 0 0 -1 1 0 1 0 -1 1 0 0 1 1 2 1 4 0 2 0 1 1 0 -7 -1 0 1 0 2 0 0 0 -1 0 0 1 1 0 -2 1 -2 1 3 0 1 2 0 0 1 1 1 -1 1 1 1 0 0 0 0 0 2 2 0 2 1 1 1 1 2 -1 1 -1 -1 -1 0 2 1 1 1 0 0 0 -1 1 0 0 1 1 0 -2 -1 -1 3 0 2 2 1 2 3 0 1 1 2 -3 1 0 1 0 0 -1 1 0 0 0 0 4 0 3 1 0 1 0 -2 1 2 0 1 0 -1 -4 0 -1 -2 2 0 2 1 0 0 -3 0 0 1 1 0 -1 1 1 3 -2 0 1 0 0 -2 -1 1 -1 1 0 1 1 0 2 1 5 0 
1 1 1 0 -1 2 2 0 0 0 -1 -2 -1 0 0 0 2 2 1 0 -1 1 2 -1 0 -1 0 0 1 1 0 -1 0 1 3 1 1 1 1 0 0 1 0 0 0 1 0 0 0 2 0 0 1 1 0 0 0 0 1 1 1 4 1 1 0 -1 1 1 1 0 2 0 0 0 0 0 1 1 0 0 1 0 1 -1 1 0 0 0 1 -2 -1 -3 4 7 1 0 1 4 1 1 0 -2 0 1 0 1 2 0 0 0 5 2 0 1 1 0 2 1 0 2 0 3 2 0 0 0 0 2 3 0 1 0 1 0 1 0 0 1 1 0 0 0 1 0 0 -1 0 1 0 0 0 -1 1 1 0 1 0 0 0 0 -2 1 1 0 3 0 1 4 1 0 0 0 1 -1 -2 0 0 1 0 1 0 0 1 -1 1 1 3 0 0 0 1 1 0 0 1 0 0 1 1 -1 1 0 0 0 1 1 2 1 0 -3 0 2 4 1 0 1 0 1 0 0 1 -1 -1 1 0 1 0 2 0 1 1 -1 -1 1 5 3 0 -1 -1 -1 1 1 1 1 0 1 -1 -1 1 0 2 0 1 0 -4 -1 2 0 2 1 0 0 -1 -1 -1 -1 -1 1 0 1 -1 1 0 0 0 1 3 1 1 -5 0 0 0 -1 1 1 -1 0 1 1 -1 1 1 0 0 0 0 0 -5 -3 0 1 1 1 0 1 0 5 1 0 0 1 0 2 3 0 0 0 0 1 0 1 0 1 2 3 1 1 1 5 1 0 1 2 0 1 0 1 0 1 -1 1 1 -2 1 0 1 0 1 1 0 2 2 0 0 0 0 -2 0 0 -2 0 0 1 3 2 0 1 0 1 0 0 0 0 0 1 1 0 0 0 0 1 1 0 0 2 0 1 1 0 1 1 0 0 0 2 1 0 0 1 0 0 0 0 0 1 -1 1 0 1 0 1 1 1 -1 0 2 1 0 3 1 0 2 1 0 2 1 0 0 1 1 -1 0 1 1 0 1 1 1 0 0 0 1 0 1 0 0 -2 0 -3 2 1 1 0 -4 0 0 1 2 1 1 0 -1 0 -1 0 1 1 0 1 1 2 1 1 0 0 -6 -1 0 1 1 0 1 0 0 0 2 1 0 0 0 1 2 1 1 -3 -3 0 0 1 0 3 3 0 -1 0 -1 4 1 1 1 0 1 1 1 1 1 0 2 0 0 1 0 0 0 1 1 -1 -1 -2 0 1 -1 0 0 1 0 1 5 1 1 0 1 0 1 0 1 0 0 0 1 1 2 -1 1 0 0 1 1 1 2 0 0 2 -1 1 1 1 0 0 2 1 0 0 0 0 0 -1 0 0 -1 -1 0 2 0 1 0 0 3 1 3 1 -3 0 4 0 1 1 1 2 1 0 0 0 1 2 1 0 1 2 1 0 1 0 0 -1 2 0 1 1 2 0 1 -1 -1 -1 -1 0 0 1 2 1 0 0 1 1 0 1 2 1 
0 1 1 0 0 0 0 0 0 6 0 -1 2 1 0 1 0 1 1 1 0 -3 0 -4 0 3 0 0 -1 1 -5 -4 0 2 1 -1 1 -1 0 1 2 0 0 1 1 -1 1 0 -3 0 1 0 0 1 0 0 0 0 -1 1 -1 1 0 -1 0 1 0 -1 0 2 -1 1 0 1 -1 -1 1 0 -1 1 -1 0 0 1 -1 0 0 -3 1 0 1 1 1 2 0 0 -1 1 -2 0 -5 0 4 1 1 1 0 1 0 0 7 2 0 4 1 -1 1 1 1 1 1 0 3 1 3 1 0 2 1 1 0 1 0 1 2 2 1 3 1 -1 0 1 2 1 0 1 0 -1 2 1 -4 1 2 3 1 1 -1 1 0 1 0 -1 1 -1 0 1 1 1 0 -1 1 1 1 1 2 0 0 1 -1 0 0 0 -2 -1 1 1 2 6 2 5 2 0 0 2 0 0 2 0 -3 0 1 1 1 1 3 -1 1 0 1 1 0 1 0 0 2 2 3 0 1 1 1 1 -1 0 0 -1 -2 -1 -1 2 -1 0 -1 -1 0 0 2 -1 0 2 4 2 1 1 0 1 0 1 0 0 0 1 0 0 -1 2 0 1 1 1 -1 1 -2 1 0 2 1 4 0 1 0 -1 -1 3 0 0 -1 -4 -3 -1 1 0 -1 0 0 0 1 1 2 1 1 1 0 -1 0 1 0 0 0 0 1 0 -1 0 0 3 0 0 2 0 1 0 0 1 0 1 1 1 2 0 -5 -2 0 1 1 -4 0 0 1 0 1 0 1 0 1 2 -3 -3 0 -2 0 1 0 -1 0 0 1 3 0 0 1 1 2 -1 0 0 2 0 0 -2 1 0 1 -1 0 -2 0 0 0 0 0 2 5 -1 1 0 -4 -1 0 1 3 1 3 0 1 0 1 0 0 2 2 1 1 1 1 1 0 1 2 1 4 5 0 0 0 0 1 1 1 4 0 -1 1 0 -3 0 0 1 0 0 0 0 1 1 1 2 2 2 0 0 1 0 0 0 2 1 0 0 1 0 -2 0 1 1 1 1 0 2 3 0 -1 0 1 0 -4 0 1 0 1 0 1 1 -1 -1 -1 0 1 1 1 1 1 0 0 0 0 0 -1 -3 0 1 1 0 1 4 0 1 -1 1 0 0 2 -1 1 -2 1 0 1 0 2 1 1 0 0 2 1 0 1 0 0 1 0 0 0 1 0 0 1 1 0 -1 0 0 0 0 0 -1 1 0 -1 1 0 -1 0 0 1 0 1 0 0 -1 -1 0 1 2 1 2 0 1 1 0 0 4 5 1 0 0 0 1 0 0 1 0 0 0 0 1 0 0 0 2 1 1 0 2 0 -2 1 1 0 0 -1 0 0 1 0 2 0 1 0 -2 1 3 0 1 1 -2 0 1 1 2 1 0 2 1 1 3 0 1 1 1 1 4 -1 2 1 0 0 0 0 0 0 -1 0 1 -4 -6 0 -5 -1 1 1 0 0 1 1 2 0 0 2 -1 
0 1 0 1 0 0 -1 0 0 0 -1 1 -1 0 -1 1 -3 1 0 1 0 0 -1 0 0 -1 0 0 -1 -4 0 0 0 0 1 0 0 1 1 1 -1 1 -1 3 0 0 1 0 0 0 0 1 2 -1 -3 0 0 0 1 0 2 0 0 0 0 4 1 0 0 -1 1 -2 2 -1 0 1 3 1 0 2 1 0 -1 1 1 1 0 0 1 4 2 -1 0 2 1 0 -3 1 1 0 0 0 1 1 -1 0 1 2 0 0 2 0 1 1 1 2 1 1 0 1 1 1 1 0 0 0 2 1 1 1 0 2 0 0 0 1 0 0 1 -1 0 7 1 0 -2 0 0 0 1 0 0 2 0 0 0 1 1 5 1 0 1 0 0 0 -4 0 1 1 -2 -3 -7 -1 1 1 1 0 0 2 0 2 0 0 0 1 1 5 2 2 1 1 4 1 1 0 0 -2 -1 1 1 -2 0 1 6 0 2 0 0 -1 0 2 0 1 0 0 1 2 -1 1 0 2 0 1 0 1 -4 0 -1 1 0 0 1 1 0 0 0 1 0 0 -1 1 0 0 1 2 0 -5 0 4 0 0 1 2 1 -1 1 2 6 1 0 0 2 0 0 0 -2 0 1 1 -1 -2 0 0 0 1 -1 0 0 0 0 1 -1 -1 0 1 -1 0 0 2 -1 6 1 3 1 1 0 1 0 1 0 -1 -1 0 0 1 1 0 0 0 -1 0 0 0 0 1 1 0 0 0 0 0 1 0 0 2 1 -4 -1 0 -1 0 0 2 0 0 1 0 1 1 -1 -2 2 1 0 1 1 0 -1 1 0 1 0 1 -1 1 -4 1 -1 0 1 1 -1 0 0 0 0 1 0 1 0 1 0 4 2 1 1 4 0 2 2 4 1 1 1 0 1 1 1 0 -3 1 1 4 0 -2 0 0 1 0 0 1 1 0 0 0 -2 0 1 1 1 0 1 2 -4 -6 -1 0 0 2 2 -1 0 0 1 -1 0 0 1 1 1 -1 1 0 1 1 1 -1 1 -1 1 -1 0 2 0 3 2 1 0 0 0 0 1 1 -2 0 1 1 3 1 0 1 0 0 1 -1 0 0 1 -2 -1 1 0 0 -1 1 1 1 1 0 0 4 0 1 0 1 0 -1 0 1 1 1 2 0 0 1 0 0 -1 0 1 2 1 0 0 0 2 1 0 0 0 0 1 1 2 0 1 1 1 0 2 0 -3 1 1 0 0 -5 0 1 0 1 2 1 0 0 0 2 1 0 0 0 -1 0 1 0 1 1 1 -1 -1 2 4 1 1 0 0 0 0 0 0 0 0 0 1 1 1 0 1 1 4 2 5 1 -1 1 1 1 0 1 1 0 0 -1 1 1 -1 1 1 2 1 0 -1 1 1 2 -2 2 1 1 0 0 2 1 1 0 2 0 -1 1 0 -1 0 1 0 1 1 0 0 1 1 0 0 0 0 -1 -1 0 1 -2 0 -1 0 0 0 5 1 1 1 1 1 0 
0 0 0 1 -1 -1 -1 1 0 1 0 1 0 -1 0 1 -1 2 0 2 1 1 0 1 0 1 0 -5 1 -1 0 0 0 1 1 0 0 1 0 1 1 1 1 0 0 1 0 1 2 0 1 1 1 1 0 1 1 -1 0 1 0 0 1 0 1 0 0 0 2 0 0 0 0 3 4 1 -1 1 0 0 -1 0 1 -1 0 0 0 -1 -2 0 1 1 -1 -1 1 0 0 0 2 2 0 0 1 1 0 1 5 0 0 0 0 1 1 1 2 5 1 0 0 0 1 0 1 -2 -2 0 1 0 1 2 1 0 0 2 1 1 0 -4 0 0 0 0 0 1 0 -1 1 -1 -1 -5 0 1 6 0 0 0 1 0 -1 0 1 -1 1 3 1 1 0 0 0 0 0 0 1 0 2 1 1 0 1 1 0 1 0 0 -2 1 0 0 2 0 0 3 1 -1 1 -1 -3 -1 1 0 0 1 0 1 -1 0 -1 0 1 0 1 0 0 -2 3 -1 0 1 0 1 2 1 1 1 5 1 1 3 -1 0 1 0 1 4 1 1 1 1 0 -1 0 1 1 3 1 0 -1 1 0 0 1 0 4 3 4 0 1 1 0 1 0 0 1 0 0 -1 -1 0 1 0 0 0 1 -1 0 2 1 0 2 0 0 -1 0 1 0 0 0 1 2 1 0 1 1 0 0 -1 -2 0 0 1 3 1 1 1 0 1 0 1 0 0 -1 -1 4 -2 0 1 1 0 2 0 1 0 0 0 0 0 1 -1 1 -2 0 0 1 -5 0 0 1 0 -1 1 1 1 1 0 0 -1 -1 0 0 -2 -1 0 -1 -1 0 0 0 0 0 0 0 1 3 1 1 2 0 1 0 0 1 -2 0 0 0 1 1 1 0 0 0 1 0 1 0 1 1 0 -3 0 1 1 0 0 0 0 1 1 3 0 -1 -1 0 0 -1 0 1 0 0 1 0 0 2 -1 -1 0 0 2 0 -4 -5 -1 0 0 1 1 1 2 0 -1 0 1 0 0 0 0 -6 -5 0 -1 0 0 0 1 4 1 0 0 1 0 1 1 1 2 4 1 1 1 -1 0 -1 0 -1 1 1 2 3 2 1 0 -2 1 0 -1 0 -1 0 -1 0 -2 -1 0 0 0 1 1 0 1 0 1 0 1 0 0 0 0 0 1 2 0 0 2 -1 0 0 0 1 0 1 1 0 0 0 1 0 3 1 2 0 1 -2 0 1 1 0 1 0 0 0 3 4 -1 2 0 0 -1 -1 1 0 0 0 0 0 0 0 0 1 0 0 0 0 1 0 4 0 1 -2 -1 2 2 0 1 0 0 0 1 0 1 1 1 1 1 0 1 0 0 0 1 1 0 2 -2 0 0 1 0 0 0 0 1 1 1 1 -1 1 1 6 5 1 1 0 1 -1 0 -2 2 2 0 -3 -2 2 6 0 2 2 1 2 1 -1 0 -1 0 2 0 3 2 1 -1 0 0 1 -1 1 0 1 0 1 2 -1 1 
1 1 1 1 0 -1 0 1 1 1 2 1 0 0 1 0 1 0 1 0 0 1 1 -2 0 0 1 0 -1 1 0 0 -1 0 1 1 0 1 1 1 0 1 0 0 -1 0 -4 1 1 1 1 1 0 0 2 0 0 1 2 1 0 0 0 0 -1 1 1 0 -1 2 0 1 1 1 1 0 0 -3 0 2 2 1 3 0 2 0 1 0 0 0 1 0 0 0 -2 -2 1 -2 1 -1 1 0 3 0 0 -1 0 1 1 1 1 1 1 0 -1 0 1 3 0 -1 0 1 1 -1 0 0 1 2 1 1 0 1 0 2 1 -1 0 1 1 0 0 1 0 1 3 -1 1 1 0 -2 0 1 0 0 1 0 -1 0 -1 0 -1 1 1 0 1 0 0 1 0 1 1 0 0 0 1 1 1 0 0 0 1 0 0 0 -3 0 0 3 0 2 0 -1 -1 0 1 -1 1 0 0 0 -1 -1 0 0 1 2 1 1 -7 0 -1 -1 -1 -1 0 0 -3 0 0 1 -2 0 0 1 9 0 1 0 0 1 0 0 0 0 1 1 1 -1 0 0 0 0 1 0 0 0 -1 0 1 0 0 7 1 2 5 0 0 0 4 0 -3 0 1 0 0 0 -1 0 0 0 1 1 2 0 -1 -1 0 1 0 1 0 0 -3 -1 -1 1 0 0 1 0 0 -2 0 1 0 0 0 1 -1 1 1 0 1 2 1 0 -5 -3 2 4 0 1 1 -1 0 0 0 0 1 0 1 1 -3 -3 0 1 1 0 1 1 2 0 1 0 0 0 0 -1 0 1 0 -2 0 1 1 1 2 6 0 -1 1 2 1 0 1 1 2 0 -1 2 8 1 1 0 0 0 2 -1 0 1 -5 0 0 1 0 -2 -1 0 1 1 0 1 -5 1 1 0 1 1 2 1 1 3 2 0 -1 -3 1 4 0 4 0 2 1 0 0 2 1 0 2 1 0 1 0 2 0 -1 -3 -1 0 -1 2 1 6 0 -2 1 1 0 0 2 1 1 0 0 -1 -1 -1 -6 -1 2 1 1 -2 0 1 4 -1 0 -1 1 0 2 1 1 0 1 0 -1 0 -1 1 0 0 1 1 1 4 1 -2 0 1 1 1 1 -1 1 0 1 1 -2 -1 1 0 1 3 0 1 1 -1 1 0 0 1 -2 -4 0 0 0 0 1 0 0 1 0 0 1 4 0 1 1 0 2 1 1 1 1 0 1 6 3 2 1 0 0 0 0 1 0 0 0 0 1 -1 0 -1 0 1 0 0 1 0 -1 1 1 1 2 1 1 1 1 0 -1 1 2 1 -1 0 1 0 -1 1 5 0 0 -2 2 0 2 0 0 -1 0 0 0 1 1 -1 0 -1 0 1 0 1 1 0 0 2 1 -1 1 1 1 0 0 -1 -1 1 1 0 0 1 1 0 -1 0 0 2 1 0 -3 1 2 1 0 3 1 1 0 1 2 1 2 2 0 0 0 0 -1 1 -1 2 -1 0 -5 -1 0 0 1 1 0 
0 0 -1 -1 2 1 2 1 1 0 1 0 0 0 0 0 1 2 0 0 1 -1 1 0 0 -1 0 0 -1 0 0 -1 1 0 0 1 1 1 1 -3 0 0 1 1 4 0 0 0 -1 1 1 -1 1 1 0 1 0 0 -1 0 0 -1 1 1 0 0 1 0 -1 1 2 1 -1 1 0 0 0 0 0 -1 -1 0 1 0 0 0 0 0 -2 0 -1 -1 0 1 1 -2 -1 1 -1 0 0 1 -1 -4 0 1 0 1 0 0 1 1 0 2 1 0 0 0 -1 -1 0 1 1 1 2 1 1 2 0 1 0 0 0 0 2 1 -1 1 0 1 0 -1 -1 1 1 0 0 2 1 -2 0 -1 0 -1 1 -2 1 -1 0 -1 1 3 0 0 1 0 0 3 1 0 0 1 -1 0 0 0 1 0 0 0 0 0 -1 1 0 0 1 3 1 0 0 0 0 0 -1 0 1 1 0 0 0 0 2 0 1 2 0 2 1 2 -1 1 1 1 0 1 1 1 -1 2 1 0 2 1 3 2 3 1 1 1 0 1 -2 0 -2 2 1 1 3 0 -3 0 0 1 1 1 -1 1 0 1 1 0 4 3 0 0 1 1 7 -1 0 1 0 -3 -1 0 0 1 1 1 -2 -1 2 1 1 -2 1 2 1 0 0 1 -1 1 1 1 0 0 -4 0 0 1 0 -1 0 0 1 0 1 1 1 1 2 1 1 0 -2 0 1 0 0 1 8 1 0 3 2 -1 1 -1 -1 1 1 -1 1 0 2 1 0 0 -1 1 1 1 0 2 0 1 1 -2 1 1 1 0 -2 0 1 1 1 -1 0 0 1 1 2 0 -1 -1 0 0 1 0 1 1 0 0 0 3 1 2 0 -3 0 -1 0 -4 0 0 1 1 -1 1 0 1 1 2 1 0 1 1 5 1 1 1 0 -1 0 1 2 7 0 3 1 -1 3 5 -1 -1 0 0 0 1 0 0 0 0 0 1 0 0 0 0 0 0 -1 -1 0 1 0 1 0 -1 0 1 0 0 0 0 -1 0 0 1 0 2 2 -1 0 0 0 1 0 0 1 0 1 2 0 -7 -1 1 0 0 -1 1 1 0 0 2 1 1 1 0 1 0 0 -2 2 1 3 -1 1 1 0 1 1 0 -2 2 0 1 1 0 -1 0 1 1 0 1 0 0 0 4 1 -1 -1 1 1 0 1 1 1 0 0 -1 0 1 1 0 0 0 0 0 2 -5 0 1 -1 0 -1 0 -1 1 1 1 1 1 0 -5 0 1 1 1 0 0 1 1 -1 1 0 0 0 0 -1 1 1 0 -1 0 1 -2 0 0 0 2 0 1 0 0 -1 0 3 2 0 1 1 0 0 2 1 0 0 -2 0 -1 1 -4 0 0 0 1 1 0 0 2 1 0 0 1 0 1 1 -1 1 -1 0 0 -1 -1 1 0 1 0 -1 0 1 1 -1 1 1 2 0 0 1 0 2 1 0 1 1 1 2 1 -3 -2 -4 1 0 0 0 1 
1 1 0 1 1 1 1 1 1 0 0 0 4 1 -1 0 0 -1 0 0 1 1 0 0 -1 1 0 0 0 2 1 0 3 1 0 1 0 0 1 0 -2 1 0 1 1 0 5 4 0 2 1 0 0 0 0 0 1 0 1 1 1 -4 0 0 0 -1 0 1 0 1 0 1 1 5 0 1 0 1 0 0 1 1 -1 1 0 2 5 1 -1 0 1 1 -1 0 -1 0 1 0 -1 -2 1 1 0 0 -2 0 1 2 0 0 1 0 0 2 4 0 0 1 4 1 -1 -1 1 0 2 1 1 0 3 1 0 0 2 0 1 4 1 1 0 0 0 -1 2 1 1 1 1 0 0 -1 1 0 0 1 0 0 0 1 1 0 1 -1 -3 -2 2 1 0 1 0 1 1 -1 0 1 -1 1 0 1 0 0 0 3 1 0 0 1 0 0 1 0 -5 -7 -5 -2 0 0 0 1 0 -3 -1 0 0 1 1 -1 1 2 0 -1 1 -1 0 -1 0 0 0 0 0 0 0 1 1 1 0 1 -1 -1 1 0 1 -1 1 -4 0 0 0 1 0 1 0 1 1 0 0 0 0 0 0 0 1 0 1 2 0 -1 0 0 1 1 1 0 1 -1 0 -8 -4 0 1 0 1 0 1 1 2 0 0 -1 0 0 0 0 0 0 0 1 0 2 1 -1 0 1 -2 0 -1 1 2 1 1 1 0 -1 1 -1 0 0 -1 1 0 -2 0 -1 -2 1 0 0 0 0 0 0 1 0 1 1 1 0 -3 0 1 1 2 0 1 0 2 0 -4 1 0 0 1 1 0 0 1 0 0 2 0 1 1 1 0 1 2 1 -1 1 1 0 0 -3 0 -1 0 0 1 0 1 0 0 0 0 0 1 1 1 1 0 -1 1 -1 0 1 -1 0 0 0 0 0 -1 0 -1 1 0 0 0 1 5 3 1 1 1 0 0 0 0 0 0 1 1 1 1 0 -1 0 1 0 -3 0 -1 0 0 0 -1 0 1 0 -1 0 0 1 0 3 -1 1 1 -1 1 0 -1 0 1 1 0 0 1 0 0 -1 2 -1 0 -4 1 1 0 0 1 1 2 -1 -4 0 0 1 1 0 1 0 -1 -1 2 0 3 2 0 -5 1 1 0 0 -1 0 0 0 0 0 0 1 1 2 -1 1 1 2 -1 1 1 1 0 2 1 1 0 0 1 0 0 0 0 0 0 1 0 0 1 0 1 1 -4 -2 0 0 0 1 -2 0 -1 0 0 1 1 0 2 -1 0 -1 0 0 1 1 0 1 0 0 -4 0 0 -8 -4 -2 0 0 2 1 2 1 1 -1 -3 -1 1 1 2 1 1 2 1 0 -1 0 1 2 0 0 1 0 1 1 -1 -1 1 0 0 1 0 0 3 1 1 0 4 5 0 1 0 0 1 0 0 1 0 1 0 0 2 1 2 2 0 0 1 1 0 1 0 -5 -4 0 2 1 0 0 -1 1 1 0 1 1 -1 0 0 1 0 0 -1 3 1 0 
1 0 0 4 1 2 0 1 0 1 0 -1 2 1 3 0 0 0 0 1 -2 1 0 0 0 -1 0 -1 0 0 3 2 2 1 1 0 6 -1 1 0 0 0 -3 -1 0 1 1 0 0 0 0 1 0 0 0 0 0 -1 0 1 0 1 1 4 2 1 0 0 3 1 0 2 -1 0 1 0 -1 0 1 0 0 1 1 3 -4 -1 0 1 0 0 1 1 -1 0 1 1 6 2 0 -1 -1 0 0 -1 0 1 1 0 4 1 0 0 1 1 -1 0 0 1 1 1 1 1 0 0 -1 3 1 1 1 0 2 1 0 2 0 1 0 1 0 1 0 0 -3 1 1 1 0 2 1 1 0 1 0 -3 -4 0 0 0 0 1 1 0 2 2 1 2 2 1 0 1 1 0 2 0 1 1 0 0 -2 0 5 1 0 -1 0 0 2 0 -1 1 -2 0 -2 -1 0 0 0 -2 1 -1 1 4 -1 0 1 0 1 1 1 0 -1 0 0 0 0 -1 1 0 0 1 0 0 -1 1 0 1 1 0 1 -4 1 0 1 1 -4 -1 2 0 0 5 6 0 0 1 1 0 1 0 0 -1 0 1 1 1 1 -1 -1 1 2 0 -1 1 0 0 -1 0 0 -4 1 -2 0 0 0 0 2 -1 1 -1 0 1 0 0 1 1 0 1 1 0 0 0 1 1 1 2 1 1 0 -3 0 -1 3 1 -1 0 1 1 -1 0 -1 -3 1 0 -1 0 0 3 1 1 0 0 0 -1 -3 0 -1 0 -1 1 -1 1 0 0 -2 1 0 1 0 2 -1 0 2 -1 1 -1 -5 -1 -1 -1 1 0 0 0 1 1 1 0 0 0 0 -1 -1 0 0 -1 -1 1 1 0 1 6 5 7 2 1 -1 1 1 1 1 0 3 1 2 1 0 -5 1 1 1 1 1 -1 0 0 1 1 0 1 -1 0 -2 1 0 0 -2 0 -1 0 0 0 -1 1 1 0 1 1 -1 0 -6 -1 0 0 -2 -2 0 1 1 1 0 0 0 2 1 3 2 1 -2 0 -3 0 3 0 -3 -4 0 0 1 0 0 0 0 1 1 0 2 1 1 1 1 2 0 0 -1 -1 -1 0 0 3 -1 1 1 0 0 1 0 1 -1 0 0 0 -1 0 1 0 -1 1 2 2 1 0 1 4 2 0 1 1 1 0 2 0 0 0 1 0 1 1 1 -1 2 -1 -3 1 -1 1 1 0 0 0 0 1 1 1 0 0 0 1 0 0 0 0 1 1 1 1 0 1 0 1 1 0 -2 1 3 -1 1 0 1 3 4 -6 -3 0 5 1 0 -1 -1 0 0 0 -1 0 0 2 1 4 0 1 0 -1 1 0 0 1 1 1 1 0 1 -1 1 -1 1 1 -1 2 0 1 1 0 1 1 1 1 0 0 -1 2 -1 1 0 0 -5 -2 -3 1 0 0 2 0 1 1 6 1 1 -1 1 1 0 -1 0 1 0 0 0 0 1 0 0 2 1 0 0 0 1 1 0 -1 2 3 
0 3 3 0 0 0 1 1 5 0 1 -2 -1 0 0 0 -1 -1 -2 0 1 -1 -1 0 3 -3 1 1 1 -1 -2 1 0 1 1 1 1 0 0 -2 0 0 0 0 0 1 0 2 1 -1 1 1 1 -1 -4 1 0 -1 1 1 0 0 0 4 1 1 -1 0 2 -2 1 2 0 -2 0 1 3 1 -1 1 1 1 -1 1 -1 0 0 1 0 1 0 3 5 1 0 6 4 2 0 -4 1 1 1 -1 -3 0 -1 -2 1 4 1 2 2 2 1 0 0 0 -1 1 2 2 2 1 0 0 1 -1 0 2 0 1 3 0 1 1 0 0 1 0 0 0 1 1 -3 0 0 0 0 0 1 1 1 2 0 1 3 0 -1 0 0 4 1 1 2 0 1 -2 0 1 1 0 2 -1 3 0 2 0 0 0 1 -1 0 -2 0 -1 -3 0 1 0 1 0 1 0 2 1 1 1 -2 1 2 1 0 1 1 -3 0 0 1 0 1 1 -1 0 4 1 -1 3 -3 1 0 1 1 1 1 0 1 3 0 -2 0 2 -1 -4 -4 -3 0 0 0 0 1 1 4 0 1 0 0 -1 0 0 1 0 0 1 1 0 -1 0 1 0 -4 0 3 0 -5 1 2 -1 0 -1 1 -1 -1 0 -3 1 1 1 2 6 2 0 0 0 0 1 1 0 0 0 -1 -1 1 1 7 6 0 1 -2 0 0 0 0 1 3 1 1 0 0 1 4 1 1 1 0 -1 2 0 1 1 -1 0 1 0 0 1 0 -1 -4 0 1 1 1 -1 1 -2 -1 1 0 0 0 -1 -1 0 -4 1 0 1 0 1 -4 2 0 -1 0 0 2 6 1 1 4 1 0 3 1 1 0 1 1 -1 1 2 0 1 0 1 1 2 0 1 0 -1 1 0 0 0 1 0 0 1 1 -2 2 0 1 -1 0 1 1 1 1 1 2 0 0 1 0 0 0 -1 0 1 -1 4 4 -3 1 0 -1 0 0 0 -1 0 0 1 1 1 0 0 0 0 0 0 0 0 0 1 -2 0 -3 0 1 -1 0 1 1 0 0 4 0 0 0 2 0 0 0 1 1 0 -1 0 -1 0 1 1 1 0 0 1 1 4 6 2 1 0 -3 1 1 0 1 0 0 0 -1 1 1 1 1 1 1 0 0 0 2 1 0 2 1 -1 1 -3 0 0 -3 -1 0 0 1 0 0 1 0 1 4 1 1 2 -1 0 2 3 0 0 0 1 0 0 1 -1 1 -2 1 1 2 0 3 0 1 0 1 1 1 1 0 0 0 0 0 0 0 0 1 1 0 0 0 1 1 2 0 0 2 0 0 1 3 0 3 -2 1 1 -4 0 1 2 1 0 0 0 2 1 1 4 1 -2 1 1 1 1 1 1 0 1 -1 1 0 0 0 4 1 0 0 0 1 1 1 0 2 0 1 1 0 -1 1 6 0 1 1 -1 1 1 1 3 1 0 0 0 -2 0 0 0 1 -1 0 -1 0 -2 0 1 
0 0 1 -2 1 0 1 1 1 1 0 0 -1 0 1 1 1 1 0 1 1 0 1 0 2 0 1 1 1 0 1 1 0 1 1 0 0 1 0 1 -1 3 0 -1 -1 0 1 -1 0 -1 0 0 3 -2 2 5 0 1 1 1 -1 -1 0 0 2 1 -1 -3 2 1 0 -2 -1 1 3 0 0 1 -2 -1 0 1 0 0 1 1 0 -5 0 -1 1 0 2 0 1 0 0 1 -2 0 1 1 1 0 0 0 0 0 1 3 1 1 0 1 0 1 1 0 1 0 1 -2 3 5 1 -1 0 -3 -1 2 -1 2 1 2 1 0 1 0 1 0 1 1 0 0 -2 0 -1 1 0 1 2 0 0 1 1 1 1 0 1 -3 0 1 -1 -1 1 1 0 0 0 1 1 0 1 0 2 0 3 0 0 0 1 1 -1 0 0 1 0 1 0 -1 2 8 6 3 0 0 -1 0 1 0 0 0 0 0 2 1 1 0 2 2 0 1 0 2 3 0 1 1 1 2 0 0 2 2 5 2 1 -1 0 1 1 0 2 0 -1 0 3 1 1 1 1 0 1 0 2 0 1 -1 -1 0 0 1 0 1 1 1 -1 0 0 2 0 1 -2 1 1 0 0 2 1 1 2 1 1 -4 -1 1 -1 2 1 0 0 0 2 -1 1 1 2 0 1 0 0 1 1 0 3 0 -1 -5 1 0 2 2 1 0 1 -1 0 0 1 0 1 0 1 0 0 2 1 0 1 1 1 0 1 4 1 0 1 2 0 1 3 1 1 3 0 -1 -1 2 0 2 1 -3 2 0 1 0 1 1 1 2 0 0 0 1 2 0 0 0 -3 1 1 0 1 1 1 2 1 1 1 2 0 0 1 -3 0 0 0 0 2 1 -1 1 0 1 2 -1 0 1 0 1 0 0 0 1 1 0 0 -1 1 0 7 0 1 0 0 0 1 2 1 0 0 1 1 1 0 0 1 2 0 2 0 2 4 0 0 1 1 0 1 0 1 1 -1 0 -5 0 1 0 0 0 0 1 3 0 1 0 3 0 1 -2 0 2 -1 2 -2 0 0 0 -3 2 1 -2 1 1 -3 0 -1 -3 0 1 0 1 2 0 1 1 0 1 2 -2 0 1 0 1 0 3 1 1 0 -1 2 0 0 0 -1 1 0 0 1 1 2 1 -1 2 0 0 1 0 1 0 0 3 1 1 1 0 1 3 1 0 1 0 1 -1 -1 1 1 -1 0 0 0 3 2 1 2 1 2 -1 -1 2 1 0 -2 0 -1 0 0 0 1 1 1 -4 -1 -1 1 1 2 2 0 -1 1 1 1 1 1 0 5 5 -1 -1 -2 0 -1 0 0 0 0 1 0 0 0 0 -1 1 2 -1 0 0 -1 1 1 1 4 0 0 2 1 -2 0 1 1 1 0 2 2 0 1 -2 0 1 1 1 -1 0 1 1 0 1 1 0 0 0 0 2 0 0 -2 0 1 0 0 3 0 0 -1 0 1 0 2 5 
0 -1 0 0 2 1 1 2 0 0 2 1 0 -1 0 0 0 0 0 0 1 0 1 0 1 1 0 1 0 1 8 1 2 1 0 1 0 -1 -3 0 1 0 1 -1 1 1 -1 1 1 0 0 0 2 0 3 -1 1 0 -1 1 0 -1 1 0 1 1 1 1 -2 1 1 1 1 0 1 0 1 -2 0 1 1 0 1 0 0 3 1 1 0 3 1 1 1 0 1 0 0 1 2 1 3 1 0 0 0 0 1 1 0 0 1 2 0 1 2 0 5 5 5 1 -1 0 0 0 1 -4 0 -1 0 1 0 -1 2 3 1 0 0 0 0 0 0 0 0 1 0 -1 0 0 0 3 7 0 0 1 1 1 0 -1 1 0 0 1 0 0 1 0 2 1 0 0 0 0 1 0 -1 0 1 -1 1 0 0 0 1 -3 1 0 1 0 0 1 1 2 5 4 1 0 1 0 2 1 0 1 0 1 0 1 1 2 1 1 1 0 1 1 2 0 1 1 -1 -1 1 1 -2 0 0 1 1 1 1 0 0 0 1 0 0 1 5 1 0 0 1 -2 1 0 0 1 1 2 3 1 -1 -4 0 0 1 0 1 -2 2 2 0 0 -1 1 0 0 0 1 0 0 -1 0 -1 -7 0 1 1 0 1 -1 1 2 0 0 1 0 0 0 0 0 2 1 1 1 0 0 -2 1 -2 0 1 3 5 0 1 0 0 1 1 0 1 0 0 0 -1 -3 0 -1 -1 1 2 0 1 2 0 0 1 -1 1 1 1 2 1 1 0 -2 1 1 1 1 1 0 0 1 1 0 0 0 2 0 2 0 1 0 0 -1 0 1 0 0 1 1 1 1 -1 1 1 1 0 1 1 0 0 2 1 0 0 0 5 0 3 0 -1 1 0 0 0 -1 -2 -1 0 1 1 5 0 0 1 0 2 0 0 0 -1 1 1 1 2 0 -1 0 0 1 1 1 0 1 0 0 0 1 0 0 0 0 0 5 1 0 3 4 0 0 0 1 1 1 2 0 3 1 -1 1 1 0 2 -2 0 0 1 0 1 0 2 0 0 -1 0 0 2 0 -5 -1 -1 -4 -3 0 -1 -4 0 1 1 0 0 0 -1 1 -1 0 -1 -1 1 0 1 0 1 1 1 1 1 -1 2 -1 1 1 -2 -4 0 -1 1 0 1 1 0 0 0 0 1 0 0 5 2 1 1 0 0 -2 2 3 1 0 0 -1 0 1 1 1 0 -1 1 -1 0 -1 1 2 -1 1 1 2 1 3 5 1 1 0 0 0 -3 0 0 -2 0 -5 -3 1 0 0 -2 0 0 1 0 1 -1 0 0 1 2 1 0 0 1 0 -1 1 2 -1 0 1 1 -1 0 1 -2 1 0 1 2 1 0 0 2 1 6 1 1 1 -1 0 0 0 0 1 1 1 1 1 -1 -2 0 0 0 0 1 1 2 1 0 1 2 0 1 1 1 -1 2 2 1 1 0 1 -1 0 1 2 3 2 3 2 4 0 
0 2 0 0 1 0 1 0 -1 1 0 1 1 0 0 1 -1 -4 -1 -1 0 1 1 0 1 2 0 1 1 4 0 0 2 -1 2 0 0 0 1 0 2 1 1 3 0 -1 -3 0 0 0 1 1 1 0 1 -1 1 0 0 0 0 -3 -1 0 1 1 0 1 0 0 0 1 1 -1 0 3 1 1 -1 1 0 0 -1 0 -1 1 0 0 -1 2 -1 -1 -1 1 -1 0 -1 1 -6 -1 1 2 0 0 0 -3 0 0 0 0 0 1 0 -2 -1 0 1 -2 1 1 -1 1 0 -4 1 0 0 1 1 0 2 0 1 1 0 2 1 0 1 0 -1 -3 1 1 0 0 3 6 2 1 2 1 -1 0 0 -1 1 1 0 0 0 -1 0 1 1 0 0 1 0 0 2 0 1 0 2 -1 -2 -2 1 1 1 0 0 1 0 0 -1 0 1 0 1 1 0 1 1 0 0 0 0 1 0 0 -1 1 0 1 0 0 0 1 1 0 0 1 -1 1 0 0 0 -1 0 0 2 0 0 1 0 2 1 0 -1 1 1 1 0 0 1 1 1 0 -1 1 0 0 0 0 0 -1 1 1 2 2 0 1 0 -1 -1 0 1 1 0 0 1 -1 0 2 -1 0 0 -3 -1 1 1 0 1 0 0 0 0 1 1 2 1 -1 0 0 0 -1 1 1 1 2 0 0 -1 0 0 1 0 1 0 1 0 0 0 0 0 0 -1 0 1 0 0 0 -6 -1 1 1 0 1 0 0 0 0 2 -2 -4 0 0 2 3 1 1 0 -1 0 0 0 -1 0 6 0 1 -1 0 1 0 0 1 0 1 2 0 1 1 0 -5 0 1 1 0 1 0 -1 1 -1 1 2 0 -1 -2 2 -1 0 0 0 1 1 1 2 -1 1 0 2 0 -2 -1 0 0 -2 0 0 1 5 5 1 1 2 1 0 0 1 0 1 0 0 0 0 -1 1 0 1 0 1 2 -1 1 1 -1 0 0 -2 -2 1 1 1 1 2 1 -1 2 -1 0 0 -2 0 0 0 -3 1 0 1 0 0 0 0 1 0 -2 1 1 0 1 0 -1 -7 -4 1 1 1 1 -1 0 -1 0 0 -3 0 1 1 1 1 2 0 0 0 1 1 0 0 0 0 0 0 -1 -1 0 2 1 4 1 -6 -1 -1 -1 0 0 0 0 0 1 2 1 0 1 0 0 0 4 5 0 0 1 1 0 1 -4 0 -2 0 1 0 1 0 1 1 3 1 2 0 2 0 -1 0 1 1 0 2 6 1 1 0 3 1 -1 1 0 1 0 0 1 0 -5 0 0 1 1 0 0 1 0 -1 -1 -1 0 1 0 1 0 0 -1 1 2 0 1 0 -3 1 0 1 1 3 -1 5 2 0 3 0 0 0 0 -1 1 0 2 1 -1 -4 0 1 0 0 1 0 0 0 -1 1 2 1 0 1 1 2 0 1 1 0 2 0 3 0 1 0 0 1 1 1 1 1 -1 1 2 2 1 2 1 1 0 1 
1 0 1 1 1 0 3 1 -2 -1 1 1 1 3 4 0 1 -1 -1 -1 0 0 1 0 1 0 1 0 0 1 0 0 1 1 1 0 0 1 1 0 1 1 2 1 2 0 -4 0 -1 0 -1 1 0 0 0 1 1 2 0 -4 0 2 1 0 0 1 0 2 2 1 -1 3 0 -2 0 0 1 1 1 0 0 2 1 0 1 0 1 -1 -1 -1 1 3 0 1 -1 0 0 0 -3 0 1 -1 1 0 1 1 0 -4 1 0 -3 -1 0 0 -7 -1 0 0 0 0 -1 0 2 1 3 0 0 2 1 1 1 0 3 2 0 1 1 -1 1 1 0 1 0 -1 1 1 6 2 1 4 0 0 1 1 2 0 -3 0 0 0 1 0 1 0 0 0 0 0 1 -1 1 3 1 -1 -1 0 0 1 0 0 0 0 1 1 0 1 0 -2 0 0 -1 -1 1 0 2 1 0 2 0 0 0 0 0 6 0 0 1 1 4 0 0 -1 5 -1 0 2 1 -1 1 0 1 0 0 1 2 1 0 0 -1 2 0 1 0 1 0 0 2 1 1 1 0 0 0 1 0 1 0 1 1 0 0 0 0 5 2 0 0 0 0 1 0 -3 -4 0 0 0 -1 0 0 1 1 2 0 0 1 1 1 1 0 4 1 1 1 0 0 0 0 1 -1 -2 1 0 3 4 2 2 0 0 2 1 1 1 -1 -1 0 -1 2 -3 0 1 -1 -2 -2 -3 -2 1 1 1 4 0 1 0 3 2 5 1 1 1 1 0 0 1 0 1 1 0 0 1 -1 2 1 0 -1 -7 -5 0 1 1 0 0 1 4 1 0 -3 1 1 1 1 2 1 1 0 0 0 1 1 -1 0 2 3 1 1 1 4 0 0 0 6 1 1 1 0 0 1 2 1 -5 0 -1 1 0 1 0 5 -5 -3 0 -1 -1 0 -1 0 0 1 1 0 -1 -2 0 0 0 1 4 1 0 0 -1 0 1 -1 1 1 0 0 0 1 1 1 -1 0 0 -2 0 -6 -5 0 0 1 -1 0 1 0 1 1 -2 1 0 0 0 1 1 0 -7 -5 -1 0 -1 1 0 0 0 -4 -1 0 1 1 2 1 -1 1 1 1 3 1 1 1 0 1 1 1 2 1 2 1 0 2 5 1 0 1 0 0 1 1 1 1 0 0 1 1 -1 1 -1 1 -1 0 0 2 1 -1 1 1 1 -1 1 0 0 3 1 2 1 1 0 2 1 0 0 1 1 1 0 0 0 0 -1 1 0 0 0 0 0 -1 0 0 0 0 0 1 1 0 0 1 0 1 0 0 0 1 1 2 6 0 0 1 0 1 0 1 0 1 1 0 -1 0 -1 -1 2 2 1 -1 2 0 0 1 2 1 1 0 -3 0 0 1 1 1 0 1 -1 1 1 0 0 1 1 0 0 0 -1 0 0 0 1 0 2 0 1 0 0 0 0 1 1 0 0 1 1 0 0 1 2 1 1 1 0 -1 -2 1 0 0 2 
0 4 2 1 -1 1 1 2 0 1 1 1 1 1 2 0 0 1 0 2 0 -1 1 1 1 3 0 0 1 1 0 -1 -1 5 0 1 0 -1 2 0 0 1 3 1 0 1 1 0 0 1 2 0 1 0 1 0 1 1 0 1 0 1 0 0 0 0 1 1 2 -1 0 0 0 1 0 2 0 2 0 0 0 0 0 2 1 -1 -1 1 0 1 -1 1 -4 1 1 1 0 0 0 0 1 0 0 0 1 2 1 1 0 1 0 1 0 1 -2 1 1 1 -3 -1 -1 1 1 0 1 1 1 0 0 0 0 -1 2 1 0 0 1 0 1 0 -1 -2 1 -1 0 1 4 2 0 1 -1 0 1 -1 0 0 0 0 2 0 0 0 3 0 -1 1 4 1 -1 1 0 2 2 0 1 0 1 0 -1 1 0 -1 0 9 0 1 0 -1 0 0 -1 0 0 1 0 2 0 1 1 0 0 1 0 1 2 1 1 1 3 2 1 3 2 1 -1 0 0 -1 1 1 -1 0 1 1 0 1 1 0 0 1 0 1 0 0 1 1 4 -1 -1 0 0 0 0 1 1 0 -1 1 1 0 1 1 1 0 1 1 0 1 1 -3 2 -1 0 0 1 -1 1 2 0 0 0 -2 0 1 1 1 1 0 -1 1 1 1 3 1 0 0 2 0 -1 0 0 1 8 1 -1 1 0 1 1 1 0 0 0 1 1 0 4 1 -1 1 1 -1 -3 -5 -1 0 1 -1 0 1 1 2 0 0 0 1 0 -1 -4 0 2 1 1 1 0 -2 0 0 1 0 1 0 1 -2 -1 -1 0 -1 0 0 1 0 1 0 0 1 0 2 0 1 1 -1 0 1 1 2 2 1 0 0 1 2 0 1 1 1 0 -1 1 0 0 1 0 0 1 -3 -2 0 -2 1 -1 1 0 1 -3 -1 1 1 0 0 0 -2 0 0 2 0 0 2 -1 0 0 0 0 2 1 1 1 1 2 2 2 -1 2 0 1 1 0 1 1 1 -1 2 1 1 0 0 -1 0 2 1 1 0 0 1 0 0 1 0 -1 -1 0 1 -1 0 0 1 1 0 0 2 1 0 0 2 1 0 -1 0 0 0 0 1 0 0 1 1 1 0 0 -1 0 0 1 -1 0 5 1 4 1 1 1 0 0 0 0 0 0 -3 1 1 0 0 -1 1 1 0 0 0 1 -2 1 2 1 0 1 0 1 1 0 0 0 5 1 1 -1 0 1 0 1 -1 0 0 0 1 0 0 0 1 0 0 1 0 0 0 1 2 0 0 0 5 1 0 0 1 4 2 2 1 1 0 0 -1 0 -1 0 0 -1 1 3 0 3 0 1 -2 1 -1 0 1 6 2 0 1 2 0 0 0 0 -1 5 2 0 -1 1 0 1 0 0 1 0 0 1 1 0 1 -1 0 1 1 1 1 1 0 -1 -2 0 1 1 0 1 1 0 0 0 1 2 3 1 -1 -1 1 1 -1 0 1 0 0 1 2 0 -4 
1 1 2 3 -1 -1 0 0 1 1 1 0 1 0 0 0 1 2 4 5 2 0 0 0 1 0 1 1 1 1 0 1 0 0 0 0 2 2 0 1 3 1 0 0 1 0 1 2 1 2 0 0 -2 0 -2 2 0 1 -5 1 0 -1 0 -1 1 5 5 5 0 1 0 0 1 0 0 0 0 1 1 0 0 1 0 6 0 1 0 0 0 1 3 1 0 1 0 0 0 1 -2 -1 2 1 -4 0 0 -3 -3 1 1 1 2 0 1 0 0 1 0 1 1 2 0 3 1 0 0 0 0 1 0 -1 1 1 0 -1 1 1 2 1 -1 -3 0 0 -1 -3 0 0 0 0 2 2 0 -1 1 1 1 3 2 -1 -2 0 0 0 -1 0 1 0 1 1 1 1 1 0 1 0 1 1 2 0 0 0 1 1 -1 1 0 1 1 0 1 0 1 2 1 1 0 -4 0 2 0 -5 0 0 0 2 0 -1 0 1 0 0 1 1 2 -1 2 4 0 1 -1 2 1 0 1 0 1 -1 0 0 0 2 3 0 -1 0 -1 0 1 0 0 2 0 1 1 0 -1 1 1 0 1 1 0 1 4 2 0 1 5 1 1 -3 2 0 0 0 1 0 2 1 0 0 0 1 1 2 1 -1 4 1 0 1 0 0 -2 0 1 3 1 1 3 0 0 1 2 -1 0 -4 0 1 2 2 1 1 -1 3 0 1 0 0 0 1 0 -1 0 -8 -1 1 0 0 0 1 2 2 0 -1 1 1 0 0 1 1 1 -4 -1 0 0 0 1 5 1 0 0 2 1 1 3 3 0 2 0 -1 0 1 0 1 2 1 1 1 6 0 2 0 -1 0 0 1 0 0 0 1 1 3 0 0 1 0 -1 0 1 1 0 0 0 -2 0 1 0 1 1 1 0 0 2 0 -3 1 0 2 2 1 -1 -2 0 0 1 1 0 1 0 0 1 0 0 1 -1 1 0 0 0 1 1 0 0 1 0 1 1 1 0 0 1 0 1 -2 0 4 2 1 0 1 3 -1 1 0 1 1 0 -2 -1 1 0 2 0 1 0 4 2 -1 0 1 1 1 0 0 1 0 1 1 1 0 -2 1 1 0 1 0 -1 1 2 1 0 0 1 3 5 1 0 1 0 1 1 0 0 0 2 -1 1 2 1 1 1 0 1 0 2 0 0 0 -1 1 1 2 0 1 0 -2 0 0 0 0 0 -1 1 5 4 1 0 0 0 0 0 0 1 0 0 0 -1 -1 0 -1 0 1 0 -1 0 0 1 0 1 1 2 0 0 0 1 1 1 0 0 0 -5 -1 0 1 0 -1 1 -1 -5 -4 0 1 1 0 0 0 1 0 1 1 0 1 1 2 -1 -1 1 0 1 0 -1 1 0 0 1 1 4 0 0 0 1 2 0 -1 -4 0 0 2 1 1 0 0 1 -1 -2 1 0 -1 0 2 0 0 1 0 0 0 1 3 -2 1 1 3 2 0 1 -1 1 1 0 0 
0 0 2 5 1 0 0 1 0 1 0 6 0 2 3 1 0 0 1 0 1 4 1 -1 0 1 -6 -1 -1 1 0 1 0 0 -1 1 6 1 -1 0 0 4 0 0 0 1 2 5 4 1 0 1 0 -2 -1 0 0 0 -1 -1 0 1 0 0 -1 0 0 0 0 0 1 1 -2 3 0 1 0 0 3 3 0 0 0 1 1 1 1 0 0 2 1 1 1 1 0 -1 0 -1 -1 0 0 0 0 0 0 0 0 0 -1 -5 0 2 0 0 -1 0 0 0 1 0 1 -1 -3 0 1 -1 0 0 1 0 0 -3 -6 -1 -1 -1 0 0 0 1 -1 0 -4 0 0 0 -1 1 0 0 0 1 -1 1 0 0 1 -2 1 -1 0 1 1 1 0 0 0 -1 0 0 2 1 0 -1 0 1 0 0 1 -1 0 0 1 0 1 -1 1 -1 0 0 1 1 -1 1 0 0 -6 0 0 2 1 0 0 1 2 -1 -1 -3 0 1 -1 2 1 1 0 0 -1 2 -1 -3 0 0 0 2 1 0 0 0 1 3 0 1 -1 0 0 0 -2 -1 2 0 0 1 0 0 1 0 1 1 0 -1 0 0 2 -2 1 1 1 2 0 0 0 -1 -1 -1 0 0 1 0 1 0 6 2 0 0 1 1 1 2 1 0 0 0 -1 -1 0 0 1 0 0 -3 1 1 0 0 1 -1 -1 0 -1 0 0 1 0 1 1 2 -1 2 1 -1 -1 0 -6 -6 0 0 1 0 -1 1 1 -5 0 1 0 0 1 3 3 0 0 1 1 0 1 -1 1 -1 0 0 1 0 -1 2 0 1 6 0 0 0 -1 1 0 0 1 0 0 1 1 0 1 0 -3 0 -4 -1 0 0 1 0 3 0 1 1 1 0 1 -1 0 1 0 0 0 0 1 0 1 1 0 0 0 1 3 1 0 0 0 1 2 0 2 1 -1 1 1 0 1 0 0 1 2 0 0 -1 0 1 1 1 0 0 1 1 1 1 0 0 1 0 2 0 0 0 0 0 2 1 -1 0 -2 1 1 -2 1 0 1 1 1 -2 0 1 1 -2 1 0 1 1 1 1 2 0 1 2 1 0 0 0 1 0 -3 1 0 -1 0 -1 1 1 1 1 1 0 0 0 0 6 1 0 -1 1 2 1 0 -1 0 1 2 1 0 2 0 1 -3 0 1 1 1 0 3 1 0 -1 0 1 1 1 0 1 1 0 2 0 0 0 0 3 0 0 1 1 0 1 1 1 -1 0 1 -1 1 1 1 0 -1 1 0 0 0 0 1 -3 -1 0 3 2 1 -1 0 -1 0 -2 3 0 -1 0 4 2 -1 0 0 -1 1 -2 0 2 0 1 1 0 1 0 1 2 0 0 1 -1 1 0 0 0 0 1 0 1 0 1 0 2 1 0 0 1 1 3 3 -4 -7 -4 0 2 0 -1 -1 2 1 1 1 1 -1 2 1 1 1 0 2 1 1 0 0 1 -1 0 0 1 0 1 0 1 0 1 1 -1 
-1 1 2 1 0 1 0 1 0 0 0 0 0 0 1 -1 0 -2 -1 1 -1 0 -1 2 1 0 -2 1 0 1 1 5 2 0 1 3 1 0 0 1 2 1 -1 1 1 0 0 0 3 1 0 -1 0 5 1 1 0 0 1 1 0 -2 0 1 -4 0 0 -2 -4 -1 -1 0 1 2 1 4 1 3 0 0 0 -2 0 1 0 0 4 -1 1 1 2 0 1 0 0 0 1 -2 -1 0 0 2 5 1 0 0 0 0 -5 -1 -1 1 1 -1 -1 1 3 0 1 0 1 0 3 0 1 0 1 -4 -1 1 1 0 2 0 0 0 0 0 -2 0 1 0 0 -1 1 2 1 1 1 1 1 0 0 1 -1 1 0 2 0 1 0 1 1 -1 0 1 -4 -1 0 0 1 0 1 1 0 0 2 1 0 1 0 1 3 -1 0 0 1 1 1 0 1 1 1 0 0 0 0 2 2 1 -2 0 2 2 0 1 0 1 1 0 1 2 0 0 2 2 2 1 0 1 0 -1 0 0 -1 2 0 -6 0 0 0 -1 2 1 1 0 1 1 0 0 0 -1 0 1 -4 1 0 0 -1 1 0 2 1 1 1 0 1 0 3 1 -1 0 0 1 0 0 1 0 -1 0 1 1 0 0 0 0 -2 0 0 1 2 0 0 -4 0 1 0 5 -1 2 2 -1 1 0 0 1 -1 0 -1 0 0 1 0 0 1 1 0 0 0 -1 2 0 -1 -3 -2 1 5 1 -2 1 1 0 0 1 1 -1 -1 0 2 0 0 -1 0 0 1 1 0 2 2 0 0 -3 0 1 -1 1 2 -1 1 1 0 1 1 1 1 1 1 2 1 2 1 2 1 0 0 0 0 1 0 0 1 -2 1 1 0 0 2 0 -1 -1 1 0 0 0 0 0 -1 1 1 0 1 -1 0 -2 1 1 -1 0 1 1 0 0 0 2 -1 0 -1 -1 2 2 3 1 0 0 1 1 1 3 6 2 1 1 0 0 1 0 -1 0 0 0 1 0 0 1 1 -2 0 1 -1 0 1 0 2 -1 -1 0 1 1 1 1 1 1 -2 1 1 0 1 0 0 0 4 0 0 1 0 1 0 -2 0 2 0 1 0 0 0 0 1 1 0 2 0 2 1 0 1 -1 -1 0 0 2 1 0 0 1 0 0 1 0 0 0 0 1 0 -3 3 0 0 6 1 -3 1 1 0 1 -1 0 0 0 0 -2 0 1 1 1 -1 -3 0 0 1 -1 -2 1 -1 1 1 1 4 0 1 0 -1 0 1 1 2 1 2 0 0 1 0 1 3 0 -1 1 0 1 2 -2 -1 -2 1 0 0 1 -6 -1 -1 1 0 0 1 0 1 0 -1 0 1 1 0 1 0 -2 1 0 1 0 0 0 0 2 -1 1 1 0 -1 2 2 0 0 0 0 0 0 1 0 -1 0 1 2 1 0 1 0 1 2 2 -1 -1 0 0 -1 1 2 2 -1 1 3 1 -1 0 2 1 3 0 -1 0 0 0 
0 0 0 0 3 1 1 -1 1 1 0 2 1 1 -1 1 5 0 0 1 1 1 1 6 1 0 -2 2 4 0 0 2 0 -1 1 0 3 1 0 0 3 2 0 1 1 0 -5 1 4 0 1 1 2 1 2 0 0 0 2 1 1 -1 -1 5 1 0 -2 1 0 1 0 -1 1 -1 1 1 -1 0 0 -3 0 0 -1 1 2 0 1 1 1 1 1 1 0 0 1 0 1 1 -1 0 0 1 1 1 1 -1 0 -3 -7 0 -1 -1 1 0 0 1 0 0 0 0 1 1 0 1 -1 1 0 -1 1 1 -1 1 2 3 1 0 1 1 -1 0 0 -1 0 -1 0 1 4 2 1 -2 1 0 0 0 2 -1 0 0 1 1 0 1 0 1 3 1 0 1 0 0 0 -2 -1 1 0 1 0 -1 0 1 0 1 -2 1 2 1 0 3 0 0 1 -2 0 0 -1 0 0 1 1 2 -1 0 0 1 0 -3 1 0 1 1 1 -3 -1 1 0 0 0 0 0 1 0 2 0 1 2 2 1 2 0 -6 0 1 0 4 2 1 1 0 0 1 0 0 1 1 0 0 2 1 2 2 1 1 0 1 1 -1 0 -2 0 1 1 0 0 0 -4 0 4 3 -1 1 1 1 -1 0 -3 1 0 1 1 0 1 0 1 2 0 1 1 1 4 8 6 0 0 2 1 2 1 0 3 1 -6 -2 1 0 0 0 1 1 1 1 2 1 0 0 2 1 1 -1 0 0 1 1 1 0 2 1 0 -1 -5 0 -2 1 1 1 2 2 1 -1 1 0 0 3 0 3 0 0 7 0 0 1 0 1 1 1 1 1 0 1 -1 -1 2 1 0 0 1 0 1 0 0 1 1 -1 -5 1 2 -1 1 1 1 0 1 1 1 1 1 -5 1 0 2 0 1 2 1 0 2 2 1 0 0 -1 1 -1 0 0 0 0 0 0 0 0 1 1 -6 0 -1 -1 0 3 1 1 -1 1 1 3 1 0 -1 0 0 1 2 0 0 -2 0 0 1 -1 2 0 1 1 1 1 0 2 0 0 0 -3 2 1 1 1 1 1 0 0 1 0 2 0 0 -1 0 -2 0 1 0 1 1 0 1 0 1 -1 2 -1 0 1 0 0 1 -1 0 -3 1 0 1 1 1 1 2 -1 1 2 4 1 1 0 7 2 1 1 0 1 0 7 1 0 0 1 2 -1 0 1 1 0 1 1 1 -1 0 -2 0 0 0 1 0 0 0 -1 1 0 0 1 7 2 0 -4 -6 0 1 2 1 0 0 0 1 0 2 0 2 0 1 -2 0 0 -1 -3 1 0 1 -1 1 0 0 1 0 0 1 1 0 -2 -1 0 2 1 -1 1 1 4 0 0 1 0 -1 1 2 0 0 1 0 1 0 0 0 0 0 0 0 1 1 0 1 1 1 0 2 1 2 1 -1 0 1 0 3 -1 1 1 3 1 -3 -1 -1 0 0 1 -1 -4 0 -5 1 -1 0 1 1 0 0 0 
9 2 0 -1 1 1 0 0 1 1 -1 1 0 -1 0 -1 0 1 5 2 -1 0 0 5 2 0 1 0 1 1 0 -1 -2 -1 0 0 -1 0 -5 2 0 1 0 1 0 0 0 0 0 0 1 1 1 1 1 0 -1 0 3 2 0 1 2 1 -1 0 -1 1 0 0 1 0 0 0 -2 1 1 1 0 1 -1 4 2 1 5 0 -2 2 1 1 0 0 1 0 -1 0 1 0 0 -4 1 1 5 1 1 -1 1 1 0 4 1 0 0 1 -1 0 1 -1 -2 1 0 0 0 0 3 -1 -1 0 -1 0 -2 0 1 4 0 0 0 -6 -1 1 0 -1 1 -3 0 0 2 0 1 1 0 0 2 1 1 1 0 0 0 0 0 1 -1 -1 1 0 0 0 2 0 1 0 0 2 1 1 -5 0 0 0 2 1 1 5 4 0 0 0 1 1 0 1 1 3 1 0 -1 0 1 1 0 -1 0 1 1 -2 1 0 -1 -1 2 -1 0 0 -1 2 0 0 0 2 0 2 1 -1 0 0 0 1 1 0 0 -1 1 2 0 2 2 1 0 1 -1 1 0 1 1 0 -1 -1 3 1 0 0 0 1 2 2 0 0 1 -1 1 1 0 1 1 0 1 1 1 1 1 0 2 0 -1 0 0 0 1 0 0 0 0 1 1 0 0 0 1 0 1 0 0 1 -1 0 4 1 0 1 0 -1 1 0 0 1 -5 -6 1 2 0 -3 1 0 0 0 -2 -2 -3 0 1 0 0 -1 1 -1 1 0 0 4 0 0 0 0 0 0 1 1 0 1 4 0 0 1 0 0 0 2 -1 -1 1 1 1 0 0 0 -1 0 0 0 1 1 0 0 1 1 3 4 1 -1 0 1 0 0 -1 2 -1 1 0 -1 0 1 2 1 0 0 1 -2 0 1 0 -1 0 0 0 3 1 0 0 1 2 0 -5 0 1 7 0 0 2 0 -4 0 0 1 1 0 1 0 0 1 -2 -1 1 3 1 -1 1 3 1 0 0 0 0 -3 1 1 2 0 0 1 2 0 1 -1 0 0 -1 0 3 3 1 2 0 0 0 2 3 1 1 1 1 0 0 0 1 -1 0 -1 0 1 1 3 -4 1 -1 0 -1 0 0 -1 0 0 0 1 0 -2 0 -1 0 0 -1 0 0 0 0 0 3 -1 1 1 1 -1 0 3 1 0 0 -1 0 0 2 2 1 0 0 -5 -5 -1 1 0 1 0 -1 0 0 -1 0 0 1 0 0 0 0 0 -1 0 1 0 -3 0 -1 0 0 1 2 1 -1 1 0 0 1 1 0 -1 -3 0 0 1 -1 -1 0 1 1 1 1 0 0 0 1 2 1 1 -1 0 1 1 0 1 2 -2 1 1 -1 -1 1 1 -1 0 0 2 2 0 -2 0 0 0 2 -1 0 1 1 1 0 -1 0 1 -3 1 0 0 0 1 1 0 0 1 0 1 1 1 1 0 -2 0 1 0 0 -1 0 -3 0 -4 -1 0 -1 0 -1 0 0 0 
2 0 0 -1 0 2 1 0 0 2 0 0 1 2 -1 1 0 0 1 1 -1 0 1 0 0 1 1 0 -2 0 -1 1 0 0 -1 0 -1 -1 -4 0 1 -1 1 2 1 0 -1 0 1 -2 1 0 1 3 1 0 -1 1 0 4 1 0 1 1 -2 0 0 0 0 1 0 1 -1 0 2 7 5 5 0 1 0 1 0 1 0 0 2 5 0 2 0 0 0 1 1 0 -1 0 -1 0 2 1 2 2 1 0 1 -1 0 -1 1 1 0 0 1 1 2 1 0 0 0 1 2 0 -1 1 1 0 0 -1 1 0 1 0 0 0 0 0 0 1 0 1 0 0 1 0 0 0 -1 -1 1 0 -1 1 1 1 0 0 0 -1 1 5 1 0 1 2 1 -1 1 2 2 0 0 0 0 0 -1 -1 1 1 0 0 1 1 1 1 1 0 1 0 0 1 1 1 3 0 1 0 -1 -3 1 0 0 0 0 0 0 2 1 2 1 1 1 1 1 4 1 1 0 1 -1 -4 0 1 2 0 0 0 1 0 1 4 2 0 1 1 0 0 0 3 1 1 1 2 0 1 -2 1 0 1 0 1 -1 2 1 0 1 1 0 0 -4 -1 2 0 0 1 0 1 -1 1 0 0 -4 0 0 0 0 1 0 1 0 -1 1 0 0 -4 1 0 -1 1 0 0 0 0 1 0 0 0 0 -1 1 2 0 0 0 0 1 1 1 1 0 2 0 2 1 0 0 -1 0 0 1 0 1 1 1 1 2 2 0 1 1 -1 2 0 -5 0 -1 1 1 2 2 0 0 0 1 -3 1 3 1 0 1 0 -1 1 -3 -1 2 5 1 1 -1 1 1 1 0 1 1 1 0 0 2 -1 1 1 1 0 2 0 -1 1 1 -1 0 0 1 0 2 0 1 1 0 -2 -1 -1 0 1 4 2 2 1 0 -1 0 1 0 1 2 0 -1 0 0 0 1 0 2 1 0 0 0 0 0 -1 1 1 -2 0 -1 0 3 1 0 -1 0 0 1 1 0 -1 0 0 1 0 1 0 2 1 -1 0 0 4 0 1 0 2 0 1 0 0 0 -1 -1 1 1 0 1 -2 0 0 1 0 0 2 1 1 0 1 5 4 1 0 2 1 0 1 0 1 0 1 0 0 -1 0 0 0 0 0 0 1 0 2 0 1 0 -2 0 1 0 0 -1 -1 0 0 1 1 0 -1 0 0 0 0 5 1 1 0 2 0 1 1 0 1 1 1 -1 3 -1 0 0 5 1 1 0 1 0 1 -2 0 1 1 1 0 3 1 1 1 0 1 0 2 0 1 0 4 1 1 0 0 1 0 1 0 0 1 0 1 1 0 0 1 0 0 0 0 1 0 1 0 1 -1 0 0 -1 0 1 2 0 -1 0 0 -1 1 0 1 0 -1 1 2 -2 0 2 2 -2 0 -1 0 0 3 1 1 1 0 0 0 -1 1 0 0 -1 -1 0 0 0 -2 0 1 -1 -1 0 1 -2 -1 
0 0 0 0 2 0 0 -1 -1 1 2 0 1 0 0 0 1 1 0 0 1 1 1 1 0 -1 -5 -1 1 1 -8 -2 0 1 0 1 -1 1 -3 1 1 -1 -2 -3 0 0 2 1 0 1 -3 0 0 1 -4 0 0 1 0 1 1 -4 0 2 1 0 0 0 1 1 1 1 2 2 7 2 7 1 1 1 0 0 -1 1 1 2 2 0 1 -1 1 -1 -7 1 1 1 0 1 1 -1 -1 1 1 -1 0 1 0 -1 0 2 5 1 1 -1 -1 1 -2 0 0 -4 1 1 4 1 0 1 0 -2 -5 0 1 0 0 0 1 1 0 0 1 1 0 0 1 1 1 0 0 0 1 0 1 1 6 7 1 1 1 -2 0 0 1 0 2 0 -3 1 -1 0 1 1 0 1 0 0 0 1 1 0 -3 0 0 0 8 8 2 1 2 1 0 1 0 -1 0 0 0 -4 1 0 1 1 0 1 1 1 1 -1 2 -1 -2 0 0 0 1 1 1 1 2 0 0 -1 1 -1 -3 0 5 1 1 1 1 1 0 1 4 2 2 -1 1 0 1 0 2 0 0 -1 0 0 2 0 1 0 -1 -1 -1 1 0 5 0 1 1 0 0 -1 0 -3 1 0 0 1 3 1 1 0 1 2 1 1 0 -1 -1 1 2 1 0 0 2 0 0 0 0 -3 1 0 2 -1 0 0 0 -2 2 -1 2 0 -2 0 -1 1 0 -1 1 -3 0 0 2 2 0 0 0 1 -1 0 1 1 6 0 1 0 5 2 -1 0 0 0 2 0 0 -1 1 1 0 -2 0 0 1 0 0 0 0 0 5 0 0 -6 -1 -1 -1 0 0 2 1 2 2 -1 1 1 0 0 1 0 1 1 0 0 0 1 0 6 7 1 1 1 0 1 1 1 0 2 4 1 -8 -4 4 1 1 -1 -5 -2 0 0 1 0 -1 0 1 1 0 0 0 -7 -9 -3 1 1 -2 0 1 1 1 1 1 0 0 0 -1 1 0 0 -2 -4 -1 0 0 0 -6 1 4 0 -7 -9 -5 0 0 0 -1 1 1 0 1 1 -1 1 1 0 0 0 1 0 1 -1 -4 -2 -1 1 0 0 1 1 1 1 0 3 2 0 1 1 0 2 5 1 0 1 1 0 0 1 0 1 0 0 -4 1 2 1 0 0 1 0 -2 -1 1 1 1 0 1 0 0 0 -1 -9 -11 -4 2 1 0 2 -1 0 1 2 5 5 0 1 1 2 1 2 0 -1 1 1 0 -1 1 3 6 5 0 0 0 1 0 -1 0 0 1 1 5 1 0 1 1 -2 1 0 0 -1 0 0 0 0 2 0 -1 -4 1 0 0 -3 1 2 1 1 1 0 0 0 2 1 1 2 2 -1 0 0 1 1 1 0 0 0 -1 0 0 -4 0 1 0 0 1 -1 1 -1 1 0 -2 0 0 1 0 1 0 0 0 1 1 -1 1 1 1 0 0 0 0 0 1 0 0 -1 2 0 1 1 0 0 1 0 0 1 0 1 
