P2
640 480
255
2 14 12 10 13 9 -4 7 15 2 3 11 14 3 2 5 -15 11 5 6 2 4 1 6 7 -5 -2 -7 -3 -2 5 3 5 8 1 -4 2 5 -1 5 12 1 19 -8 7 14 5 -4 -6 6 1 8 12 4 5 1 5 17 11 6 7 -18 5 3 -4 4 -3 2 0 -9 6 9 -7 3 6 -4 7 -2 -3 4 7 12 0 6 3 0 13 0 3 -1 -8 7 -12 0 -9 -7 8 -9 -3 -10 2 -7 -1 -15 -7 -11 4 -1 -11 1 -9 -9 -8 0 1 6 -3 -2 -3 -9 7 -4 -14 0 9 -3 3 9 -3 1 -1 -7 -8 10 -4 -3 5 9 -7 6 4 -2 3 0 3 -7 -9 15 -8 -3 -2 0 -3 7 6 4 0 2 2 -4 -6 3 -4 -12 4 0 8 12 -2 -2 -2 -1 0 -10 13 -3 -3 10 -12 -2 12 -2 -6 -4 -9 3 -3 3 2 -3 -3 -2 4 -9 1 -11 0 -1 -5 2 8 6 2 5 -8 1 5 -1 10 7 -8 -3 3 -9 4 -4 -2 2 2 -1 2 -8 -4 13 3 -2 9 14 -9 8 4 12 5 -7 18 -3 7 -9 6 -5 15 -6 4 -6 -1 -8 -2 -1 -13 1 -3 3 -7 -11 -6 6 -4 1 3 -5 7 -3 -8 -10 2 1 -11 4 -3 4 -9 1 -8 -6 -13 -3 5 -1 -4 -14 -2 -5 -5 -5 -4 -5 -10 4 -4 3 -1 -5 -1 -6 6 -5 4 9 6 7 4 -3 1 2 -6 -8 -2 -9 -8 -4 -2 -3 0 -1 6 3 6 -8 -7 7 -5 -4 2 -15 -10 -12 -15 -1 -2 -14 -8 -5 -4 -6 -3 -4 0 -7 -10 -5 -11 -8 -11 5 -6 -10 -6 -5 -5 3 6 7 -4 -7 9 1 -9 3 2 7 -1 -1 5 3 3 -7 3 -3 4 7 -6 3 -4 -7 -4 9 6 8 4 -4 7 -6 8 13 6 5 6 -3 1 -5 6 -15 9 -8 -8 2 -4 5 -3 6 -7 -1 3 -3 -5 2 0 -5 6 -4 5 -6 7 6 1 -6 2 -9 6 -3 3 9 -1 -7 -3 1 3 9 -1 -2 6 0 -4 5 -1 7 -2 7 -7 4 -1 -7 -5 4 -6 4 -6 9 7 -2 15 5 13 2 10 0 2 9 -1 5 -2 -5 9 -2 -10 3 9 9 18 15 -4 6 8 0 -6 11 9 7 11 3 -1 1 -4 2 -1 -4 -4 9 -6 -4 4 1 3 -16 -3 -7 -5 -2 -12 -1 -2 2 6 -5 0 -4 -2 -14 -19 -11 -7 0 5 -8 -5 -2 -9 -12 5 2 4 -2 12 -3 2 13 -3 2 -2 -2 2 -10 7 5 5 -2 4 -11 0 3 -8 -4 -8 0 3 2 -5 6 10 -2 7 -2 2 -3 -7 4 -4 -8 4 0 0 -2 4 -4 -1 -5 4 -2 -6 1 -2 -3 -4 1 5 -15 -3 10 4 -5 -1 2 -1 -5 1 8 -9 0 -6 6 -6 0 15 16 6 18 -7 5 6 6 7 12 5 8 9 11 1 -13 10 1 -17 -6 1 6 1 5 9 1 -2 1 4 1 2 4 4 13 18 13 20 3 7 8 3 13 1 5 11 12 15 3 
1 3 1 -8 9 14 6 24 7 -7 16 13 -9 12 -7 7 6 14 -9 0 0 1 7 9 -7 -1 1 3 0 17 -12 1 4 -2 2 7 -3 1 0 -6 0 12 -2 2 0 5 -9 6 5 0 -2 18 -7 4 17 6 18 8 -3 8 4 2 0 10 -1 -7 10 0 2 1 10 3 0 1 16 7 14 -5 -8 0 2 -6 -6 0 7 -3 -2 -6 7 -6 -2 1 -7 -12 -2 -21 -8 -1 -13 -10 -8 -13 3 -4 3 2 -15 12 -14 -6 14 -5 2 -7 -8 -6 -11 -14 -12 8 -17 1 8 -4 9 -4 4 15 -7 -4 -4 -5 3 -2 5 13 -6 5 10 2 -7 6 4 -6 -4 -10 4 2 -1 -1 -1 -3 4 -8 4 6 1 -11 3 0 3 -8 -5 -7 -5 7 11 -8 2 3 1 -15 9 3 -9 5 2 -3 -4 -2 4 -1 -4 14 -9 0 3 6 -2 1 -1 -8 -3 -4 5 -5 -8 -4 0 -15 -3 4 6 2 5 -9 9 2 1 -6 -3 -4 -2 -8 -11 4 4 -2 8 -2 20 7 17 1 1 10 -2 -3 13 4 -3 8 4 3 6 -4 14 -4 -2 -2 8 3 -14 7 -3 2 -1 -10 1 3 1 -1 5 6 3 14 -10 8 -1 5 -8 7 -5 -8 4 -9 -9 -1 -17 -4 0 -1 -5 -6 11 -10 -4 -9 -4 -8 1 -16 -8 1 -8 -6 6 -10 -6 7 -4 7 -4 4 9 3 -4 6 -8 -3 -7 -14 -2 -5 0 3 -6 6 -7 0 -2 -4 5 -5 -3 -4 3 3 3 -6 -20 -15 6 -4 2 0 2 -6 -11 5 -3 -8 -4 -13 2 0 0 -12 -10 -2 -6 -14 5 -19 2 -6 -1 4 2 3 -8 0 -7 17 -5 -11 2 8 -4 10 -4 3 -6 -17 -4 -12 4 -1 1 -5 12 -13 -1 -2 0 8 -7 -10 -4 -3 -8 -5 4 0 2 -5 -8 -2 -4 -6 -2 -1 8 0 11 -5 2 2 10 -3 -1 -5 -9 0 3 15 -7 7 0 1 0 0 5 -9 1 6 -10 18 0 3 1 -4 2 -8 -8 -1 -6 6 0 3 2 9 12 8 6 -4 11 -10 3 2 -4 1 6 -10 9 7 -8 11 4 2 10 6 -8 10 0 -3 11 7 6 -2 3 7 8 12 9 -5 12 5 2 2 19 -1 8 -3 1 -5 9 9 12 3 -7 8 -4 -3 5 -11 5 8 17 9 -10 -8 -12 0 -18 -9 -5 -10 -15 -9 3 -9 7 0 -16 -10 -12 13 -10 -5 4 -16 5 12 0 -3 -12 -11 3 -14 2 0 1 -5 -1 -8 2 1 -2 -9 2 3 4 5 -1 -8 -2 1 0 -4 -5 5 6 -7 -4 -7 4 6 -10 1 6 -13 11 0 -2 -1 3 -5 4 7 12 7 -7 -6 10 -8 -4 2 -1 9 -7 2 1 -5 2 -5 13 2 7 6 12 4 -12 -4 -2 -1 -1 1 6 -7 9 -5 2 0 15 1 3 7 19 8 16 -6 1 10 -2 -10 8 10 3 -6 -1 15 0 9 4 7 6 9 12 9 -6 4 1 9 1 9 3 6 8 9 5 -3 16 5 0 21 10 15 2 -1 
2 9 11 12 -2 10 3 -2 11 7 -5 -7 -9 3 1 10 9 7 17 1 -2 0 4 -5 1 13 -1 13 5 -4 13 -3 0 -2 -8 4 5 5 -7 3 -10 7 2 15 7 8 14 -2 2 0 7 10 9 -4 10 8 0 11 0 -4 6 -3 2 -10 11 7 11 2 9 6 -1 -7 -3 -11 -1 -7 2 7 -6 12 -6 7 -3 -1 -12 15 0 4 3 -11 -3 -3 -4 -11 -14 1 -9 -17 -11 10 -3 -8 -11 5 -15 -4 -9 -4 1 -11 9 -18 -3 7 -4 -12 5 7 1 -7 -1 7 -6 5 -10 -9 -12 10 -3 3 7 -2 6 -11 -5 -3 3 9 -6 -3 11 3 -1 -4 -2 0 -3 0 21 -17 8 -3 5 0 -13 4 -8 7 3 -4 1 -10 2 -4 -4 5 -3 -1 -5 4 5 3 -4 -5 0 4 11 -9 0 3 1 -3 0 -2 10 6 -1 9 -2 1 -6 -3 -2 5 -10 19 1 2 2 -6 -5 -8 -8 -7 7 -7 -3 -7 9 4 -2 12 -5 -1 -6 4 0 6 -1 5 1 -7 4 3 0 0 -1 12 -3 -7 9 0 -3 5 2 10 4 -1 -7 4 -1 -6 -7 0 -10 -5 9 -6 -10 -4 -3 3 -9 3 0 -6 3 -7 8 -14 8 -3 1 -9 2 -9 0 6 -14 -8 -16 -6 2 -7 -13 3 -4 -13 -6 5 1 -14 0 -10 -5 2 -12 3 -4 -5 -1 0 -7 6 -4 4 0 -3 11 -8 4 1 -4 -3 -9 0 -6 10 -6 -10 4 0 8 4 -6 -10 2 -3 -2 2 -6 5 -7 -3 -7 -9 -5 -6 -8 6 -12 -3 -3 -8 2 -3 -12 -4 -1 -5 -11 -15 -11 -12 -3 -4 -6 0 -6 -1 2 -7 -4 -7 -1 3 -5 3 -4 4 0 -2 1 1 3 -17 -6 3 -4 -4 -7 -6 -9 3 1 -6 2 10 13 -3 -1 10 -1 4 12 10 5 4 7 -1 3 15 5 4 9 -1 6 9 -1 2 10 -4 -4 2 9 -6 -7 -3 8 -7 -1 -2 6 10 -1 0 8 -4 6 7 -7 7 2 -10 7 6 -15 -6 6 4 5 -12 0 4 -8 17 0 7 -12 5 -9 -3 -2 2 5 -1 9 1 0 -5 4 7 -7 19 2 7 -5 16 -14 3 6 0 4 4 0 -5 8 -10 8 -4 -8 -10 3 1 15 -2 2 10 -3 2 1 -6 4 3 -11 6 -13 0 -4 -7 -1 -5 2 -14 -11 2 -11 3 -2 -9 3 1 -11 5 -8 5 -3 -3 -2 1 -16 4 1 0 -1 -2 1 -7 -7 8 -7 -13 -4 4 -2 2 -6 -1 2 3 2 -3 10 -5 -1 -1 6 -1 -3 -7 -7 -3 2 -11 7 -5 1 -3 17 9 2 8 -1 4 5 6 -1 5 -6 -3 0 -5 4 4 -4 24 -10 6 3 -4 1 1 2 0 6 6 -4 -2 6 3 4 0 20 9 6 -9 -2 -1 1 7 -12 11 -19 3 12 -7 4 3 -8 8 -6 13 14 -8 0 6 1 -3 2 -3 -3 3 3 -1 -2 -1 5 5 6 2 14 -5 15 12 17 14 14 -8 -3 12 7 10 11 7 13 -3 16 4 19 4 
10 9 6 17 8 13 11 7 4 -1 7 4 11 -4 -5 10 4 0 9 -20 -3 1 -6 10 1 -3 10 0 5 0 11 -6 6 -5 4 1 2 1 -1 -5 4 -3 11 6 7 11 1 3 17 3 6 -2 4 5 9 10 13 5 1 5 -7 4 12 1 6 5 6 6 4 -3 -3 14 5 6 -9 5 4 -9 4 -9 9 -4 3 -8 -4 -4 -1 -6 -8 -10 -1 2 -7 10 -3 -8 -5 -5 -12 -8 -5 -5 -5 -8 -10 -8 6 4 -2 1 -9 5 4 -3 -1 0 -9 -1 -8 -3 5 -10 2 4 1 8 8 4 -7 -1 0 -6 -8 7 -13 -1 7 -7 3 3 9 9 -10 5 -15 -1 2 0 -1 -9 3 -4 1 -7 -6 3 13 6 3 14 -1 0 -2 7 5 8 -5 -4 0 1 7 0 -7 15 -2 7 5 -3 -10 9 1 16 -12 6 9 -12 6 -11 -7 -8 1 4 0 2 -2 -2 -1 -6 -12 7 10 -5 -10 6 -6 -3 15 -2 1 1 -8 -3 -6 1 -2 -1 2 11 1 -2 20 -3 -2 3 11 0 8 -6 10 -2 11 13 10 6 7 -6 1 -13 1 -6 -6 7 -1 5 -7 7 -2 -2 -2 8 -2 2 -7 -16 2 -4 0 -2 -9 -5 2 -7 4 2 -5 -7 -3 3 -8 -1 -5 -7 5 -10 6 -13 -7 -6 -8 -5 0 -2 -3 11 -6 3 -13 0 2 4 4 2 2 -2 -2 0 14 -13 4 -5 -3 12 -2 -9 -10 -15 -3 -5 -3 -3 -12 15 0 -2 -1 3 1 -4 0 -5 9 -6 -6 -4 -5 -16 2 5 -4 -7 7 -9 -4 5 -6 -12 -5 -4 -18 -2 -7 -13 -6 -8 3 2 6 -9 -2 -8 4 0 2 -3 -8 -1 0 0 -2 3 -12 -6 3 -8 -4 1 -4 -11 -3 12 2 2 -3 6 0 10 7 2 2 -5 -1 -5 -4 12 -9 10 3 11 -11 -1 -2 -6 3 10 14 -5 12 -12 8 0 5 -2 1 7 3 6 2 5 -4 4 12 -4 3 6 10 -1 4 3 -2 1 -1 7 0 5 4 3 8 -1 -2 -16 -7 6 -2 -4 2 1 5 3 1 8 9 -1 7 6 0 -6 9 -4 4 0 10 7 6 -6 9 -1 3 -2 8 0 3 13 -6 7 12 2 1 0 0 9 -1 10 8 1 13 -3 4 0 16 10 3 -9 12 12 -4 -8 5 -6 9 -6 -5 -2 -3 -2 1 -5 -9 -12 2 -3 -9 -8 -5 4 -7 -4 9 -1 -4 4 -12 -2 3 -14 -3 -10 2 0 6 -9 4 3 1 -3 -8 2 -11 -6 -3 -2 -13 0 -10 -3 -1 4 -1 11 2 2 -5 -7 1 -4 7 -1 8 -2 0 -14 11 6 -5 0 -13 4 8 1 -5 -1 1 -1 8 -4 2 -8 -4 3 -6 -7 0 -1 -3 4 3 7 4 5 3 1 0 18 -1 -4 4 -5 -3 5 -3 15 1 -3 5 0 -5 17 -7 6 8 -5 4 6 -11 -4 9 9 12 0 7 4 1 11 -3 10 0 8 4 -4 1 3 2 13 16 0 8 -3 0 19 14 -7 8 11 1 -1 15 5 1 0 3 7 
0 13 -7 6 3 1 -9 7 7 5 -9 15 9 2 5 1 10 2 7 1 3 1 5 1 6 -3 -4 13 -1 9 3 2 4 1 -3 9 7 6 -5 7 2 4 -8 3 -5 8 7 7 -9 0 -8 -4 2 5 14 1 4 5 9 6 10 -6 11 -7 7 0 9 -4 4 1 8 1 -14 -9 3 1 8 -3 7 10 1 -6 4 -4 -1 9 -3 -4 -4 -7 8 -12 11 -29 -4 0 -10 -9 -16 9 -13 -13 -4 0 17 0 -2 -17 1 -10 5 7 -14 -1 -9 2 5 -4 3 -7 9 8 0 4 -1 10 8 -8 -2 -2 -17 6 -2 -6 -2 -8 0 11 15 -2 12 -1 9 -15 11 13 2 -11 9 6 5 -12 -7 9 3 13 -2 2 6 8 -6 14 2 -13 5 3 -6 -2 -14 -5 4 8 -9 7 5 -9 -3 -4 11 -10 7 -2 6 12 -11 15 2 -7 1 -1 0 -10 6 -5 -17 4 0 2 4 -10 -17 6 -7 3 -2 6 -4 -2 1 -1 -7 8 14 2 9 -2 -3 -3 -6 -7 7 3 7 2 0 2 8 -7 3 13 10 8 5 9 -7 7 -8 16 0 2 4 5 13 12 -4 -10 15 5 1 11 -12 -7 -5 -1 -3 0 -11 -6 -2 13 0 -9 -11 0 -5 0 -12 -3 6 1 7 -13 2 2 -2 -16 -4 7 -5 -9 -2 -9 2 0 2 -6 1 -7 2 -7 -8 -7 -3 6 -2 -1 -5 -12 -1 6 -6 -5 -3 -9 -5 5 -12 -12 -6 -4 -5 1 -11 -1 8 -4 -9 -4 -2 -10 0 2 -11 -4 -1 -3 -13 -4 -3 10 -6 -5 -3 -5 0 -9 -8 -10 -8 -8 -3 -2 -1 6 -11 -9 -8 5 0 -7 -5 3 -12 15 -5 4 -12 0 -1 -17 -1 0 -13 9 -9 -1 5 3 3 9 2 10 3 -4 8 10 -10 9 -1 3 -11 3 -8 0 -3 5 0 -6 7 4 4 1 13 0 -1 10 -9 9 2 12 1 2 19 -3 13 7 1 -10 8 -1 -2 4 -5 3 5 4 9 13 1 4 -3 -7 1 -3 -3 -5 -17 1 -13 -14 -3 -1 -7 7 -16 7 -2 1 1 -1 -6 3 -9 0 2 -6 -1 -6 2 15 -1 7 1 -1 15 7 -1 7 -6 -9 11 3 5 -1 -6 6 3 16 15 -3 0 -5 6 -2 -7 6 4 12 3 8 -7 12 2 -7 -4 1 -1 -12 -11 -2 -10 -5 -9 -6 -7 -6 8 -2 5 -5 10 12 -1 -4 10 2 6 -8 -3 -8 -2 10 -19 -10 15 2 0 -4 1 -1 6 0 -10 0 -10 -9 -5 -13 -1 -9 -6 -2 -1 -3 -1 -3 7 0 5 -7 1 -9 2 -2 -3 10 -2 7 -3 12 -2 -1 2 16 -3 -8 2 -4 4 9 2 -9 1 -4 5 1 -7 -5 1 6 -2 -2 4 2 0 2 -7 5 1 -1 0 1 6 15 4 6 5 0 7 -5 10 2 0 -4 8 3 -3 5 2 8 -3 4 6 12 1 1 14 17 4 6 4 3 4 2 11 5 1 16 -2 18 10 5 1 12 12 4 18 -1 -5 6 2 3 -5 15 -3 13 -2 9 1 7 
9 2 13 7 -1 22 10 5 2 3 14 -18 16 -8 -1 -3 -11 7 8 -3 10 -5 -12 -8 6 -4 4 -6 -1 -5 -5 5 -4 9 12 -6 0 -9 -3 -9 8 6 -3 0 6 3 5 0 9 5 12 2 12 1 3 9 -3 1 3 10 2 12 3 13 -1 11 -5 -8 1 4 4 4 2 -5 2 -7 3 0 4 -8 7 0 1 2 -18 8 -4 6 -8 3 6 -9 -15 -10 -8 -3 0 -18 2 -14 -2 6 -6 7 -9 -7 4 -8 -2 -7 -3 -6 2 -13 -6 -12 -15 -1 -4 0 -1 -13 6 4 2 -2 3 2 -9 5 -5 3 -11 0 -9 -5 -7 -8 -9 5 -9 -1 -4 -3 -2 0 -2 7 -4 -2 10 0 -9 8 -4 8 -14 1 5 1 18 -4 13 8 3 9 -10 9 -9 4 3 3 3 5 1 -3 -2 6 4 2 5 5 -9 3 6 -1 -4 -12 3 -2 7 -4 4 -1 6 -1 3 1 -3 7 0 -12 -7 0 -2 11 -1 7 2 4 -1 9 -5 -11 1 -7 19 -2 4 2 -2 8 -14 2 10 5 -4 5 -3 13 11 1 6 8 1 5 12 1 -4 10 4 -7 4 -4 4 -3 10 -2 7 -2 1 -1 5 -9 10 -11 10 2 3 -11 -9 0 -3 -8 -13 2 12 3 2 4 -4 7 3 -11 -8 -1 5 -11 -3 2 0 -3 13 -4 -11 7 -6 3 -11 9 3 7 4 0 -2 -10 -6 -1 -7 -3 -1 3 -3 -6 -4 -3 -13 -4 -7 -8 -8 -12 3 -4 -9 -11 -3 -9 -15 6 1 -15 6 -7 6 -14 -3 -4 -2 -7 -15 6 3 0 7 -12 -5 -3 2 -13 -11 -4 -6 -7 -1 -5 -14 0 -7 3 -2 1 8 -9 -5 -1 -2 -9 -13 -7 -2 -13 -10 3 -13 3 18 4 6 0 -4 -2 0 7 4 4 5 -6 -5 4 7 -1 -1 1 16 -4 4 12 -1 -1 8 0 -10 5 -6 15 7 -8 5 -1 -2 8 8 12 -6 -15 6 -6 6 8 7 -3 -5 5 7 5 -5 8 2 3 -6 -9 -1 3 -5 -2 -3 -11 -9 -5 6 -3 -4 14 -4 7 6 -5 -3 3 -19 -1 4 -6 -14 3 3 -2 -5 7 -5 9 0 3 -7 -3 -2 10 -5 3 -2 6 21 7 3 5 8 -1 5 -5 6 -6 -3 4 7 10 -5 2 2 2 4 -6 3 2 -1 -16 -9 -2 -5 -3 -7 7 -7 2 3 -5 6 -7 -8 20 -3 -3 -4 14 -11 -8 2 0 -5 2 -3 -17 -6 -11 -14 -15 6 11 0 7 -6 6 -3 -3 5 7 0 -4 -6 -6 -8 -12 -11 -4 -5 1 -1 -14 -4 19 -2 -1 -8 1 -9 1 -2 6 1 -5 -5 2 -1 -2 0 10 2 4 3 5 5 10 -6 5 -14 1 0 -3 0 17 10 5 8 5 2 13 4 1 10 8 12 5 1 -3 1 -3 4 1 -5 -3 -6 -5 -8 8 -14 8 -9 -2 -12 5 -2 9 3 10 13 11 -3 -2 2 14 -9 -5 -4 8 3 6 1 -4 7 1 11 12 5 6 10 5 5 13 7 14 9 5 2 3 11 12 8 5 12 9 
-5 3 4 11 3 10 2 21 3 4 1 18 2 14 -4 13 11 7 2 -5 -3 -1 -9 -1 6 9 2 4 -12 4 2 3 -1 12 -5 -5 13 0 14 -5 5 -7 2 -8 8 7 14 3 -2 3 6 1 -4 -3 11 -3 17 13 4 10 13 16 -6 -3 13 0 9 6 0 1 -1 11 -1 10 1 5 6 -4 -8 6 -12 -7 -9 -2 -1 -8 -6 -2 -4 7 2 -1 -3 4 -3 0 -8 -4 6 -10 1 -9 -12 0 -1 -3 -3 1 -7 -1 -14 -3 -7 -15 -7 -3 17 -8 -11 -7 2 -8 -15 3 7 -10 8 3 -2 -8 -2 -2 -8 2 -2 0 9 0 1 -2 -5 1 -14 5 -7 2 8 0 2 11 -3 -5 3 7 0 -7 2 9 11 0 1 1 11 1 -3 8 0 -11 0 4 -1 5 2 -2 16 -8 -1 -5 -6 3 -3 2 1 -3 9 2 0 7 -2 -3 -1 -13 3 1 5 -13 0 -3 -11 12 -6 -3 0 10 8 -10 -9 4 -7 5 6 -2 14 10 -1 3 -11 9 7 -2 1 9 10 7 -6 -1 -6 14 9 -5 0 5 6 0 -2 4 0 -2 -12 -1 14 12 -2 8 -8 1 -1 -2 7 -1 5 0 0 -1 0 4 -4 -7 1 -6 7 -9 -4 -14 -1 -7 -12 8 0 -6 1 -10 -10 -7 0 -9 -10 10 0 -10 -16 18 -12 2 14 -5 -7 -10 0 2 -7 1 0 -6 5 11 -17 -2 -9 -4 -7 -16 -5 3 -1 -10 8 -6 2 8 -9 3 -3 7 -13 2 -14 -1 -8 -4 6 -7 5 6 -15 -8 3 -7 0 -3 3 -13 -9 -2 -2 3 -10 -1 -12 0 -3 -9 -1 -1 -12 6 0 -2 -4 -2 3 2 -6 -1 14 -12 -4 -9 0 -11 -8 6 -2 -2 9 -10 9 8 -3 -9 -9 2 11 5 -3 -3 -4 0 0 -6 3 5 9 2 11 5 0 2 10 11 2 -6 1 1 15 -10 15 13 5 5 -9 11 6 7 3 13 -6 3 13 2 -11 12 -10 4 9 8 -6 -10 -4 -3 7 2 -7 -2 7 3 4 9 -7 9 -7 -4 -7 -4 -5 2 1 10 -11 -7 3 6 0 -15 3 3 -6 6 0 7 14 -9 9 2 3 9 6 -11 13 -3 10 -4 -14 -2 2 -13 1 -4 4 -6 2 -5 5 -1 11 0 5 1 7 -5 4 -2 -6 -4 5 -9 1 -9 8 -5 -12 2 3 4 -5 -5 0 6 10 -2 0 10 -11 -5 -2 -6 -7 -7 -4 7 -2 -7 -6 -16 5 -7 -2 -4 -3 4 7 -7 10 -10 -2 -5 5 -2 -6 7 -2 -4 5 -12 -4 0 -7 0 -1 -8 0 -4 -3 -4 8 -11 -6 0 0 0 -9 -2 -2 -2 -6 11 -7 -8 -1 1 12 3 -1 8 22 -6 5 7 3 3 6 -3 0 3 6 -3 1 9 -4 7 -4 -1 15 -2 14 10 -1 -5 3 10 8 -2 -1 -8 0 -9 -4 12 3 -1 8 -14 -1 -8 1 -11 -8 7 7 3 11 6 4 23 -4 9 13 15 1 4 5 4 2 11 -2 6 3 2 15 15 7 4 2 -2 13 -5 10 9 4 -1 
6 6 1 0 16 9 1 13 6 4 13 -10 5 15 -3 -4 -4 -3 -4 -5 0 5 8 -9 10 -13 2 13 -2 -6 3 -6 2 1 2 7 -7 -13 8 1 -1 -14 0 7 -14 -9 4 0 9 5 10 5 15 8 4 11 -2 5 -6 11 1 11 -3 19 -6 12 -2 4 -12 8 -8 9 7 0 -3 5 -10 -3 15 1 -11 0 -4 -5 -1 -2 -1 5 3 11 7 -3 3 6 -8 -4 5 5 -5 -7 0 -5 1 -7 -2 -7 3 -1 -3 2 2 -1 -3 -5 -1 -9 -5 -10 7 0 4 4 6 1 -23 5 -7 0 -9 -1 -3 0 -8 5 -10 -13 -14 2 -4 0 4 -12 -8 0 6 -3 3 7 7 0 -6 -3 -9 1 -3 -7 19 5 -7 14 7 15 15 7 2 -1 -5 -2 0 8 -8 -13 14 9 4 12 -1 14 0 -7 -1 10 -4 8 7 16 1 -1 -4 7 -7 2 -3 3 -11 7 2 -2 10 -8 11 3 2 -7 -4 4 5 3 2 -7 6 -8 2 3 -8 12 -11 -6 5 -2 0 9 5 6 0 -9 2 1 0 8 1 3 -10 -1 12 -5 9 6 7 0 -3 -2 -6 4 4 -10 -4 -10 2 6 3 -2 4 2 4 -14 -2 14 -11 -2 -8 -12 1 1 -9 -11 -14 -12 7 -8 5 4 -7 0 5 -10 -6 -17 -5 2 1 -9 1 -8 4 -13 1 -1 -4 5 -3 -5 -7 -1 3 -13 -2 -9 -8 -13 -2 1 11 8 -1 2 1 -6 2 2 -12 -13 -6 -5 -3 5 -12 -10 -10 -20 -13 5 -6 3 1 3 1 -10 -9 3 -12 -7 5 7 -4 5 -6 -7 1 -13 -14 -11 3 0 -6 -8 4 -3 1 -7 -9 5 7 17 -10 2 -5 1 -8 -8 -8 -11 -9 2 -2 11 0 -6 4 2 4 4 -1 4 11 13 -2 9 8 -6 10 -13 -3 5 0 0 -7 -1 2 8 0 2 9 -2 -3 16 -2 6 -1 0 13 -8 -1 8 -1 2 8 6 6 1 6 9 5 -13 4 -6 6 -7 1 -1 0 -8 0 -3 4 1 -1 4 -9 20 -5 -3 -4 15 -5 9 -4 -5 -5 7 -4 -4 2 -9 13 -5 2 0 -6 2 -4 17 -7 1 -4 4 4 3 1 2 6 1 6 -1 8 0 10 9 1 9 2 -6 9 5 2 -3 1 -5 -10 -3 1 -3 -2 7 3 -10 -13 15 -9 -4 -1 2 -11 7 -14 -6 2 -3 -10 -2 0 9 -13 3 -5 5 -12 -2 10 0 -9 -8 -15 9 -8 -9 10 -4 -10 -2 10 -13 -4 6 1 10 -4 7 -11 7 -4 -8 0 -8 -1 -1 -2 -7 -1 -4 -1 2 10 -8 -6 -11 13 -1 0 -8 10 -3 8 8 4 0 -8 10 -9 -10 3 6 0 1 1 -1 2 10 6 1 3 -9 -1 -5 15 2 -11 0 14 2 15 -7 9 -5 14 -9 -9 -6 -1 -10 -3 2 -10 -6 -2 4 4 3 -3 11 -1 12 5 2 -1 14 -1 -2 2 -8 5 -9 5 -2 20 5 4 12 29 8 17 10 4 -2 1 12 2 11 4 17 16 5 11 11 -11 17 3 11 -7 8 
-4 14 -4 21 2 4 14 6 9 -3 -7 14 0 -4 6 2 -8 -1 2 5 2 -3 -4 3 -9 -4 -5 -5 7 -4 8 -3 4 -4 0 3 10 5 -2 -1 -5 5 14 1 6 -8 3 -9 -1 1 7 15 3 -2 7 -6 13 1 -7 5 -4 0 13 5 10 2 10 0 3 -1 12 -5 -9 8 10 -1 8 -6 2 -10 7 7 -10 0 -5 -9 -8 3 -7 4 -2 2 7 -7 1 -1 -9 -4 3 -3 -17 -3 5 0 -16 8 1 3 2 -8 4 -14 -7 -2 -2 4 -3 -7 -1 -4 -13 -4 2 -1 -2 5 -10 -7 6 3 -4 -13 -2 -4 7 3 -2 7 0 -12 -1 2 3 -1 2 10 4 9 0 3 8 1 -4 -4 -6 17 -15 0 5 6 10 13 14 7 2 0 -8 12 -1 0 8 -5 -4 -3 6 6 10 -6 9 -4 -7 -5 12 8 1 10 11 17 -1 19 -6 1 -3 8 1 -12 13 4 -1 -4 2 -2 6 0 10 9 -7 1 -3 4 3 1 -3 1 -5 0 1 0 -7 8 -11 11 -4 -4 8 7 13 6 14 -4 5 12 1 19 7 14 -1 6 8 9 1 0 1 13 -11 6 0 5 -2 -4 1 -1 1 -9 8 -3 13 3 -11 -7 -9 2 10 -16 -5 6 -6 -8 0 -4 -10 -3 -4 -9 -3 -5 -16 10 -5 -14 -15 -1 -6 6 -7 -4 -13 3 -9 -5 0 -13 -3 -15 12 -14 -4 8 -9 1 -4 -3 -11 0 -3 -3 0 -6 -11 11 -11 -5 -8 -1 -3 2 -8 4 2 -7 1 2 -7 1 -3 -6 -4 -6 2 -1 -10 11 -13 5 3 -11 5 -13 2 -13 8 -7 -8 2 -5 -1 0 4 -6 -3 -6 0 -5 -5 -4 -1 0 9 4 -4 -10 0 -4 -5 -10 1 -1 3 -10 -3 12 6 5 6 -4 -1 8 4 -4 1 11 -7 8 4 -5 4 7 2 9 -1 3 6 -3 -2 4 9 2 5 6 3 6 8 9 19 2 2 6 3 2 5 -4 -2 20 4 9 0 9 -1 -6 -3 -4 -1 6 2 7 -11 -2 -7 -8 3 -3 2 0 11 -7 -3 -10 2 2 -18 -4 -9 2 4 -12 1 -9 -3 1 -5 -2 -2 2 -9 7 -5 6 1 5 -3 -3 11 -8 7 -1 13 -5 4 -9 -6 -10 2 -3 -10 2 4 11 2 9 -3 0 0 4 -9 4 -10 -4 -2 -4 0 -12 -13 -9 -4 -1 8 3 5 -5 2 7 -4 15 2 -10 10 -13 -1 -11 -1 1 -3 1 -12 -2 -7 -4 1 3 7 -3 3 4 6 7 -8 8 3 -2 -13 0 -4 2 -2 1 1 8 -5 -7 -12 -7 6 1 -2 3 -9 2 0 1 6 1 -2 -2 0 -2 5 -6 -10 2 7 2 15 0 2 18 2 13 -1 16 3 -4 10 -3 14 -4 6 2 -2 2 -4 6 5 12 -5 3 12 11 9 -9 -4 0 -13 6 -9 -4 -1 -1 5 5 -7 9 -1 3 -6 -5 -7 -1 18 -2 11 10 5 14 9 9 -3 17 2 17 6 8 7 5 11 9 11 -11 11 14 4 2 6 10 0 2 11 -3 9 13 4 
6 1 0 -2 3 -3 -8 21 0 7 0 0 7 -5 2 3 7 6 0 -5 -7 -9 -8 3 2 4 0 -3 -1 8 -12 6 -7 -10 -1 0 -16 14 -4 3 -1 0 -14 15 1 1 13 1 -4 -8 3 6 -2 10 10 4 7 -10 10 4 -4 -9 -2 0 -1 3 2 -2 -3 0 2 12 4 3 6 0 13 7 -3 14 0 -2 -8 13 -8 8 9 15 5 7 -12 4 0 0 -4 -7 -10 -5 -2 -8 1 4 -7 -2 11 0 -7 0 4 -8 -5 -3 5 -12 8 -12 -7 -2 -7 7 -7 -6 2 -12 -2 -13 -10 -5 -5 3 11 -4 -1 -6 -4 6 0 -6 3 -4 -7 -10 -5 -4 11 -9 3 -4 -6 12 -7 -1 9 6 12 -10 -3 9 5 2 -3 10 9 -7 0 6 12 5 -4 2 1 7 -5 5 -7 4 -8 7 -5 8 1 4 -5 2 19 20 5 1 -5 8 2 -12 5 -5 4 -4 0 1 12 9 1 -10 5 9 -3 -2 -6 2 1 3 -4 5 12 8 3 1 13 -1 4 0 9 -5 3 7 2 8 -7 -5 7 4 5 0 17 -8 8 5 -4 -14 12 -7 2 5 -14 -4 10 0 4 -3 -19 6 10 2 13 -10 2 -1 -1 -4 1 9 2 -6 -1 3 -12 1 0 -9 -6 -17 -3 9 -1 -11 -6 0 -5 4 -14 8 -5 1 -2 -11 6 -3 -2 -1 -5 -4 -4 3 -8 -1 -3 -22 -14 -11 -10 -1 -14 -3 -5 -5 11 -10 4 5 -4 -3 -7 4 -9 -3 6 -16 -8 0 0 -9 -3 -6 -6 4 -4 -10 -6 -10 -13 8 -7 -3 5 -10 -10 4 2 -5 -12 1 -5 -14 8 -7 8 -9 4 -5 -3 -12 -1 12 1 0 5 6 7 -10 -2 -14 8 -2 -6 -7 -2 -3 0 -1 8 -6 -7 1 7 6 12 10 -6 15 5 2 0 -6 -6 9 2 5 0 5 -6 2 1 1 2 17 4 -2 12 6 13 5 8 19 -5 -13 -4 2 1 8 7 -2 11 1 -4 -5 4 -13 -4 0 15 5 -2 5 2 -9 7 3 -2 -4 -3 -11 -3 0 1 1 -1 -3 3 0 1 2 5 -4 -2 -8 10 -4 1 0 -4 0 -2 -5 10 -4 -7 12 -4 -2 1 -8 4 -10 -2 10 4 -3 6 -12 7 -7 11 -9 9 3 5 -3 6 -5 10 -8 2 -6 2 8 -1 -2 0 3 -3 0 -10 8 -1 12 -7 3 0 -7 6 -7 -9 2 -3 -10 0 -12 -2 -3 2 -8 -7 6 8 -14 -5 -1 8 -9 -2 -3 4 4 -3 9 -10 -5 9 -6 -14 -8 2 -8 1 1 -10 0 -10 -1 2 -1 -2 0 -16 15 1 -3 3 -15 -17 0 -9 7 -12 13 2 1 6 8 7 -6 11 3 -6 10 11 5 10 3 6 5 3 9 3 3 -6 6 -10 22 4 3 -1 3 5 -2 6 4 -2 -6 16 -9 7 0 2 -2 -3 8 -5 -1 7 2 6 5 -2 12 5 3 -5 3 14 4 -6 9 -2 1 8 5 6 4 3 10 10 13 26 9 9 -3 11 7 3 -3 13 12 0 11 23 -1 15 3 -11 10 
9 -1 6 11 16 -5 6 6 17 -1 11 0 -2 3 15 -7 -4 8 -2 -7 5 -7 -6 1 11 13 5 10 1 0 -16 4 4 -14 1 -7 5 -2 16 3 3 -17 10 -5 -1 4 2 -11 4 1 -5 3 -3 -5 5 -5 -3 -4 -2 -2 2 4 8 -5 -3 -5 6 -4 0 -4 -3 9 6 -11 7 -6 7 8 8 5 7 5 3 -8 -4 10 -2 3 -14 0 6 -11 -2 -10 -3 -1 -3 -6 -3 5 3 -19 13 -2 11 -9 9 -4 -4 4 8 -5 -17 11 -2 -4 -8 -10 -14 9 -14 -2 -9 -16 -4 2 4 -11 5 0 -2 0 -5 10 -4 1 -4 9 10 -6 -5 13 8 4 -12 7 -14 4 5 16 5 5 -8 0 7 5 -7 3 5 3 9 7 -1 5 -7 9 2 15 3 11 -5 14 -5 6 -7 1 12 1 6 5 5 8 -3 3 -3 -3 2 -9 1 0 -2 14 -13 -9 -2 -2 5 5 -16 4 -4 0 7 8 -9 -2 7 1 5 7 7 -10 -5 -1 -4 -2 -4 -4 -7 14 -9 9 -7 -3 -16 -11 7 8 2 4 0 -2 2 7 8 -9 -1 15 -7 7 -5 2 -9 3 -3 -4 10 -4 -1 -2 0 -8 -10 -8 6 -1 -4 -3 -9 -1 -1 -2 0 -14 1 -6 -6 -4 -2 -1 -4 -5 -16 7 1 -8 -6 -12 -13 -10 0 -11 -3 -9 -5 -8 8 -10 3 -11 -7 -6 3 -16 -1 -19 7 -4 1 -15 4 -7 -1 -6 -2 -8 -10 11 -3 -6 -6 -5 8 -11 -7 -5 5 7 -4 1 -7 6 -10 -3 4 -18 -15 2 4 -10 -6 -7 -4 -2 8 -6 -11 9 -3 2 2 -9 -11 0 -13 4 -2 -8 -4 8 6 1 5 3 -5 2 5 -7 -4 -1 -9 -7 -3 5 1 -3 -6 4 5 -7 6 -1 13 -12 -5 -5 15 0 5 17 19 6 4 4 14 1 4 -1 10 8 -1 0 5 -2 6 1 -3 -1 -1 1 14 -1 9 12 8 0 5 -3 1 15 7 6 -3 11 10 5 0 11 11 -8 8 -2 11 -3 -12 -7 -7 3 -8 -3 -2 -4 -1 5 4 -1 7 2 5 -6 2 -4 0 0 -11 1 5 -10 1 -11 6 1 2 3 -3 -3 5 -1 -10 -6 -6 -3 2 -1 8 -7 -7 -3 5 0 4 -3 -2 -8 6 -5 0 -2 1 -6 3 2 -15 -16 7 5 -8 -12 -13 -7 -7 3 -7 1 2 1 -6 -4 -3 1 -3 6 7 2 3 -2 -3 3 -11 -13 0 3 4 -5 1 0 -3 4 -6 17 -7 -2 -11 -9 4 1 3 -10 -4 6 -10 -10 -12 3 -10 3 0 -2 16 -6 10 1 3 -9 -3 3 -1 -3 4 -11 -6 1 0 5 -4 -2 4 -8 7 8 -3 8 7 16 -2 16 1 11 7 6 12 8 4 3 -1 1 12 -7 14 1 12 9 10 -11 0 1 -9 -4 1 14 2 0 6 2 -4 -12 3 9 6 5 -6 4 4 0 2 3 14 -3 -10 8 6 0 4 7 -3 9 -2 0 13 4 2 21 5 6 6 15 0 8 -2 4 5 9 14 13 3 9 -2 5 4 1 
4 3 4 -6 7 -6 10 2 2 9 3 2 1 -15 8 -5 4 -9 6 -7 11 -6 11 -12 -2 -5 11 1 11 6 -6 5 6 -2 -2 -17 -3 -2 -12 -6 7 -6 -3 -7 -6 1 3 -5 13 -4 -1 -9 -2 0 -10 -4 -3 13 7 5 -4 1 3 -5 5 -7 -5 3 -2 -1 9 -10 -5 -5 9 -12 13 8 -1 8 1 -8 10 4 14 -12 10 -3 -4 5 4 -15 0 -2 -14 3 7 -5 10 -7 0 9 8 6 -10 -7 -5 -2 14 1 -2 8 2 -1 -3 -12 6 -11 -8 -1 5 -4 1 -1 -8 -6 -2 11 7 -5 -1 -8 -10 -9 9 -6 18 -3 -3 -3 2 7 -10 3 12 -3 17 5 11 0 -1 14 -4 16 9 -9 7 -4 -1 5 -1 11 2 -11 13 12 -4 6 4 8 -5 -5 10 7 -1 5 7 0 3 4 6 5 4 6 -1 12 1 6 -2 -3 -2 15 7 -15 1 -2 4 5 7 -6 -6 5 1 -1 -10 11 1 8 -6 8 -8 10 7 0 15 -6 -3 9 9 -6 3 0 -14 7 -4 -2 -4 4 0 9 2 9 4 0 -1 -2 6 2 -20 -3 -8 4 -11 -7 -1 -4 -4 -2 -2 4 -5 -3 -2 -11 -8 4 -2 -11 9 -5 -5 -9 -4 1 -8 -8 7 -7 2 -3 1 -5 -11 1 3 -10 -10 -15 -8 -1 1 -5 -3 -6 -9 5 0 9 -12 -15 -2 -4 2 6 -12 7 -11 0 -12 -3 -4 3 -9 -3 0 10 -16 14 -10 3 -6 -1 -11 4 -9 -3 -2 -3 -8 -2 1 2 3 -6 8 -5 6 -5 -1 -3 -4 -9 -7 2 5 -11 5 -8 -5 1 -6 5 -8 -1 0 -2 -12 -7 3 1 -1 1 1 -3 11 -11 -10 -10 2 6 4 -3 0 -6 2 -10 -6 5 -11 -2 4 3 -4 7 12 -2 -8 13 10 -7 -7 12 10 5 2 10 3 1 5 8 8 6 -8 16 13 14 -14 9 7 5 12 5 8 4 2 4 7 8 12 3 10 -2 1 5 6 -5 8 -1 -17 11 -12 5 -1 -3 -1 0 1 6 -2 5 -5 -16 0 1 -12 -9 1 2 -13 1 -9 7 -10 6 5 -5 1 -2 2 0 0 4 1 6 3 2 8 3 5 3 1 8 -6 -1 -5 -7 4 4 7 -7 -8 -10 3 -4 -5 -1 -2 10 -6 1 -4 -6 7 8 -6 -2 -9 9 1 -6 -4 -2 -6 2 -6 -4 -6 0 -8 -8 11 6 -1 -3 -4 -3 4 -2 -5 5 -5 -8 3 -3 -4 -4 6 -17 22 -13 1 -3 0 2 -3 -10 -2 -6 -6 -16 -8 -8 -6 5 5 -4 -11 2 -11 2 1 8 -6 -5 -3 -2 3 5 3 10 1 11 1 -11 -4 4 -5 4 8 6 -2 7 5 9 2 0 6 6 -2 4 9 -1 4 9 11 -3 12 1 7 12 2 7 -5 -3 -4 2 5 17 0 -2 9 0 9 4 0 2 -3 -3 6 -3 3 17 7 4 9 10 4 8 1 -2 3 4 17 9 6 4 -2 8 9 14 13 2 9 -2 16 18 13 10 5 -2 -7 13 2 9 2 8 8 -2 2 6 
-3 0 -2 8 12 -5 16 8 0 11 8 1 10 1 -4 -3 -9 7 -2 -2 2 -5 3 2 3 -1 12 -5 -8 7 12 -12 -14 -3 10 1 4 -2 7 1 1 -3 0 5 0 -10 1 -3 8 -1 -4 4 1 -3 8 8 0 -10 -9 6 19 -7 0 4 -2 12 -9 -13 1 5 -10 -2 -5 -9 0 11 7 -10 6 4 0 -9 -2 1 2 -4 0 -8 -3 2 4 1 8 1 1 0 -6 -6 -5 -1 3 -1 4 -6 -1 2 -6 1 -11 -4 -3 -9 1 -2 -13 1 2 0 3 2 -9 0 -7 -2 5 -3 -1 4 3 2 -1 -6 5 2 -5 -4 -7 0 3 1 -14 -1 1 -5 5 -1 9 2 -10 5 -8 10 11 21 0 16 -2 4 4 -2 3 -2 9 9 13 5 2 5 1 8 8 13 0 18 -10 4 0 10 3 8 2 -6 -2 3 -11 -5 -5 6 4 0 17 -6 1 3 4 -8 -10 -3 1 0 -7 8 -13 -2 6 5 -4 3 7 1 9 7 -2 -6 -5 0 3 -4 -3 5 -5 5 -3 -11 12 -7 1 -5 -2 -6 1 0 -1 -6 3 -7 -5 1 -8 0 3 0 4 -9 3 7 4 -1 3 -7 9 2 8 9 5 0 -6 5 -5 0 -14 -15 -1 -2 -4 -13 -6 -1 -3 2 -9 -1 -6 -3 -1 4 2 5 -2 -2 -3 3 -14 -3 -3 -6 -10 -10 -2 8 -12 -10 -2 -5 9 -9 -10 -9 3 -12 2 -14 0 -1 -11 -5 9 9 8 4 -7 -5 6 -1 -6 -3 -14 8 -4 -4 -2 1 -5 2 -3 -6 2 0 -4 -6 -5 -5 2 -14 3 -13 -4 8 -1 10 -3 -1 10 10 3 3 -3 12 -12 -10 -22 15 -13 -1 -9 -8 -1 -13 -2 2 12 -2 2 3 0 -1 -13 -7 7 -4 2 -5 -5 10 2 11 1 4 10 -2 5 -8 9 15 3 -1 4 -9 14 12 0 10 3 1 1 5 -2 10 4 1 -5 3 12 -2 14 0 4 -2 6 1 6 -3 -7 12 12 5 1 5 10 -9 2 5 0 -1 0 7 4 -4 -5 -10 -1 5 -2 -8 10 9 14 -3 -2 6 -7 -5 6 -10 -1 4 8 -7 1 10 2 4 2 -7 -4 -7 -9 -9 6 -1 4 3 13 -1 10 3 -6 -2 3 1 -18 12 0 -5 -5 -8 6 -11 -10 -4 -8 9 1 -6 -8 -16 1 -10 2 -15 11 0 -3 6 -13 6 7 3 -5 3 10 -11 4 4 2 -1 -8 -13 5 -2 -2 3 -10 0 0 -12 -2 9 -6 0 2 -9 -10 8 10 -1 -3 -12 -3 5 1 4 4 -7 3 -10 3 -10 4 9 5 -6 5 7 0 -3 2 6 4 -2 -4 7 -3 3 5 0 6 -3 2 9 9 9 1 17 1 10 13 -1 0 3 0 6 -3 -1 7 16 11 12 2 8 14 -5 4 4 12 9 10 2 -1 12 -5 4 -4 -2 -3 2 -4 -9 15 -5 7 17 2 9 -1 -2 -7 -11 0 -1 2 -2 -2 5 0 13 7 1 5 0 15 5 2 13 4 -1 14 14 20 8 5 5 -2 8 6 -2 -1 1 18 0 
5 1 7 2 6 11 -6 6 -12 4 5 11 8 6 2 2 -8 0 -4 3 2 14 -8 15 0 6 3 0 -5 5 -5 3 13 -2 -7 1 0 -7 -17 5 -2 2 -1 -6 -1 1 -13 -10 7 -12 3 -1 0 -7 -8 -3 8 2 18 -4 -7 -2 -6 3 -4 -12 -1 0 11 -10 10 2 2 5 -4 3 2 3 11 -1 0 5 15 3 6 -2 10 0 0 0 1 6 14 -5 6 9 -2 5 -4 -9 0 -5 3 -3 15 2 0 8 -9 -6 0 4 -18 2 0 -1 5 -10 0 -2 -5 0 -2 -4 -14 8 9 -6 -7 3 -9 -5 -4 5 -5 -9 13 -15 -2 -4 18 -12 4 7 -1 5 4 0 1 4 12 -2 0 7 5 0 -3 14 14 4 -2 6 4 -1 -9 7 5 -2 8 11 4 -7 11 5 4 -4 8 -2 7 -7 12 0 0 4 -7 16 9 -1 4 8 2 -7 9 6 -5 -10 11 8 15 -5 9 0 10 -11 10 -4 8 3 -8 3 7 1 0 6 18 -4 -1 3 4 -6 9 0 4 5 1 6 -5 7 -3 7 7 1 -1 5 -8 -7 9 -8 2 6 2 -1 3 -1 7 -1 -9 -14 -4 2 14 -12 -4 -5 -3 -7 13 0 -1 -15 5 1 -8 -13 -14 -11 -6 -14 1 -4 8 -4 7 3 -8 -4 2 -11 0 -10 -13 -8 -4 3 -8 -3 -9 1 2 9 1 -2 -10 -20 1 -6 3 -12 -20 -8 -6 0 -5 5 3 6 -16 -11 1 -12 2 0 -5 0 5 6 8 3 -10 2 5 -3 -2 -11 11 5 -5 -3 12 -4 -1 10 -1 -7 8 12 0 -3 0 -1 -4 5 0 3 -19 -8 -7 -6 11 3 0 -5 2 -3 -9 -1 -7 -8 3 -11 -9 -5 6 5 -6 -5 1 1 -2 0 -16 -4 -1 0 2 2 11 3 9 7 -2 2 5 12 12 -3 16 4 2 -6 4 8 -4 -2 7 4 2 -1 7 3 11 2 3 15 -1 10 5 -1 -1 2 9 5 2 4 1 -9 2 -2 5 3 3 -8 -4 -5 0 -9 12 0 3 7 1 3 -11 -6 -2 6 -2 3 8 5 -1 -1 11 -6 -7 -5 3 -9 5 8 4 0 -8 0 3 -9 -3 5 -5 0 6 -6 6 -2 2 12 -1 0 -2 3 14 -8 -14 11 9 5 -9 -1 9 -2 -5 -6 -9 -6 -9 4 -6 -13 2 -4 -1 -1 5 -20 -1 -2 -2 -4 -4 0 -2 10 -13 -3 -10 -3 1 5 2 1 0 -1 -2 -16 -7 5 7 -3 0 -2 -11 -10 -3 -2 -2 1 -12 8 -3 -6 -11 5 -7 -5 5 1 -24 2 1 3 -5 -7 3 -7 -7 -10 16 -3 0 8 12 -8 6 0 -2 4 -4 6 13 4 2 -9 0 9 7 4 0 4 10 11 12 2 1 11 -3 6 3 4 -3 6 4 13 12 -2 -3 -2 7 5 3 -3 12 7 -4 3 8 8 8 1 -6 -2 8 9 8 -2 7 2 5 9 -8 10 4 12 7 5 5 0 10 11 3 -3 3 15 2 1 5 12 4 6 4 -6 6 11 5 8 -9 9 8 0 3 5 
7 5 -1 17 5 -2 2 4 2 0 11 -4 4 6 -4 -3 -3 4 -10 6 0 10 -5 7 -12 7 -11 -5 4 0 1 3 -12 7 0 5 -8 -15 2 -13 9 0 5 -3 -10 -3 10 -16 -3 7 1 0 3 -13 7 3 -1 3 -1 -1 12 9 1 -15 -8 2 11 -6 2 0 -1 -16 8 -7 5 -1 5 -1 -10 6 -8 13 -5 8 0 0 2 5 -5 6 -3 9 -2 10 -5 1 -5 -5 -3 -9 3 4 -1 3 5 5 12 6 2 0 -13 -2 3 -13 6 -2 -13 -1 1 -13 11 2 -8 1 -9 3 0 -2 -8 -2 -12 9 -5 0 1 2 7 -5 15 -2 4 9 11 -5 3 1 7 4 13 1 -3 8 23 10 -1 -4 10 5 -3 0 10 4 5 15 7 5 1 7 7 -8 18 5 -3 4 -1 -2 -4 -1 -3 -5 12 3 -2 5 -1 6 -6 4 -5 6 -1 10 -6 3 -11 0 -11 4 -9 -1 -1 -5 -1 10 12 -7 -3 10 -1 -1 2 -10 4 2 -3 0 11 -7 1 -7 -6 4 9 -1 -1 -2 -5 1 3 -22 3 -1 6 10 -7 1 4 6 0 -4 10 1 -5 2 1 -12 2 -1 -5 1 -17 3 5 -2 -5 -5 -3 -14 4 -1 3 0 -12 -7 4 -16 1 -13 -2 0 4 10 2 -9 -4 -14 -7 -4 -6 7 2 -7 0 -13 -9 -8 -1 -3 -9 -8 -5 3 -14 15 -11 -8 -3 -6 5 -1 7 -16 -5 -1 8 -5 -6 2 6 12 2 5 2 -5 4 5 -4 -8 -7 -1 -11 -2 -1 1 -4 1 4 -4 3 -10 -3 9 -3 1 8 3 14 1 -12 -2 1 15 -10 0 0 7 -2 12 2 5 -4 6 3 3 11 -1 -2 -18 3 1 2 1 -3 -11 -11 4 -12 -2 -19 -5 -7 -8 2 3 3 1 -1 -5 -8 9 16 5 -2 -1 0 -5 8 -6 0 -1 4 10 6 8 -3 -3 11 14 1 14 2 8 11 15 6 9 8 8 -11 11 3 1 5 -5 11 5 4 -7 -2 9 -6 5 -3 -2 6 4 6 -9 -7 8 8 1 6 2 -1 -2 -2 -5 -4 -11 -12 4 -4 -16 -8 1 6 4 4 1 1 -1 -11 -5 5 -8 -9 -10 5 7 3 -7 -5 -2 -3 -10 1 -8 -8 2 -17 5 8 -2 2 6 4 3 4 -2 4 -4 -1 7 -5 -4 -7 1 -14 0 6 -6 1 2 -2 4 11 9 6 -6 13 -3 0 -4 2 8 0 1 0 -14 9 2 -9 -6 -4 2 -8 -6 -7 -7 10 -4 4 -2 -5 -2 9 2 -5 -4 -2 -7 9 -6 2 4 0 -4 -1 -13 -1 -10 5 1 -3 4 0 8 12 5 5 10 -1 5 2 2 9 13 3 10 10 3 -1 -3 -2 -1 17 -6 5 6 11 18 15 16 3 2 8 11 7 7 -4 9 2 19 14 0 0 1 -6 -4 4 7 -5 1 9 4 13 7 1 3 7 -14 2 0 3 5 5 -5 4 14 5 -2 11 8 9 3 -5 1 8 6 1 -3 2 9 3 8 -6 3 4 2 13 0 6 -1 6 -11 -4 3 -4 4 
-1 11 1 -3 -5 6 6 1 1 8 5 18 -3 2 5 11 2 5 9 -4 5 9 6 6 3 -3 0 6 1 -3 -3 -6 1 20 -1 4 10 -5 -6 -10 10 2 1 13 -14 -7 -7 5 3 -10 10 0 0 11 -4 6 -9 5 -17 1 -4 6 -5 5 -12 -1 0 -7 -7 8 -8 -4 -11 1 4 -6 5 11 -3 -10 7 10 -1 5 21 10 5 6 8 8 -4 -5 1 -13 -3 -13 -4 -18 2 5 -3 4 -1 -5 -1 2 9 2 -3 -8 0 5 -11 -5 5 -12 8 -17 4 11 2 1 -4 1 -6 -6 -3 -3 0 -1 -1 -6 -14 -15 6 -2 -3 4 -7 1 -6 3 -3 5 0 1 6 3 -6 3 5 7 -7 13 5 13 -4 10 15 -1 -5 -3 -1 24 -7 -4 15 -8 -3 -6 1 3 6 11 3 2 -11 -5 12 16 -8 8 11 9 0 -2 -2 12 -4 3 -1 -9 -1 -7 0 -2 -4 -10 1 -8 2 -6 0 -10 8 -3 1 3 2 -8 -1 1 -2 -2 0 -14 -2 6 6 9 -8 9 -12 3 3 -9 -5 -5 1 9 -3 -5 -9 4 -6 3 -4 -10 3 -3 18 -1 -1 1 -5 -4 0 -7 4 -14 3 5 -21 7 5 -7 -7 -2 3 1 14 -12 2 -10 8 -7 -16 -17 -6 -5 0 -11 3 3 -13 -14 -19 0 -11 -1 -11 -2 2 3 -5 -8 -9 -4 -9 -3 4 -6 -4 -19 -2 -8 -1 -5 1 -11 -4 -1 -4 5 -10 -3 14 0 0 8 -3 -7 5 -3 2 2 14 12 2 -3 11 -3 -15 2 0 7 -4 10 14 11 -4 -7 -7 11 -8 -6 14 11 5 1 0 -8 1 -5 -15 3 -11 -11 4 2 1 -7 -4 4 3 -19 -1 12 3 -3 -4 6 -2 -7 12 -6 -1 -8 -7 0 -3 7 -6 -2 4 -5 5 4 2 -3 5 3 3 17 -2 2 -15 2 -2 -2 -12 4 0 2 11 4 8 6 20 -5 16 1 0 1 6 0 5 9 4 -9 -1 2 -1 15 4 7 -1 6 2 -5 -3 0 -2 1 5 -7 -7 1 -1 -14 2 -2 -13 3 -2 -5 3 -2 -5 -3 -5 -8 -8 5 7 -2 -1 -13 -9 -5 5 0 13 -2 -3 2 7 3 3 -4 -4 -9 13 -17 -2 -7 -7 -2 9 -12 -1 2 -15 -12 -7 8 -3 9 10 -8 2 6 -2 6 5 3 -7 -1 5 13 4 -2 -1 -4 -15 6 -9 7 3 -6 2 -2 7 3 -3 -4 0 -5 0 0 -4 -12 -9 -8 6 -5 10 7 -5 -1 -2 5 2 -11 6 6 10 -7 6 -10 -8 7 -9 -9 -2 -2 1 7 -2 10 -5 9 8 -4 -3 -6 4 -6 9 4 5 2 10 12 0 15 13 9 4 0 4 5 -1 -4 2 1 8 0 3 8 15 -1 7 7 -6 -9 -2 11 -5 6 8 -2 4 15 -7 -2 -1 -3 12 -5 11 3 2 9 -6 3 -2 -7 13 -4 3 8 5 4 5 -6 1 7 -2 5 17 9 -2 13 2 12 14 8 9 4 17 18 3 3 7 -1 8 8 8 9 -6 2 7 5 -2 15 -3 -6 -6 -1 
10 0 2 3 11 11 -2 2 -2 10 -6 14 -11 13 12 -7 8 -6 -1 -9 7 -8 -3 1 -1 1 -9 -12 2 -10 -5 -6 4 -9 0 15 0 -4 6 4 -6 -4 -4 -3 6 4 1 -9 -7 -7 -17 8 -3 -5 -1 -9 2 -7 10 -8 2 2 9 -1 2 -9 -13 2 10 -6 7 -2 -1 -2 -5 -4 0 -9 7 3 2 5 3 12 -1 9 1 -1 -4 2 4 11 22 -6 10 -5 5 -11 2 -8 2 0 1 5 -7 -2 0 -2 -15 -1 0 -7 4 -7 3 2 -5 3 -2 3 -3 -11 8 -12 5 -6 -2 -1 1 -1 1 -1 -2 -10 -7 7 5 5 -1 -2 2 10 -6 0 4 -2 4 11 9 11 7 0 12 -3 9 13 3 -6 -2 0 9 10 5 19 6 -3 2 7 -2 1 1 3 8 0 -1 14 0 1 -7 3 1 -6 2 -10 -1 8 1 -10 10 1 3 6 -4 -10 4 4 -5 -2 -2 -2 -4 -5 8 -8 11 -1 2 6 -5 12 4 1 4 -3 -9 5 -4 0 7 -5 0 -2 0 8 -2 7 1 7 -12 -4 5 -11 -3 3 2 4 5 -4 2 -1 -9 -4 4 5 -19 0 -3 8 -5 10 -8 -9 -2 -4 -10 -2 1 1 2 4 -8 3 -9 0 -4 -7 -15 -10 -11 -13 -6 -2 -11 1 -8 9 1 0 0 -1 -8 -9 4 -10 -1 -12 -2 -15 3 -16 -3 -1 -6 -8 -11 -7 -2 2 13 -9 1 2 8 -2 -11 -5 7 -16 9 -12 -5 4 4 2 -1 7 -3 1 5 -7 -17 -5 -9 0 -1 6 -1 -5 -6 3 9 -1 16 -7 10 14 1 1 4 7 -7 0 -6 -2 5 -2 3 -8 0 0 -12 8 6 6 -4 8 -4 6 7 -5 7 -12 -16 -2 9 1 11 -1 2 1 -4 -5 9 5 3 0 -7 3 -1 10 4 10 10 3 -16 -3 6 -4 -2 7 13 4 3 6 3 -2 0 8 16 -1 13 1 2 -3 3 8 -2 5 14 -1 4 -26 5 3 -10 0 5 1 -7 4 -7 -3 3 8 -8 1 9 4 2 -4 1 4 0 7 -2 -3 -7 -2 -12 7 -8 -15 4 -16 1 -4 7 1 12 -2 -5 1 -8 -2 -7 -6 1 10 0 -4 -1 -10 -3 -5 5 -6 -6 2 -18 -4 -5 -6 2 -2 1 3 3 7 6 4 -13 1 -4 2 -4 -10 11 -12 -1 -2 -7 -6 -13 2 3 -1 -4 2 7 -3 2 5 7 -7 -2 4 -10 4 -13 -4 -1 -4 4 2 -7 0 -15 1 9 10 -2 -10 4 -4 0 1 -10 -6 -3 -9 3 -8 -1 -2 1 -2 10 -10 -3 4 1 -7 10 -3 -4 4 5 8 8 5 7 14 3 16 12 10 8 7 1 12 10 15 6 11 16 -9 -5 -5 8 5 -18 13 19 18 11 6 0 7 -5 13 2 6 -10 0 -4 1 13 -2 7 17 6 3 6 1 -4 5 0 -1 -1 6 6 13 10 -2 -3 8 14 15 -1 13 -2 12 12 -4 4 -2 12 2 5 17 3 -3 7 6 1 7 -1 -2 7 11 13 8 -2 8 7 3 2 11 3 2 
5 -2 10 -5 1 -1 13 0 2 4 14 -7 6 4 -8 0 5 11 1 3 0 2 -8 4 -1 0 -4 6 -6 5 6 8 -4 -10 2 -4 7 2 8 -12 -12 -6 -1 -4 -11 0 -10 -2 2 -7 -4 -4 4 -21 -3 -16 -4 10 -13 3 9 -5 8 2 -2 8 17 -3 3 -8 7 -4 -1 -3 -2 4 -2 -2 0 17 18 11 0 5 3 5 -4 8 7 -3 -1 -1 0 1 0 3 3 10 -3 -3 7 8 12 -5 7 0 -7 6 13 4 6 -10 15 -15 -8 -11 -7 -8 -14 8 -10 -8 -18 3 -10 18 -11 4 7 -6 -1 8 -1 7 -8 5 0 -1 -9 12 6 0 3 3 11 15 5 5 9 6 4 8 10 8 1 2 1 3 1 2 12 6 12 -2 6 5 7 -7 9 11 -10 -2 -1 4 4 4 3 7 -5 3 -6 15 -12 8 3 -1 6 6 -1 0 0 -9 2 -3 2 7 3 7 -6 -6 9 4 -2 3 -14 1 -7 5 -2 -14 7 -14 -8 -5 -9 -5 8 -12 7 2 11 -3 -13 -2 -6 5 -5 -8 -1 1 -3 -7 -2 3 -16 -6 -14 -1 3 -1 11 -5 -2 -5 -2 -11 -7 -9 -2 -3 -10 3 -12 16 -4 3 -11 8 -3 -8 -6 -5 -12 -6 -9 -1 -3 -4 -14 1 -13 0 -5 -18 1 -15 6 -16 -7 -12 3 -5 0 2 -12 -5 -12 -1 -19 7 -12 -1 7 -7 1 -5 -10 -16 -24 3 -9 0 -7 -2 -1 7 -6 -6 -14 -1 -9 9 -11 -3 -9 4 4 -4 -3 11 -6 8 -9 -3 1 -1 9 4 4 7 -1 8 -3 3 4 -5 -1 -1 -3 5 -10 -13 4 -6 7 17 -10 8 -6 -8 -5 -7 4 -9 -7 10 0 6 -3 -6 4 -9 13 10 -7 1 -4 1 -11 6 -6 -3 -3 -6 -3 -8 2 6 -1 -5 7 -8 7 1 8 5 -2 -6 -4 -1 -3 7 9 -8 16 4 23 13 -3 4 4 -1 1 7 4 6 2 7 -2 3 -8 0 0 -2 13 8 -8 5 0 -7 9 -9 -12 -4 -1 -1 0 2 2 2 -2 -5 -2 2 -8 -13 3 -3 -10 -5 1 1 -8 2 -17 3 0 1 5 0 -6 -4 4 -8 2 -4 -2 -16 -3 -2 -5 -17 1 -12 2 -3 -5 -10 6 -3 -3 8 -10 -8 4 9 4 -8 -4 -2 14 3 -3 -6 5 3 -10 -1 14 4 -2 4 -7 0 7 6 7 10 6 -3 -2 5 -1 -1 6 0 1 2 -7 -3 -3 -13 1 -1 -1 -13 4 -16 -4 -12 3 5 -2 4 0 1 3 -10 -14 1 -11 -16 -2 -6 -1 3 8 -8 -6 -4 6 -7 5 5 10 1 14 4 15 -1 8 6 13 -4 13 11 1 -1 -4 13 -1 5 3 5 1 14 6 10 8 10 8 11 10 -6 2 8 1 12 6 22 0 1 -1 7 4 10 10 2 0 0 2 -9 5 11 11 0 5 11 -2 11 1 4 13 16 16 5 -1 9 -6 0 -1 11 2 10 7 11 9 12 9 10 14 -5 21 6 6 2 6 8 5 1 1 9 3 -16 -3 8 -9 0 0 -4 
0 -8 8 6 11 -2 -8 -3 -6 1 -10 13 0 6 2 2 6 12 -4 2 -1 -10 7 -7 -3 8 4 -9 6 1 7 -5 1 1 -8 -4 -5 8 0 7 9 -7 -10 2 1 4 6 -8 6 -5 -2 -3 -2 -2 1 4 1 -1 9 -12 5 12 -32 4 2 -12 -4 0 0 2 -24 2 10 2 3 3 -11 0 -10 0 -10 -2 11 0 4 2 4 -8 -2 9 -2 11 8 14 5 -4 -1 5 15 1 0 5 -6 10 -1 -3 -7 1 11 -1 0 6 -11 0 -4 -5 4 -2 3 3 5 3 10 -6 11 7 -1 9 -3 -3 -2 -5 -1 -6 5 -4 0 10 -1 -1 8 9 -1 -4 -6 17 1 -4 -5 11 7 6 0 0 0 8 -3 11 11 3 1 9 7 9 11 7 10 6 1 5 13 0 7 -6 3 4 1 10 11 11 1 6 6 0 8 -5 -2 2 -4 -6 3 3 0 18 -10 7 -7 -13 -5 -5 -6 5 4 -3 3 9 -2 14 0 -4 2 -5 -17 -8 -4 -3 -10 -8 -5 6 -4 -6 -3 -5 -7 -2 2 -6 5 -3 0 -3 7 4 -2 5 -9 1 4 -2 -12 -2 -7 -20 2 -4 0 -1 -4 6 1 1 -11 -1 10 2 6 15 -1 -2 -4 -16 4 -3 2 -7 -16 7 -5 -7 -6 -7 -8 -12 -17 5 -12 -2 2 -2 -18 0 -3 -2 -10 -10 -11 -9 1 -6 -4 3 -10 -2 -11 -11 -18 2 6 -11 3 -8 8 -7 -7 -5 -7 11 -8 12 -6 -8 -4 -8 8 -2 -4 7 -12 -5 1 -13 -5 7 -6 -1 5 5 3 8 17 -3 6 4 5 -3 -1 3 3 5 5 4 -1 -7 -1 -2 -8 10 -5 -4 4 1 1 -3 6 -2 5 4 -8 -5 -9 -15 0 -13 -1 6 -1 1 -3 7 -10 1 3 6 5 -3 9 7 -2 8 3 2 9 4 4 0 2 -4 4 1 1 17 9 10 4 7 -2 -5 8 5 2 1 1 20 3 5 -4 4 1 6 10 -3 -12 -19 -4 2 -4 1 0 -12 10 -6 6 -4 11 -5 1 -1 0 0 5 3 0 7 -11 -2 -2 -3 4 -4 -13 -5 -6 -7 -13 3 -8 5 -4 9 -6 1 -8 -1 -6 -10 1 -6 -5 1 -13 -4 1 -7 0 -12 -6 -14 -5 -4 -6 0 -3 5 0 -5 -9 -2 1 -3 0 -6 -3 4 -3 -11 6 20 2 -8 10 0 -2 -1 -6 3 -5 1 -11 2 4 -2 2 8 0 -2 2 6 -5 -2 10 3 -1 1 1 12 -9 10 -7 12 -6 5 -2 2 0 3 -10 2 4 -9 8 -1 -2 0 -5 11 -4 6 -7 6 3 0 0 -2 1 4 5 3 0 2 5 8 3 5 5 12 -3 14 6 9 6 19 11 -2 -2 4 8 11 2 6 12 -5 8 -1 2 10 11 2 3 -6 14 7 8 22 4 -3 5 -3 11 1 12 9 -1 5 9 1 13 9 3 0 -6 9 5 7 4 6 -4 13 5 7 -14 -5 1 -11 -2 2 9 2 10 2 12 11 -1 -6 1 5 1 -2 3 3 8 -15 -12 12 5 3 3 -11 5 -7 
8 15 4 7 2 6 10 0 4 0 9 6 1 2 6 -3 -12 -8 -5 6 12 5 -2 1 6 -6 -4 0 3 -12 7 4 -7 -1 0 3 2 -3 4 -4 7 5 -15 1 -6 -14 2 -4 -1 3 -4 0 -14 -8 -10 -7 -15 -9 -17 -12 1 5 9 -5 0 -4 -1 10 -3 -4 11 1 -2 1 15 1 20 -7 3 15 -5 6 -2 8 6 14 8 9 2 2 0 11 10 3 -2 11 12 -2 7 -3 1 7 4 17 7 4 11 -8 -2 7 9 2 3 7 -9 -8 6 0 -2 10 -9 10 -4 -3 10 -1 12 -7 -1 -1 -2 7 -3 12 -2 0 5 -10 5 5 -6 3 13 8 1 1 -5 1 7 7 1 1 9 3 2 -2 12 2 -1 8 5 -4 -9 17 -2 2 11 -2 10 3 7 3 7 7 3 4 2 5 -4 -8 2 11 -9 -2 1 -2 2 -10 9 3 -1 5 -3 -8 -8 9 0 0 1 3 8 1 11 2 -3 -2 3 -1 7 3 -8 -5 -3 -8 8 -13 13 -9 13 -7 -8 2 -1 -1 -3 -10 0 -16 16 -4 -2 4 -11 -3 -2 6 0 -3 -9 -3 -8 -7 -11 7 2 -17 -3 -6 1 -7 -6 -4 1 -1 -2 -1 -3 -3 2 -9 -9 -15 -11 4 -2 -3 -8 3 -3 -11 0 0 -6 -6 6 -2 3 -12 -1 -16 -9 -16 -2 -10 -8 -16 -5 -3 6 -14 -11 -10 2 5 -4 -7 7 -5 -11 -9 -11 -12 9 -8 4 1 -11 5 -1 -7 -3 6 1 1 -10 7 -5 4 -5 4 -5 1 -1 -17 0 3 11 5 9 0 1 10 11 5 8 5 -1 -14 -7 2 -1 8 -2 10 -8 -2 -5 -4 -1 -3 -7 -12 0 9 0 -4 -10 -8 -5 5 9 15 -4 1 -2 8 -1 7 5 -7 7 4 -3 -2 2 1 6 7 -1 1 1 8 -2 -1 -1 -3 8 -6 -2 -5 0 1 -8 4 -1 -6 7 4 17 2 14 -6 20 0 3 5 -5 17 -4 8 3 2 6 8 -6 2 2 5 3 9 -6 -1 3 1 0 -2 -2 0 9 5 2 0 -11 -13 8 -2 -6 2 -5 -12 -5 3 10 0 -7 -13 -8 6 -6 -7 -8 -6 -7 -14 -5 -3 -9 2 -9 -2 -1 -4 -13 -10 5 -8 -9 -2 -7 -10 0 0 2 -5 -6 -2 3 -5 -6 -2 -9 -3 6 4 -4 4 -1 -9 8 -4 1 -2 2 2 8 2 -3 2 6 7 4 -4 -2 -7 0 5 -17 1 9 -5 4 2 -4 8 3 5 8 -10 -7 -7 5 3 -3 0 2 -6 3 1 6 -8 -18 -2 3 -7 5 8 -6 9 9 8 12 0 8 -5 13 -5 -5 8 10 5 3 6 6 5 0 8 2 -2 3 4 2 -1 -2 -1 7 14 14 7 9 2 5 18 7 2 14 7 6 -3 11 4 -3 -9 12 1 5 1 -2 13 7 14 2 9 -3 8 2 12 6 6 8 7 11 7 -5 -8 11 2 -12 2 1 -2 10 5 -3 7 3 4 5 8 -6 -1 -2 -8 -5 3 -8 0 4 8 4 -5 5 3 15 2 -4 -7 -2 -13 -1 5 
5 18 4 -3 -3 3 13 2 16 6 -10 -5 8 1 -9 -3 -1 1 4 -15 3 4 5 0 4 -3 -2 1 1 12 -1 -13 0 -10 5 3 -2 -8 4 -1 -5 -4 -2 -8 0 4 -4 -7 -16 -10 -9 2 -5 -1 14 -7 -3 -1 1 0 -8 -16 4 3 -1 -5 -4 -7 -8 7 4 -3 4 -7 14 4 -9 6 7 3 4 4 15 -4 14 -17 2 2 -5 0 7 -12 -7 3 -1 12 -7 14 2 15 -5 12 5 2 -8 3 3 -5 7 -2 -2 9 -2 7 -12 -3 3 1 -7 -6 10 -16 -6 12 -6 6 17 4 1 16 4 4 4 3 -4 -4 2 -8 9 -10 6 0 -3 3 -12 -3 9 15 -2 -7 17 6 7 21 3 9 8 7 7 3 0 4 9 12 7 16 -1 -6 0 1 -7 3 2 -6 6 -2 3 12 -1 5 6 6 -6 1 3 -7 1 -2 4 0 1 -1 -8 6 -8 7 -1 5 2 -7 -8 8 2 11 8 -4 9 -6 -8 -7 -6 -8 -16 1 -9 8 0 -4 -12 -9 -7 2 -1 -4 1 -10 -6 -10 -19 0 -5 -10 2 -1 -5 -12 -11 -8 -10 -2 0 -2 -1 5 -7 -7 -8 -12 2 -4 2 7 -7 7 -7 -5 12 -4 6 -14 -10 1 -2 -12 -4 2 -1 -4 -3 5 -3 -1 -10 1 -12 -18 11 2 0 -5 -3 -8 -11 -3 -13 -7 -3 -5 -6 1 -9 -3 -13 0 -8 -1 -21 -14 0 -13 11 2 -1 13 6 -6 -10 11 -6 -3 4 4 8 -5 6 1 -15 -1 -11 4 -4 -3 2 5 1 -3 8 13 6 10 9 -6 8 16 8 -1 -1 -3 8 -2 2 -3 1 5 -7 -7 6 3 -1 -1 -2 6 16 -2 -3 -2 -9 9 1 -6 -8 7 -6 -12 -4 -1 7 6 7 -13 7 0 -2 -4 8 10 4 1 3 -5 5 -1 1 6 -8 3 7 -4 3 3 1 12 0 8 1 15 -3 10 -5 -4 5 1 0 14 0 0 -2 4 -3 3 8 -4 -2 3 -3 0 5 0 5 9 -9 -7 6 -4 -1 -1 1 0 -8 -1 -7 1 2 -17 -12 -1 7 -6 -3 -3 -2 -17 -7 -8 -1 4 4 -8 -5 -2 -3 -6 -8 -6 -19 0 -4 -5 1 -15 4 -7 -1 2 1 -3 -4 -4 -2 2 -7 -1 -10 0 3 5 -3 7 2 6 -7 -8 -4 -3 -13 6 1 3 -11 8 0 13 4 7 -7 -1 2 2 0 15 -3 0 7 1 2 2 -1 5 4 -3 10 -11 16 0 0 -1 2 2 -3 4 -6 -16 -2 -7 6 3 0 -8 4 3 4 -5 -3 -8 8 -4 2 -4 -3 6 4 3 5 -5 3 0 8 1 12 12 5 -5 4 6 5 12 -12 17 3 -7 9 10 -3 3 12 13 3 9 4 17 19 8 6 4 6 12 4 16 2 9 7 10 2 -7 9 6 4 -7 9 1 6 6 -4 7 5 21 11 7 10 1 5 -2 -6 21 3 2 7 3 -6 12 -9 11 5 -3 6 -5 -10 2 7 -3 -12 5 4 2 16 -1 -5 4 -6 -1 2 8 3 -13 -1 -1 -12 3 2 7 
3 0 0 -1 1 -3 7 2 1 0 7 -8 3 -12 12 11 -2 -5 -7 3 3 3 -7 9 -5 12 4 7 -5 -5 -1 11 -7 -3 -19 -3 0 -3 -3 0 -5 7 -16 -6 16 -5 -17 3 -2 6 -7 -7 0 5 3 -3 -3 -6 -11 -1 4 -1 5 -3 4 4 -3 6 3 3 1 20 4 6 6 3 8 0 9 1 4 12 3 5 15 10 12 12 11 2 -7 6 11 7 0 5 -2 11 -2 4 6 9 14 11 2 20 1 6 12 12 -2 -1 3 1 -10 11 -6 11 -7 0 -5 8 1 -6 12 10 -8 8 -9 -9 -2 3 10 5 2 3 6 5 4 2 11 8 1 2 -1 8 0 2 10 0 10 4 13 3 14 8 -5 -2 5 19 10 11 -5 -5 6 8 16 3 7 6 -1 4 7 7 4 4 2 3 4 2 8 0 3 -6 7 3 3 0 2 -7 8 -3 4 1 -2 12 1 10 4 2 -3 3 -2 4 -8 7 -8 -10 -3 -1 8 -7 3 -8 -1 -17 -4 -21 -7 8 4 0 -6 -6 1 -10 0 1 0 -10 -4 1 2 -1 -3 -5 2 -10 -1 -2 -6 -1 2 -12 -5 2 -20 -8 -2 -3 -2 -17 1 -7 8 10 -7 0 0 -17 -8 -12 -9 0 -1 -2 -1 -8 4 -3 -14 -7 -4 -3 -11 -8 16 -5 4 4 -4 -5 -6 -15 -10 2 -9 -2 -11 -5 -14 -11 -8 -5 -13 -8 2 -14 7 -10 -12 -8 -8 2 -2 -2 2 -16 0 -3 2 -6 -5 -1 8 -4 7 5 -5 -6 11 -7 5 5 4 14 10 6 12 -5 16 8 1 11 5 -10 15 3 7 8 0 4 6 4 2 8 -9 0 7 -13 5 -10 -6 0 0 4 -2 10 -1 5 -9 -1 4 2 1 -14 6 12 14 3 4 11 -2 6 1 -2 8 0 -3 16 1 -4 6 -2 -8 -2 0 5 -7 -2 2 -1 2 -4 -6 -2 -5 9 3 -2 0 -1 4 1 -6 8 -3 1 -12 2 7 3 8 6 6 -1 -7 10 -3 -5 4 -5 -9 -4 6 -6 3 -7 4 4 -9 -1 -6 -13 2 2 -3 -2 0 -15 2 -1 -8 -7 -1 -3 -5 -4 4 4 -15 -6 7 -4 -3 4 -13 -7 -8 -3 -8 -1 -8 -3 -3 -9 1 -13 -5 -10 2 0 10 2 -6 -1 -8 -4 -2 0 -1 -5 6 -10 -9 -6 -5 -5 -9 -2 -8 0 -4 9 5 7 1 15 10 -2 11 2 -3 4 1 6 0 10 5 9 -4 4 -8 -12 6 -2 -3 -3 -1 3 -5 -4 2 -4 4 8 -12 2 8 7 4 2 3 -1 0 -3 -4 8 6 -9 0 5 7 1 -2 9 3 -2 1 -15 6 -2 -7 -7 -1 -6 14 -2 -2 9 6 3 20 11 9 0 11 4 8 1 9 2 7 -8 9 1 9 13 3 5 12 -15 10 -13 3 10 1 9 3 15 8 19 1 4 8 6 -7 18 -11 10 4 -8 5 -4 2 3 2 7 8 -6 -4 13 -9 -4 5 -2 13 -14 -1 11 -3 -9 -2 8 6 -1 5 -16 12 1 -8 0 -11 -4 -2 -3 -6 -12 -1 -5 
12 7 16 2 4 1 4 -1 -6 -9 -6 2 -2 7 5 6 -8 4 8 1 -5 13 7 2 1 -1 11 3 2 -3 12 -5 4 -3 -11 0 -2 -8 -17 -8 1 -11 8 -2 -14 -6 6 -9 -7 6 -7 -1 4 -5 -8 2 -2 3 -10 -6 -14 -3 0 -6 5 -6 -5 -3 -1 -4 0 -2 -3 15 3 2 0 -4 6 6 -1 11 17 9 -2 12 11 8 -1 -2 9 -9 1 -4 -6 3 7 -2 4 6 15 3 4 2 8 -2 9 19 2 9 5 2 16 -4 5 -5 2 3 0 7 1 4 1 11 0 1 -3 4 8 -1 14 8 -2 -8 6 -7 8 2 -1 -8 0 -1 -3 -5 -8 8 -12 16 0 12 11 13 5 5 9 -2 9 9 1 -9 1 -2 0 11 3 7 -7 3 -6 -9 1 -9 15 7 -5 10 6 -5 3 18 -4 13 -3 7 0 0 3 6 -2 2 6 -3 -14 4 13 -7 1 -6 15 -2 3 5 3 11 -2 7 4 -8 -6 2 -8 -5 3 -8 1 -2 -7 3 -2 -6 -12 -2 0 4 -10 -15 0 -3 2 1 -7 -1 -5 -1 -25 0 -9 -9 5 -10 -5 -9 -8 -3 -4 -5 -10 3 8 -5 3 0 3 -6 6 1 2 5 4 -8 -7 -2 -6 -4 -1 -7 9 3 -1 -2 -13 2 4 -1 6 1 -15 -3 -16 -10 -3 -3 1 -13 3 -7 -6 -9 -4 -2 1 -18 -3 -13 -24 -14 -2 -17 -3 -2 -6 -3 17 -5 1 -10 -3 3 4 4 1 -6 0 -2 2 10 -4 -3 -1 -1 -8 -1 6 14 4 5 1 9 3 2 4 6 -3 -3 -4 9 -7 -6 0 -3 10 4 -1 -3 1 -4 7 -3 1 16 -1 5 0 -9 -3 1 -3 2 7 -3 0 7 1 -3 -7 8 -1 4 -1 4 9 5 6 0 1 7 1 -6 2 8 14 1 6 -10 6 7 15 -6 -7 -1 3 -3 0 7 -10 -4 15 -4 -7 3 1 -3 -3 3 -5 2 6 3 -4 -9 6 -15 11 -1 3 6 -2 10 -2 2 12 1 7 7 18 1 5 2 4 -9 0 0 -8 -3 4 -1 2 -9 0 -2 1 -10 6 7 -14 2 4 1 -6 -4 1 -7 -6 -8 -6 -12 4 -14 -20 7 -23 -8 -8 -14 -7 0 -13 10 -12 -1 -4 5 -4 -2 6 -4 1 -5 5 1 21 -8 3 1 0 5 4 6 4 -6 1 -6 -2 -2 9 -3 0 14 -2 10 7 4 10 -4 0 -5 13 1 6 3 -11 4 -6 0 -3 6 4 2 -2 -1 -9 -1 7 -1 -6 3 4 -10 2 3 -1 2 3 0 12 3 6 2 -3 2 -16 -3 -8 0 -3 -1 3 -8 4 7 1 -1 7 -3 7 -3 9 7 2 6 8 18 2 15 9 12 9 12 9 6 14 15 13 5 6 6 8 9 6 -6 13 12 3 13 7 7 6 -4 8 11 2 3 6 22 4 14 18 -2 10 1 6 11 2 1 0 10 -7 1 1 2 3 4 6 6 3 -4 -1 -2 -9 -2 -3 -1 11 -1 -9 -10 0 0 5 3 2 -8 -3 -10 -9 1 5 -7 2 -1 
-1 -5 0 23 -11 13 -1 -3 3 -7 -4 -3 -7 9 1 12 -5 1 -1 -7 8 1 -1 8 4 6 -5 2 -1 -1 5 -23 6 -9 -1 -11 -20 -10 13 -9 -5 -7 -9 -7 -3 -5 -4 -11 -9 -3 9 0 2 -4 5 5 -3 -6 0 2 -13 -5 5 -7 7 10 3 3 2 1 5 -9 -4 10 2 -2 10 -3 -2 2 1 8 5 9 4 2 4 13 6 11 12 14 5 7 1 6 6 11 4 3 4 1 7 11 3 5 1 -2 17 -3 11 13 -13 6 6 12 -1 -9 -7 7 -1 4 11 -13 10 2 8 2 3 -7 10 -7 3 8 -1 12 5 5 6 4 -4 -8 2 7 6 6 3 8 -3 2 8 3 11 6 7 4 0 15 -10 4 1 5 -5 -6 0 3 -1 1 0 5 -6 2 2 0 6 10 12 -2 -4 -1 14 2 -7 5 9 6 8 -16 3 8 -5 2 -1 12 -3 -1 1 -10 20 -10 7 -12 1 -3 4 -4 13 -12 -3 1 -1 -6 -10 1 -10 -6 -2 -3 -5 -5 -6 -5 -15 -2 -6 -3 -7 -3 -4 1 -2 4 4 -3 8 -1 3 0 -2 0 -3 0 -14 -12 -13 1 -1 2 -6 7 7 7 -5 8 -4 -10 3 -6 -8 -5 -2 -9 -7 1 -12 -13 -12 -2 0 -2 -3 -8 -5 -8 -5 0 -5 2 7 -2 9 -13 3 -7 -17 -10 3 -14 0 -8 -7 -9 4 -7 1 -10 2 1 -1 8 -3 0 -4 -1 0 9 2 1 -15 13 4 -1 -2 18 3 4 1 -2 -6 3 12 8 6 -8 5 -2 9 3 3 12 7 0 -12 3 -5 13 -4 4 0 3 -3 -7 0 -2 8 -14 -4 0 6 0 18 -1 15 -3 -2 -2 -4 4 0 2 3 -3 -7 5 5 0 -11 -2 -1 4 -7 12 -2 -2 5 0 -1 9 5 14 -1 -9 -12 5 3 -4 3 -9 20 -8 0 -8 2 -9 6 10 5 10 7 4 -9 3 -2 2 -15 4 -10 3 -4 -7 8 -3 11 1 14 7 0 -13 1 8 4 9 6 -5 13 -12 2 -2 6 8 4 3 -4 5 -23 -9 -13 -4 -7 12 -1 -10 -3 3 0 -12 -3 -7 -4 -12 2 -9 -9 -9 -7 -7 -8 1 -7 3 -7 5 -20 -3 -13 -10 -5 -7 0 -8 9 6 0 -1 5 -5 0 -2 -6 -8 6 -6 -3 -3 8 -11 -1 4 2 1 -4 0 6 4 -8 1 7 -2 3 1 11 -3 4 0 4 5 -2 -2 -12 -8 11 -6 4 -3 5 -1 3 3 -2 -11 9 4 7 6 2 -5 4 2 4 5 0 -2 -1 3 -6 0 -4 -5 -4 -5 13 -7 -2 5 2 13 9 8 4 -8 -1 9 1 0 5 -1 7 1 -12 9 10 14 1 10 4 0 15 -1 -7 -1 9 2 0 7 1 4 -4 0 14 14 11 17 9 15 9 17 -4 3 -2 -1 5 15 -12 8 8 8 3 12 0 0 10 3 -6 -8 2 2 11 -1 7 -7 8 2 1 -5 2 7 -5 2 5 -3 -7 8 12 -4 -4 0 0 6 -4 6 7 -2 -15 8 -5 6 6 -1 -8 7 
-3 8 8 0 6 -12 1 -9 10 -1 8 -13 13 7 -5 5 7 -15 5 8 7 9 2 5 -1 -1 5 15 -2 -3 -8 6 0 -13 4 -11 -9 0 -6 -5 -3 -8 3 -10 -12 -3 -2 -5 9 1 1 6 -6 -2 -2 -9 -8 5 -2 9 -15 -9 -6 -2 -12 6 -5 -1 6 -10 4 -10 15 -5 1 6 5 2 -3 -3 -6 3 10 4 7 4 -6 0 4 -6 8 9 2 11 10 11 15 16 6 6 -1 12 14 6 8 6 6 -2 4 -5 -10 6 -3 0 4 -8 -7 9 8 -4 11 6 9 20 7 -14 -3 8 -7 2 -8 3 13 8 2 2 -4 4 -7 1 -2 3 8 -4 -6 12 10 -4 4 3 13 6 -1 9 -1 8 5 -13 11 4 6 -3 10 0 8 -12 12 2 0 1 6 0 3 2 0 -2 7 -1 -7 13 1 2 12 0 14 -5 7 3 3 -7 9 -8 6 -10 -4 1 11 -1 -5 -8 1 0 1 -9 -18 3 -1 -3 11 -1 -3 -9 3 -2 -5 -4 -4 5 2 -8 -15 7 -10 1 -16 -10 -1 3 -5 -6 -15 -12 -3 -1 -2 -20 -20 0 0 -13 -11 -14 -6 -7 -10 -1 2 5 -6 5 4 -4 3 -3 5 8 -5 0 -5 -14 -4 -6 6 -2 9 -1 4 -6 1 -1 -16 8 2 7 -8 -3 1 -2 4 -10 -7 -10 -6 6 -6 -6 -17 2 -12 -10 -1 -13 -13 3 -5 0 -7 -3 0 -6 4 -10 -5 9 -1 -7 3 -9 0 -8 -12 -5 0 5 2 6 3 6 0 -4 1 -1 11 0 4 13 -1 1 11 -2 -4 -2 6 2 -2 -1 12 5 -1 4 1 -1 2 2 -6 5 10 7 24 1 3 0 -2 2 4 9 4 10 -10 11 -4 -2 0 -3 -4 0 1 -7 3 10 -2 -5 5 2 10 -1 -3 0 -1 5 7 16 -1 -3 -6 -17 -4 9 -7 -4 -2 -1 -1 -10 2 -4 -2 5 -9 -3 4 1 -11 -7 2 0 0 3 -3 -2 0 -5 -8 5 -11 5 0 0 0 11 -11 -11 -5 11 -3 -4 -1 -11 -5 9 0 -10 -1 -7 -5 -4 -14 -5 3 -21 -2 -13 -1 -6 -1 6 -10 -7 -10 -8 -3 2 -12 -17 -6 -4 2 -20 -2 -7 -5 -3 -15 1 4 -11 -5 -16 -11 -4 -15 2 -5 -5 -8 -15 1 -8 -6 -5 -9 -3 -9 7 -8 7 -1 -2 12 -5 14 -5 -6 3 -1 1 4 1 2 2 4 7 -9 -8 -5 -6 4 -6 6 -1 5 -3 5 0 11 4 11 -6 -1 1 12 -5 5 -1 6 2 8 4 -5 -7 8 -2 8 4 -4 6 6 5 -4 16 -6 -3 6 4 -7 4 6 6 14 -1 1 -1 0 1 6 5 0 9 8 -1 7 -2 2 6 6 0 8 17 -5 6 1 8 16 10 17 11 6 10 9 10 0 1 13 -6 -5 4 8 9 11 15 0 7 -3 10 16 -10 26 10 13 10 -1 2 15 0 7 -3 -5 -2 -4 -2 1 9 3 -6 7 3 6 -7 17 12 10 -7 9 16 -9 6 -10 4 7 1 -3 -7 8 5 6 -12 6 6 3 -3 
-4 7 -7 1 -4 13 -2 -6 -7 0 1 -5 -6 -10 13 -10 5 4 3 5 -1 -10 13 7 -8 0 4 -10 2 4 -5 -1 -14 -7 -11 -10 6 -2 -1 -5 -14 -2 -10 -4 -4 -4 0 1 -6 5 5 -7 0 -3 1 -11 -6 -8 -8 -4 7 -3 17 -2 1 1 -9 -2 9 7 7 4 3 4 0 7 -3 9 -5 -3 8 -5 7 2 7 0 11 -2 4 0 2 5 -2 4 7 8 4 13 8 9 18 -3 3 9 5 15 19 4 13 4 4 0 16 15 -3 14 4 9 1 1 0 -5 6 -2 1 5 1 -1 4 10 17 -14 1 0 -1 9 10 5 -2 -14 -3 -9 -10 11 2 -1 3 -8 2 13 -4 12 2 2 9 12 -3 -1 -11 -9 4 -9 3 -4 -4 0 -1 -2 1 10 10 -1 11 0 11 11 3 6 -2 -3 13 3 6 4 0 10 11 0 7 -1 -10 7 4 5 -5 -5 -12 5 2 7 6 0 -11 -2 -18 -10 5 -3 -10 7 -1 6 -17 -11 4 2 5 -17 -11 2 -12 -11 -6 4 -6 -11 -3 -12 0 3 1 -15 4 -14 7 11 -3 0 -16 0 -2 -7 -6 -5 -11 -5 -2 -1 9 6 1 2 5 7 -2 -4 0 -7 3 3 1 -4 -9 0 -2 -7 0 -4 -10 -4 -2 -6 -16 -4 1 -9 5 -5 -7 -4 2 2 0 -3 12 -8 -1 -4 -8 1 10 2 4 -11 -4 -15 -1 5 -4 6 -8 -5 -1 0 -5 2 -8 -2 -3 6 4 3 -5 2 10 1 0 1 13 -7 -7 -4 -8 4 -3 -12 15 -1 16 9 4 -7 8 4 14 -9 -2 4 -3 0 -2 -3 -3 -3 -4 7 7 1 -5 5 21 3 11 5 3 1 -3 3 3 4 17 -2 4 4 1 8 -18 -4 -3 -10 -8 -1 9 -9 1 16 6 8 -1 -8 3 7 -8 -1 -10 -1 -6 -10 -2 3 0 8 -12 1 5 1 0 -11 11 12 -2 7 -1 -7 -8 -6 -9 3 -4 3 0 -5 -8 4 4 3 -1 7 -20 -2 7 8 6 -4 -5 -6 -1 1 0 1 6 -5 10 -2 -8 -12 -9 -14 -8 -5 -8 -8 -13 -2 -8 -1 -9 2 -10 4 -21 0 -17 -6 -2 -12 8 3 -1 -1 -11 -13 3 -12 -8 -10 -2 -6 -10 1 -13 8 3 -7 -1 -6 -4 -9 3 5 10 -6 21 -7 12 -7 -1 0 6 -4 7 -1 4 9 2 1 17 6 -3 7 4 19 7 -1 10 -7 10 -12 1 -7 0 -5 -5 15 6 2 5 1 9 -13 3 -2 4 7 1 4 9 -5 -7 2 5 12 -2 0 -1 1 -9 -6 -8 -10 13 7 5 3 2 3 5 -2 5 1 11 -7 -1 2 20 9 6 12 6 3 2 1 5 1 7 -3 10 11 -5 8 -11 15 -2 -4 11 18 7 8 1 2 5 11 7 11 7 -6 11 1 15 3 12 0 3 -4 8 6 9 11 3 6 6 14 3 2 -2 0 -3 16 4 -4 4 -5 5 21 1 6 1 -9 0 1 -1 -5 -12 -5 3 7 4 -8 -2 3 -5 6 -12 0 -10 12 0 6 -4 9 
9 6 -2 7 -8 -2 -2 4 2 6 10 5 8 2 4 -2 3 -1 -1 -4 5 0 3 8 15 -14 1 -13 -5 3 2 7 -7 9 2 -9 -9 -7 1 8 -8 -9 -5 -5 -3 4 -2 0 -5 6 7 -5 9 -5 -5 -10 -5 2 2 -5 -3 0 4 -2 2 -7 3 -12 0 -6 3 5 -1 4 4 11 8 -7 3 0 3 8 9 5 14 13 0 13 -4 -1 13 -4 6 9 -2 -2 2 21 7 19 -1 12 25 3 11 14 12 9 2 12 -6 5 9 -4 9 1 6 4 6 6 7 -7 -5 11 5 5 -1 8 10 6 0 -7 10 4 8 10 1 -4 -2 3 -11 8 1 -5 0 -4 -3 -1 -1 -1 -5 9 5 2 6 7 0 -2 13 -7 -1 5 -7 -4 -6 4 9 -9 2 -9 -4 25 0 11 0 -1 1 0 2 3 -7 -2 14 7 -3 1 9 6 2 10 0 7 -2 -5 2 -8 -1 5 19 -1 -1 7 -4 -9 7 -3 -1 2 -6 6 -13 -3 -8 -2 0 -4 4 0 -3 -4 3 9 -13 -12 -2 -9 -4 7 2 6 -2 5 -15 -6 4 -6 -3 -1 7 3 -3 -12 -9 -23 -1 5 -9 -5 2 1 -1 1 5 -10 1 2 -2 3 3 1 -3 7 3 -6 -4 -7 0 2 0 1 8 3 6 2 0 6 3 0 -1 -8 7 1 -9 -2 4 -12 -8 3 -6 3 -18 -10 3 -6 -9 -6 3 -11 9 -6 -5 5 -10 7 0 -5 -9 6 -2 2 -4 11 3 5 -6 11 -14 12 -2 5 1 1 -9 -11 5 -8 5 13 -6 6 -8 -1 -3 2 -2 -1 10 9 -1 -1 3 -1 7 -4 5 -7 8 5 4 3 -15 2 9 -1 13 0 7 -3 9 -2 -13 8 5 -11 -10 4 -5 -10 -5 4 3 0 0 5 -2 -9 -7 19 1 -1 7 2 0 -1 -8 -3 -17 -5 -6 -7 13 -9 -1 9 -13 0 -7 -2 2 -10 -5 -8 7 -11 -4 -4 -5 -8 7 -4 -1 2 0 3 -7 3 12 -5 1 10 -10 10 7 5 1 -2 2 8 -2 -3 -5 -7 0 -2 1 13 0 -13 -8 -5 -12 0 -4 -9 -7 1 -11 -12 5 -12 -13 -10 -10 1 -9 -1 -9 -22 -7 2 -19 4 -18 -6 -11 -12 -5 -5 -12 -5 1 -7 -9 -3 1 -18 1 2 -12 -3 6 5 5 3 3 0 2 -4 5 -6 -1 5 1 6 10 3 2 10 10 -2 -6 7 -1 -1 8 -9 0 5 6 4 -5 8 4 -10 -5 8 15 1 10 7 3 3 4 -3 2 3 1 -1 -3 8 9 3 6 8 9 1 1 -6 2 15 3 0 4 8 -1 -2 10 3 -2 8 -3 -3 -8 13 -3 1 14 -2 0 -7 16 -2 8 2 6 1 10 -2 12 -3 15 -6 16 9 2 8 14 4 -1 11 15 3 9 3 7 15 10 3 7 3 7 3 8 7 5 0 5 2 -6 14 10 -1 10 4 6 -9 4 -10 5 1 -6 -9 4 0 3 3 8 -7 10 6 5 -16 0 2 6 -3 -3 -3 -7 -16 -7 3 5 6 -2 6 -19 19 9 -1 
-3 5 8 -4 2 1 2 -2 -2 12 2 -7 0 5 -3 12 0 5 9 3 -1 2 -3 12 11 2 -13 -5 -10 4 2 -3 8 2 3 4 13 -1 1 -3 -1 -6 3 -17 3 2 5 1 4 -3 7 5 -10 7 13 4 2 -11 -5 10 13 -3 4 -2 4 3 3 -13 -10 -1 7 -13 10 7 0 -8 6 1 7 12 9 -2 9 4 11 5 -5 8 4 1 2 1 8 -4 4 -2 15 -1 6 0 7 9 0 2 14 -2 2 22 2 5 20 3 11 7 -9 5 1 9 -12 11 -3 1 1 -1 2 12 1 -5 0 8 9 -1 -9 -6 -3 -2 5 0 -1 -8 -2 -11 -7 -4 -10 4 -4 5 -2 2 7 -6 -2 -4 5 4 3 -1 -12 4 -8 5 -6 -2 -3 -5 -10 1 3 7 2 0 8 -7 1 14 -7 6 1 -4 -2 -2 8 1 6 6 4 -4 -1 -2 2 -2 3 7 -3 -6 -5 9 3 -10 4 -7 2 -8 -9 -4 -6 -7 3 -7 -7 -5 7 -1 -11 -6 -8 -1 0 -9 0 -15 -4 -16 -15 -12 -9 -9 -2 -2 -5 -6 -15 -13 -21 4 -11 -5 -10 0 -9 -17 -12 -3 -14 2 -10 -5 -2 2 -2 -2 -3 5 -7 10 -3 0 2 -6 3 -9 -10 5 3 -1 -2 3 5 -9 2 -11 2 -9 -11 3 9 -10 -3 0 -1 -2 -3 -8 -7 -3 4 -9 -8 -2 -7 1 -6 3 -2 1 -2 -6 4 -2 14 -2 -10 0 0 17 -12 0 5 -2 2 3 -2 0 10 2 5 0 -1 4 -5 -5 9 17 1 -2 8 8 3 3 -5 -4 2 6 -6 17 0 1 10 -6 10 4 7 3 -7 13 -5 -1 4 -4 6 13 0 10 -3 -2 0 6 -3 13 6 -4 -7 -7 6 -7 8 -12 0 -4 -2 3 -3 -1 6 6 -11 4 -3 5 -14 0 6 4 -1 -4 2 -5 -5 -17 2 9 -8 1 -3 -2 -10 0 -5 -3 -3 -4 -8 2 1 3 -6 15 -6 -3 1 3 3 -4 16 5 -6 2 -7 9 11 -4 5 -12 2 9 -11 -13 -9 16 1 -1 3 -11 -1 -2 -13 -7 6 1 -4 -5 -5 -2 -18 -2 -11 1 -6 -6 -9 -4 -12 -6 -19 -3 2 -3 -8 -12 -8 3 -9 -6 -2 -22 -2 -8 -7 1 -13 -2 -4 -1 0 -1 -12 -10 10 -9 1 9 8 -8 3 0 4 -3 -8 5 -14 -3 -7 0 -6 12 7 -2 8 8 14 3 -4 0 -9 8 -8 10 -3 -3 11 0 7 8 10 2 8 8 5 -8 0 5 8 0 -2 13 3 -3 6 8 20 -2 8 5 7 4 0 20 17 9 12 3 -10 5 -6 2 5 6 5 2 7 8 4 2 6 12 -8 14 11 9 -7 11 -8 14 2 6 4 11 -1 -3 17 8 17 10 -7 16 -10 -1 2 -4 10 17 6 15 3 16 -2 -4 9 -6 6 5 5 21 13 4 9 -8 14 -1 9 9 12 -9 12 7 0 -17 10 -5 -1 3 -3 -4 -2 3 -10 4 5 3 6 4 10 -4 0 1 8 0 1 5 12 -11 1 -9 7 -4 11 1 -1 10 
4 -1 -1 4 1 -5 -2 8 6 10 -4 16 -5 3 17 -2 7 -4 -5 8 -18 3 -7 12 -8 11 0 6 7 0 10 5 -10 13 -1 9 -9 0 -1 11 2 -3 -6 7 -10 -3 -3 0 -3 -13 -10 -2 -9 3 16 -2 11 0 1 6 4 -6 8 -3 2 9 0 3 0 -11 -9 7 0 -3 9 5 1 -3 10 -5 3 3 1 4 13 -10 2 5 -3 9 0 1 0 -14 13 2 11 -3 20 12 12 9 10 13 8 4 3 5 18 20 8 16 12 4 1 0 -5 -3 -7 -11 10 4 -4 6 5 9 16 0 1 -3 4 3 18 9 6 7 -5 7 -5 6 10 -12 2 -10 4 1 6 8 -1 3 3 -3 -12 7 5 -10 12 4 0 -1 -9 -1 13 3 1 -8 10 -1 1 -4 -10 8 0 9 7 -5 -11 1 4 4 -14 -6 0 1 21 8 -3 1 -12 -2 2 -8 -7 -8 0 12 5 -6 -2 6 -10 1 -5 7 5 -21 -6 4 1 -6 -7 8 -12 -9 -11 -10 -6 -2 -9 -2 -8 -9 -10 -2 -11 -3 -4 2 -9 1 1 1 -6 1 -2 1 -10 4 7 -8 -13 -1 3 2 -2 -13 -6 0 3 -3 2 7 -4 9 -2 -2 -3 -1 -9 -1 -5 -6 10 -9 -17 5 3 -4 -4 6 -9 4 -4 12 -3 -5 9 -8 -2 -3 0 7 -9 -7 -2 -4 -14 -1 -3 -3 -3 -7 0 2 -7 -4 3 3 11 -16 -10 -3 8 19 0 1 1 5 0 2 -10 2 -8 -4 -4 2 2 15 10 1 -6 1 -3 -4 3 17 -5 1 -6 8 2 -2 3 7 6 -8 5 2 5 3 0 1 5 -3 -1 6 10 2 0 3 15 4 4 5 -11 1 3 -2 4 9 -1 12 12 -6 12 0 -1 -8 -1 -8 4 -7 9 -1 0 -9 -4 -7 -4 8 1 -2 -1 -9 -6 -6 -13 1 2 -4 -12 -4 -9 0 -9 4 -2 -4 6 14 -6 1 0 6 5 -2 -2 -11 0 -13 -3 -14 3 -1 -7 -7 -8 3 10 -10 6 1 2 6 1 -4 -5 9 5 6 0 -5 9 -2 -3 0 -6 3 -7 -4 -8 -14 1 -9 -3 -7 -13 -3 -6 0 -5 -9 -6 0 -16 -6 -6 1 -21 -7 -2 -15 -3 -7 -7 -5 -5 -2 -8 13 -11 0 -1 -14 3 -2 -4 -3 0 2 -3 -9 -10 15 0 3 -3 1 1 -3 21 6 0 8 20 11 5 14 6 -6 13 10 13 -2 9 3 6 1 -4 -3 -8 4 -1 10 -3 -2 0 0 1 5 18 -5 15 -7 9 -4 2 6 -8 -4 -8 9 10 6 2 15 14 8 -13 -6 2 9 -6 1 8 -18 -6 9 6 2 5 6 2 10 -10 1 -4 -7 5 -10 -1 -9 2 5 3 11 6 4 7 10 1 2 10 -5 6 1 -4 1 -3 3 17 5 -3 8 -3 20 4 8 -1 8 10 10 11 4 7 0 11 1 6 -6 7 12 -6 9 -8 14 0 5 -9 -10 2 3 3 0 -4 3 10 -15 -14 3 -11 3 0 -4 14 4 2 -8 -9 -8 -17 6 -6 -11 4 0 2 3 6 3 
3 5 6 9 -1 -13 8 7 6 2 2 5 4 2 1 -3 8 7 -1 -4 7 -13 4 -2 0 -6 1 8 8 -13 -4 7 2 9 -1 -7 1 6 -3 -17 -1 0 -8 -10 1 -5 -1 0 4 3 -1 9 7 8 -6 6 1 9 6 -22 5 6 -11 10 -10 3 -4 1 -6 11 -13 -5 -4 -4 0 -6 -5 11 10 -3 7 -3 8 -4 2 10 -11 4 0 18 6 8 1 7 -4 -1 4 11 9 12 4 -1 10 1 -3 18 0 3 -1 2 4 5 -4 -6 5 14 13 5 12 10 1 5 4 7 9 3 6 -1 7 -3 14 3 5 9 11 3 9 -4 11 2 -5 0 3 -2 -4 5 -14 10 5 3 12 3 4 -6 -2 -6 -1 9 -21 -1 -4 -9 -7 -4 -5 -3 3 -11 2 5 -2 0 1 0 -1 -3 -4 -10 -3 9 -4 -7 0 -2 -1 8 8 6 -4 5 -6 -2 -1 -8 -3 4 -4 6 1 -1 2 -8 2 -2 9 2 4 -13 6 -1 3 -5 -4 -6 -9 -7 3 -7 -18 5 -10 -9 -15 -12 -4 -19 -17 5 -8 7 2 -7 -4 -12 -6 -7 2 3 -15 -10 -9 -9 -2 -9 2 -6 6 6 -7 -13 -10 -7 -3 -12 14 -4 -11 5 6 4 6 2 -9 -4 4 -12 2 9 0 -7 -11 -5 2 7 8 -19 7 4 1 0 1 11 1 -6 -10 -3 -1 -24 0 11 -16 4 -4 -3 8 4 0 0 7 2 -4 4 -4 0 -5 -7 -1 11 2 5 -3 -14 -3 2 -3 0 -4 -5 6 6 18 15 -7 4 5 -19 0 9 4 0 0 9 9 -1 -2 2 8 -11 2 2 2 2 16 0 15 -13 4 -3 18 13 4 4 -4 -1 7 0 -3 8 -10 -7 -9 -25 -10 -3 -4 -2 7 -6 1 0 -1 -9 -11 -1 -9 -2 -5 3 -1 -11 1 4 -12 0 -14 -1 -12 -2 -13 4 -4 1 2 -4 -11 5 -3 7 -4 -7 2 -8 -8 4 3 4 -4 12 -4 -4 0 8 9 -8 5 -6 2 3 -1 15 -2 -6 1 -5 -16 10 4 9 -14 9 -9 12 -15 -3 8 5 -4 -6 4 3 -8 -6 -11 1 -4 -7 -4 0 -6 -17 -7 -7 2 -18 -17 -8 -19 -10 -6 6 -8 -3 -3 -4 -3 -4 -16 -11 -9 -7 -19 10 4 -5 -6 1 -5 -2 1 4 -4 0 -3 -4 0 5 -3 0 -11 2 -11 -7 5 -11 8 -1 0 -8 0 1 -1 -3 -14 -4 11 5 -2 -3 -1 5 2 3 5 14 1 2 9 13 5 -5 -4 4 10 13 10 13 6 21 -4 12 9 -3 9 7 -8 11 -2 2 4 1 10 3 5 8 2 17 4 15 10 1 5 17 -5 5 3 3 -1 -11 6 -2 11 5 -2 17 0 1 10 12 11 18 4 9 0 9 2 12 11 3 12 2 1 5 8 12 12 1 9 7 1 8 6 2 6 16 -4 21 0 11 8 7 10 3 9 1 2 9 -1 8 -11 -15 -4 -7 -8 14 -11 7 -7 -7 1 -2 4 -1 3 -3 3 -2 7 -3 -6 4 1 -8 1 -10 5 -9 -2 12 -4 3 
-8 9 8 -14 0 2 4 4 -6 5 1 2 5 -6 4 2 0 13 3 -3 13 1 -3 -4 6 3 6 1 -2 2 1 -1 12 6 -9 0 0 -13 10 -12 3 -9 4 5 -3 -11 2 -6 -5 10 0 -4 9 -5 -8 10 2 1 9 7 -1 2 -3 1 1 -8 -2 0 -2 -4 -3 4 5 6 -3 7 3 -2 8 3 4 9 7 -14 7 12 6 -4 -10 -6 6 3 4 8 -7 4 13 0 -5 8 1 7 5 14 13 15 4 14 -1 5 4 0 -5 9 -5 -11 -3 13 5 5 0 -12 7 12 -1 15 8 1 10 4 8 2 5 -1 0 -10 -9 -1 -12 7 -3 5 -6 -5 0 -4 3 3 -2 3 -3 -6 4 4 8 -13 2 9 -1 -4 3 -13 -2 1 -5 -6 -7 -1 4 1 15 -10 0 0 5 0 2 0 3 -10 -2 6 -1 -2 2 2 -1 1 -6 8 6 -11 3 9 -6 6 4 -3 -6 6 -8 9 -8 4 7 1 -3 1 3 -3 1 -7 -9 6 -6 12 -14 -10 10 -17 1 0 -9 -7 -5 4 0 -9 -4 -11 -10 -8 10 -1 -10 -5 1 -9 2 -8 3 -2 1 -7 3 10 1 -1 0 -1 16 8 8 8 -4 -2 7 8 1 -6 -4 -5 2 -8 4 -5 -5 -4 -1 -6 -9 5 7 -19 -2 -2 3 -8 0 9 -2 -14 1 -7 5 -3 -3 5 -5 -5 3 7 5 7 1 -3 -7 5 -4 -7 -6 -8 -1 6 6 -1 -5 15 -1 -10 -7 -8 -5 -14 0 -3 6 -6 10 -3 2 1 8 3 5 0 7 -10 1 6 2 1 2 6 -4 -10 11 6 9 1 -3 -6 6 -1 4 6 1 5 1 12 11 0 7 5 -4 4 -7 -3 16 -7 8 -3 15 -4 -6 5 -14 1 -10 -2 -3 7 1 -3 2 3 -4 -1 -10 3 2 -15 3 1 -2 -6 -4 5 1 -16 0 1 -11 2 4 -7 -8 8 -8 -3 2 -2 -12 10 -9 -5 2 -9 -10 -12 -3 -9 -5 -12 1 -4 -3 -2 -11 1 3 -3 -5 -3 1 1 1 -3 -1 5 8 -4 6 -1 -5 -7 -7 -5 -7 -9 -3 -6 -4 3 -6 -9 -3 -7 -10 -4 -6 -9 5 -6 2 -4 -8 -8 -1 -4 -7 -16 -13 -4 -8 -8 7 -4 -8 -8 13 -3 2 5 11 -3 -7 0 -4 -5 -7 6 5 -3 -7 -7 -1 -3 -6 3 2 0 9 -3 -3 6 6 5 10 -1 -3 0 12 3 -4 5 -7 -1 5 -2 5 -13 15 -3 11 1 9 0 -2 4 -1 9 11 7 11 6 -4 -1 2 9 -4 5 2 12 1 -2 3 -9 0 -2 -4 0 8 5 3 6 12 2 2 -4 -8 -2 4 0 0 4 -3 15 -6 2 13 5 5 -3 11 6 3 9 11 12 5 8 2 -5 -7 -6 3 2 12 15 9 14 5 -3 10 3 10 7 8 -2 9 -1 8 -1 18 2 -4 0 -4 8 5 4 -4 9 10 1 -5 0 -4 6 -5 4 8 2 -9 4 3 11 0 3 -8 2 16 0 6 2 -5 1 -14 13 -7 1 -1 -4 -12 0 8 -11 -3 -7 
11 -12 14 10 -4 -5 7 -5 8 -17 14 -3 3 -4 10 4 -9 8 9 -1 -2 -2 -5 -9 4 4 2 2 3 9 5 11 -6 -2 6 -8 -4 5 -10 10 10 0 3 1 8 2 -9 7 11 -2 1 14 -14 -1 -1 0 -1 1 4 -3 0 12 5 -2 -4 14 -12 10 -5 5 -2 8 4 -3 2 -4 6 -8 -4 13 12 4 -1 -2 1 1 -1 8 -5 -6 -6 2 5 -3 -4 2 0 6 8 7 7 2 0 13 7 9 3 8 10 2 11 -8 6 16 15 -2 18 5 12 1 12 -1 -6 0 -6 3 20 9 -3 6 8 -6 4 -5 13 -3 6 3 2 4 5 -4 1 6 -14 3 -3 -1 5 -1 14 0 8 -7 -1 -8 -9 5 -2 -4 7 -10 -7 0 -3 -3 3 -6 -4 -8 9 4 16 -2 6 2 -3 9 -7 -6 4 11 -2 3 11 10 -9 5 -5 -10 2 1 1 -5 -2 0 3 -4 4 6 -5 4 6 0 3 8 -7 7 3 -15 6 -7 -2 -4 -7 -13 -7 -4 -4 -5 -3 -8 -3 -4 -1 -12 -4 2 -12 -2 6 -9 -11 1 -1 2 -6 -8 8 -8 9 -5 -3 2 -4 -4 -6 7 0 6 -4 1 -2 -4 -9 2 -2 -6 -1 -8 -7 -5 -6 6 -13 8 2 -3 10 -1 6 11 6 -4 13 7 1 -2 11 1 2 -4 0 2 -8 -13 -4 -8 4 -5 -7 -2 -6 -10 2 5 7 -8 2 11 7 5 12 -5 -2 4 -7 8 -7 -9 3 1 6 -7 14 -2 -1 9 -4 0 8 -2 -15 -1 12 -1 -5 -5 9 9 -2 7 -3 11 2 -5 2 -1 4 2 -6 2 -11 12 -7 4 6 -4 15 3 3 8 1 1 -1 -3 4 -1 -5 8 -15 -3 9 1 8 14 -3 -4 -2 -8 1 2 -19 -13 2 -3 1 -12 -2 1 -4 2 0 -6 0 -3 -11 -12 -15 -6 -2 2 -6 -14 2 1 3 -5 3 1 -8 -2 -1 4 -7 0 1 -8 -19 -1 -12 4 -5 5 -9 8 7 3 -1 -7 1 -2 -14 -4 -4 -10 -5 0 12 -13 -6 0 10 0 -14 6 -11 -4 2 -10 -1 4 -1 -2 -1 -9 -8 -10 -2 -12 -6 -6 5 -12 -20 5 -4 -3 -8 9 -3 1 -3 -12 -10 0 -6 0 -5 0 -15 6 -3 -12 -6 8 9 -6 -5 -7 -6 3 -6 -2 -1 -1 -4 -14 6 9 -9 0 0 3 5 6 6 8 0 11 3 4 11 -6 0 -1 7 -10 2 -1 -6 -5 3 2 4 11 -3 6 6 13 8 6 2 7 3 15 9 14 2 13 11 14 0 6 5 3 3 4 2 6 8 11 -13 12 5 15 3 16 8 7 6 0 -12 -4 10 2 -1 -3 4 -5 5 8 0 1 -7 15 -6 9 4 5 5 4 9 11 9 6 0 10 -5 20 -3 0 -1 4 2 10 1 8 7 8 1 -5 10 8 3 2 -4 18 16 2 6 -5 12 -6 -10 -3 10 -3 0 0 2 12 -12 -4 -1 -4 -5 2 5 -1 -5 12 -10 1 -7 0 -2 -7 10 -7 -8 11 -7 -4 -4 -2 -5 -2 -1 -2 
4 6 12 -4 -5 9 -1 12 2 6 9 -7 -1 11 2 -2 -7 -1 1 -6 4 1 10 -10 6 6 3 5 0 -9 1 -4 8 -6 0 5 -4 0 1 -11 -7 4 -1 -3 2 2 5 4 -12 5 0 6 -7 8 4 -4 7 -1 -4 5 8 -19 13 -1 -10 1 -6 0 -9 -1 -7 8 12 -11 1 -1 -1 -1 4 -2 1 -5 1 -4 8 2 5 -6 3 -7 -2 0 -7 1 -1 2 15 -3 4 7 12 7 9 8 22 6 11 9 5 1 15 14 10 1 5 8 11 16 6 -1 5 22 -5 14 0 1 6 7 -2 14 1 3 2 8 -5 -2 9 2 3 1 -11 -3 8 -7 3 -2 7 0 7 -2 -5 -4 -7 4 -2 8 2 -9 9 4 4 -5 13 2 -2 5 0 -1 -5 13 -2 -4 10 -15 -5 9 -4 -11 5 -4 -13 -4 5 1 -1 -6 12 -4 -4 9 -2 -10 1 -7 4 4 -1 -5 -4 -4 4 -15 -9 1 3 -1 4 -2 6 2 -4 -2 -13 -4 -7 -2 -11 -1 -4 -14 -17 -4 -12 -3 -4 -3 4 -9 -11 1 -11 2 0 -7 0 6 -4 -15 -1 -3 4 1 -9 -1 -3 -10 -6 4 1 -8 -4 0 -2 -12 5 -7 -2 6 -6 -3 5 8 -9 -5 -7 2 -13 -3 -8 -5 0 -5 -14 -9 0 4 -5 3 -4 -4 -2 -7 3 -6 4 11 -16 -3 -2 4 3 -4 -5 -2 13 1 0 -1 16 -2 14 3 2 3 11 5 1 11 -2 -11 0 -18 1 0 0 -11 -2 -2 0 -6 1 -9 -7 -2 4 -4 10 0 7 0 3 16 6 -13 3 17 -3 0 5 1 -9 6 9 -4 8 4 -3 -2 7 7 8 3 6 9 8 0 15 -4 0 -1 1 1 1 -4 0 -4 10 -3 -6 5 -9 -6 0 -8 -5 -7 -2 -12 -5 2 -8 -7 -2 -15 -1 -11 -6 -6 -18 -4 -10 5 -9 -7 4 -3 -3 -2 -10 -2 -6 13 -7 7 -4 2 -4 10 -7 -1 6 -10 -8 -9 1 1 15 6 -2 4 9 -2 4 3 4 -2 -3 -1 6 5 -10 4 7 -12 -4 17 -7 0 -1 -8 1 -2 4 -7 -5 2 1 -8 -4 -1 -3 -4 -8 4 2 -2 -19 -3 -5 -13 10 5 11 -8 1 -17 4 -13 4 -1 3 1 2 5 -8 -5 -2 -1 9 3 -5 5 -5 1 3 -18 2 7 -1 -2 -12 2 -6 -3 0 0 0 -3 7 7 8 1 0 -1 0 6 8 9 2 5 18 1 21 0 11 5 9 7 8 -5 0 22 5 9 11 8 2 11 -7 5 14 -2 9 11 8 -2 8 -1 3 8 -5 2 6 3 6 6 10 14 -12 17 -9 4 0 -2 -2 -5 -3 8 5 0 2 1 1 -5 6 6 9 -8 1 5 -3 0 10 2 -1 10 7 10 6 15 0 11 6 -2 -1 22 -8 3 12 1 10 3 -5 0 1 -2 12 -2 -7 3 3 10 -2 0 11 -6 3 5 -2 1 -2 4 -12 2 -6 9 5 -8 -5 -3 0 -3 3 2 4 -7 2 3 1 -4 -14 9 -12 2 -6 1 7 3 -5 0 
-9 4 -9 6 7 8 10 2 6 17 4 10 3 2 0 -13 4 4 -3 2 15 -8 9 4 0 -7 -1 -5 -7 2 11 -8 -10 -4 -9 3 -3 6 6 -5 -2 6 0 8 6 -3 6 0 -6 10 17 -2 5 -5 -11 -2 3 -4 2 2 6 -2 2 12 0 -2 5 8 -5 4 -7 -7 -9 14 3 5 -3 5 9 14 0 3 -6 -5 -4 11 -11 15 -6 11 6 9 0 2 6 3 4 8 11 1 -4 12 15 5 -2 15 13 2 7 6 12 11 4 -11 13 4 17 10 13 16 5 8 5 12 5 6 4 8 6 0 3 2 -3 -4 8 3 3 0 6 -19 5 7 -14 -13 -12 -7 -2 4 -4 6 3 -7 -2 3 -4 -9 -16 2 -2 -8 -3 1 -6 -3 3 -2 -6 -2 3 -4 -3 -5 -8 1 -4 -4 7 -5 -10 1 9 5 6 9 -6 9 3 7 -5 -2 -11 -2 0 -6 -6 0 -13 -5 2 -2 -4 10 -5 3 15 -9 -11 -5 3 -8 -8 -9 -6 0 -8 -9 7 -8 -6 -6 -3 -3 -5 -5 2 -6 -3 -7 -5 -2 10 -2 12 -5 -9 -12 -2 -6 -15 7 -4 -1 1 -14 -8 -1 8 -15 -4 8 1 1 0 2 10 -2 -4 -6 -2 0 -21 -11 2 -1 3 1 0 10 8 -2 5 -7 3 7 0 -2 -6 0 -2 12 10 7 -14 10 -7 -5 -11 -8 -3 3 0 -4 11 6 2 3 4 5 -2 5 -4 9 -8 3 -4 -3 -7 1 0 0 -3 0 4 16 11 6 -4 -12 7 8 -4 -2 6 4 -1 5 2 -4 9 2 -3 7 -8 -3 3 -4 2 0 12 2 8 14 3 9 5 8 2 10 2 2 7 7 -1 5 2 0 3 0 14 -4 16 -8 3 -11 6 17 -1 -6 -9 3 -6 -8 -3 2 3 -4 -10 -9 -15 -11 -3 5 -7 -5 6 -14 -6 -8 -21 -17 4 -13 -7 4 -4 4 -3 8 4 -9 20 -7 1 -5 3 4 -8 0 1 -8 3 5 -2 6 2 -4 7 -3 7 -1 5 0 -3 -1 -7 -7 -6 2 9 -2 11 -5 4 4 -2 -5 -10 1 -2 -9 6 -2 -4 7 -15 -3 1 -9 -11 -7 -6 -1 2 -10 -7 -1 -4 -8 -3 3 10 -10 4 -9 -11 2 -20 6 -18 3 -2 -5 -5 7 -4 5 -9 -1 3 0 -6 -1 -11 -8 2 -16 11 -19 1 -2 -3 -7 15 9 -1 -3 5 10 -9 -5 -8 -3 13 12 -3 1 -2 9 4 0 -1 11 1 17 6 9 17 8 -3 5 12 9 0 5 2 10 9 9 7 12 -3 2 0 3 11 -2 8 -14 3 -5 9 4 -5 -1 1 6 6 1 3 7 2 10 -2 2 12 6 -5 -1 -2 13 -5 -15 -6 10 -1 -1 8 7 5 -6 -2 9 3 1 9 -1 7 9 -2 7 -1 4 5 4 8 7 1 15 4 5 -1 2 12 10 9 -3 10 -4 2 -9 16 -2 2 0 -9 18 -4 11 -11 -10 -2 3 3 1 1 8 14 9 -3 10 -6 4 -11 13 -8 -9 10 11 -4 5 -7 -7 4 -4 2 -2 -1 1 -7 7 
2 3 11 5 1 -10 3 5 4 -1 5 -1 -12 2 -6 -2 -1 -15 15 -12 -3 5 -4 -4 -2 -8 -3 3 1 -5 8 12 -1 0 9 4 0 -2 -3 6 2 9 4 -2 7 -2 -7 -4 7 5 -6 0 -3 1 11 0 -2 5 -2 3 2 9 -4 6 5 -4 6 -5 5 -14 9 0 6 -2 11 4 -10 3 4 -4 5 -9 0 -12 0 7 -1 -5 12 -11 -1 0 0 7 -11 5 10 8 8 11 10 10 -1 13 5 7 14 9 1 14 5 2 8 9 10 0 2 0 10 12 1 -6 17 5 0 12 9 4 9 -4 1 8 12 2 -5 -3 -4 7 0 0 -1 -1 -12 -16 10 -5 -6 5 -3 2 -4 -7 -8 3 3 8 3 -3 -7 -7 1 -2 8 -9 -4 0 4 -3 1 -9 15 16 0 6 3 -5 3 -3 5 -3 2 2 0 0 -2 -3 0 -13 1 -8 -1 1 -9 -6 11 2 -4 15 -9 8 3 -7 2 -1 -9 -4 0 -6 -12 -9 -11 0 1 -4 -10 6 -19 -6 -9 -9 -5 0 -2 0 5 -5 -1 0 -13 2 -1 -17 -13 -5 -15 -11 -14 -7 7 -10 -7 1 -9 5 0 -7 1 0 4 -7 11 -11 -4 7 -3 -3 6 -3 14 -1 -6 -7 -11 12 -5 2 -4 8 4 6 -2 5 -2 -9 8 -7 10 8 8 -1 -5 2 4 -2 -1 5 -7 -11 7 -3 1 4 0 -3 -6 3 6 4 7 6 9 2 6 8 5 3 1 -9 -9 4 1 -4 0 -10 -8 -2 -2 10 -5 -7 -12 1 -10 -3 -1 9 1 -6 -2 -1 8 3 2 6 1 2 -6 -2 -9 4 6 -2 8 -1 10 0 7 0 15 14 7 5 1 16 -1 2 2 -3 -3 -5 3 -10 16 -9 5 -3 -10 -10 -12 -2 -4 9 -7 4 -8 9 0 -7 7 -5 -1 -6 -9 1 -15 1 -7 -4 -3 0 -4 -9 -7 -8 -4 -4 -17 8 5 6 -17 5 -4 -5 8 -9 9 -5 3 -2 -11 -15 0 -16 -5 5 -3 8 -9 6 -9 -2 1 -3 4 0 -4 -15 -8 0 6 4 2 7 4 -4 -7 -10 14 -1 -5 -3 0 -5 -7 -6 3 1 -9 5 -8 9 3 0 -6 -7 3 -6 2 -5 -11 12 -10 1 3 3 -17 2 -4 -13 9 -3 2 -2 6 4 12 4 0 8 -7 -2 -4 -2 -4 6 -3 1 -8 -11 -6 10 4 5 -2 0 -4 7 5 -9 3 3 5 5 3 11 0 2 9 6 13 7 2 1 -3 18 -5 13 5 26 5 17 9 14 6 8 18 9 -5 0 -3 -7 16 -3 14 8 0 16 -4 13 0 4 9 5 9 6 0 -7 6 6 -2 6 -5 5 6 0 8 8 -3 4 1 10 2 11 12 3 -4 15 0 3 6 7 12 -1 8 12 -7 7 7 -3 8 8 3 -1 8 -3 -3 9 -13 16 6 -2 -6 2 -3 -4 -4 11 0 10 -2 0 2 -8 12 -12 13 -1 -4 5 10 -4 0 -6 -2 6 -9 10 -8 -1 -6 -1 10 -7 -1 5 -6 2 -15 3 -2 2 -18 -7 -4 -1 -5 3 -14 0 
11 6 -9 6 1 5 2 1 2 0 9 1 -1 -5 3 -12 -6 -4 3 -11 5 5 3 -4 -1 -2 -7 -6 15 -12 -7 -13 4 10 -6 -6 9 1 6 6 4 4 2 11 -2 6 4 16 -2 2 4 3 7 -2 -2 4 3 0 4 10 5 -1 -3 5 1 -6 3 0 7 0 1 -5 -7 -1 9 4 -1 4 -3 -2 -14 2 -1 -3 4 1 1 2 4 12 7 -4 7 -4 9 6 3 2 3 0 3 14 -2 4 -1 13 13 6 9 13 0 9 3 19 3 8 6 1 15 5 10 5 13 -4 16 7 5 9 1 7 11 -2 1 5 2 0 0 5 6 -12 8 3 3 -9 -13 7 4 -7 6 -11 -5 3 -13 0 -3 -9 -8 6 2 5 -7 -1 7 1 2 -10 3 1 -3 -1 6 -22 -2 2 3 9 -9 11 -6 -3 -3 2 15 0 2 -7 -1 -1 2 0 -6 -3 11 -6 -17 -5 -4 -12 2 2 4 0 6 6 7 -8 12 -7 3 0 -8 0 -4 1 5 -20 -13 -1 0 -4 -1 -7 -4 3 -12 5 -6 2 5 -5 -9 -9 0 -18 0 -7 -14 -14 -5 -2 -6 -10 -5 2 10 -6 -3 -8 -1 -13 -3 -11 -14 -7 1 9 -1 -12 -6 1 5 10 5 6 0 -5 -6 -1 -4 1 5 -2 6 -2 8 -4 4 3 7 0 -6 7 -4 -2 -10 -7 7 -2 -9 -4 1 3 -6 -3 5 -1 -4 6 2 -6 -3 -2 4 -6 3 -11 0 -1 0 -8 -3 7 -2 7 1 4 4 -4 2 0 -5 13 4 -8 1 6 -11 0 8 3 -3 5 3 1 -1 -8 -2 3 4 -3 -3 -1 8 -1 7 -1 9 11 8 7 14 8 -8 7 -5 3 -2 2 -3 -4 -3 -1 -4 3 4 2 -3 4 0 4 -10 -7 -5 -3 3 -7 -7 -7 -1 -5 -8 -7 -2 -4 -4 -6 2 -10 -11 -2 -9 5 -9 -12 2 -4 -13 3 0 -7 -9 -10 -5 -2 -4 1 -4 -8 -7 1 7 -3 -7 -9 -2 3 -5 1 -9 5 -13 5 -9 -6 0 -4 -11 -10 8 3 -7 1 6 -11 -6 -3 -3 13 -10 1 -4 -1 12 -1 3 -1 -7 7 -4 2 -1 0 -7 9 -9 2 -10 -1 -8 -2 9 -10 -2 1 -9 -3 -2 9 4 -2 7 -5 4 -5 5 -8 -9 -3 8 -12 -5 2 -10 5 -5 -7 8 -3 -7 -3 5 -6 3 15 1 -8 -10 -16 -2 8 -8 25 4 16 0 1 -4 10 -11 -1 -3 3 -3 -5 11 10 11 0 19 1 15 21 10 10 11 -3 10 5 0 11 -1 -1 -1 6 -6 5 1 3 -1 4 -7 10 4 2 -3 -1 -3 11 -5 -2 7 14 14 1 0 -2 10 6 -9 -1 6 10 5 -2 8 11 14 -13 20 3 13 -1 8 -4 8 2 9 1 1 2 -6 7 -6 1 14 -5 5 5 0 -2 3 4 9 1 -5 13 12 -4 3 4 11 8 -4 11 -7 -5 1 8 7 -13 5 -6 6 11 4 -6 2 6 -2 -3 -3 11 10 2 7 11 -2 -1 1 4 -3 -2 5 -3 -12 12 -6 -7 9 9 
-2 8 0 -9 -2 -1 -5 1 -8 -10 -12 2 0 -2 -17 3 14 5 -6 16 1 -8 5 7 -2 -3 11 -4 2 2 0 -5 7 8 -7 10 -7 6 5 -7 0 -4 0 -9 -4 4 -2 13 6 6 -5 -10 4 6 12 8 2 -7 1 -7 8 -6 4 -3 -4 2 -7 11 -6 9 -2 -5 -1 0 -9 1 6 11 5 16 -5 8 10 -7 -9 3 -7 16 -4 5 -11 0 -2 11 -4 -8 12 1 12 5 5 6 6 5 9 13 -6 11 4 15 14 13 7 8 5 6 0 8 -1 1 -2 11 14 4 13 -7 14 7 -4 10 -3 2 2 -5 4 10 1 5 -5 3 -10 -1 -9 10 10 -1 -2 10 -1 14 -5 6 -8 0 -1 2 4 4 2 2 -9 5 -8 -1 -5 9 5 -7 -4 0 -13 7 5 6 -2 -3 -3 4 -2 -12 1 2 1 -2 -4 1 -9 -9 -2 -1 0 0 -6 -1 -23 8 -4 -4 2 -5 2 8 -4 -12 18 1 -9 1 2 -7 0 -11 -22 -8 -3 -6 -6 -5 3 6 6 -6 8 -5 -11 5 4 2 -2 -2 -4 2 0 -14 -7 -15 -7 -21 -9 3 -1 -11 -1 0 -3 8 -9 5 -3 -4 -5 1 1 5 -8 4 -2 2 -4 1 2 7 7 10 1 4 2 7 10 2 3 -4 -4 -1 0 -6 -2 -8 3 9 -4 -11 0 6 10 -3 2 0 -6 -2 -3 -3 15 8 -10 -4 2 2 8 -4 1 -9 -8 -10 0 3 -9 0 -4 -3 6 -14 12 -4 3 0 -5 0 1 -3 -1 -1 -6 1 3 -4 3 -2 -5 0 -2 -1 1 7 -12 2 -9 8 -8 1 3 3 -6 -3 18 -5 9 1 -7 12 -4 -2 -1 -6 9 0 4 2 3 -2 -5 -4 2 -11 12 -9 5 -6 0 9 16 -6 -4 -6 -3 3 0 -11 4 -7 -2 -7 -5 -5 -10 -4 -6 -10 -12 0 -2 -6 -3 -6 -15 -10 -4 -3 -3 -7 5 -7 -4 -6 -5 -3 0 -15 2 1 2 0 -15 0 -7 5 -7 1 -1 3 -5 -2 8 -8 17 -12 -10 3 -7 3 -10 6 -5 6 -4 0 -1 5 -2 -5 8 -4 -3 -6 7 1 15 -5 -10 11 0 12 0 0 8 -8 -12 2 4 1 -6 0 -2 13 3 1 -7 1 0 -7 -1 3 3 -3 -3 0 16 6 -12 -11 7 1 7 3 -14 3 -13 1 -3 -1 2 -11 2 -1 4 4 11 4 12 -5 5 -2 15 0 -5 4 -2 5 6 5 15 -1 -7 13 -4 12 5 -3 3 12 15 3 14 14 13 14 6 8 6 11 0 8 -4 6 -6 1 -2 -5 6 2 21 1 13 7 14 7 11 -8 2 -1 -12 9 -9 -7 0 -7 -5 8 2 -2 0 7 -7 7 2 -3 4 8 -1 0 0 -2 21 -4 8 7 7 1 8 3 7 5 16 9 -2 9 5 2 2 5 -2 13 -5 5 3 3 2 7 4 6 -9 -4 -2 3 10 5 5 0 2 -8 1 -4 6 -10 11 1 6 -3 3 5 -6 2 3 7 1 -4 -3 5 -4 -4 -5 -2 -9 -7 -6 -11 5 3 -4 -3 
3 1 2 -3 -3 0 4 2 6 -6 4 -6 -15 -3 4 -6 -9 1 0 -2 8 -10 12 -4 10 3 -5 3 6 2 6 6 -8 10 2 7 11 14 -4 12 7 -2 -1 3 1 7 -12 9 2 20 2 -1 5 1 7 -2 -4 9 -4 -1 0 6 -6 2 -4 8 7 8 6 -7 -4 6 8 -1 0 1 -7 5 0 3 1 -1 3 0 9 8 -1 -6 4 -7 2 8 10 4 6 6 -2 1 4 -3 10 -1 16 2 -5 -3 9 -2 8 12 9 4 16 -1 -5 11 9 20 4 6 19 -9 4 11 0 10 -1 8 1 8 10 -5 -1 0 1 -9 -5 2 0 8 -15 -6 -2 -4 -25 3 -7 3 -5 -2 -10 -4 -9 5 -11 -2 -8 1 -4 -12 6 -1 5 -4 -2 -12 -5 -3 0 3 8 -1 -4 -5 2 15 -5 -9 -5 -6 -3 -6 5 -4 11 13 -10 -5 0 -5 -2 0 -9 7 5 -7 -4 5 3 6 0 8 4 2 13 1 -4 -1 -19 19 -6 -12 -5 -3 0 -3 1 -1 4 -2 -2 -5 -2 2 -3 -6 -1 9 7 -10 -11 2 -11 0 0 -10 -13 -8 -4 0 -11 10 -2 2 -4 -3 6 -15 -2 -2 4 -4 -2 2 7 -1 -7 -8 -6 -2 2 4 -5 8 1 8 5 -4 7 -5 -13 0 11 4 -4 3 6 -7 6 10 6 2 22 6 13 3 3 -2 0 -8 8 -8 7 2 5 0 1 -3 8 -2 11 -4 -9 4 -5 1 1 2 -9 1 -3 8 7 0 -9 7 5 3 -1 4 2 -4 -12 -1 -4 -7 9 0 4 -5 9 -3 0 -13 -4 -5 -4 0 -3 7 4 -5 -5 14 -4 1 3 3 2 -4 5 5 -4 2 10 -5 5 -7 -1 8 -3 -11 9 -10 6 -9 4 -1 -3 -6 -2 -4 -3 4 -7 -13 2 -10 12 9 -2 -5 -17 -4 3 -14 -4 1 1 -2 -10 6 -13 -10 -13 -11 -2 -11 5 -3 -15 3 1 -13 5 3 -4 2 1 -10 -1 -2 1 -12 -6 -4 -20 10 -6 -11 0 -5 -6 6 -1 -10 12 -13 -14 -7 -2 -15 -4 -6 -5 -6 3 -14 -11 -3 -6 -7 0 3 -4 -11 -2 -6 -12 -3 -8 5 7 3 6 7 -7 0 -4 -2 6 4 -10 16 -3 -3 2 -6 8 8 -5 2 -5 -2 4 2 -11 -1 -7 -3 -1 9 -9 -11 -6 -1 1 -8 -4 0 -1 0 4 -3 10 -8 -5 -7 0 4 -6 2 0 3 0 9 9 1 8 8 7 2 5 -2 3 9 7 17 14 8 9 -5 8 13 13 7 1 11 -5 -5 15 -5 11 0 -3 -5 21 7 5 -7 18 1 17 6 3 8 5 -3 4 -3 7 11 1 9 1 4 11 5 5 9 16 3 4 0 0 -5 3 0 -3 1 9 2 0 15 6 9 -3 10 -1 3 -10 2 -3 9 -6 -3 0 1 -10 4 6 4 18 5 10 -2 14 -5 -4 -1 -5 17 0 5 -8 4 -6 13 -4 10 -17 6 -1 5 -9 -7 16 -22 11 1 -15 2 -19 12 -4 3 0 16 9 -4 1 -4 4 -14 -3 -16 -6 -2 12 -6 
3 -4 -8 4 -4 -3 -2 -6 -8 -17 -8 -12 -3 -7 -5 2 -6 1 -4 15 -3 4 0 -4 11 -17 1 12 0 2 12 -3 9 -6 9 16 3 3 6 -10 7 -2 -1 11 3 9 2 8 -6 11 6 -10 9 -10 19 1 -1 -4 2 4 2 -10 4 -1 0 -13 -5 -3 4 8 0 12 -5 8 -8 13 -14 14 1 -8 6 10 8 16 0 -13 3 7 1 15 -3 14 -4 0 -2 -6 4 -3 8 -1 9 -2 5 10 6 1 4 0 20 13 11 -4 3 5 12 11 3 10 -1 9 -3 6 2 -1 11 3 8 -2 7 -1 -12 16 3 16 -2 5 6 -5 -2 -2 4 4 -2 -7 12 -2 -10 6 -7 12 -1 0 -1 4 -5 -9 0 6 1 7 -13 6 -2 -1 4 -3 -11 7 -6 1 -15 -2 8 7 11 0 -7 0 2 -7 -7 2 -2 3 6 -5 -3 -3 -7 -14 4 3 0 -6 -4 -6 -3 -7 10 -5 6 3 -2 2 -3 -1 -2 2 8 -2 -10 1 -4 -7 -2 -3 -7 1 -13 2 10 3 -6 6 0 1 2 -6 3 3 13 -11 6 -10 -10 5 -2 4 6 -4 -6 -10 -12 -12 -3 -8 11 0 -1 -1 8 -3 0 4 -9 4 3 -1 7 -4 1 4 2 -3 1 8 -8 6 13 -5 13 -5 2 -7 3 2 -4 13 -2 13 -6 -11 -3 2 -2 8 4 -3 -6 1 11 11 4 0 6 6 4 4 5 -7 1 -1 4 -3 -4 -3 -7 4 0 11 3 1 2 2 -6 4 -1 -2 4 -2 -18 9 11 -4 0 -6 9 -7 0 5 -6 1 4 4 7 -10 4 6 -18 -1 8 10 0 1 -6 18 -1 4 -3 3 -6 4 5 -1 4 -12 3 10 -16 -18 -5 0 3 -2 3 -4 4 2 -9 -1 3 -9 -5 -11 5 -2 -2 1 5 -22 -2 -3 -8 -6 -10 4 -8 -3 -4 3 0 -11 3 -4 -3 -3 0 -10 -10 -6 3 -4 1 -7 -11 9 -4 -10 -14 0 -10 -14 -1 -8 -2 -3 -10 0 -4 4 4 -13 -15 -13 -10 10 -3 -5 4 2 -2 3 -9 3 -3 -12 7 -1 1 -5 -4 5 12 -5 -5 -1 1 3 -10 -7 6 4 2 7 -8 5 7 2 6 3 1 -12 8 -9 -18 -2 3 3 -7 -1 7 0 2 7 10 -2 -3 -5 -6 6 0 -9 -1 0 3 -1 0 -4 -14 3 9 18 3 0 6 7 -1 0 -4 4 6 -2 4 12 -5 0 -5 3 8 0 -5 -1 8 7 0 -4 14 6 9 1 4 4 19 -1 16 9 1 15 -5 9 3 11 -6 18 5 2 -4 3 -1 5 9 13 3 12 2 3 5 1 6 11 -7 2 2 -5 -2 -8 -5 -5 5 5 6 0 5 9 6 3 8 -12 14 -5 3 -5 3 11 -11 18 3 7 5 6 -4 -10 15 -1 1 5 -6 -5 3 7 -1 0 -1 10 7 0 2 2 0 7 2 -11 -9 14 4 -10 4 12 0 -5 8 1 -12 -2 2 0 -6 3 13 -1 1 -4 -7 -3 21 -6 4 -3 -6 11 -3 4 -4 -2 6 3 10 0 -12 7 
-6 -1 8 1 -5 -8 -16 5 -9 18 -3 -5 -2 -4 1 0 1 -3 2 -8 10 4 6 -2 -7 0 1 -3 1 1 -5 12 -2 0 -10 -10 12 7 -2 8 -1 11 1 -2 0 -4 9 5 -4 18 1 2 14 8 -4 0 13 -8 9 3 2 6 2 -2 9 -4 4 -5 10 2 8 -5 9 4 -8 4 9 20 -5 5 12 -6 4 0 -1 -4 8 -6 10 1 -10 0 -2 7 -3 6 -4 4 8 1 17 10 10 9 3 10 4 -3 8 -3 3 12 -3 12 8 15 5 3 6 8 5 19 3 2 4 1 -3 -7 1 5 17 -9 -6 0 -2 4 -7 -3 -2 -2 -1 -8 -1 -11 -4 7 -16 -8 8 -4 4 4 0 -13 -2 -2 7 -2 4 -2 8 -12 -4 -10 3 2 -13 -13 -8 0 -6 2 2 -11 -12 0 5 4 -13 0 -1 -5 -7 0 -5 -1 2 -3 -5 -6 -7 -4 -10 -8 10 3 -4 3 -1 9 -6 -1 9 2 5 -4 8 12 -3 -15 -3 5 10 -11 -9 -5 0 1 1 -2 -14 3 -8 9 2 -1 -6 -6 5 2 -3 -1 -7 -6 -3 -13 0 -4 0 -4 5 -5 3 -12 5 -7 -9 -6 3 -6 5 -2 5 4 0 7 -8 -6 -7 7 0 -4 -2 2 -3 9 -5 -1 0 -13 3 -4 5 12 3 -2 8 -7 7 15 1 18 -1 9 9 3 -11 5 3 2 1 -5 2 -2 3 4 0 2 4 12 -2 -4 3 6 -1 6 -1 -8 -4 -2 5 -4 3 6 -1 -8 10 -11 -7 1 -6 1 -11 -8 -4 8 4 10 5 3 -6 -8 -15 -2 4 13 6 11 -1 -1 -7 16 -7 2 6 0 -1 10 -9 5 -7 13 3 -7 -9 -4 -2 -2 8 -6 7 -5 -5 1 -8 -11 8 -3 -15 0 -3 1 2 9 -3 -6 -7 -4 -7 1 -14 4 -2 8 -2 0 -9 -4 -16 -3 -7 -17 -20 -8 -9 -9 -4 -10 6 -8 -7 3 -2 -10 2 -15 -11 2 -3 -1 -7 -5 5 -12 -15 -7 0 -1 0 8 -9 -3 -4 0 -2 -5 2 6 1 8 -5 1 -16 2 -4 7 -10 -12 -5 4 -11 1 1 -9 1 -2 0 -4 16 1 2 -2 -1 4 13 -1 -1 1 -7 5 4 -11 10 -13 10 -4 -4 9 5 -1 10 5 0 -3 9 -7 -5 -4 -7 -1 8 -6 -9 3 -2 -1 -17 -3 -1 -11 2 4 3 0 7 -8 7 8 10 -12 14 -6 12 2 5 12 13 7 6 5 10 -2 13 4 8 15 11 0 4 8 13 2 25 -1 13 3 11 7 1 0 8 -13 14 -3 0 -2 -2 -1 3 10 11 4 11 1 -1 13 10 6 4 -4 7 5 4 7 8 -1 -6 4 -6 4 -6 -8 -8 7 -2 -7 5 5 3 1 -6 4 7 5 15 13 -17 2 -14 -4 0 -1 -1 4 -7 0 -2 4 4 -6 6 13 -7 8 3 -1 -4 4 -9 -2 -3 -6 6 -12 13 -6 0 2 -3 2 -11 7 3 0 -12 5 -12 -9 -7 -3 -1 2 -3 10 -9 14 -6 -3 1 9 -7 10 0 -11 -11 -8 -4 -9 9 -9 
1 -9 -13 1 -5 -1 -4 3 -4 -7 6 3 -6 -2 2 -5 -10 1 -5 8 -10 -1 -2 9 -4 14 3 12 6 1 5 14 -2 19 4 4 -1 14 7 -3 10 6 13 -1 0 17 2 15 0 0 16 -10 3 0 7 -4 5 3 5 14 -12 5 -2 6 7 -2 0 7 4 -11 0 -2 8 -6 -1 9 -7 17 -5 4 -1 -2 16 -2 4 6 -8 3 -13 0 -5 9 6 10 -2 7 4 4 4 12 3 7 14 6 12 3 -3 2 17 0 5 5 6 3 3 7 10 5 14 8 -3 -8 -4 14 0 1 3 8 -3 5 2 -4 12 2 -1 7 -1 7 0 -2 4 -1 6 6 1 0 -2 7 4 -9 2 -14 -18 -8 1 -11 -7 -5 -7 1 -9 -1 -5 1 -14 -4 10 -2 -4 -5 0 4 -2 -10 -2 3 -7 -7 -2 2 -13 7 9 -7 6 -2 3 1 -6 -4 -5 -9 10 -13 4 -3 14 6 -2 4 3 -1 -6 -3 4 -6 -1 3 4 -1 -6 -2 11 -13 3 -1 4 10 4 -11 8 10 4 -4 2 -1 3 0 2 -5 3 -2 2 1 -8 0 -2 -7 0 -8 0 -7 1 -7 -2 -9 5 -10 -2 -1 -5 1 -6 -1 -9 2 -5 11 5 2 -2 -1 9 4 -4 -8 17 -8 -2 4 9 -1 -8 4 9 4 8 11 7 -6 -1 -6 7 -6 4 2 -2 -7 0 1 7 -4 -4 -13 6 -3 8 9 0 -5 15 11 4 7 3 -14 0 3 -3 1 0 -3 7 6 -10 -2 -1 -9 -10 0 8 4 5 -7 10 -2 3 5 5 6 -4 1 1 14 -3 -1 -4 10 -3 -10 -6 7 -9 -7 7 4 2 -5 -2 -5 -6 -1 -7 -7 7 9 1 0 -4 -8 0 -18 13 -8 7 3 -7 6 4 -3 -1 11 -6 -12 6 -2 4 15 -11 6 4 -6 -5 1 -11 -4 -8 -10 -1 -6 -7 10 2 0 8 -5 -7 -9 -12 -3 0 -5 5 -8 4 -9 2 -4 -11 7 -2 -1 -7 0 -9 -14 -12 -15 -12 -7 -7 -1 -14 1 -1 0 -6 -1 -3 7 -10 -2 -8 -10 -1 1 -9 4 -3 -1 -3 2 -2 3 -3 -1 -3 10 11 -12 10 -10 20 -10 -4 3 -4 11 -1 -5 -2 6 2 -1 5 -4 -3 3 11 -10 1 -2 17 -5 -1 -13 7 -2 2 -15 0 4 -3 -4 3 -9 -5 6 0 8 -21 10 -3 -4 3 11 -14 3 5 10 -7 5 -10 2 3 7 13 -4 10 4 2 -2 10 6 7 7 5 6 4 4 -2 9 3 -1 6 11 -16 2 8 -8 4 5 1 1 9 -3 -1 7 3 5 9 6 12 5 9 9 1 12 -2 11 3 11 6 7 9 7 1 9 -14 -5 -3 12 -9 -2 14 10 6 11 -1 -10 12 2 14 7 5 7 -9 -3 -3 10 -4 -1 3 -1 5 -4 7 -12 -9 3 10 -5 -4 -2 -3 2 2 -8 7 5 4 14 8 -1 -6 7 8 4 4 -5 3 1 9 -8 2 -10 6 3 7 2 0 10 5 5 7 -9 -3 -5 4 -8 8 -10 -2 1 -11 8 -2 2 2 14 
0 -10 12 -11 12 -9 -3 -2 -1 -4 -17 2 5 -14 -3 -6 -8 7 -3 -1 7 -5 2 3 11 -5 4 10 14 -1 1 3 11 7 -5 -1 9 -10 -1 -8 -1 6 3 4 9 16 8 -4 3 -10 2 -5 16 17 -2 10 8 13 2 8 9 16 0 2 -5 5 2 -2 14 0 7 10 -2 11 0 5 -7 1 3 -8 8 -8 6 -10 -4 6 4 -5 4 -1 -1 1 5 0 -3 7 8 -3 17 -1 17 9 7 12 6 10 10 3 4 -3 0 12 8 -12 3 6 7 6 2 9 0 9 10 15 4 13 1 9 7 9 -4 1 2 5 3 -2 -1 -7 2 12 -18 3 -2 2 1 12 11 8 -11 3 3 9 0 -3 0 -4 -15 10 -6 -5 -2 -5 -7 -11 -6 -5 9 -5 -2 2 -1 8 1 -3 -15 -12 -8 5 -3 -5 2 1 5 5 3 13 -7 0 -10 4 -5 -11 -2 -5 1 2 -5 -5 0 -1 -5 -3 -6 8 2 3 -2 4 -1 4 -1 -1 3 -4 -13 6 -12 -3 3 13 -1 4 5 4 -7 1 -4 -3 -7 11 3 -3 10 1 -7 -13 -4 1 0 1 -5 -10 0 -4 -11 13 1 -15 2 6 -6 0 9 -2 0 4 -8 -4 6 -3 1 8 -6 -5 8 -8 -4 -7 0 9 -2 4 6 2 4 5 -4 -3 7 13 4 6 -2 -9 3 5 4 9 -14 3 1 -2 2 -3 10 -6 8 4 10 12 -1 -2 -5 0 4 -4 0 -10 0 3 -5 8 -5 10 -1 2 -3 -15 -2 6 2 2 5 1 -1 -1 -2 4 -4 -4 4 -3 -14 5 -1 2 -8 -17 11 10 1 3 5 -2 -3 12 6 4 -8 2 2 2 7 8 -9 2 1 -9 -3 3 2 0 -6 -3 3 -9 -3 2 -2 -6 4 -5 4 4 0 2 1 -9 6 -5 -2 -10 -15 6 -9 2 -10 0 -6 -5 -8 8 -5 -2 -1 0 -11 1 -7 6 -8 -9 -9 -5 -7 -5 -20 -10 0 -10 3 -10 -14 -8 2 -5 -4 -4 -14 -8 -2 4 -12 -6 -1 0 18 -12 -1 -2 7 1 1 -10 1 4 7 0 -7 -1 3 9 -8 4 -5 8 -2 5 -3 7 -3 15 2 0 1 5 4 4 -7 3 -1 8 4 -2 4 0 0 -7 5 -1 0 10 -8 7 -6 9 5 3 12 1 -11 1 0 1 6 0 -7 2 -2 -9 -10 2 3 -3 1 4 -8 6 -12 4 3 9 6 3 -8 10 10 -3 -11 7 -10 25 3 14 11 5 11 7 5 -4 2 3 16 7 13 4 1 5 9 6 -1 2 -4 3 6 -7 4 6 -4 -7 2 11 -1 19 3 12 -4 6 -1 2 -1 13 10 -8 4 -7 3 -3 7 4 2 -11 2 -9 -11 -2 -6 4 0 -4 -4 -1 1 11 0 3 9 12 2 -4 16 -6 6 -3 -2 0 -8 -3 15 -13 -1 1 7 2 0 1 1 -4 9 -1 -1 1 -16 1 6 2 -3 3 6 -4 1 -4 7 -10 -6 3 -2 1 -3 -1 2 5 3 -2 6 12 -6 3 -6 -17 -2 5 -1 -3 -13 0 -5 -14 0 -4 
2 -7 2 -5 2 7 4 6 -5 -6 3 -2 3 0 2 6 -10 11 1 10 -6 -3 0 -3 3 3 -2 4 6 8 3 9 -6 9 6 6 2 7 -2 -5 8 1 5 -1 10 6 -7 8 6 0 9 14 3 -3 19 -2 -1 10 3 12 12 11 9 1 4 -10 6 9 17 2 6 -14 2 6 -6 -4 -2 3 8 -2 -7 6 7 3 -6 9 -9 11 -8 -2 7 8 8 5 1 2 -5 13 6 8 4 4 10 -3 -6 10 6 13 8 12 4 3 0 13 -6 -1 3 0 13 6 -7 8 7 5 5 -4 2 8 11 -4 -4 6 0 2 3 5 -3 -3 2 2 4 5 -17 3 4 -2 9 12 7 2 -2 5 -7 -7 -7 -8 -9 -9 -13 3 -6 -3 -4 -6 1 8 -10 1 1 3 4 -3 -12 -7 -17 0 -12 -2 -10 0 -3 -10 -1 -1 2 -9 3 -6 2 -11 -12 -3 -4 1 1 -3 3 -7 7 8 0 -13 -4 8 14 6 0 11 1 5 -3 -6 -6 1 -15 1 6 3 -5 -5 -7 11 -5 3 8 3 -4 -5 8 0 9 -11 7 2 3 -3 -5 2 -6 -4 1 -7 1 -7 -7 6 -18 -6 -2 -3 -7 -5 -13 -3 0 -14 -1 7 5 -3 -3 -1 8 -11 13 6 2 3 0 -4 7 -3 4 3 -2 10 1 5 0 -1 -10 7 4 2 9 -2 4 -1 -4 0 5 -4 11 1 2 4 -8 -3 2 -5 4 9 1 -2 -6 7 6 -9 -3 -1 0 -2 -1 -5 -7 -9 0 -6 -8 -10 -7 -1 -5 7 0 9 -1 5 0 -1 -5 -2 1 2 -11 -2 5 0 7 -2 -5 -6 1 -17 4 -5 0 -10 1 6 -4 5 1 -4 6 -6 3 -1 2 -10 11 2 5 -1 7 -7 6 -1 -1 -1 -2 8 3 -7 -2 -5 -1 2 -10 1 -4 4 -10 -14 -1 2 -2 -1 -4 -10 -2 -10 -1 -5 6 -9 -13 -1 10 -1 -1 -5 -22 -11 10 -7 -12 -16 -4 8 -10 -4 -12 -6 -10 1 -10 0 -14 -5 -14 3 -8 -4 -10 -7 -8 -3 10 -10 8 2 -2 2 12 1 3 -10 22 4 2 6 10 -2 0 10 6 3 3 6 -6 -6 4 -6 -2 -10 0 3 5 8 -4 -10 -1 -4 12 -1 11 -8 6 3 7 -3 -4 4 5 0 -7 -3 5 -2 10 3 -13 3 -10 6 5 -10 0 -12 8 -8 -9 8 4 9 -3 6 0 -1 -5 2 7 3 12 4 11 0 8 9 4 6 17 8 8 7 11 11 1 10 3 13 7 8 5 10 12 6 0 8 0 -5 11 -15 5 -2 -8 7 3 14 4 3 7 16 -1 6 12 -1 7 -1 -5 -1 11 1 -7 6 6 7 -5 -4 -4 7 -1 14 -7 0 -5 3 7 -12 -3 2 1 -7 18 1 -3 -2 3 8 -7 4 1 -8 -2 6 -4 -8 2 5 4 -4 -2 5 -6 2 -1 10 -1 2 10 4 11 -6 16 -3 5 1 -3 0 3 12 -1 6 -1 11 -13 10 -1 3 -7 -1 7 -3 -6 -4 -5 3 1 -4 1 0 -6 -2 1 -10 -5 8 -4 3 
-26 19 6 -7 -1 14 -2 -1 -10 -1 -16 -10 -7 -3 6 -5 -6 -2 -3 1 0 4 4 -2 10 -5 6 21 -6 2 3 14 2 -1 14 5 2 10 9 5 -7 18 4 7 12 -4 9 6 2 -3 -2 -7 6 -6 -10 10 12 5 2 -3 -4 -7 -2 14 5 -1 1 7 -9 11 1 5 -1 -5 1 12 2 3 -2 4 -8 -4 -1 12 3 6 6 -2 9 -2 -6 8 8 6 0 6 -7 1 3 4 -4 4 1 6 9 -4 7 4 12 7 -2 7 2 0 5 4 9 1 -15 14 17 -6 13 2 -5 2 2 0 0 16 -5 2 1 -6 1 4 0 14 -5 -5 -1 1 3 -2 -1 -8 3 -2 13 -2 12 7 5 3 -7 5 -7 -5 -9 -9 -2 -6 9 -5 -11 -2 0 -5 4 5 -9 6 7 -12 -7 4 -11 -15 -11 -2 -4 -4 -12 -4 7 4 -6 -5 2 2 -12 -7 -14 -5 0 -9 -1 -6 -3 -1 -15 -10 1 2 3 2 -6 8 4 0 11 -1 -1 -1 13 -2 1 0 -3 1 7 -2 -3 -8 0 12 -6 -10 -2 -6 -4 -5 5 -16 1 -4 -3 -14 -1 -4 -5 7 -2 4 -10 -16 -9 5 1 -10 5 -6 -1 7 5 -3 -4 10 -6 -3 8 2 1 6 3 -1 8 15 5 10 8 2 -1 11 2 11 -10 -5 4 0 5 1 7 -12 3 0 3 3 -2 1 -11 3 7 1 4 0 5 3 -5 5 1 -4 11 -6 9 -11 0 4 7 -1 1 6 -13 3 11 -7 2 -8 5 1 4 -10 0 -1 -4 2 -9 2 -5 -7 -5 3 0 -5 -1 7 -1 3 -4 -2 -4 2 -2 7 -3 3 2 11 -4 -14 13 -1 -3 -1 6 1 -3 6 0 1 5 1 10 -3 -1 0 -1 0 -3 -4 -17 -4 4 4 -4 6 2 -5 -4 -10 4 -6 3 -4 -2 5 7 -3 -12 -20 -9 -13 1 8 -9 1 -8 3 -1 2 -13 4 -6 8 -19 -12 -11 -6 -10 -25 -1 -1 -17 -9 -6 -5 -12 2 3 -7 -1 -14 -7 6 -8 -4 -6 -4 3 -1 3 -14 -7 11 5 -10 3 1 -11 11 4 0 3 1 -2 2 5 3 14 3 11 2 1 13 -6 4 0 -8 3 -3 0 7 1 -4 -12 3 6 3 1 -3 -8 9 -4 -6 -11 -9 14 0 4 -1 -7 14 -1 -1 2 7 -4 3 -6 5 -5 7 -5 3 6 -8 12 3 -4 -8 7 1 -5 1 5 -2 2 10 0 13 6 -2 2 15 2 13 14 8 11 7 -7 14 8 -2 -8 12 -9 9 3 -8 10 2 -10 2 3 -3 -4 14 3 10 9 7 7 4 8 9 14 3 8 10 12 4 -9 5 -1 5 -9 2 -3 16 -11 9 5 -9 7 -5 -7 -4 -2 7 -16 2 1 2 6 -4 7 -7 6 -4 -5 0 -5 -6 9 -4 1 -5 7 -4 2 1 5 -10 9 -9 3 4 -10 -3 2 -1 3 -2 8 -3 8 8 -7 0 5 5 4 -4 -6 -2 -1 6 1 -13 11 -7 2 -10 8 -9 13 0 0 1 -10 14 -7 0 -7 9 3 0 -3 -5 
-4 -13 -10 -3 -1 -8 -1 -3 6 7 1 8 5 -8 3 6 8 4 -2 -2 3 -4 13 13 -6 8 0 5 6 6 -4 6 -3 23 7 9 8 4 2 0 15 4 10 -3 4 -4 13 4 8 14 7 4 12 16 1 19 3 5 3 5 10 -5 4 4 -7 -3 -6 8 -9 3 16 -1 -1 -12 -2 -11 5 6 6 3 16 -2 8 -6 12 4 12 -2 4 0 5 -3 -2 2 24 2 4 1 4 1 12 -1 7 2 7 2 -2 5 9 -10 14 -7 -3 -5 8 -2 13 -3 9 1 -2 -5 2 3 1 12 -3 11 -1 1 3 10 -5 7 -2 -3 0 -7 3 -8 -7 1 0 3 13 -3 -3 3 13 3 -6 -3 -11 9 7 -9 5 -12 -3 -2 -2 3 -2 2 -8 3 2 0 -5 -2 -20 -6 -12 -7 -13 5 0 0 -6 -14 -2 -4 -1 6 -3 2 -12 -7 -5 -21 -3 -3 14 -2 -4 -10 5 -6 11 1 6 -9 -1 -1 -4 8 3 1 3 4 5 5 -12 -3 -7 -7 -3 16 -6 2 2 -1 0 1 13 -7 3 0 -6 -6 7 -6 -6 -1 3 -11 2 2 -13 -3 -9 -3 -4 17 -10 -6 4 -9 -3 9 -3 -6 5 -4 -9 7 -3 8 -12 1 -4 1 -4 -5 3 0 2 10 11 0 4 10 8 13 5 0 -2 9 11 -4 2 11 3 1 5 3 -4 -13 1 1 2 -1 1 1 13 4 8 5 0 -3 2 10 6 -8 8 3 2 -3 -3 3 3 -3 1 8 -8 -10 5 -3 -2 -4 -10 -1 -4 -6 1 5 1 14 3 6 -4 5 -10 11 5 -5 -8 4 -1 -9 0 1 8 -4 -1 8 -8 -3 7 6 1 -5 4 -2 2 3 3 -5 -7 0 -3 5 -1 -2 -10 -4 -13 -1 7 -6 -1 -3 -3 -1 1 6 -11 -4 -10 -6 -9 -17 -7 -11 -14 -14 -9 -3 -7 -4 -9 -5 1 -8 2 -3 0 -4 -8 -6 6 -7 3 -7 -2 -5 -2 -12 -6 -14 6 -3 -6 -1 -13 -7 -2 0 -9 4 0 -5 -6 5 11 0 12 2 16 -2 0 5 -10 -2 -3 -2 -1 3 5 -3 2 6 14 13 10 6 6 -4 3 8 3 -8 3 10 -13 2 -6 7 5 0 -8 3 9 0 10 -2 6 -2 7 -3 8 -6 -5 -2 2 3 -4 -9 -2 -3 12 -8 -1 1 -2 -7 1 10 3 -7 13 -9 -2 -3 8 -2 -1 -7 14 8 7 -1 6 2 1 4 -3 5 9 -1 14 4 8 7 -4 3 3 -5 -1 4 7 5 2 18 21 13 13 3 2 3 -7 6 0 5 -6 10 1 3 3 14 10 3 5 10 5 -3 6 1 -4 -5 -11 10 16 9 4 4 7 3 -7 -1 9 5 3 6 0 8 -5 12 3 -3 8 -5 -5 -7 -1 -2 -16 2 -2 -6 0 0 -3 -7 -2 -11 -5 0 -14 2 2 2 17 -3 16 2 4 -4 -6 5 11 1 2 -7 7 4 -1 5 11 -5 -7 -6 -4 -8 4 18 -5 9 14 8 6 10 -1 -1 -4 -2 -6 8 -9 -1 -4 1 -3 -3 -3 -6 8 -6 -6 1 
-3 0 -11 -2 -9 -10 -8 -11 -1 -4 -2 -4 1 -2 -17 4 9 -4 -2 -10 3 11 -9 2 10 4 -10 6 3 14 -8 12 0 -5 -1 3 11 15 7 8 6 4 18 0 19 0 1 5 11 4 -2 3 16 11 0 7 13 8 2 7 -2 1 -4 7 2 -1 11 2 2 4 -15 0 12 -2 -6 17 -1 4 -1 3 -4 2 3 0 -4 -4 -3 -1 1 8 -2 6 -8 -12 1 -11 -2 13 3 10 6 6 7 5 9 7 -3 10 9 -7 0 4 8 2 9 8 10 13 -4 5 17 -1 1 -1 6 4 2 7 3 6 -6 4 -2 13 6 1 3 13 -2 13 9 5 5 4 3 3 5 3 15 -5 9 -1 13 -15 -8 -1 3 -3 -5 -9 -6 -7 -19 5 2 -8 -5 3 -1 -16 2 -9 -8 -2 -3 -4 -9 -2 -9 0 -5 -5 3 -4 -3 1 -6 -9 -10 -13 -2 -7 2 -11 -1 -6 -4 4 -8 -11 11 6 0 -11 9 1 -6 -3 2 -3 -10 -6 -6 3 8 4 -7 -1 5 -2 -9 1 -7 17 3 -4 0 -2 -11 -7 -6 12 3 -3 -7 1 7 -14 0 -8 -4 -1 -8 4 -3 -2 -4 3 3 -3 13 -2 12 0 8 -3 -1 9 9 -3 13 7 -3 -2 6 9 -7 -2 -2 -1 9 -1 15 8 9 -1 2 1 11 2 -3 -5 14 -2 7 -2 4 -3 9 2 -6 5 -8 8 8 0 -2 -1 1 2 11 1 -1 1 -8 10 10 -2 9 1 -3 14 3 7 7 0 14 -5 0 6 -11 -5 13 8 -4 -11 -5 -4 -2 -8 -8 4 2 4 -2 -1 5 -5 -2 12 1 -16 7 -2 -9 7 -1 2 -4 -5 -6 1 1 1 -6 7 1 -8 -6 0 -8 -5 -4 -2 -8 -10 -13 -18 6 -4 6 2 7 -6 -3 -5 8 -7 -3 -3 4 -4 3 -1 5 1 -3 6 7 -2 -4 -5 6 3 -3 -2 -9 1 5 3 -7 -3 -13 -6 -2 5 -3 -4 4 -2 -20 -2 -7 8 -2 -1 5 3 5 0 -5 -2 -1 -7 2 -15 -1 3 9 -4 -2 8 -3 1 -11 9 -6 -1 9 5 18 -13 0 11 -5 12 9 -10 7 10 3 7 7 8 10 -5 7 -5 -2 8 5 0 -1 4 4 5 -1 5 7 4 9 4 9 6 -3 8 -8 12 -2 1 -11 -3 7 2 -5 10 -6 -14 1 -10 -2 -4 8 8 -6 11 2 1 -4 4 10 8 10 -8 -2 4 5 7 -3 10 -17 7 15 3 16 3 5 -2 -1 8 4 7 2 -2 6 -1 -2 5 -3 6 0 18 6 8 -3 6 -4 3 0 -1 5 11 9 -2 -2 3 8 12 3 1 5 15 -7 -7 -4 -10 -2 -12 1 5 5 -5 6 4 0 -8 11 -3 8 -3 -4 -2 -4 -3 -4 -9 9 -17 2 1 -3 -3 6 -3 10 3 -4 -3 1 2 4 1 -2 -5 -4 0 -12 0 12 6 0 13 2 2 13 7 10 -4 -12 1 -4 5 -9 13 -1 -9 21 0 5 19 -14 5 6 2 1 6 -7 0 7 3 -9 1 -17 -8 1 -3 2 6 4 2 
2 -10 15 4 -2 4 -18 13 -9 9 9 12 3 6 9 -10 0 11 6 2 -9 13 -3 9 6 3 1 4 11 -2 4 6 -8 13 -1 15 -4 22 -2 2 12 11 2 8 -3 14 -2 4 6 5 8 3 1 -6 1 4 7 -4 7 -6 7 -8 -2 4 0 10 -1 -10 11 4 11 1 -3 -1 -4 -4 -9 -7 1 9 3 6 3 11 -11 6 9 5 4 -6 6 9 17 0 -1 5 7 3 9 -2 -8 5 -3 -7 0 -1 -4 3 2 7 0 3 6 14 -4 18 -2 5 3 7 2 2 -3 -2 -12 -13 3 14 1 -9 9 15 1 15 -5 5 0 -7 -4 4 2 5 -8 -1 7 5 11 4 -8 -5 -6 10 0 -12 2 -5 -8 1 -2 -1 -9 -10 4 -10 3 -4 -10 -2 -6 -4 -10 -3 -12 -25 -6 -14 -8 -6 -7 -10 -10 -2 -4 -13 1 -9 -10 -12 -12 -3 -18 -10 -3 -3 -8 6 -2 -1 8 4 5 2 10 7 7 -5 -8 13 -2 -2 2 2 -4 -8 -7 3 -1 -7 0 3 8 -5 8 -1 -7 14 -4 13 -10 9 -1 -7 -12 2 2 -6 -12 18 -7 -6 -5 1 1 -12 -8 -1 4 -7 9 -4 2 4 -8 5 15 2 -2 -18 -9 5 -1 7 0 9 7 -5 -4 8 5 6 5 5 5 7 -13 12 5 8 3 -3 8 -1 2 0 5 -2 -3 -6 -3 9 5 4 5 -1 -9 7 9 15 -6 -2 4 6 3 -7 6 0 -10 12 -3 6 8 4 3 2 -2 0 7 -2 2 -6 -8 -2 12 -8 11 1 4 -2 0 -7 7 -7 -6 -5 13 19 -4 -2 3 -18 1 -2 -10 -9 7 -13 -4 6 -17 0 -1 8 0 -4 -1 -3 4 2 -5 -4 6 0 -8 -4 -3 9 1 4 -1 2 -8 8 3 13 8 -4 1 9 -1 -2 1 2 -5 -10 -11 -16 2 -9 -10 -9 -4 7 -7 1 -16 -9 -2 9 0 8 1 5 -4 -6 2 1 -3 -1 -2 -12 4 -6 15 -7 -5 -13 -9 -1 -17 6 -2 -5 12 3 -4 -4 -7 1 -1 9 9 -13 10 -9 -8 -2 -5 11 -4 -6 -2 6 6 12 3 -1 -8 7 0 4 -1 3 7 -2 -5 4 -8 6 -5 3 -7 1 -4 8 5 -6 2 -8 -6 -1 3 -2 -3 13 -4 1 1 -3 -6 5 -10 -5 6 -6 9 -4 1 -10 6 0 12 -2 -5 0 14 11 1 5 4 4 0 13 -1 11 -3 3 11 7 2 7 -3 12 0 3 -6 -7 4 17 8 3 -2 3 22 11 10 -2 7 -1 5 -6 -2 1 -6 6 0 -4 3 11 -3 12 2 3 2 -3 13 -5 3 18 2 7 2 -13 11 -5 8 -2 5 -4 -2 -3 11 2 1 9 3 -1 6 3 6 7 6 11 -9 4 -16 0 -11 -7 3 -3 -6 7 -8 10 1 -3 10 3 -2 -2 -19 -3 4 -4 10 2 1 -3 -3 -6 -2 1 5 0 -1 3 -4 9 -8 -10 -4 9 -9 5 1 2 14 7 5 -1 1 22 4 -16 14 4 -7 -7 5 -15 -1 -8 1 11 -5 -2 -8 -2 0 -2 
8 8 1 -10 -5 -4 -5 -4 4 -12 3 2 3 -12 -6 -8 -9 8 -5 5 -7 3 13 -2 7 4 7 4 4 23 4 8 -6 9 -6 3 8 -4 8 2 6 10 5 -4 5 -3 9 6 4 2 3 0 4 0 17 6 14 3 8 -3 8 8 6 -2 9 -6 3 -1 6 4 15 11 9 4 4 6 4 7 -2 20 6 9 9 4 7 -7 0 8 7 -2 -7 7 -6 0 11 14 1 -5 -3 4 2 1 -9 -3 3 -6 3 -9 -7 -6 -3 9 7 1 11 -4 0 -5 -10 7 7 3 1 7 6 3 -1 11 4 12 5 -7 -2 1 -2 5 -8 -9 4 11 -5 10 2 5 12 -6 -7 -9 -2 10 2 11 -4 5 -3 6 5 -1 -9 -4 -7 9 -6 -1 -4 -10 -4 -5 -16 -1 -8 0 -5 -1 -2 -12 -8 -9 -5 5 6 3 -5 -3 -3 -3 -4 -1 -11 -1 -20 -3 -6 -1 9 -3 0 2 -4 3 -7 -1 -7 -7 0 -8 -1 7 -20 1 11 7 7 -4 -5 0 -11 9 -4 9 -7 -7 -7 1 -4 -5 1 -16 0 -8 -7 -6 -1 2 4 -7 -7 -7 4 18 -7 -2 -6 9 7 0 2 -6 -4 12 5 -2 7 2 -3 -6 -9 2 3 1 0 -1 6 -2 2 -11 -1 -3 -5 2 0 3 2 12 1 10 -2 0 -8 7 0 6 -6 3 6 -7 -1 -2 1 -2 6 -1 -5 3 -3 4 3 6 -10 -1 13 -2 -5 1 15 -10 4 3 -2 6 8 2 1 13 -9 -7 -2 5 12 2 0 1 -6 1 1 -15 -2 -10 1 -3 8 -1 -8 2 -8 -10 1 -3 -3 -1 3 -9 -10 6 -5 13 -5 10 9 6 -2 -6 -11 9 -2 6 -21 0 -7 5 0 -8 4 -1 -8 -6 5 1 -3 -2 5 0 12 10 8 2 -3 -4 -1 -2 3 7 -1 13 6 -6 -16 -7 -9 5 -10 -7 -4 -11 3 -12 -8 -5 5 -2 1 -11 -3 -6 -6 -6 -5 2 -1 0 -8 -4 -18 -4 -5 -2 7 -6 1 12 -10 -6 -8 -7 0 8 -12 1 -7 -8 -2 6 -5 -5 4 5 4 8 -2 0 -1 -2 -1 3 -1 -1 5 -8 5 6 11 4 -2 18 1 12 -4 -3 0 2 11 11 7 -11 5 3 -4 7 0 8 7 3 3 1 4 -5 4 8 -2 -9 4 1 2 3 7 -12 6 -4 -2 8 8 3 7 9 4 1 12 -6 10 3 4 0 3 6 7 3 4 5 -9 -7 2 3 -2 -8 13 9 -11 3 5 4 2 3 -5 0 -1 13 7 6 5 -5 4 3 -3 -3 -2 -11 -4 13 3 6 9 -2 -1 14 6 12 11 5 -2 2 4 3 -3 3 2 7 -9 3 4 3 -3 8 7 3 -10 -9 0 0 6 -3 -3 0 -1 -7 5 16 7 -8 -13 -4 -11 0 -7 -5 -1 -9 0 -10 17 -3 14 -6 2 -7 -9 6 -3 -1 3 -10 3 1 8 6 -1 3 -10 -7 17 2 8 3 -3 -6 -5 12 -1 10 13 -8 1 4 -6 6 -2 4 7 12 6 11 6 -4 10 -1 -13 -4 0 -12 -8 4 
5 -9 -4 0 -3 1 -7 -3 -3 0 -3 5 -11 2 9 4 -10 6 9 -3 11 -5 4 7 2 12 4 4 7 5 2 21 4 1 5 -11 9 9 -2 -8 10 6 3 17 3 4 -9 2 -1 21 0 15 8 6 0 -2 6 11 -7 14 -5 8 5 16 3 -4 3 6 9 4 5 3 5 5 -6 9 4 0 5 0 0 2 6 4 5 -3 4 6 8 0 13 -3 -5 -7 -9 -10 -1 -2 5 3 2 -1 15 7 -4 2 11 2 6 -5 8 -1 10 0 6 -3 -2 13 6 -10 -6 6 1 7 6 1 -8 6 4 8 0 8 6 -5 8 1 8 3 8 5 4 1 9 -3 -2 3 -6 0 7 -4 0 13 -4 5 5 -2 1 0 9 -2 -7 2 -9 3 -9 -17 -7 -3 -14 3 -9 -6 0 -9 -9 5 -7 -7 -1 0 -11 6 10 -11 -14 -6 -1 -8 3 -17 -7 -5 4 3 3 19 -8 -9 8 7 11 2 3 -8 4 1 7 -2 4 1 5 -9 -4 6 -2 13 -6 6 -1 8 5 1 3 8 -3 -4 -2 3 6 8 -16 1 -4 11 9 -2 -4 8 6 -1 -1 0 0 -17 3 -4 -4 10 -4 -5 -4 -4 2 3 1 10 -5 6 -16 1 4 0 -5 -1 0 -2 -4 1 -4 1 -2 9 3 -2 6 4 -2 3 -1 7 -3 4 -12 11 -5 7 -6 1 9 -11 12 -7 14 5 13 0 14 2 9 1 2 -6 5 1 0 2 9 -1 11 0 2 1 7 -5 8 -2 -10 8 1 -5 0 -2 -5 -3 8 8 -7 -1 4 -7 -16 -9 -3 -6 -5 8 -1 -10 -7 -2 -2 -1 2 -6 -4 0 -7 5 -3 3 0 1 -2 -11 -3 0 -6 -3 5 -11 -8 -8 -1 4 12 -2 -11 11 -4 4 14 -13 8 3 -7 -6 9 5 -14 0 -2 -7 -5 -5 -10 -13 -9 4 0 -7 -9 -6 -6 -5 -6 -12 -7 -9 -8 -8 -8 -8 8 -4 -9 0 -9 2 2 -11 -2 -2 -9 -8 -6 -3 -10 -14 -8 -5 -12 -4 -11 15 -11 -9 8 -8 -3 5 -4 -1 10 -1 12 6 6 4 -1 3 -1 7 6 7 0 -3 9 11 -12 9 7 6 1 -3 -4 -4 3 0 4 -5 -5 -4 6 4 9 -7 5 3 -3 13 -4 11 10 0 2 4 -3 5 6 -5 5 6 -1 6 -3 12 -1 -3 7 -1 4 10 -3 4 1 6 -5 7 7 3 4 5 13 10 -1 8 7 -3 3 -1 1 -1 1 1 1 12 12 7 -9 1 3 4 -8 14 -3 -10 4 -2 -10 9 -10 5 1 -4 -2 10 0 3 7 0 3 12 18 1 2 -4 9 12 2 -2 0 12 -5 2 1 -2 -10 -1 9 -1 9 -1 -4 9 -6 10 13 -10 12 -3 2 2 -7 7 -8 -9 -6 3 0 2 -5 -1 0 -1 -5 1 -10 -4 -3 1 -5 -1 11 3 -3 1 0 -9 10 -11 -3 8 -10 2 6 -2 9 5 -3 0 -2 -2 16 -7 13 2 12 16 5 0 -7 -3 4 -11 -4 3 5 -2 -4 -3 1 8 -1 -3 11 -4 7 0 -1 -6 
-6 13 4 -9 6 -6 3 0 7 10 -4 4 -1 3 -6 -4 -9 6 6 14 2 3 8 6 9 11 3 7 18 1 14 8 16 10 8 -11 27 -18 8 7 -8 -1 16 -3 9 8 10 2 6 2 6 3 7 13 -7 8 7 -3 4 -1 6 3 -5 1 -4 2 4 4 3 0 2 11 9 8 4 -2 16 -8 6 -8 -1 1 5 10 5 1 1 -3 14 3 -6 3 -2 11 3 -3 1 -8 3 0 -4 -7 -7 -7 6 5 0 1 -7 -14 9 6 0 7 7 -11 0 1 -2 6 -4 -5 2 -6 0 -5 6 0 2 6 10 2 -8 6 1 10 3 -5 7 -3 18 6 3 2 -2 3 9 4 -3 1 -4 0 -1 1 -7 1 -8 5 -8 6 -5 -8 0 -17 -5 -4 -19 -1 -6 -5 -10 -11 -1 -8 7 -6 4 5 -5 -10 1 -7 -6 -2 -6 -3 2 -9 -4 -1 -3 9 -9 -15 2 -4 8 -7 -4 2 4 -5 3 1 -1 -3 -8 -1 2 -3 1 -12 -3 2 -5 -6 -1 1 10 1 10 15 0 4 -4 5 -3 -3 3 1 -9 7 -2 6 -2 -6 -8 -1 -1 0 -5 -11 3 2 4 -6 1 1 6 8 4 12 7 -6 -1 -7 -1 10 13 -15 -10 0 10 4 -3 17 -8 -7 -1 0 -2 2 -3 8 4 1 -2 9 -5 3 -3 -8 8 -7 3 -5 10 -7 7 -5 -5 -4 -11 -5 6 4 6 10 0 4 7 7 12 -2 -7 2 1 0 -11 9 4 -6 -8 -5 -5 0 2 9 -7 1 7 -10 4 -8 7 8 0 -3 -2 -3 -11 -1 -13 7 -6 -7 3 -10 0 -5 -5 -7 -9 -7 5 -4 8 -4 -5 6 -6 -16 -13 2 -4 -1 9 -14 1 4 6 -5 -5 -5 -3 8 4 4 -14 -5 3 0 -11 4 15 3 2 -7 14 -7 -1 -7 2 4 11 13 -5 9 -2 -10 1 6 -5 -15 3 3 -7 9 2 9 -6 -2 0 0 -16 -9 1 -14 13 1 -8 -8 5 9 4 -8 -9 -7 4 6 -7 -17 -15 -9 4 3 -2 -1 -2 2 -4 -4 -5 6 2 -8 9 -3 9 -6 6 2 -4 6 -5 2 3 8 -7 5 9 2 -10 -7 4 0 2 -10 -1 5 -11 7 8 5 7 -10 3 -1 0 0 -7 1 3 1 1 4 -2 7 -2 14 2 11 7 4 9 -21 4 12 2 -8 6 -2 5 3 3 7 -1 23 6 19 11 6 5 2 -7 8 2 4 -5 3 -7 11 9 2 1 -8 9 3 11 -3 7 11 4 4 6 1 7 0 0 -1 5 -4 5 -13 11 6 6 -4 -1 4 9 0 0 12 -4 7 5 -3 10 2 -10 4 16 -7 0 -14 7 -5 7 -2 -4 0 5 -9 0 -6 -1 -10 8 -12 7 5 -11 -4 0 2 -2 5 -15 5 -5 2 -6 5 -7 -4 2 -2 -3 10 -3 5 -3 4 -1 -14 2 3 -3 -1 9 -8 6 0 1 4 -6 4 6 -1 7 4 4 8 9 -1 1 2 -3 -1 1 6 8 -6 -1 -1 5 3 17 8 -4 -3 6 0 3 -22 -1 -6 -2 7 
0 7 2 -1 13 6 6 1 -12 -7 -10 -1 2 7 7 5 0 -2 6 -6 0 15 6 -9 7 0 0 6 12 9 7 -1 11 4 7 3 3 6 3 4 -1 9 -4 13 8 -1 5 5 1 -15 8 3 5 9 2 0 -12 6 1 -9 6 0 5 9 -1 9 1 6 -5 6 -5 5 10 0 -3 8 5 -1 0 3 9 -7 -8 -6 -6 3 0 13 -7 6 12 2 4 7 -2 -7 -6 9 5 2 6 -1 4 -10 4 7 -9 2 10 13 5 -12 7 -4 -4 -10 0 -4 8 -1 -1 -12 10 3 3 5 6 15 7 10 10 -6 7 -2 11 -4 3 1 5 -2 11 8 2 -7 12 -15 3 4 6 1 -2 4 -4 -3 7 -3 -6 -2 -1 2 8 1 -10 -3 -4 -10 -8 -1 -11 -8 -10 -4 -6 -2 -7 -1 -12 5 -7 4 -1 -7 0 -13 -5 -1 4 -2 9 -1 -4 6 -2 -3 12 5 -5 9 -11 3 4 3 1 4 5 -4 6 -3 0 4 3 -4 3 -18 -2 -1 0 7 2 -7 5 -1 15 -5 1 7 -7 1 2 3 9 -4 12 0 8 1 -6 -7 -8 -4 -5 -1 -5 11 -4 0 1 8 13 7 -5 5 -14 5 3 -2 5 1 4 22 -2 3 8 4 -1 4 -1 -1 -11 -2 3 -5 -8 5 -4 6 8 0 7 3 6 1 2 -4 2 0 6 3 -3 1 -6 -2 -3 6 0 8 12 6 -6 -1 6 4 -2 15 7 1 2 0 8 -1 9 0 16 -3 -5 6 5 -8 18 0 -13 -4 -2 1 -2 -10 3 -3 -2 -12 -8 4 -6 -3 7 -6 4 4 -8 -1 -3 -6 4 3 -5 -3 -3 -5 2 -8 -10 9 -1 -8 1 12 -9 13 -5 -6 0 -9 -2 4 9 -1 1 -1 5 5 2 2 -7 2 -7 -9 -12 7 0 -10 1 -9 9 2 2 4 -11 -4 -3 -3 -4 -3 -3 -5 -1 -5 0 -4 -7 -11 3 -3 -12 1 3 -6 -4 -2 -9 2 -3 -4 -9 -16 -8 1 0 -5 -16 -5 0 2 -3 4 9 -2 -7 16 -4 -2 2 0 3 -6 8 9 7 -5 5 4 6 -4 3 -17 -4 8 -4 -7 2 5 9 4 3 -1 3 6 17 0 -1 -6 5 -3 7 6 7 6 11 -5 10 -1 -1 9 0 3 4 6 -6 8 -8 3 -1 15 3 5 8 -1 4 4 6 7 -5 5 -2 5 3 3 -2 7 7 -1 1 -7 0 5 -4 -2 -1 1 -7 1 -5 -8 -1 -21 2 6 -4 0 7 -1 3 -7 11 10 5 8 2 0 4 -9 -5 8 0 10 1 -12 -4 12 0 6 10 -6 1 5 10 0 1 12 13 4 0 0 -7 8 2 0 20 -4 -4 8 9 -2 -5 17 -6 -6 5 3 7 10 -5 -9 2 -9 2 -1 -1 0 -5 0 -4 -12 2 -11 -6 -5 -3 -11 -7 -1 0 -3 5 -3 2 13 4 4 10 0 -5 -3 -1 6 5 9 -14 10 -4 4 5 16 2 -4 4 8 -4 10 1 1 0 -1 8 0 -7 -5 6 5 5 -9 -3 10 1 -5 -12 16 -7 0 -6 -1 
5 -7 5 3 16 -10 8 1 15 -2 11 1 7 -2 1 -7 9 9 -3 16 -7 -8 4 -2 1 -7 8 -13 13 8 1 3 10 7 13 7 9 -3 14 8 -3 -4 15 0 11 10 4 10 7 6 2 9 9 3 4 0 0 -5 -9 10 -5 -3 2 6 8 5 2 9 -3 8 5 10 4 4 4 9 9 13 5 20 6 -2 -3 16 -12 4 3 8 1 -1 -14 3 3 0 3 -5 -1 -7 -2 5 -9 0 6 0 5 2 3 -8 -9 3 7 5 -3 -4 -3 8 2 5 -3 -5 -11 14 -10 1 2 -2 -3 1 3 10 3 0 -6 9 -8 4 8 -13 6 7 -10 8 -1 2 -14 -8 12 -8 -6 6 4 -8 2 5 4 -6 -7 -5 -7 -1 1 -19 7 -5 -8 -7 7 -8 -9 5 -19 -2 -11 -4 -7 -5 11 -7 7 -9 2 -13 6 -13 -7 0 -12 0 7 -8 5 -7 -3 11 12 1 5 12 8 1 1 4 3 -2 2 -7 6 9 -2 4 -1 7 17 -2 3 8 1 -2 6 2 6 3 5 -5 -5 -8 -5 7 1 10 -3 6 -1 -3 1 3 2 7 2 -2 -8 9 -4 -4 -6 8 -5 7 1 1 -6 3 2 -12 -3 9 -2 6 4 4 9 0 7 -5 4 -1 1 -19 4 -6 8 -5 1 1 -5 2 2 3 -7 6 8 -1 11 5 2 -8 -5 9 -3 4 -2 3 2 2 -1 2 3 0 2 -3 6 4 -3 6 -2 2 -8 1 0 0 6 -3 -4 9 8 -9 4 -3 1 -2 10 -4 -8 -6 -2 -8 6 0 -2 -13 -12 -9 -11 -13 0 -7 9 -7 -4 -9 -10 -5 3 4 -8 -2 7 2 6 -6 -3 -7 -8 6 -7 -12 -6 -6 1 3 0 8 -10 -1 -6 -3 -4 -1 5 -5 1 3 0 5 -4 15 -2 -2 -1 2 2 -15 -2 -4 1 -1 1 -15 9 -3 -8 -4 2 0 8 -12 6 6 -9 1 -15 9 -10 -12 -9 5 -4 -6 -11 -6 -20 2 -13 0 -11 -13 0 -7 2 6 -7 -20 7 -10 -5 0 2 -12 -14 12 -6 -1 -2 10 -4 5 -2 9 1 4 5 14 -4 8 5 -6 -2 1 3 6 7 3 9 0 -3 -6 -2 -12 6 15 -8 14 8 -7 4 5 -3 -3 -1 7 5 -2 8 3 3 16 10 19 7 4 1 -4 -1 -5 -13 -3 14 -6 7 3 7 -8 -4 -5 -2 8 -3 -5 5 -2 0 6 -1 0 -11 3 -2 2 3 3 -11 -8 2 3 -16 11 7 8 -1 -4 7 -8 9 -3 -6 2 8 0 5 -4 1 -3 3 8 -3 1 4 3 5 16 9 6 10 -5 2 4 -4 -6 -4 -2 -7 -3 -2 3 -6 -5 10 8 9 7 -3 -12 4 -2 -6 9 0 5 -2 5 -4 9 3 -9 -1 10 3 9 -12 -9 -6 1 1 -7 3 1 -5 4 1 2 3 0 -3 -1 -2 -3 -3 9 -5 7 4 8 12 -2 -4 -6 8 5 3 -9 -4 -13 8 4 7 13 4 7 4 -9 6 -4 13 -2 11 1 6 -8 -8 -6 8 -9 2 -2 13 3 5 1 14 5 
1 6 5 6 -3 2 10 -7 -7 5 -5 13 -1 6 5 11 -7 9 1 1 -2 -6 8 11 -2 2 9 -6 12 0 8 -4 9 10 7 5 2 -5 7 -1 8 7 -7 12 8 -2 11 6 13 -1 5 6 3 -8 4 -5 3 3 6 0 15 -1 -9 -10 13 14 7 16 2 -6 -8 3 -4 0 5 3 7 9 0 -1 3 -9 6 -8 -1 8 -9 7 1 4 -1 1 2 -3 5 5 4 16 3 -6 -9 -8 -13 -5 -10 -5 -7 -4 0 3 -2 -2 12 5 5 -3 -8 4 -5 -1 -6 6 1 8 4 9 9 -6 9 7 -2 3 13 -4 6 15 6 4 2 2 -10 1 6 2 11 13 9 7 9 1 -2 6 -4 -4 -12 -1 0 2 1 -9 -3 -2 -12 -1 6 -12 -15 -3 3 2 -5 -5 -11 0 -13 -3 2 9 -5 -8 7 -10 -13 1 -7 -5 -4 -12 -6 -4 4 9 -5 3 6 2 2 -11 5 -8 -7 -6 3 -3 -10 -6 -3 -2 0 3 8 -11 -2 -3 8 -2 0 -5 5 1 12 3 4 -4 13 0 8 8 1 4 11 -2 4 3 7 18 -1 7 -8 -11 -8 2 6 12 -10 -1 9 5 4 7 8 8 -7 10 1 3 6 2 -5 2 4 8 4 -2 0 7 -5 3 6 -9 7 16 1 -6 7 7 -8 -5 4 -6 12 0 0 -6 6 1 6 -4 -5 -9 -3 -5 6 3 3 -1 0 -1 8 0 -7 -1 1 0 -10 7 9 -3 1 6 5 5 6 -4 -4 3 -2 9 -2 -3 3 -4 -8 -13 6 0 5 -18 -1 -8 -11 -6 -13 7 3 -14 4 0 -12 -8 -4 -6 -8 5 0 8 -6 -8 -1 -8 -9 -6 -4 2 -10 6 -6 3 -2 -5 18 -14 -6 -9 -6 -2 11 -6 -1 9 -2 -1 -7 -8 5 -7 -8 -4 1 2 16 -4 -11 -4 -8 1 10 -7 0 1 10 -4 13 -7 -3 -9 -6 -7 -8 -1 4 -13 6 -5 -8 -14 3 -6 -8 -13 10 -4 -5 0 2 2 -2 -1 -7 5 -3 3 -9 3 -8 -2 -1 0 10 -6 -5 11 -5 4 -1 4 -3 5 6 7 6 -11 2 6 2 -6 -1 5 10 -3 -1 5 4 5 8 1 15 8 3 3 3 -2 0 7 9 0 -5 6 10 10 10 10 7 9 9 6 10 0 -5 12 0 -8 2 6 9 -5 11 -8 8 6 0 8 4 4 -1 3 0 -2 -17 3 -3 -6 -5 2 6 10 2 8 4 -5 -3 4 -9 13 -1 2 9 0 4 9 1 8 0 -5 -16 2 -1 5 -6 -14 -7 2 -6 10 6 -8 0 -8 2 1 -1 13 -7 -12 11 12 -8 1 2 3 -5 8 -3 3 4 11 -6 6 -9 -8 9 -1 -3 0 4 -4 -3 -4 -7 -8 -3 -7 0 -8 -3 -4 -8 -1 6 -5 -2 0 6 -2 -4 -10 -5 -11 2 -1 -5 -3 2 4 -3 5 -5 -3 -3 9 6 3 5 -3 -6 6 2 16 -2 8 3 1 -6 7 6 8 5 10 -3 -1 10 -9 -3 0 9 -3 -6 7 3 0 8 3 4 -8 8 0 -8 5 2 4 
-2 6 12 -7 6 -13 4 14 5 7 4 8 -6 4 0 3 -5 2 7 6 -5 11 3 6 2 -2 6 7 15 10 9 3 19 -5 -5 -8 -3 2 -1 7 -4 -3 3 -1 2 -5 2 10 -1 15 -10 8 8 12 -5 15 -10 -5 5 5 0 -6 11 6 3 2 -7 12 7 5 2 13 12 9 12 2 3 17 -2 2 15 -2 3 12 1 -12 -2 -7 8 2 2 5 -2 1 3 -6 12 -1 4 -5 -1 6 -7 9 3 -7 -5 -3 -5 -6 1 7 -4 0 5 -2 11 -12 3 -4 -4 -1 -14 -4 2 11 4 24 12 1 -1 4 0 3 -2 9 3 4 -6 6 5 5 2 4 3 7 5 2 -7 -2 10 10 -10 12 4 -17 6 -8 5 7 -8 1 -10 -6 -11 -5 3 -1 -1 -10 -2 3 2 3 8 -3 -3 -11 6 1 -13 -5 8 5 -7 -7 7 6 1 -4 0 -3 -3 8 -5 -6 2 -5 -5 11 6 6 -8 1 -1 6 4 2 -4 -7 10 -2 7 16 -7 -2 0 2 6 -8 10 -9 -1 -5 -9 12 -3 1 3 -9 -3 5 8 -5 8 -3 6 -2 5 -16 1 0 12 -5 -9 10 1 -3 7 -3 -1 10 7 8 4 -7 6 7 -2 1 4 7 -2 2 3 2 1 3 0 -1 4 -8 6 16 -4 2 -1 -4 -2 1 3 -12 -2 2 -2 7 3 -2 -8 -4 3 12 -9 9 3 -5 3 5 8 3 5 -4 -5 1 3 2 7 -5 3 1 -4 -16 -1 -1 -1 -7 -5 1 0 0 -7 -10 -4 -2 -3 -4 1 -9 -1 -5 2 -7 -9 -7 -7 -7 -7 -3 6 2 -1 1 -12 -10 -14 2 -7 3 6 -16 -3 -3 14 2 -1 -7 0 0 -4 7 -5 -8 0 -7 6 6 -3 3 -1 -1 -8 -9 -13 -2 -2 1 4 8 3 6 -8 -3 3 1 5 -7 -7 -3 -10 -2 5 -16 7 -18 1 -2 -7 -9 -10 4 -13 -8 -16 -1 -8 -4 2 -6 3 1 -7 -5 0 1 4 3 -6 -5 -2 8 8 -14 -5 5 3 3 -8 -1 5 2 4 0 -7 -5 -5 4 -4 3 -2 -9 2 12 8 -2 7 -6 11 2 -12 -2 -2 11 -13 7 4 -2 -10 -4 8 12 13 -2 3 10 1 10 2 -7 -1 4 9 3 9 4 10 -3 1 3 0 5 3 3 -7 -6 8 -1 12 -1 -3 5 7 -2 0 -3 -20 7 -8 -3 -16 8 -3 7 2 2 6 -8 -5 3 -6 6 14 -1 0 -7 -1 9 -14 -3 0 7 -7 8 -11 -2 8 8 7 -7 1 8 -9 10 -4 0 7 -5 15 -10 2 4 7 -7 8 -1 -12 -4 3 -4 1 1 2 6 -10 7 -9 5 -8 3 -6 0 7 -8 8 5 -16 2 -1 0 -3 3 8 0 -1 -12 10 -9 -8 1 12 -11 5 -5 -1 0 -6 -9 -10 -6 -14 -1 -4 3 -6 -6 10 -4 3 -7 -2 -10 -7 10 0 6 8 -8 -4 -4 -5 3 5 5 10 1 6 -8 8 8 -7 10 -1 -1 4 0 21 4 -5 6 2 7 10 0 6 0 1 -5 -8 -2 -2 6 
7 10 12 9 0 7 12 7 8 3 1 0 -1 7 2 -1 1 4 2 0 0 5 -1 -12 7 3 3 2 3 13 5 2 8 2 7 8 12 -8 13 2 7 6 5 6 3 -1 12 2 -3 5 0 7 14 4 0 -2 -4 6 11 1 9 6 -1 8 -5 10 17 2 1 7 6 -3 3 11 0 2 11 -4 13 1 3 -4 2 7 5 -1 -8 11 4 -1 0 -5 -9 -8 -6 4 -6 -4 -6 11 1 -9 -5 -11 -17 -3 -4 2 3 -7 -2 -8 4 -12 -10 -12 1 0 -5 -3 -7 -14 -7 -4 4 5 4 -6 -9 9 10 -8 10 -6 4 2 -2 -11 -9 8 -9 2 8 -12 2 9 0 6 1 1 3 -13 12 -2 -5 0 3 -10 -3 -4 0 1 -2 -4 -2 -1 -6 -4 -7 2 -15 -1 -3 -3 -11 3 3 -4 -14 1 1 10 -15 0 -9 -4 -5 -8 4 -7 -9 12 3 -3 -2 -4 5 2 0 9 -7 4 -5 -8 -4 5 1 -9 0 8 4 8 -5 0 -1 0 1 8 7 2 7 10 -6 12 -7 5 4 5 -5 2 2 12 3 4 0 -3 7 2 -4 5 -14 6 1 2 4 7 1 -1 5 6 11 -4 5 11 8 10 3 7 2 5 -14 3 -10 -2 -1 8 -10 -2 3 3 -8 -3 4 0 -3 -9 -3 11 3 7 6 -8 6 -1 3 -1 -6 -7 2 -11 -6 -5 -2 5 3 7 0 6 -2 -4 -3 10 1 -4 1 2 -1 0 3 13 0 7 5 8 4 -5 -9 2 -5 -5 3 -9 5 -2 6 0 2 8 -5 -3 2 0 -17 -6 -9 -5 5 -12 0 -19 9 -12 -2 -5 1 -5 -3 -4 -10 6 -15 -4 -14 -5 4 0 -15 2 -3 3 -6 -7 -2 -20 1 -3 -9 -9 -4 -18 3 5 -7 -7 -2 -8 5 0 -15 -3 11 0 5 -11 3 7 10 -2 0 -14 5 5 -7 4 -10 -4 1 -12 -1 5 -29 -5 -3 -16 -5 4 -9 -3 5 -12 -5 -1 -8 4 -9 8 -6 -9 2 -7 -5 9 12 5 -12 -8 6 5 6 -7 -6 -2 -2 0 -4 6 -10 2 -1 -6 5 -6 13 -12 6 11 1 -6 4 5 7 -3 6 2 -3 2 6 1 -1 4 4 -1 1 6 -6 4 10 7 3 3 -4 9 8 10 2 4 -1 15 -3 4 8 8 10 2 15 5 10 3 2 8 0 9 -1 1 -1 -2 -7 8 -4 -11 3 0 -9 0 0 -17 3 -1 3 -13 -7 3 -2 0 -5 -7 -8 -2 -4 1 4 -7 5 -7 -7 3 -15 1 9 5 6 -4 -10 -1 4 4 -2 15 -3 -2 5 8 5 2 -5 -3 7 3 5 2 -2 -1 4 3 12 2 -3 9 -2 -4 4 0 -1 -3 -10 -2 -4 -5 -3 4 15 -8 10 3 2 3 3 -2 -1 6 -3 5 10 0 2 -5 -4 5 2 8 -10 4 4 2 1 -5 -3 5 5 -18 2 4 4 -3 3 6 -5 -8 8 -4 7 2 13 5 -1 -9 -4 7 5 -2 15 -1 -2 -3 8 3 9 12 2 -2 -13 4 -5 -3 -10 16 2 -2 0 7 
-2 -4 5 11 -1 1 7 10 5 0 -4 -8 15 5 0 -1 -4 -8 4 4 -1 10 -1 -1 -6 1 -5 3 3 10 4 2 9 -4 10 6 -6 2 0 0 -2 -6 -10 10 7 14 -4 1 4 8 -7 9 -7 -7 11 10 18 -9 -2 1 9 0 15 13 -2 -2 4 1 2 0 1 6 8 -7 -6 -3 -3 0 1 12 1 7 -2 -5 -5 18 -11 4 0 8 0 8 -10 -7 -2 5 13 -7 -8 -6 -2 -8 -5 -1 -3 -7 0 3 16 3 1 -6 -8 9 -3 -3 -1 0 1 5 7 -8 6 8 -2 4 3 10 3 3 -5 16 0 2 -8 -1 -11 14 8 0 4 13 0 4 14 -5 4 -3 10 -4 -5 -12 8 -7 1 4 -2 -6 5 0 -3 -4 -12 1 7 0 2 -6 -8 -1 -9 -4 2 -11 -14 -1 -4 5 -4 7 -10 -5 8 -15 0 -20 -4 -5 11 -12 4 3 -1 14 -8 4 -10 1 -8 -7 -7 0 -1 -6 1 -9 -9 1 -8 0 -3 -5 4 -1 -6 -1 3 -11 -6 8 2 6 -4 3 6 -1 2 1 3 10 11 -1 5 3 7 7 6 3 -1 0 3 6 -5 5 -3 3 6 2 -5 3 1 5 0 0 6 -6 -3 -4 12 -2 -3 5 10 1 -8 -9 0 2 -4 -10 -6 -1 5 -11 7 6 -5 7 9 -2 5 -5 -13 -18 -5 -6 7 -1 -4 6 -4 -9 12 7 -12 2 1 4 -4 -10 1 -2 -2 11 0 -9 6 -13 7 8 6 -7 7 -11 -3 -10 -5 7 5 -5 -4 -3 -2 3 -4 -3 6 -10 -13 2 -6 3 -4 -18 22 0 -14 6 -5 -9 -13 1 -12 -11 2 -7 -9 0 0 9 -6 -2 -11 -3 -5 -1 -8 -6 -6 -7 9 3 0 -16 -6 -5 -9 -2 -7 7 2 5 -8 23 -3 9 -1 -1 -10 -2 11 1 -3 2 -11 4 -4 -3 3 -5 2 -1 7 -7 6 -7 5 -13 2 4 -1 5 -2 8 -8 -1 2 -2 3 1 15 -2 -1 -8 -8 1 6 4 -11 4 -6 4 -3 5 7 -4 8 -2 -5 0 6 -1 3 -5 1 -1 5 -3 -10 4 7 4 -2 11 8 9 13 8 1 5 2 1 9 -7 5 -2 1 0 12 11 2 10 6 5 -8 -3 10 -3 -2 20 10 3 4 6 12 -3 2 7 -2 2 4 0 9 -6 6 7 6 -4 7 -11 6 6 -5 -1 3 -5 11 -3 7 -2 -1 8 -7 3 0 -12 -5 -5 3 -9 8 -20 4 -2 -7 3 6 1 -1 2 -5 -6 -10 -1 -6 0 -1 -6 -1 -8 3 0 7 -5 -9 -2 4 -7 6 7 -5 -5 8 8 12 -9 -5 1 -6 2 1 -7 -4 0 -1 16 -5 3 -3 2 -8 3 -10 10 -5 5 -2 9 -9 6 -1 -6 1 -4 -12 8 -2 0 -5 -4 7 -8 -7 1 -6 2 6 5 4 -4 2 -1 0 3 -7 7 8 -2 7 -6 4 7 9 4 2 11 -9 3 11 12 -12 6 -14 2 1 1 9 -10 11 1 -6 7 0 -2 2 -2 -10 3 4 3 4 -2 11 7 17 -3 -2 -2 5 11 
9 12 2 13 17 11 -6 14 -1 4 -4 9 -3 3 -7 8 -1 4 -2 13 -2 4 -1 1 6 7 10 -8 3 -4 3 2 1 9 7 -7 6 -8 15 0 -5 1 2 -14 2 -1 0 12 -6 14 -1 3 -1 7 4 -4 -3 -7 5 2 3 17 9 11 22 5 10 5 13 7 -1 9 -1 1 23 6 1 14 -12 9 5 -3 6 -9 8 1 -1 0 -7 9 -17 -1 -2 -11 -3 -9 -2 -3 4 -7 -3 7 -5 -2 7 -14 -1 -2 -9 -3 -7 -2 1 -7 -3 -14 3 5 1 -6 -5 6 5 9 -5 -2 -1 0 4 -1 4 -2 3 6 11 0 2 11 -2 6 -7 3 -2 7 -2 0 6 7 -16 -5 -2 -2 7 -9 8 -10 8 5 4 5 -6 -3 -8 -3 -2 -5 -6 1 5 -1 4 -16 -6 5 -4 3 6 -3 3 -2 -10 -8 -13 -9 5 -2 -1 -16 5 -1 -3 -5 1 12 0 4 13 7 -3 -1 13 6 3 6 -4 6 0 2 10 8 -1 1 11 -3 7 4 -6 11 5 1 -3 -4 -3 1 -4 17 3 -7 15 7 4 3 7 3 11 -3 1 -4 8 -5 18 5 3 7 9 12 2 4 1 -5 -12 12 1 1 8 0 -1 1 8 -10 5 4 0 9 2 -3 7 -16 7 -4 4 -6 -1 -3 5 -5 3 -8 2 0 -13 -3 12 3 -6 -13 1 -9 -10 1 10 -13 -2 2 -7 -3 1 -3 -4 13 -4 -8 -5 -10 -9 -9 17 0 0 1 -2 14 2 3 14 -4 11 -1 -12 0 2 -15 2 1 2 -2 -2 -12 13 -7 -12 -5 -3 -4 3 -5 12 -17 -10 5 -9 -12 -13 0 -13 -9 -1 -11 -14 -13 5 6 -14 -2 -8 -9 -4 -2 -1 -7 -5 -6 -3 -1 -4 -2 2 -4 4 -8 -1 6 -4 -10 -6 8 4 -1 3 4 -8 -3 -3 10 -13 -2 -9 -11 -7 3 -2 -2 -12 13 -6 -1 -6 -5 3 -1 -4 6 -6 5 -3 8 -5 0 0 7 1 -1 5 2 5 -4 1 -5 -1 14 1 2 2 -7 7 2 2 1 -6 9 -17 -1 -6 -8 2 7 -2 3 -1 -3 1 4 -1 -2 4 -2 13 9 2 -3 4 -3 11 -6 8 -1 2 0 -1 7 1 5 -8 10 5 -2 4 7 3 1 -1 8 12 2 -7 25 6 11 3 9 5 15 -2 2 2 8 -1 4 1 4 -4 4 3 5 3 6 7 7 1 5 -4 -1 -4 -10 -5 -10 -11 4 4 -5 -4 6 0 -15 -5 -5 -3 -1 -8 -9 -8 -4 -8 -2 -7 -2 18 -4 4 -2 3 2 -7 10 -1 21 -2 5 0 7 9 -15 12 2 -20 9 4 2 -4 9 -1 7 0 -6 7 7 10 8 -2 -9 -6 2 -1 -11 1 2 2 -7 3 2 8 -2 -2 -12 -5 3 17 -14 -6 -13 -1 -4 9 -9 -3 -5 -5 11 0 3 -12 3 1 -9 18 -9 2 12 7 10 -1 -7 -1 -1 -9 -1 3 -5 -5 -14 14 -3 10 -1 -8 8 -2 8 -5 -4 19 9 19 2 -11 11 4 12 2 -1 -4 1 1 6 9 1 7 -9 5 -14 
7 -6 1 3 8 7 1 10 5 6 -1 -8 -2 5 12 5 7 8 8 -5 10 -8 20 -5 1 1 -10 8 14 -3 13 -1 7 -5 3 -3 7 3 -12 10 -11 -4 7 -1 1 -2 3 -6 6 3 2 10 4 9 7 0 4 3 -2 18 2 2 -6 15 11 7 11 9 -2 1 -3 19 5 11 -5 1 11 8 9 6 6 14 -7 5 2 -7 5 -6 5 0 -4 -4 3 2 0 -1 -2 -7 -2 1 -4 -4 3 0 -15 5 -9 2 -7 0 -12 9 -3 -5 -1 -12 6 -2 1 -17 2 9 -5 5 2 2 -6 7 9 3 3 7 -14 -3 -9 5 7 5 13 3 1 19 -2 2 6 10 9 13 8 3 12 -2 1 -8 -9 7 -2 -3 9 -4 -1 0 3 1 -12 -1 -1 4 2 -3 0 -2 -12 5 -5 3 -7 10 -10 -4 -11 0 -11 1 -5 -15 -4 -4 -5 -3 7 -2 -3 0 8 -5 -4 9 4 -1 3 4 9 -6 9 10 -3 -5 6 2 -1 3 -5 -3 -2 -4 -4 1 -11 3 3 16 -7 3 3 1 23 -4 -10 11 9 3 14 -3 9 12 5 15 2 10 1 4 15 -3 17 6 6 -7 0 3 -1 2 -6 9 0 7 10 -5 7 1 -12 -4 -1 -16 5 -2 1 1 -2 -4 8 0 0 4 2 8 -5 4 -11 16 -16 -2 -7 4 -3 -2 -5 -15 -2 1 -13 -3 -4 15 17 -1 -10 5 7 -2 8 3 -11 -1 -1 -3 -6 11 2 -1 1 1 -3 -7 -11 -1 -2 1 -16 0 -10 -4 -1 -6 0 0 2 -4 -3 -11 -1 8 -1 5 1 -8 4 -12 5 -1 -10 -11 -4 -10 0 -10 -14 -15 9 -13 -14 -12 -11 -5 6 -4 -1 -9 1 7 -16 18 -2 -6 -2 -22 -20 1 -2 -5 -6 4 10 5 8 5 -4 3 -2 -10 1 -10 1 6 2 -3 3 1 -1 9 5 8 9 -2 5 6 3 6 4 2 -3 10 1 7 2 1 -2 -6 2 0 -9 -11 -2 0 -5 -6 -8 3 5 1 -20 5 7 5 9 -7 -7 8 -4 -13 4 3 2 2 2 -9 8 -2 -4 -9 6 -7 2 2 3 -8 -7 0 -10 5 -7 11 1 11 5 -10 0 5 0 12 0 7 1 10 3 -6 -1 5 0 10 2 14 7 5 4 -7 3 8 3 -3 8 10 -1 -5 11 6 11 1 -4 -7 2 -3 -3 0 -6 -13 -4 -2 1 -5 -6 2 -5 5 7 -4 2 -1 -7 4 1 -7 -5 -8 -5 -19 -1 2 7 -1 1 0 6 4 3 6 -5 -5 -7 -5 -4 3 0 -1 0 -1 1 -6 4 -2 0 7 -3 -4 -1 14 -5 -5 15 -8 17 5 9 6 4 7 -6 11 -5 -6 19 -2 -7 2 1 2 -2 -3 5 8 3 -3 -18 17 -1 -2 -10 4 -14 1 -2 -13 4 -5 -5 7 3 2 4 2 7 -3 5 -2 0 -10 0 -2 -2 0 3 -3 -5 10 4 4 -10 1 -9 5 -4 -3 9 0 19 1 11 -5 10 -3 -2 4 3 4 15 -2 0 -8 1 4 4 -2 -7 8 15 8 10 6 10 14 
10 8 5 7 3 16 3 -5 8 2 2 -11 -1 -2 1 5 12 9 2 9 0 9 -1 -1 -3 15 8 -1 -4 12 16 -6 5 -5 -7 1 -1 6 2 -4 -7 1 0 6 9 9 -7 14 -2 -7 6 0 4 4 3 2 10 11 18 9 -4 5 10 -10 6 7 12 2 2 7 7 4 3 0 5 16 1 3 -13 -2 5 3 5 6 1 -3 -1 -3 1 -1 -6 -5 3 -2 0 -2 -2 -1 -3 -13 -4 -12 -4 -4 1 -7 -10 0 12 -12 -4 6 -9 -1 3 -4 -1 -10 9 -4 -1 -4 13 -13 7 0 3 6 -2 6 11 -4 0 -5 4 -12 1 -9 2 5 2 -4 9 -1 7 -5 1 3 1 1 3 2 -2 20 -12 -4 -7 5 -15 0 -7 5 0 1 11 1 7 -14 3 -8 1 -3 -10 -1 -3 16 -16 -9 -14 1 -5 -2 -9 -6 6 -1 -5 0 1 -2 4 -3 0 4 0 -10 -2 0 -3 4 -5 8 -7 -3 9 -9 -7 0 -3 -1 -5 11 4 10 3 4 2 -4 6 -2 -4 -4 5 6 6 5 -9 5 10 4 12 4 13 14 0 10 4 10 12 11 -1 13 -8 -2 7 -1 -2 -6 9 -5 -5 9 11 -7 13 13 -5 6 0 0 -13 3 -12 6 -3 -7 5 5 2 -4 8 7 0 3 5 -4 -1 -1 -14 -14 6 -8 -5 -2 -3 -12 6 10 -11 1 -6 -8 4 -1 1 -1 4 0 -6 0 6 -7 -7 -5 5 8 4 0 0 -5 1 -7 4 5 1 -7 4 -2 3 -1 9 0 0 -2 0 6 -7 -4 3 -14 -5 -11 -14 4 2 0 -5 6 -8 2 -7 -6 2 -1 1 -10 -12 -12 -5 3 7 2 -14 -11 -8 -2 2 -4 -1 1 0 -1 6 5 4 0 4 3 0 0 4 6 5 -2 1 2 14 7 6 1 11 -3 -8 -4 -2 -5 7 12 5 -1 -3 1 12 -1 3 -4 -5 -14 6 1 2 -6 2 6 2 1 1 8 4 -6 -8 12 -5 9 4 -11 -12 -3 -3 6 0 -1 -6 -5 -1 8 -7 -7 -2 -2 -3 -2 0 1 -7 -2 -10 5 7 -8 -7 -4 -2 4 1 3 -12 3 8 -1 -8 0 1 -6 4 4 1 4 9 -3 6 3 8 10 0 3 19 1 2 5 0 -3 10 -7 -1 12 8 -2 3 -6 0 -4 5 -1 4 -4 -6 6 -2 2 6 7 3 17 6 1 -12 13 -11 3 -2 3 -3 -5 4 -12 7 -3 -2 -11 -11 0 -4 -8 -4 0 -2 -1 0 -5 -8 -7 1 5 -8 -7 -11 0 0 -12 10 0 -3 -2 10 3 -11 0 -1 -4 -1 -2 6 4 11 1 -2 1 4 1 -7 -1 -9 0 -9 0 4 3 3 -1 -2 -3 14 -4 -4 10 -11 9 3 5 5 -3 13 -6 -14 -6 6 10 -8 -2 -6 1 -2 1 -4 12 -6 5 6 -2 -3 1 6 4 8 -4 6 6 14 -2 5 -5 8 -9 3 -9 -1 -9 1 5 3 5 -3 -10 -14 -4 1 5 14 -5 2 9 -6 3 -7 10 9 -1 -9 8 0 -1 2 -11 8 10 0 9 2 5 
12 13 4 11 4 8 -10 8 -7 13 4 -4 9 4 4 1 -9 5 -7 8 -6 22 0 17 8 4 -9 -1 9 -2 3 10 4 2 -1 3 -12 2 -2 3 1 4 -8 4 4 -5 0 -1 6 -3 14 7 1 3 7 13 7 9 -2 -1 2 14 -7 11 7 4 1 0 16 -4 11 16 8 -1 0 1 -2 12 6 -4 -8 7 6 -1 14 -12 -11 3 1 0 -11 -8 -10 -2 -8 -6 0 -5 -5 -5 10 -4 -2 1 3 -8 4 -3 -5 -6 0 -13 -6 -3 -7 6 0 5 -5 -1 0 0 -2 -9 1 3 5 -2 16 13 -1 14 0 10 7 -9 -1 -4 -1 -7 4 1 6 2 2 9 0 6 11 3 -3 5 4 -12 14 8 2 -1 1 5 -7 5 1 8 -2 -2 -5 -1 -4 -5 5 -4 3 2 -10 3 -3 5 0 -1 -1 1 1 12 -10 -9 -9 -4 -5 -6 -3 -4 -1 -10 -10 -2 -7 1 2 -13 2 -8 6 6 -11 7 -6 6 -8 -3 6 -11 2 8 0 14 4 5 7 -2 2 5 7 -2 -4 2 6 3 15 3 2 9 -1 19 8 2 4 6 8 6 -2 3 -3 -4 -7 -4 -3 1 0 -8 -7 0 12 3 7 -1 14 -14 2 3 -9 9 -23 8 -9 -4 -1 13 -1 4 -10 0 2 6 -2 2 -8 9 -3 1 -3 5 -5 -13 3 -7 -8 -10 -9 -7 5 -6 8 -4 -12 -7 4 -9 6 -8 1 -9 3 0 0 -6 2 -8 3 2 10 0 -6 -1 -15 8 -5 -6 1 -1 10 -8 12 3 4 1 -13 0 -8 -9 7 0 -13 -6 -7 6 12 0 0 1 -17 -4 10 -4 -12 1 -5 -3 -2 -6 -5 3 -6 -4 -1 -5 1 1 -1 9 13 -1 -6 0 -3 -5 -2 9 1 0 -8 -4 8 0 7 -7 0 2 4 -3 -1 3 -5 5 5 7 8 -2 -2 -1 -3 3 -4 4 1 -9 0 5 8 1 -2 0 -4 7 -8 1 0 2 -4 -3 -11 -3 -7 8 1 3 -5 14 2 -10 5 -2 -1 -2 11 -21 -7 7 -2 -3 -13 4 -6 -3 5 9 -10 8 -13 -11 2 -4 6 6 -8 2 6 -7 -6 9 7 5 6 0 -11 14 9 6 7 14 12 10 1 2 8 -2 13 11 15 1 8 15 5 -2 -4 3 1 1 1 3 -9 2 4 9 11 16 21 4 -5 8 -6 0 -1 -10 8 -8 -7 2 -4 9 -4 -5 0 -11 5 -7 -6 1 0 -9 6 1 -5 0 0 2 -3 3 -1 -3 2 3 -9 -5 12 2 4 0 1 -2 10 0 2 -16 -9 -1 -15 2 -4 12 2 7 2 -1 5 -5 -6 0 -1 0 3 -8 15 4 1 -5 11 -3 6 -3 3 1 -11 1 -3 4 4 9 -3 7 4 -2 -11 -10 3 3 -6 -4 13 -1 -10 10 0 2 13 0 5 -2 0 8 1 3 10 -2 -2 -1 8 -17 2 4 1 -5 11 -4 11 1 1 -8 -2 14 -4 10 1 17 0 2 0 2 -2 11 -4 6 -6 1 7 10 10 8 11 4 -5 8 13 9 2 8 18 -13 10 11 
3 5 3 -4 -3 10 0 -3 13 11 7 7 -15 -2 10 10 -4 7 15 7 -4 -13 9 -5 2 0 -3 6 -3 1 2 4 7 0 -2 12 -6 2 -3 2 5 9 1 1 0 8 7 -2 1 -5 0 8 11 9 -3 -5 6 6 4 0 3 0 6 -6 13 2 7 5 7 5 -6 15 -3 11 3 -1 -6 9 3 0 17 20 -15 -3 -8 12 12 2 -6 1 1 -9 12 6 2 2 1 -6 -1 6 -5 -14 3 -6 0 -4 -3 3 4 -3 -7 2 3 -14 13 -13 13 -7 0 8 -3 -4 2 -14 1 6 -3 5 -5 11 7 1 4 -2 4 12 5 -12 3 -11 4 -4 -3 5 -4 4 4 4 4 -8 7 -6 12 -1 5 6 3 4 -2 5 10 8 -1 3 6 -13 13 -16 15 -4 5 0 -5 4 2 -5 6 10 0 9 -3 15 2 1 4 8 10 6 1 -2 -8 -7 -2 0 4 0 5 -3 -4 -7 -3 -6 -9 -10 3 -8 1 -6 0 -3 1 7 -1 -14 -7 -11 10 10 12 -3 3 -3 1 0 11 4 10 -8 -1 -2 1 16 0 7 7 6 10 -2 8 -5 7 20 -3 2 6 6 7 14 -4 1 1 9 4 10 8 -7 17 -3 10 6 -7 7 3 -2 3 -9 -10 4 4 8 1 0 -3 -3 1 8 0 2 -8 -3 -3 4 -4 -6 0 -13 -2 -1 11 9 3 6 -3 -3 -2 -2 10 4 2 11 6 1 5 -7 -12 -4 -7 -9 4 -4 3 -8 -4 -17 -2 -10 0 16 -8 -1 -4 -3 3 -7 -2 -5 -2 -13 -5 -10 -2 -11 -5 -6 -3 -5 -6 -10 -7 5 0 -3 3 6 -2 -6 -6 -6 -6 -1 -5 -5 4 5 -12 0 -4 5 -8 1 -2 -3 1 -13 4 -6 -2 -1 -4 4 2 -5 1 -2 -5 -2 -2 5 -12 -1 0 4 3 -3 -2 1 1 -9 11 0 2 -6 3 2 -6 19 8 -7 -5 -9 5 7 -9 -11 19 -4 3 -10 -1 3 -6 3 -9 0 -7 5 -12 -10 -1 13 11 0 3 3 -5 6 -7 3 -6 1 -4 -5 15 -2 4 -4 -9 -5 -12 -1 -9 5 2 -4 2 -11 9 -4 1 -2 -16 2 5 -10 3 -1 -5 -2 7 6 3 -2 3 2 6 8 12 4 12 -1 4 12 5 9 2 19 -7 4 7 7 3 6 -2 4 1 2 -6 12 8 1 11 1 -5 11 -9 -8 -10 -9 8 -7 2 -15 -7 0 4 6 -1 2 -8 -5 -7 -4 -1 4 -7 0 4 1 8 -7 5 -5 2 -6 -7 4 -10 0 1 11 -1 -9 -9 -4 -17 5 -6 -5 -3 5 11 -8 -5 13 -8 2 -2 -15 7 -1 5 2 -9 0 3 1 -4 -3 -11 -1 -3 3 -4 -9 9 2 -1 -2 1 -3 -1 2 5 5 -1 -3 -8 3 -12 7 7 3 -2 -7 1 -6 6 1 -2 -2 3 -6 -5 10 -3 6 2 4 8 -7 11 5 -11 -13 -4 -12 0 0 -4 10 3 1 4 1 -8 9 3 0 -2 6 0 -6 5 -10 7 -3 -3 -2 8 7 6 2 8 3 -1 0 6 7 8 5 
-3 10 -10 11 -4 3 4 3 12 6 7 9 2 4 -4 -2 -9 4 2 -6 7 1 10 10 6 4 0 12 -15 14 -1 -1 -3 10 2 5 -4 3 -6 -3 10 -6 9 6 6 -3 8 4 8 2 6 0 8 4 -2 0 -4 11 -2 7 5 -4 7 5 -1 -7 8 19 6 9 -4 -2 11 4 12 -7 3 -4 5 6 2 -3 -5 11 -7 0 3 -16 3 -21 10 -4 -7 4 13 -7 -5 -7 -8 0 -4 0 -13 1 -3 -3 -2 -6 -2 -12 -5 5 6 1 2 1 0 3 -8 11 -5 2 -9 5 0 -2 9 4 4 -14 -13 16 8 12 0 10 -8 9 2 -2 7 2 -6 -8 2 6 3 5 -14 0 4 6 12 6 7 1 1 -6 -7 -3 2 3 5 3 4 4 1 15 -11 2 -3 7 6 4 -4 4 5 -9 5 -5 4 -4 -5 4 16 -11 -7 1 -1 4 -6 -12 8 4 12 -2 -5 0 -10 -5 -18 5 4 7 9 -17 5 5 6 -9 -10 -2 2 -7 9 9 -4 2 0 5 10 -10 -1 -7 2 16 1 3 24 11 -4 10 5 -4 7 1 4 -3 -4 2 13 5 0 -8 4 -5 3 9 -1 5 1 -3 9 2 -1 -7 3 10 -6 -5 -6 -2 8 -5 0 2 5 5 6 1 -4 7 -5 5 -12 -7 -5 -1 4 -3 -4 -1 -2 6 -6 -3 -2 13 -10 -1 3 11 -5 1 15 9 0 8 -9 4 5 -6 -7 -7 -6 -1 8 15 -4 -7 -17 5 10 6 -1 -10 2 -19 0 -5 5 6 -7 -7 -5 -6 3 4 -6 1 0 7 -5 -2 -8 -7 -8 -2 -11 -7 -8 1 0 -3 4 6 12 -3 -11 -2 0 -6 3 -4 5 0 7 -4 -3 5 -6 -12 -7 1 6 3 -6 -9 0 -1 -4 4 -8 -5 5 -7 -16 4 9 -14 5 11 -1 -2 0 7 -10 -9 0 11 -3 8 10 -6 7 -5 8 7 -1 8 -3 5 -6 7 -2 -8 2 -8 0 -4 1 -13 4 -5 8 0 -6 10 5 2 -7 5 -3 2 2 3 -6 -9 -5 5 6 -11 -19 0 2 0 1 -8 -11 -5 2 5 -16 2 -12 6 3 -13 -1 -4 6 5 5 -2 -2 9 11 -4 -8 9 8 4 -1 11 11 6 9 15 4 4 2 -15 2 7 16 -8 2 -8 11 11 2 -3 -2 5 1 -3 -4 13 3 0 3 1 7 -13 1 -4 4 5 7 -6 8 3 2 -12 1 -1 7 -8 -3 -8 0 1 -6 -5 4 -3 -4 8 -5 -4 7 -13 13 7 8 -4 8 -7 -18 -7 -9 -4 -2 -7 -1 -8 1 13 -2 -6 -3 -1 5 -6 1 4 16 2 1 5 8 -4 -5 -1 -7 6 2 14 0 2 -1 -3 1 10 -7 4 7 -8 2 -6 1 -19 12 -2 0 4 -4 6 0 -4 -2 -2 0 7 -4 4 -2 6 8 7 3 -11 -1 10 0 -7 12 9 4 -2 10 2 2 -8 -3 -2 -11 4 6 4 2 10 -1 2 1 3 -10 -3 -7 -10 7 -6 -2 8 -4 5 -4 14 12 2 8 3 14 8 10 -5 11 4 3 7 
9 5 14 -3 -2 -3 20 4 5 21 4 3 2 9 8 10 9 2 -5 10 -9 11 -8 10 -5 -2 -1 2 -6 6 -10 -5 0 -8 0 4 4 4 10 0 -2 -4 -3 11 12 5 -12 -10 2 8 3 8 0 6 10 5 7 8 11 0 -2 7 3 -5 11 8 0 4 0 7 -7 7 0 3 2 -1 2 3 12 -14 -7 2 -2 1 5 -3 -1 -7 -11 6 -11 3 -9 0 -7 -2 15 -15 -4 0 0 -1 -11 6 -4 2 -4 17 1 1 5 1 7 -5 15 -2 -12 5 -11 5 4 5 -16 3 11 8 -4 -9 -7 3 -5 1 7 8 0 3 2 7 -3 -1 2 -6 4 14 -10 1 -10 0 -13 -9 -3 0 1 -3 6 -10 -1 4 12 6 14 -7 1 2 1 6 0 5 3 6 -10 3 -5 0 6 -14 11 3 -4 3 4 -2 10 -3 -4 -1 4 0 1 -2 -3 -6 -5 3 -7 14 -10 -4 -2 -2 -2 -2 2 -9 6 -2 4 -5 -4 2 -4 4 -1 9 -12 5 2 -1 8 16 -7 -6 5 14 2 3 3 9 3 1 11 2 -10 -5 4 -2 9 -8 3 12 6 9 8 4 9 2 4 4 -2 14 -3 6 0 4 3 3 7 1 -7 -4 2 2 -2 8 0 -13 12 -8 8 -3 -3 4 1 -2 5 -4 -8 7 -4 10 -2 0 26 -4 -5 5 -4 -3 1 5 1 3 11 -2 8 -6 -2 -12 8 -3 -10 -4 -3 7 3 -6 0 -6 -13 0 2 -3 8 -2 -8 -1 -11 -1 -7 6 2 5 5 -4 -2 -4 1 4 1 4 -1 -14 2 -10 0 -9 -5 -14 2 -3 -1 -14 10 -11 -9 5 -11 -3 -5 -9 -13 -14 -3 -11 -6 -5 1 -4 2 -8 -7 -2 -10 1 -1 2 -6 -2 -6 -2 6 6 27 9 5 -4 -10 -5 -15 -5 -4 -10 -1 -7 1 -4 10 -1 4 2 -1 -3 -5 0 -1 6 6 -4 1 0 11 2 1 1 0 0 18 9 11 -4 3 -12 -3 2 0 -4 9 -3 12 8 9 6 -4 -10 5 -4 3 -7 3 -5 -5 -6 6 -16 0 -7 -8 -4 -5 15 -5 -9 9 -1 3 -13 3 1 1 21 0 10 2 7 -6 11 0 7 -8 1 2 14 4 -2 0 -1 0 -7 -1 1 8 8 2 16 2 17 -4 10 7 4 0 3 5 -1 8 4 -5 -6 8 15 0 7 -8 1 7 -10 -3 -3 8 12 -7 6 -16 2 -6 -6 -5 2 3 8 -7 -12 -2 -8 -4 -3 6 -6 5 1 -9 -10 -1 0 -14 -4 -5 3 -5 -1 5 -1 -6 1 1 -5 -3 -1 11 6 -2 5 3 -9 1 -1 -9 3 -3 6 5 -1 9 2 2 0 -2 3 4 1 -7 12 -12 2 2 8 -11 3 3 10 5 -3 7 -6 -1 3 9 -11 9 -8 3 -11 4 -8 11 -2 11 -5 0 0 -2 7 3 -4 15 3 -7 6 -8 12 1 4 5 1 1 3 -4 -5 8 1 8 -7 1 11 13 6 17 4 1 4 -4 7 4 9 -8 10 2 12 4 7 -3 10 -2 1 13 0 10 3 11 5 
-9 -2 -5 6 14 1 8 1 -4 22 8 4 4 13 4 7 15 -5 7 -2 11 2 0 6 1 14 -8 5 -8 -5 13 -3 -1 9 8 -1 2 -8 -1 -11 16 -2 -3 -1 9 -2 15 -2 8 4 6 -9 7 0 5 7 7 -2 0 9 13 0 1 8 5 5 1 -2 0 -8 -1 14 -2 11 12 1 8 5 6 5 5 6 -6 0 1 -6 1 9 -15 -10 14 -8 -4 -8 11 -4 -11 0 -2 -2 4 2 -4 -7 8 -1 7 -5 -6 0 -7 -3 9 -1 7 -17 4 -8 8 -8 -16 6 -3 7 -7 1 1 1 1 -4 -5 -5 -7 4 -1 -2 2 -2 -11 5 2 -1 5 4 7 9 3 11 -2 -3 5 -7 0 6 2 7 -2 8 5 4 -7 2 2 8 9 14 0 12 -5 8 5 17 4 13 17 0 1 0 2 18 -11 -11 -2 -7 -14 -4 8 -13 -1 -1 -5 2 -3 -4 -8 1 15 -13 -1 -14 -4 -4 -13 -2 -2 0 8 1 11 -6 -3 14 -1 -5 8 -1 0 1 10 6 -5 11 2 -1 -7 5 0 6 3 7 5 -5 14 -5 -4 4 -5 16 8 2 9 -2 -1 16 1 8 11 -6 7 6 2 2 -6 0 -6 0 11 -6 -4 1 8 1 1 1 8 7 1 -4 -4 3 -4 2 -2 -6 0 -7 3 4 1 2 -4 0 6 -1 -2 -9 -2 1 4 -4 7 13 -8 16 -2 0 -8 -7 -6 3 4 0 -4 2 2 -7 0 1 10 -2 1 1 -5 -8 -7 3 0 -10 5 -11 -1 2 -2 -4 -3 -3 -1 -4 -2 -3 7 -10 1 -12 -8 -6 -5 -1 -4 2 -9 -2 -3 6 -13 -9 -8 -14 -7 0 6 -1 3 3 -5 0 -4 -6 -2 -5 -4 -1 -9 -1 -6 -6 5 -5 -5 -6 4 0 3 -5 1 -6 8 -17 4 -7 -5 -8 2 13 -5 -8 2 -3 0 -1 0 4 5 5 4 -8 10 4 7 4 -19 10 -1 4 -3 -4 -7 -7 1 -2 11 -6 3 -4 -5 -1 7 -3 -13 10 -14 -7 -4 -5 8 -5 -1 -2 -1 2 -10 8 -5 -8 -4 8 -4 0 15 -6 16 -3 -3 11 2 4 1 2 -11 -7 -5 9 0 -13 9 5 -2 7 -3 6 2 0 9 -5 7 -6 5 8 1 5 6 7 15 8 -3 1 5 16 3 7 8 3 -6 12 -3 -14 -2 -1 9 9 1 -1 -4 -1 -9 -5 2 1 -5 8 -7 -1 0 5 -4 -7 9 1 -7 5 0 6 -9 -2 5 5 -15 7 -9 -17 5 12 12 2 -1 3 0 -3 3 0 -1 4 -18 -15 -6 6 8 -14 -6 7 -11 1 -10 -7 1 -4 -6 -6 0 -15 11 0 -5 6 2 -6 -1 -2 8 -8 -5 -2 15 2 -4 -10 5 7 0 5 1 1 -1 8 -7 -11 1 7 1 -3 1 2 0 11 -13 6 -1 4 -6 -7 7 -10 1 0 5 0 7 -5 0 -10 4 1 -2 12 -5 19 -2 9 0 7 -9 2 3 11 -2 -1 -2 -5 12 -15 9 4 -9 11 10 -2 -1 13 2 8 -3 6 4 4 4 2 1 6 3 12 
-3 0 0 5 8 11 7 23 5 7 4 3 8 -1 -4 -6 -2 4 8 0 -10 14 -18 12 2 -8 3 -14 7 -8 5 11 -10 4 2 9 -4 13 -3 -7 -5 6 -2 -3 0 6 11 -2 6 3 0 -2 -5 -7 11 -5 5 2 0 11 -4 -3 -2 7 -2 5 7 8 5 7 2 -4 0 4 12 -1 1 4 7 -1 -8 -1 3 -2 10 -2 -5 -9 -2 4 -5 3 7 -7 -7 -3 8 6 -1 -1 -9 14 5 -8 -6 1 -3 13 1 -3 7 -3 -9 -5 -3 -5 -5 -9 -1 0 8 0 0 -6 5 -6 4 -6 4 1 2 2 5 1 -17 1 -1 1 1 -1 0 -7 2 5 0 -1 6 9 9 10 6 1 12 -14 2 -4 3 -2 3 2 -5 7 3 14 3 -2 12 12 -7 1 4 7 6 2 2 8 4 5 4 1 -7 6 -6 -4 5 6 0 -8 -6 5 -7 -8 7 -5 0 -8 -7 -5 8 -3 -3 -6 0 -4 9 -7 -6 -3 -5 -7 0 1 -3 4 6 4 -3 6 -7 5 8 8 -4 12 -1 -8 -2 7 11 -1 -1 5 -4 6 6 4 4 2 14 6 2 1 -2 -6 -4 -2 -11 8 -5 3 -6 -10 -1 -20 3 -10 -7 3 0 8 -4 -6 -1 5 5 -2 -9 3 -7 -4 3 -10 5 1 -6 1 1 -7 -3 10 1 -6 -6 5 9 -2 -4 1 -6 5 -1 -3 -3 -4 -4 -2 -4 -13 6 -1 -1 -4 -2 5 -7 -1 -3 0 -2 -7 -4 1 2 3 -1 2 6 14 -1 -1 -2 -4 -6 -4 -3 4 0 -6 -3 -6 -13 0 -1 0 7 -1 -2 -4 3 -7 -9 9 3 -2 -14 -10 4 -3 -14 -11 -5 -8 -4 -2 -1 -7 6 -1 -8 -4 -8 -13 3 -5 -9 -1 -12 -2 -10 -12 -6 -2 -3 -3 8 -5 1 -4 -1 6 4 -17 -1 6 8 -5 -9 12 13 7 -4 9 -9 8 0 5 9 -1 7 -2 3 -1 8 2 8 10 10 3 17 3 8 8 3 7 1 -1 -9 7 4 -3 8 4 10 -9 4 10 -9 -9 7 1 4 -2 4 -5 -9 -11 3 -4 -10 -7 6 12 4 -1 4 10 13 -8 12 -3 -1 3 3 9 11 2 4 -8 8 -2 7 -3 1 -4 -9 5 10 0 3 0 4 5 -9 3 4 -5 7 12 6 5 -7 10 10 12 -2 5 3 6 1 -4 -1 0 -4 8 -5 -4 -12 17 -12 -2 0 -3 6 -5 -5 -5 -8 2 3 -10 0 -8 9 -4 -2 -2 2 -3 8 -2 -6 -8 0 -6 6 -9 2 4 6 -15 -7 -1 2 2 -8 -5 7 -1 -1 3 -2 1 -6 2 -7 0 7 -4 -7 4 -2 -2 -3 3 4 0 -5 -1 0 -8 3 -2 7 -7 15 -12 -2 0 3 -3 7 10 -2 5 6 8 5 12 -2 0 2 7 -12 -9 -1 -8 7 4 -8 0 3 5 5 3 4 4 -6 7 4 1 8 -11 -4 -9 -1 2 11 -15 -7 12 0 -1 8 0 -12 8 -3 13 -1 -5 13 1 -1 -1 1 -1 0 3 9 -2 1 7 7 6 3 10 -5 8 11 -3 
-3 9 -2 8 0 9 3 -10 6 5 15 13 1 -5 11 3 10 2 7 4 9 -9 10 -11 -1 9 9 9 -6 4 -4 -1 19 10 -16 -5 5 -2 7 -4 2 15 0 -8 -7 2 -3 2 1 -3 14 -5 6 -4 14 9 7 14 -2 6 -8 2 1 10 -4 4 6 6 2 2 0 11 -8 -4 10 -10 6 4 -2 2 -10 1 -2 -4 -8 0 -3 -7 7 -4 -10 -6 3 -2 -3 -6 -8 3 -6 9 9 0 -6 4 5 13 10 -5 -1 -2 -3 -6 4 6 5 -11 2 -10 7 -7 5 -3 3 18 6 -1 -5 -10 -6 -5 -8 14 -5 -2 6 0 4 -5 -7 1 -8 11 4 -15 9 5 5 -4 5 3 -6 0 6 16 -4 13 -2 -11 9 3 4 11 -3 -4 -4 2 11 4 7 -2 -4 -7 3 13 -4 9 4 -4 6 -1 5 3 -2 4 -12 -6 -5 -1 -9 5 3 -17 9 -13 8 3 3 2 3 6 -7 8 -4 -14 3 1 8 -2 -1 1 0 3 -3 -5 -6 -6 -1 0 6 -9 0 -9 -14 8 3 7 13 -3 13 8 0 16 9 -1 12 2 10 7 -3 5 5 8 1 3 10 4 7 -1 -2 3 9 1 1 -2 3 -7 -4 -5 -3 1 1 0 1 -14 8 -7 2 -3 -12 9 2 5 -3 14 1 1 -3 14 -14 -10 -8 -5 9 -7 -7 10 4 -8 -12 -1 -3 -9 -3 -7 -2 -10 -4 13 -2 3 6 -15 13 -15 -3 9 -10 5 -5 -4 -8 3 -13 -4 -7 1 -6 -8 -8 -7 -4 -8 -4 -2 -6 1 -16 8 -2 1 -5 -3 -4 -9 0 -7 -1 -5 -8 -12 -9 -6 -9 14 -10 0 -6 -7 -3 -2 -8 -2 -11 3 -13 -2 4 -3 -9 6 -8 -3 -4 1 -8 6 -12 -5 6 2 -4 -5 2 2 2 -2 -16 6 2 -5 7 0 -2 2 -17 8 9 -9 -7 -2 3 5 -5 0 4 9 -2 9 16 2 6 2 0 -5 -5 3 14 3 1 2 -4 -3 -7 3 5 0 -2 19 -8 4 -2 -5 5 13 -10 9 -6 0 4 -3 -6 2 4 3 -5 -7 -5 6 16 -10 1 -5 -9 -4 -7 -1 -2 -9 -2 0 -2 -4 -9 -4 5 -1 11 4 -3 -8 7 -3 10 8 5 -1 10 7 -3 13 9 -6 8 -9 10 9 -8 -1 -10 7 8 -10 -3 3 1 -3 1 5 14 1 2 -1 12 -3 8 -8 6 -2 0 4 7 1 1 -2 1 7 7 -2 -3 4 -1 1 -16 -6 7 -5 -6 -4 -2 4 -10 -3 0 -2 -3 -2 1 -5 -8 9 -4 2 -11 1 0 -2 -2 9 -3 -15 -9 0 -8 -13 -5 -1 -13 6 -9 -6 11 -7 2 -9 -5 0 -11 -2 7 2 6 12 3 4 0 3 8 5 3 0 -11 7 5 -10 2 8 -5 -7 1 7 0 -1 18 10 4 12 2 2 12 -4 -6 -1 -13 2 -5 -17 12 5 -18 9 -9 -13 4 -4 16 8 -4 3 -4 7 0 5 7 6 -5 -6 -2 -7 -2 -3 8 11 -1 9 6 4 2 18 -3 14 6 4 2 -6 10 6 11 -5 0 10 
1 11 -1 7 14 -1 17 7 13 2 0 -3 7 3 19 -7 0 5 5 10 7 15 9 12 7 -2 -2 -4 7 -6 12 4 -7 -8 6 3 4 8 -5 2 3 4 -9 1 7 -8 18 8 9 -5 7 1 3 3 -3 -4 -12 1 -3 -2 -8 2 17 6 5 6 4 -3 13 -5 0 7 -5 5 -7 5 3 -1 0 -1 -3 -2 -3 3 15 6 4 -6 6 -4 -1 6 7 7 9 4 -7 -1 14 5 5 -3 0 0 0 4 -1 4 -8 10 -2 0 -1 -6 -3 13 1 3 -10 -3 -5 2 -10 4 1 -18 -4 -12 3 -4 -6 1 -8 10 -5 -4 -10 8 11 -1 -1 -4 -1 3 8 2 11 4 -17 4 2 -2 7 15 12 2 -3 5 4 5 6 15 16 3 -3 0 6 5 3 8 13 -1 -6 3 -6 10 7 -2 4 -3 13 8 2 -2 12 8 -2 4 3 -3 -4 -2 -8 -3 -16 -5 -4 11 -5 -4 -2 6 0 7 -9 0 -5 -7 9 7 -10 -4 -6 -2 -15 10 4 0 7 -13 3 0 -4 2 6 7 9 7 -4 5 4 -6 5 12 1 0 4 6 -4 5 10 -9 10 -2 5 -3 1 -3 6 -11 -3 -10 -11 6 -1 8 -7 -9 -4 0 -6 5 2 5 5 -3 5 -4 12 2 -6 -3 4 5 -10 4 -4 -2 2 1 16 -7 -1 2 5 -2 0 7 2 -7 0 0 -12 -8 -3 2 -5 -16 2 1 -9 3 -3 1 3 -5 4 -5 -5 -6 -5 -7 2 1 1 9 -1 7 6 7 -12 -3 7 -2 -3 -7 -1 -4 -4 -17 -4 8 -9 -6 -13 -13 1 1 -2 -4 9 -5 -5 -5 10 -8 -12 -9 -8 -5 -15 -2 -14 -6 0 8 -2 -3 -12 10 -11 -5 -4 -4 2 6 -1 2 -11 -7 -3 7 2 9 7 3 -8 0 -1 1 19 -9 13 -8 3 1 9 -2 -3 -10 7 9 10 10 0 -7 2 -5 5 -2 -3 5 -3 14 9 -7 -3 7 7 8 6 11 8 10 -15 -2 6 -3 11 7 0 2 4 -1 3 -13 14 -9 -3 2 2 1 4 1 -11 -3 3 -2 -3 3 4 -8 1 -1 -7 -3 14 9 3 5 -9 9 -7 -2 7 1 4 -2 17 1 2 -1 17 4 1 8 5 10 5 -10 0 2 -3 11 0 -4 1 4 18 15 12 4 0 9 -7 9 0 5 0 7 -7 5 -1 -6 -6 -6 2 2 5 -18 11 -9 -4 4 6 -5 4 -11 1 -5 -14 7 -12 -10 -7 -6 -6 -11 6 -5 4 -6 14 0 -14 -3 -3 2 6 7 -8 -6 -6 1 0 -9 -6 -1 -11 2 -6 6 1 2 -6 -6 -3 0 -13 -8 -10 -3 -11 8 1 -1 -14 0 0 5 -5 -4 13 4 -1 -6 4 7 0 -7 7 -3 11 5 3 -1 5 -9 5 7 3 -7 6 -2 -5 -8 1 -5 2 7 5 -11 8 -7 10 10 7 -1 8 -2 -5 11 -4 1 -6 1 12 5 6 7 12 -8 -5 -3 10 -6 6 1 8 -5 -4 -5 5 5 -3 11 -7 2 -5 8 7 10 11 0 7 9 -6 4 1 8 
7 13 2 6 0 6 -6 -1 18 1 5 11 11 -8 -2 0 14 -16 1 -1 12 6 1 5 -1 13 -4 -4 5 5 14 -1 2 10 -2 -4 -11 -12 -3 -8 -11 8 10 3 -6 4 -2 11 3 0 -1 -7 6 5 2 8 6 5 13 10 3 -7 11 -3 6 4 -1 6 4 0 -11 2 3 6 -7 -3 -6 -9 -6 -1 -17 10 -2 0 4 -9 3 -3 9 0 8 12 4 -3 -1 4 7 9 -6 -1 -5 9 7 -5 -12 7 -10 2 -7 -6 5 -9 13 -4 10 -9 -6 3 -16 -6 -2 5 -7 -9 0 -5 5 9 -7 1 2 -8 4 -8 6 -15 4 2 -10 -3 -3 -5 -6 -4 -9 -1 0 -7 4 11 20 -11 1 3 1 -1 18 14 8 4 5 -4 5 -8 3 1 2 -4 15 -6 -5 15 -3 15 2 5 10 -1 8 -2 -3 4 6 -1 5 5 1 6 4 2 10 -3 14 -7 3 6 2 -4 -5 14 6 -7 -8 -6 -1 2 19 0 -6 -5 4 8 -8 -13 5 2 1 -15 -7 4 10 -8 -2 0 2 9 1 -2 -10 -4 0 5 1 10 16 11 -3 12 -2 18 3 6 0 -4 -4 8 6 6 3 7 8 4 -6 4 -2 -2 -2 1 -11 4 -4 -3 -6 -2 -2 -1 -12 -9 -14 -2 1 1 -1 0 2 -1 -2 -3 12 1 -3 5 -8 3 -8 9 -4 5 -8 -7 3 -9 -3 -14 -10 -4 1 13 -2 6 1 -1 0 -2 0 -15 -3 -2 4 -19 14 -7 -6 9 -11 -4 -6 0 -10 2 9 -5 -6 -10 1 2 -7 4 -4 4 -9 3 10 -7 -16 -8 -6 -4 -14 2 -3 -3 12 -3 -2 5 -2 2 -2 3 -5 7 -6 1 -9 4 1 7 -5 -1 2 -4 -11 4 6 -15 0 3 4 17 -5 -9 -4 -11 -8 -1 -2 -5 -7 4 -5 3 -4 4 -1 -2 -2 -2 0 1 7 -5 0 -10 3 11 -3 3 -6 7 9 6 -7 9 3 3 19 4 2 2 11 5 -8 -3 1 -6 20 -6 15 -9 8 10 3 1 -5 5 -5 5 -3 0 5 12 -11 15 5 -12 3 7 6 -3 9 -14 2 -11 -10 3 -2 -6 4 2 -1 6 -1 0 9 14 3 8 4 7 12 1 1 -10 13 -12 11 -3 -4 3 2 17 3 8 -8 6 12 -4 1 3 14 -3 -1 1 -1 2 -2 4 12 5 0 1 4 -1 -1 -2 1 5 -2 8 4 -3 5 3 -2 -5 7 0 6 0 1 -10 -5 -9 4 -9 -2 -2 -1 -5 -11 2 6 1 14 13 0 8 6 -6 -2 -5 -4 -13 0 -4 -1 -3 -1 -8 4 -7 -8 -3 -3 -9 2 -9 -1 -8 3 -3 3 -10 -5 -8 3 1 6 -4 2 6 -7 -1 7 1 5 -2 4 12 6 2 -4 -7 5 4 -2 3 3 9 10 9 9 17 11 -6 4 1 -5 -6 8 2 -10 -1 3 -4 0 0 5 -3 -1 -10 4 5 4 0 2 0 -2 -1 10 2 -1 6 3 -4 -1 -5 5 7 8 0 -3 14 -3 24 6 5 -6 1 1 2 6 19 -4 5 10 -3 4 6 
-5 10 -5 -8 0 3 7 -1 -5 7 -2 6 6 -1 12 0 -4 3 0 -1 6 2 12 -3 -8 -7 -1 12 3 0 -2 0 -7 -5 -7 4 2 -10 11 -8 5 14 7 1 -2 4 5 2 9 5 5 17 -1 -1 -4 3 -1 8 9 -12 7 -8 -7 8 -2 -8 8 -3 -8 -2 4 11 3 0 3 7 3 4 -3 11 -2 7 -1 4 -7 2 0 9 0 -3 -14 -9 -2 6 5 1 -7 14 3 7 0 3 -4 3 -5 -2 0 3 -5 8 1 2 7 -3 -3 -1 -8 1 -7 4 -4 0 -12 -1 -8 4 -5 -9 0 -5 -10 -7 -11 2 -14 -14 -3 7 -5 1 -2 -4 0 0 3 0 -12 4 3 1 12 3 13 -3 -3 8 1 -6 4 15 17 9 7 -2 0 -2 -2 6 15 2 4 -3 10 -9 9 -4 -4 6 4 -7 12 -4 4 13 -9 1 11 -3 8 7 2 -5 8 4 6 7 -7 0 3 -2 -3 -1 -13 -9 5 -8 -21 2 15 0 -1 8 -6 9 -2 -4 -7 2 7 -5 -7 -6 0 -3 18 -7 4 3 1 5 1 -5 -2 -11 4 -1 -6 3 3 -7 7 -9 -1 4 16 -15 1 3 5 4 -5 -1 -5 0 -15 -8 -5 -8 3 3 -1 -12 -6 -6 -13 2 -2 -2 -13 5 -8 5 -11 0 1 -18 4 3 -7 3 4 -2 -13 -2 12 3 6 -10 4 5 -3 -3 -4 3 -14 1 2 1 -2 3 -1 5 6 2 -12 5 -9 -6 -2 5 -13 3 6 -2 2 7 -1 3 -2 -9 -8 1 -7 9 -2 1 -4 1 -7 6 7 -6 -3 -8 1 2 -1 -16 -2 -4 -3 4 5 5 6 -5 -5 -7 -12 2 -4 -4 -2 6 -6 2 -3 10 2 -4 0 8 1 8 -19 -1 -3 0 -1 -18 -7 -4 6 -5 -9 -10 -7 -11 -1 6 -1 2 5 2 7 -2 4 4 3 8 -11 7 7 11 -3 9 -2 8 1 2 -16 7 7 4 9 15 3 -6 10 3 1 9 -4 3 -7 8 0 -5 14 7 5 10 11 3 4 -5 4 4 11 0 -4 -7 -7 0 6 9 10 -4 18 -5 5 1 3 -4 1 -4 -1 5 -5 2 -8 4 1 -4 -4 -3 3 -2 -1 7 2 -2 -8 11 5 0 17 -7 2 3 -5 -9 9 0 3 -4 -7 10 9 16 1 -2 5 11 -11 -5 8 -3 -5 4 2 -7 -3 8 1 4 1 -2 3 -4 -9 -4 0 4 -5 9 5 -12 0 -4 -1 3 3 3 -3 -12 -10 -6 -3 -5 4 -11 -14 5 0 -3 -5 -5 -1 3 -9 5 -3 -7 1 -3 -12 1 -3 -2 -8 -1 1 2 4 -6 4 -4 -4 4 3 -11 2 2 -7 11 1 -3 3 5 -5 -6 -4 -5 8 7 5 2 -13 1 0 -9 18 -4 2 6 10 5 10 6 -4 9 1 -9 -9 7 -1 1 -3 1 -10 9 -13 6 2 -1 10 -5 9 0 -1 7 -15 -1 1 0 4 12 7 -4 4 4 12 1 13 -5 11 0 -3 -3 5 15 -4 7 7 -1 18 2 13 8 6 10 12 9 0 12 24 7 6 8 
4 5 3 3 11 5 2 10 9 3 -2 15 -11 -1 0 -1 4 4 -3 13 -3 5 3 11 2 -3 13 -7 7 1 7 7 -18 10 5 -8 -2 4 12 3 12 12 4 3 6 10 -7 9 8 3 8 -4 -2 -1 7 3 3 -2 -5 -4 2 2 1 3 0 2 -4 -2 3 1 1 -6 3 -6 10 -3 1 -8 2 1 8 0 -4 1 8 0 1 5 -2 3 1 14 5 14 4 1 -4 6 -1 -2 5 -6 -2 -2 6 -2 5 -2 5 -2 7 -2 -5 0 -2 -1 6 9 -2 -8 -7 -7 -5 -8 -7 1 -10 -10 -2 15 -7 -10 -6 -10 -6 6 -2 1 -8 -2 3 3 -1 -8 4 -8 -6 2 -9 3 -11 -3 -11 16 -1 4 2 4 3 -4 0 8 -8 14 0 15 4 9 13 -2 -3 12 3 3 -5 -4 -8 4 -2 -2 7 11 0 1 3 3 0 7 -8 -8 7 5 -7 0 4 0 4 1 -1 9 -2 0 -2 -2 0 -11 9 -10 7 -6 11 3 3 0 -3 5 -11 -2 2 -3 4 12 17 -2 -6 11 1 7 5 1 17 -4 6 -9 -3 4 8 -3 -9 6 5 5 6 0 7 9 -1 -1 2 3 3 0 -7 5 -5 5 -12 5 -10 0 -5 -2 2 4 -1 -1 3 4 -6 -10 2 -2 6 1 -11 1 -2 -15 2 -1 -6 -4 -8 -1 -14 0 1 2 -2 8 -6 2 1 -15 7 -1 -9 1 5 -6 3 6 2 3 -2 -1 -11 -11 12 -10 4 7 5 0 -8 11 -7 2 -3 6 -4 12 -2 -1 6 0 -3 2 -3 -1 8 -1 -1 -16 5 -1 -7 -3 -13 7 -13 -3 7 -1 0 -2 1 -1 -8 0 -5 -3 3 4 -5 -2 4 -3 -1 -10 0 7 -11 1 5 5 -14 -5 -6 -8 0 -2 -8 5 -9 -8 10 -4 -2 8 2 -11 -10 -5 1 -6 -3 5 -6 5 8 0 5 4 4 6 19 -7 18 -12 18 7 1 1 11 -2 5 -5 4 -4 6 3 -2 -7 1 8 0 3 -1 0 5 -1 4 8 12 0 8 3 -11 2 0 1 -1 -6 2 3 -4 -6 3 1 -9 -2 5 0 -12 -4 2 -3 4 -6 -4 -1 11 -2 5 9 4 3 -10 7 -7 7 4 3 11 -1 1 3 -4 0 -4 3 -8 -9 -3 -4 1 0 1 -3 16 9 -6 2 7 2 1 8 1 0 -8 5 9 -8 5 -7 -7 -8 2 12 7 -1 15 1 5 -6 -1 11 -11 4 2 -8 -11 4 -9 -5 -7 7 4 8 5 -9 10 -6 -5 3 -9 4 -2 -2 2 -4 -11 2 7 -2 -13 -11 1 1 8 -5 -19 -9 -4 2 -13 2 -3 7 6 0 4 -14 -2 0 -6 5 4 -4 -3 9 -5 4 9 14 -7 6 2 0 15 -5 -5 3 -5 6 13 4 0 16 11 0 -7 7 -4 11 4 2 9 9 -14 2 3 -3 -5 -4 4 1 -2 8 -8 13 -4 5 -2 12 -6 -1 3 2 -9 9 -1 9 -6 12 4 1 -2 12 -4 12 9 2 14 -2 3 15 0 0 0 -8 11 8 2 8 -7 -2 7 9 
13 13 15 1 9 4 15 0 13 0 4 -2 4 -1 -2 11 2 1 2 5 -6 -7 8 4 -3 -9 9 3 -2 6 7 7 7 -6 -3 9 12 0 -2 -4 11 -7 -4 1 0 -5 14 1 -3 10 -9 8 6 2 2 1 10 -1 0 -6 -20 6 -12 4 2 -1 9 0 -13 -5 -12 -11 0 -5 -7 -3 -8 3 6 -6 -8 7 7 3 4 2 -4 -1 1 -4 -2 15 8 -2 2 1 -1 2 -5 16 12 -4 -1 3 -3 2 3 -16 -1 -5 4 -1 -3 0 -7 -6 -6 -7 -2 3 -2 13 -10 -15 -7 1 2 -6 1 -5 -1 1 4 -5 0 -2 -6 1 -1 -5 8 -3 -10 1 9 9 5 -4 9 -10 10 -1 2 2 5 14 11 1 -1 5 9 -2 -2 -9 2 1 0 15 4 15 5 2 16 15 10 7 15 0 3 3 -6 1 0 12 -4 -1 -3 1 10 3 2 10 -9 15 1 -5 4 -9 -3 0 11 9 3 8 -5 -2 8 6 0 4 4 9 3 -2 -7 -3 3 0 -6 4 4 1 3 -14 0 16 -1 -5 7 -1 9 6 -2 4 7 8 -1 3 19 -5 -3 0 3 -8 -1 -3 -1 2 4 9 -8 4 -1 -13 0 -9 5 -9 -1 -9 1 -6 -1 -7 -3 5 -1 8 0 3 -8 -9 -5 -8 -10 -9 7 -10 -3 -10 -3 -4 -10 -3 -7 -10 0 -3 4 -9 -5 -4 -1 1 6 -10 -4 4 5 -10 8 5 -11 -6 -2 -9 -2 6 3 -3 6 -6 -5 6 -5 2 -14 3 1 5 -2 3 2 0 -4 -3 0 6 -5 -12 -2 4 -12 -2 -2 -2 -1 -10 -5 -3 7 -7 -1 -7 3 -7 13 5 -1 2 -1 -10 -6 3 3 5 -5 -14 -9 -9 3 -7 -11 -5 -10 5 -9 -4 3 -5 10 -1 -3 -12 -7 12 7 -15 7 -5 4 -6 -1 5 -3 0 4 -4 3 -2 3 1 -10 3 -6 9 -4 -7 5 8 -2 10 1 12 -8 11 -4 9 1 -9 0 0 6 14 -4 5 13 -2 2 14 11 1 8 8 1 4 3 -2 12 4 10 -1 4 3 2 0 7 5 -7 -11 7 -9 9 -4 -6 -10 11 11 4 -1 -2 12 3 7 8 5 6 4 4 14 2 1 12 4 8 13 4 -7 -7 0 11 3 -5 3 12 -1 7 -2 -5 -5 1 0 14 4 -1 4 6 -8 0 -4 10 -1 -6 -6 3 -6 4 -1 -4 -5 9 -3 5 -2 -6 7 2 -16 13 -8 -19 4 -1 -7 -8 2 -17 0 0 -9 -6 -1 -2 -2 -5 8 1 -2 -3 3 -2 2 -4 -19 -8 -7 -6 -19 -2 -11 0 -14 -4 3 9 -6 -5 8 4 -5 3 -6 -6 13 0 5 3 3 -11 -9 10 5 -4 7 -6 7 -2 12 3 18 -9 9 5 2 9 3 3 8 -4 -16 7 8 -3 -3 -3 -7 -2 12 -7 6 -11 -1 1 4 13 -3 10 -9 1 2 7 -4 7 3 7 5 12 5 8 1 4 0 9 -16 9 -5 -6 1 8 2 8 2 3 12 7 12 -10 11 8 -2 2 4 0 -3 6 9 6 18 -4 7 
-1 4 4 10 3 15 -1 -2 8 17 13 5 11 3 -3 5 -8 3 -8 -7 7 -7 5 4 1 4 -11 -3 -2 -13 -3 0 7 13 -1 12 -3 4 -3 10 3 1 0 -4 -6 7 -5 13 -3 -6 6 -6 -8 -9 3 3 -5 -8 -4 3 2 -7 2 3 -1 12 2 -6 3 2 -2 3 0 14 9 -8 2 12 -9 -4 2 1 -3 -6 2 3 16 6 14 12 0 1 0 2 -3 -7 -1 4 -4 -4 -13 17 4 -5 4 -4 8 10 13 3 -1 -13 5 -10 -9 -1 6 -6 -3 -6 -5 -15 -8 2 6 -1 6 -7 3 1 1 -12 4 -5 -6 -1 5 3 -5 -1 -3 -3 0 8 -4 3 8 -14 6 0 -7 10 -2 5 -5 -4 5 5 -7 12 -6 7 0 -4 -2 -1 3 -5 -8 -4 8 3 2 6 0 19 0 -2 6 -2 5 -5 2 -8 -3 -13 10 4 8 5 -3 -7 0 -7 -5 8 1 2 -1 -3 -7 -6 14 4 14 -1 3 1 9 10 4 9 9 9 7 0 0 6 3 -3 4 0 6 4 9 -6 2 -9 4 -6 -6 5 5 1 7 -9 7 -7 -4 8 -2 1 4 2 -11 -9 13 2 -5 -2 0 -8 2 -3 -3 1 3 11 -7 -5 6 -8 2 -2 -5 4 -3 5 -9 1 6 0 0 -14 5 -3 11 -7 -2 0 -7 0 1 -4 -2 -14 -21 -8 -6 -11 4 0 0 -17 -3 -2 -19 -10 -19 -6 -5 -5 1 1 -1 -9 -8 -1 -5 -3 -2 0 0 5 -6 -1 -3 -1 0 9 4 8 -7 4 -7 -4 8 0 -3 1 -12 -8 -9 0 1 4 17 -1 11 15 -2 3 5 6 5 -6 -14 2 0 7 -9 -1 6 -4 -14 -9 -7 -5 -4 0 -10 -4 -7 -8 -11 -12 -3 -3 -8 -4 -3 -1 6 5 9 -4 0 9 2 -16 -1 15 -1 -3 1 7 -4 1 3 -7 1 -6 2 15 0 11 2 -1 3 -5 10 7 -6 -8 -4 8 9 2 -7 3 -5 6 -1 -1 4 -5 4 8 8 -6 8 7 6 6 7 -4 -5 -2 -4 -8 -4 -4 -5 -2 7 1 7 6 9 14 0 -1 14 4 5 -1 -2 0 4 -10 4 -11 -5 -8 7 -4 -1 -1 4 3 -4 -5 -11 3 -8 0 -3 1 -14 -2 -9 -14 8 6 -1 -1 1 5 -6 8 9 10 9 -2 8 4 -1 5 -5 -5 -6 -11 10 -4 -3 16 -4 0 12 7 0 7 -9 -5 3 2 -1 5 11 -7 1 1 -10 -3 -10 -1 12 11 -7 4 4 1 9 -4 -10 2 -3 2 13 -5 -10 -9 -1 4 3 -4 -7 1 -7 2 -10 5 1 -8 -3 4 -12 0 1 -3 -12 5 -5 1 -13 5 -12 -7 8 -2 2 -6 -5 3 4 4 -7 0 9 0 16 -6 8 -3 -4 1 -11 3 -1 14 -8 5 8 -3 11 3 2 2 -2 1 -3 3 0 1 -4 3 6 19 -9 5 -6 -1 8 5 1 10 -3 7 7 -12 8 4 12 2 8 5 -1 7 12 2 19 3 10 4 14 5 1 9 -1 12 9 5 1 9 1 3 1 1 13 -1 
7 7 4 3 5 7 8 10 -8 24 -2 -3 2 6 7 5 14 -10 -5 5 7 5 1 13 18 -4 9 -1 11 6 10 10 4 -2 8 3 10 1 1 2 3 12 -4 5 1 0 0 -6 1 5 -3 1 -1 -5 -2 -3 12 -3 -1 -7 -16 -13 6 -4 -6 -16 4 -15 2 -1 0 2 -2 -8 4 -4 4 -4 0 3 -1 2 -11 9 -1 -2 -2 4 -1 -5 -3 4 2 -1 -12 -6 -9 2 -1 9 10 -14 0 7 -1 -2 1 -4 0 -4 -8 4 -1 -2 -9 7 -1 -6 -3 -12 -11 0 -3 6 -8 -2 -8 1 -5 -2 -1 -5 4 4 -5 -3 -4 -18 -5 -9 -8 3 -11 2 -4 7 -7 -7 -4 -2 15 -10 -5 2 5 4 4 13 15 1 7 4 16 16 5 7 0 5 6 -1 5 9 -7 6 0 14 6 -1 8 15 8 12 12 11 6 4 0 -2 11 -3 3 6 -6 9 -5 -7 -7 5 4 2 1 -5 4 -18 6 11 1 8 6 4 -2 5 4 6 9 -3 -2 0 -6 1 2 2 10 7 -2 -9 2 -5 -1 6 -4 10 2 1 -5 1 -3 -7 1 4 9 -5 6 -5 2 5 5 -5 0 -4 -4 0 3 -6 -2 5 1 -14 5 -4 -15 -9 17 2 -13 -6 -12 2 14 -10 5 -2 2 -6 2 -11 7 -8 -2 -6 4 0 7 -5 -7 -3 -2 3 -9 4 -17 -3 -5 5 0 -8 -17 2 -8 -2 -14 -12 -1 -11 -9 3 -7 -14 -10 1 -5 -15 -8 -4 -15 -5 -11 -4 -12 3 7 -1 9 0 -3 -1 -2 -4 -4 -4 11 4 -11 3 3 0 -2 10 -2 0 0 -15 4 -6 -9 2 -7 3 -4 -13 4 -5 -20 -3 -5 8 -2 0 3 -7 -12 2 -2 -2 -2 8 -9 11 -11 8 14 1 -4 8 -15 3 2 16 -7 6 -5 5 -13 -6 7 7 2 -11 -8 11 0 7 -3 7 19 -9 13 9 -1 4 14 17 5 -9 16 -1 2 14 6 4 -7 8 9 10 -2 4 -4 10 0 12 -5 8 10 -4 7 11 -15 0 1 5 -6 -1 2 0 3 6 7 3 4 3 -14 4 -1 -4 -2 -2 -9 -5 -1 -3 2 -15 5 9 6 4 4 11 -6 2 3 -1 -2 -4 2 -7 -12 15 3 -4 1 7 -3 -3 5 6 -5 5 -3 2 -11 -4 -3 -1 4 -9 2 4 8 7 -2 3 7 -8 -9 -6 -13 6 2 -2 2 -11 8 8 7 7 9 -4 -1 -4 -1 3 -3 4 6 -6 -14 -17 5 -14 6 -4 1 3 -2 -12 -3 -5 -5 -12 -2 7 -13 0 -11 -12 -2 -5 -1 -3 -12 2 -11 -8 -5 -2 10 -3 3 5 -6 -1 13 6 5 0 0 -2 -5 8 -6 8 8 5 2 5 1 6 10 -2 5 0 -8 0 5 14 -7 5 8 -13 3 4 1 -1 1 -3 -4 2 8 -2 3 -9 4 7 -6 -12 1 9 -7 1 9 13 -3 10 5 3 -4 17 -7 12 4 -2 8 -3 5 8 -1 9 25 4 11 2 10 -2 9 9 9 -6 10 8 2 15 11 12 2 4 -3 10 3 2 
13 7 8 10 -9 16 3 7 3 7 2 7 13 -1 12 18 -4 -2 3 -5 4 6 1 -2 7 -1 2 -2 7 2 3 -2 6 0 6 -2 3 -8 -3 0 -1 -3 8 -3 1 -12 -7 -9 -9 -3 -9 -6 -4 4 7 -3 -3 -2 -4 -3 0 -4 -2 4 -3 -4 -7 4 -2 -8 1 -6 -5 7 -6 -3 11 3 6 -2 5 -14 2 -2 3 2 2 -9 15 0 2 2 -11 5 2 -4 5 -3 -1 2 2 0 -6 6 -2 8 6 13 11 -3 -1 -12 -3 -4 8 0 4 -4 4 0 -7 -7 -4 -16 -11 -3 -2 6 -12 -12 -2 6 2 4 8 -3 5 0 -7 5 4 -1 -5 -3 -5 -6 5 11 19 -1 9 3 2 3 -2 3 0 10 1 15 0 2 9 4 9 0 -1 -2 7 1 3 8 -4 9 8 3 -6 1 4 2 7 10 -2 -8 0 9 13 7 0 1 13 -2 4 12 -4 -8 1 -1 3 0 -5 -7 -2 15 -11 0 2 0 -1 11 3 -6 -6 -9 -7 9 -7 -16 6 7 18 3 -7 -1 3 11 0 -11 9 -1 5 2 -6 -11 10 -1 -5 8 -2 4 -3 -8 0 -4 -1 -1 4 -4 7 -2 -1 -8 0 0 9 -2 -6 3 -4 -8 6 -2 -4 10 -2 -9 10 5 -6 -1 -3 -21 3 8 -6 3 1 5 -8 1 3 -2 -17 -2 1 -2 -3 -11 7 -5 0 -7 -9 0 -11 -3 -3 -6 -1 -6 -1 4 -4 -2 -3 -3 -6 0 0 0 -5 8 -8 4 -2 -3 -1 1 0 -1 -4 0 -4 -4 1 -7 -19 -5 14 -2 7 11 2 1 0 4 -7 -4 -6 -3 5 0 -5 -2 -6 -13 5 -4 -1 1 1 -2 7 3 4 5 13 3 4 5 -11 -1 9 -6 2 -14 -7 -3 5 -4 -12 -6 -1 2 -9 0 7 -2 1 8 5 11 -7 -1 -5 -2 0 4 -6 6 -3 -5 1 7 3 -4 -9 -3 8 13 14 -7 0 7 12 4 14 4 3 -4 9 -9 8 11 8 13 6 -2 11 -5 7 1 -3 4 -4 3 -6 -3 4 -4 -3 5 2 14 17 7 4 -4 13 7 6 -4 -10 11 -9 -3 -6 -2 5 -9 -5 5 4 -6 0 6 5 -3 2 3 -2 -6 -5 -6 8 4 1 -3 3 -16 -10 -3 -14 -4 0 -8 -5 5 -7 2 -2 -1 1 6 -1 5 7 -6 9 -14 -2 1 6 -6 11 -4 4 2 -4 -8 -3 14 9 -4 -3 0 1 -3 -8 -7 -6 -5 -2 -12 0 -20 0 12 -12 -6 -1 -2 -8 -1 2 0 -2 12 -5 -6 -4 -4 -13 -9 -8 -10 -4 -11 0 -8 3 -4 1 5 -5 8 -6 0 -2 10 8 1 12 13 -17 0 0 8 6 -2 -1 -2 2 1 9 -1 5 0 -9 14 1 7 1 11 -4 9 10 7 5 -1 7 6 1 -3 -2 -2 -4 12 -9 8 10 9 2 3 10 -7 2 -5 6 -1 6 11 5 7 14 4 4 5 -5 3 13 0 4 -6 2 6 -7 -2 -6 13 -7 5 5 19 10 -11 15 3 -1 -10 7 -2 6 15 3 4 15 2 3 -1 
-3 3 -4 15 4 6 -1 7 12 10 16 4 -4 1 6 7 2 -5 3 5 0 10 -4 -1 10 9 -3 10 12 -1 -5 9 2 2 6 -7 10 8 5 3 5 5 -1 4 7 1 6 -5 -3 1 2 -11 -7 0 -1 2 -9 -1 -14 3 6 6 -10 -8 -4 2 -10 -2 -1 8 -3 -3 -3 1 2 4 4 -4 -4 10 -1 14 2 -10 -2 2 3 3 0 1 10 8 0 5 -3 6 1 -4 3 0 -3 -1 11 -10 2 5 2 -6 7 3 6 -1 -17 -6 -11 -4 -2 -8 -5 -5 -6 -2 -8 4 -7 -3 -10 3 -6 -1 7 1 8 -1 -8 5 8 -3 4 -3 -2 -2 2 -18 4 -6 5 -1 -4 1 0 4 -5 15 -1 7 5 15 -13 -3 2 2 6 8 11 6 0 0 0 5 10 1 11 -2 7 4 12 -4 1 -5 7 0 0 2 -1 -1 6 8 3 15 -2 7 1 7 -10 -1 2 -4 12 -3 -12 5 -2 -14 10 -5 2 -9 11 5 -2 0 7 -4 -3 -5 7 7 -11 0 2 3 7 2 10 -5 5 13 11 2 8 5 4 -1 -9 0 0 -7 4 -3 -3 -2 11 -3 -3 -11 -3 -17 2 0 2 7 -1 6 1 1 -5 -6 3 1 -6 5 -9 -11 5 1 -7 -10 4 -5 5 10 8 -9 -1 17 -2 0 1 -3 -3 1 2 -17 -4 -3 1 -2 1 -2 7 -7 -10 -4 -9 -8 -20 -11 -10 -7 -9 -5 -9 3 2 -2 15 -7 8 5 -6 -2 10 -6 -5 4 -22 4 -4 -5 -7 2 -10 4 13 0 12 13 8 4 10 3 -3 4 -1 -4 -9 8 -8 -9 0 -13 0 -14 -10 -1 -13 -7 -9 -3 -8 -5 1 -2 1 2 5 -12 2 -3 -11 10 -11 -3 5 -1 6 7 -7 -6 -1 -11 6 0 14 -7 -2 3 -3 9 1 1 6 0 -1 -11 -1 -3 -6 9 1 11 5 8 0 8 5 -5 12 -3 -3 -4 4 1 4 7 9 2 6 -4 9 -1 -1 0 -1 -7 -4 0 11 -3 -5 3 -2 0 12 3 6 -2 13 -3 -4 2 4 -4 10 -6 -9 -1 7 0 -5 11 -1 1 2 -5 -5 -9 4 3 6 -2 -4 0 4 -2 -4 -3 3 -3 -4 7 -6 1 -12 2 -6 3 -4 5 0 -14 5 -3 -2 -1 2 -5 0 2 3 10 -12 -3 5 -4 8 12 -2 7 -1 1 4 -1 -4 2 5 5 4 -10 -11 2 -1 5 -5 18 8 5 -2 -6 2 -10 7 -15 -6 -2 -4 -1 -13 -3 0 -13 3 0 2 -9 5 -7 -1 -5 14 -5 1 -4 -2 -11 -6 4 -5 0 -5 0 -2 -5 1 10 0 2 3 6 -8 -3 2 5 0 -9 7 -6 8 -3 1 11 -13 6 9 -1 9 7 11 -6 2 4 4 -2 -2 2 2 -4 12 -2 3 10 5 4 -3 -1 -1 7 -8 11 -10 8 0 -1 0 -1 8 -11 0 7 7 2 15 -7 5 8 1 5 11 -3 -4 -4 -12 5 2 7 12 -5 1 9 1 6 5 0 2 7 -2 2 7 9 9 4 0 2 7 7 10 8 -5 -9 
-4 4 0 5 0 12 13 11 10 3 5 4 11 -1 7 -6 7 2 3 17 7 -1 4 -8 11 9 8 -7 12 -3 6 -9 -6 1 3 9 -4 2 5 -17 3 0 11 2 -4 0 6 -9 -3 -2 -10 -3 -3 3 6 -2 -4 1 0 -10 -3 -6 2 3 8 -14 -5 -4 -3 -2 -11 -3 -11 -2 1 5 1 10 -3 -6 -11 0 -2 4 -4 -5 1 6 -10 6 9 1 6 2 2 7 4 -4 11 -2 14 -6 -12 1 -5 -1 3 3 -1 0 5 6 -7 1 3 -4 1 12 4 -5 -1 -10 -10 -11 -17 5 -7 2 -14 -8 -7 9 -15 7 -1 7 1 1 -3 -7 9 12 -14 -2 -4 -4 -2 4 4 -2 -8 -5 8 -1 -1 -3 16 7 -4 15 4 5 -5 8 -7 2 3 13 -2 -13 7 -3 7 -7 1 7 6 6 14 -4 4 6 3 5 4 18 -1 16 9 1 3 -4 8 4 1 16 5 12 -3 10 1 -2 9 1 -3 -4 -2 6 -5 8 11 3 -4 11 0 -10 -5 0 -1 11 3 -1 -4 -7 -2 -11 8 -2 -11 -3 3 4 3 2 4 -1 3 1 -7 3 -6 -6 3 12 0 11 4 -12 10 -10 -2 4 -1 3 11 -12 11 0 -6 -8 -4 -14 -10 7 -7 -6 -5 10 -6 1 -9 -10 4 -3 8 0 -2 9 -10 3 -6 9 2 -1 -8 4 -3 5 -14 -1 -5 0 4 -3 1 -11 -4 -13 -10 -13 -8 -16 -11 -5 -15 -16 -1 0 4 9 -2 -15 3 15 0 -7 -2 -4 1 -9 -2 3 -3 5 5 12 10 4 -9 6 4 0 0 -1 -2 -6 2 4 -10 -2 3 -19 -12 -16 -8 -20 -3 -8 8 1 6 3 -11 -4 -7 -1 -8 8 -5 4 -3 -11 -5 -7 -4 -1 -6 -7 3 -1 -1 -15 -1 -8 6 9 1 -2 7 -12 -2 -1 5 -5 -8 3 1 -1 3 -9 2 8 10 -11 9 4 -7 3 7 11 10 8 -5 17 11 5 -3 6 -1 4 -2 5 11 2 12 9 7 -1 2 13 18 -5 11 5 -1 9 4 5 -2 24 -16 3 4 0 5 -6 3 -1 -2 9 -5 4 -3 5 -9 -1 -5 -9 7 2 2 -5 5 -5 4 -3 -2 -10 -10 -2 -10 -5 -5 1 -3 -3 -9 3 -7 -2 -9 7 -17 2 4 3 7 -1 17 4 -4 2 9 3 -2 6 -2 -7 -8 5 -7 8 2 -5 2 2 13 5 2 1 0 10 9 5 6 5 -5 -7 -6 10 0 -6 -13 -1 -2 7 -1 6 -11 -3 -8 -2 -9 -5 15 9 -2 3 -6 -11 -13 -3 -3 -4 0 3 -6 0 -12 6 -5 1 -3 -3 -3 -2 12 -4 4 -9 3 -6 8 0 -10 1 -5 -5 12 4 -8 4 0 2 -2 -3 2 -2 13 3 -3 0 -15 -5 11 6 4 7 -4 8 2 4 9 -2 12 15 5 -3 10 -5 9 3 9 0 3 1 -1 -1 3 8 -1 11 1 -11 4 12 3 -1 -2 -14 9 -2 3 -2 -2 -1 12 -2 14 9 5 21 5 -4 14 -4 8 4 3 15 -2 15 -2 6 -1 2 9 9 8 7 
3 7 -3 12 0 8 2 11 17 -6 6 1 9 7 7 -5 4 4 11 -2 1 6 -2 2 6 7 12 9 -3 0 9 8 10 3 -4 -2 -8 -1 4 17 -3 2 3 -2 -4 0 3 -10 -9 -16 -13 3 2 -6 -5 7 -9 7 -4 -7 8 5 -5 -9 9 -7 -6 3 5 -2 12 -11 -8 -3 -3 2 -5 6 0 7 -7 5 1 3 -4 -4 2 0 11 8 8 7 -4 5 -13 4 -8 -1 8 -9 -8 18 0 -7 1 -8 8 6 1 -3 7 6 -5 4 -6 19 -6 -4 -9 -3 -8 -2 -4 1 -6 3 -8 -8 0 -1 -4 -6 5 3 -11 4 5 3 1 4 -16 3 -9 -12 -1 -5 2 -1 -1 11 0 7 2 1 -7 22 -7 5 2 12 9 6 9 8 2 1 -5 5 12 13 5 4 9 8 -7 5 -5 2 4 2 10 -2 9 10 9 2 8 13 10 -8 0 -2 -5 16 -6 0 12 11 6 11 10 -2 7 1 9 -2 6 4 -8 1 0 -5 7 -7 5 8 1 1 3 -4 8 -4 4 5 7 10 9 3 0 0 -3 -14 -4 3 1 0 3 13 3 13 8 -3 14 -1 12 -6 -6 4 -5 7 -7 4 6 -1 4 -2 9 -5 -7 -2 -6 -1 -2 -10 4 2 1 3 -4 2 -7 -4 -5 3 -10 0 -4 8 -1 11 -6 -4 5 -1 -14 -4 -10 -14 -2 -1 -5 -7 1 -1 -7 -9 -11 -17 -5 3 -8 -4 0 -6 7 -3 -2 -2 -8 -3 -5 8 5 3 2 -3 -2 -4 1 0 10 5 -1 1 15 -9 5 -7 -9 -10 -7 2 -9 1 8 -2 -12 -1 3 -4 -4 -12 -9 -8 6 -15 2 -6 -5 -7 -4 2 -1 7 -1 2 11 4 -4 7 1 -3 8 7 1 5 -4 -7 -3 -6 -1 -3 -10 1 3 4 8 7 -9 -15 0 1 7 -9 -1 1 -6 -5 3 9 6 3 -4 5 -2 -1 8 2 -2 -6 -1 -3 4 8 -7 2 -1 3 -5 -3 8 11 1 15 0 -3 8 9 4 8 1 8 9 -1 13 6 0 -1 -4 -3 -3 7 8 4 5 8 -3 -1 10 6 -6 1 4 -2 2 2 -2 -2 -8 -4 7 -2 -9 5 -5 -14 8 -4 7 -11 -14 8 -1 -2 3 -6 -3 0 -13 -1 -2 -9 -2 1 -4 -4 9 6 -3 -10 -2 -13 1 -5 -1 18 -2 -5 4 8 4 -3 1 -12 0 2 -5 -6 17 -1 16 3 -3 -3 -1 4 1 2 4 -5 -4 -3 2 -4 -8 -5 0 -16 1 2 -5 -5 -5 2 -10 -2 -10 10 -11 -1 4 -12 -8 -3 -2 -13 3 -12 3 -14 -2 2 -3 4 -5 10 3 -4 2 3 -5 2 -18 3 -7 10 7 7 0 -6 13 -9 17 0 -1 9 7 -1 13 -7 11 -4 0 -2 3 7 8 -4 2 -1 4 7 4 10 -1 -6 0 3 -6 9 -1 3 2 10 14 0 3 0 2 6 6 0 10 19 6 0 9 3 8 0 9 -1 -1 1 7 11 -4 7 0 -8 7 6 4 7 2 5 4 -1 -1 -6 7 0 -4 6 0 12 0 10 -6 5 
-5 12 -6 -4 7 10 -4 7 2 3 13 -1 9 14 8 4 6 14 -3 10 -1 3 4 0 -2 6 5 -11 8 -8 2 2 6 6 -3 7 -6 6 3 -6 17 0 1 -5 6 -7 0 2 2 -1 -4 6 -4 0 -1 -3 -1 -10 0 -2 -12 -7 2 4 -11 4 -4 -15 -14 0 -2 3 -13 -3 -2 -2 -11 1 0 -2 1 -6 6 -9 1 5 6 6 1 4 -3 11 7 0 8 -9 0 2 4 4 2 -1 1 -10 -2 7 -3 13 -2 -4 -3 -10 9 17 -8 -10 -17 17 -1 -2 -5 -1 -8 2 -12 -1 8 -2 -1 4 -2 1 -8 5 9 -6 -5 7 5 4 -7 1 0 -3 6 5 -7 -1 1 1 5 16 4 6 0 -9 16 -4 -3 11 7 1 11 0 -2 9 3 -6 4 -8 -2 1 -6 3 2 -5 2 -2 4 6 3 8 15 11 2 12 9 4 1 1 6 -5 0 3 2 6 -11 -2 16 5 5 -5 16 12 9 1 -7 7 4 10 4 0 3 -15 7 0 -3 -8 -19 -2 3 -11 -7 -6 -1 11 -8 -6 5 1 -1 9 6 4 5 13 -16 -4 5 -12 10 -5 7 3 -1 -3 -2 -4 -4 -2 13 -2 -4 4 15 -3 1 3 -3 -9 8 -10 -5 -2 2 6 0 -2 -1 8 -10 -3 -7 -6 -6 0 -3 -7 5 -1 -6 15 -2 4 -5 -6 0 7 -6 -1 0 -12 12 -16 -7 0 -11 2 -3 -13 -10 -3 -8 1 -14 -1 5 -1 -2 -3 1 -13 -4 -12 -4 3 -2 -14 3 4 12 -1 13 -11 3 -5 -3 -11 -3 -2 1 -1 -11 -9 2 -20 1 4 3 3 5 -7 1 -10 -4 2 1 -2 1 -3 -1 -7 -4 1 -4 7 1 3 7 -2 -2 10 5 0 12 -17 7 1 -9 5 8 8 -2 5 -2 14 2 4 12 11 1 -21 6 0 4 -6 -11 -3 -16 -5 -3 -1 -6 -4 13 -4 -1 1 0 3 8 4 10 -5 -3 5 4 -4 -3 8 -6 5 19 0 4 -1 4 11 3 26 1 -1 5 4 -4 9 11 -4 4 10 10 12 15 8 -9 6 15 7 -9 6 3 0 0 3 -7 15 -4 -2 -4 -5 4 2 -9 2 0 -6 -2 -6 -6 -3 -2 5 -8 -6 0 -4 -17 2 -8 -7 -1 -6 8 -15 9 -9 -2 -5 0 -7 8 -9 0 5 2 -1 -12 1 -3 6 2 -10 9 -3 8 -3 3 8 0 5 -2 6 3 -2 4 7 -4 3 -6 9 0 3 -1 -6 3 1 2 -2 -4 -4 3 11 -9 2 4 -1 3 -18 -5 -7 -7 -1 0 0 -16 -9 6 -5 -8 -1 2 -20 -8 -1 -4 -9 1 8 -1 -2 -1 -6 10 -2 -2 -4 4 4 -3 7 3 -3 -1 5 3 -5 -7 6 12 -2 -7 9 8 8 4 5 -4 -5 5 6 6 6 17 1 3 -5 16 7 -2 13 -3 10 1 -1 -4 4 -5 4 -4 14 8 9 -3 -6 9 -3 8 2 14 0 9 1 1 3 5 2 -2 2 5 10 3 11 13 -4 -5 -3 1 -1 7 2 -1 4 8 -7 1 -6 4 2 -6 3 
3 -9 2 0 -7 0 0 3 0 8 -3 -9 22 3 -6 9 3 5 6 -9 6 -1 2 3 10 5 16 -3 -1 10 7 -5 -2 12 -3 -1 -12 -1 6 -3 13 -11 0 -9 6 -6 3 -1 -2 -3 -9 2 -4 -1 -4 -7 -9 -3 -1 -12 -7 -2 3 0 -1 -8 -16 2 2 -4 -2 -5 -7 -4 3 1 -11 -3 -6 2 3 9 3 4 0 -2 -4 -2 0 16 -8 -7 2 5 -2 6 11 -8 -3 -8 8 -6 -6 9 -6 -2 3 -4 2 -4 19 1 1 -7 -5 -4 4 -4 -16 6 -8 0 3 2 -3 9 4 0 1 -8 2 1 2 1 -5 10 2 4 3 6 -7 -3 6 8 1 2 16 5 4 11 13 3 -1 -6 7 -5 4 13 4 8 7 0 0 15 9 -13 3 -12 -1 -8 -2 3 -1 2 -5 5 -7 13 1 -4 7 -5 2 20 0 5 -6 17 6 13 1 10 7 19 4 12 11 1 8 -2 4 10 -5 8 5 7 14 2 -11 3 6 6 -12 4 -6 7 -9 2 -9 2 -2 -3 -2 2 -14 5 7 -6 7 -12 -7 -1 1 -4 3 1 -6 6 -1 -7 -5 4 -2 -2 -5 -1 2 -4 10 7 -14 14 3 2 1 -1 4 -11 10 -1 -10 1 7 -4 10 12 1 3 10 3 -1 5 -15 -8 9 -13 -11 -5 -14 -14 -7 -13 -4 -7 5 -2 -9 -4 5 -9 -7 -8 -17 -10 5 -14 -3 -11 -12 -2 0 3 1 -2 0 -3 2 -11 -7 -7 -6 5 -1 1 -10 -1 4 1 5 -6 11 -9 1 -6 -5 -3 -13 0 -4 -4 -7 -10 2 -6 1 0 -9 2 6 -1 -7 7 9 -4 -2 1 -1 8 4 -3 6 0 0 -7 11 6 5 2 -5 -7 -5 -2 -5 0 1 -2 7 -5 1 -3 0 -6 2 0 -3 5 -14 17 3 4 3 8 -7 -5 -7 12 -4 12 2 9 7 5 -3 -7 -1 4 -5 -2 10 2 5 6 -1 14 12 -3 2 8 12 0 6 5 8 9 1 -7 2 3 -1 -8 11 6 -8 8 -13 3 6 -6 -3 9 1 11 2 -1 2 2 -2 -12 -8 -5 7 1 5 -10 1 -6 -5 5 -10 3 -4 2 13 4 4 13 -5 4 5 -2 -4 5 1 -10 -1 3 -8 3 0 7 4 -11 -6 -10 -4 -5 4 8 -4 9 -1 3 0 -2 1 -8 -1 2 2 -11 -1 0 -7 -11 -3 -5 -5 -10 3 7 3 12 -1 0 1 3 1 3 -3 2 1 3 -1 -11 0 1 -11 9 2 -6 -8 3 4 8 -3 0 3 8 -4 3 2 -9 -8 1 -8 -3 -3 4 -7 -5 -1 -7 13 -15 12 4 0 6 -3 1 -12 14 2 -10 -3 8 10 2 7 11 5 -4 9 4 6 4 4 -7 16 -1 0 6 -5 -2 2 14 5 12 -6 -4 12 -3 2 2 11 -6 10 10 5 -1 -1 -5 -7 -2 6 -5 3 5 -1 -4 14 0 14 11 1 0 8 -4 -1 7 -1 -5 -1 -6 -1 -3 7 -4 5 -1 9 15 7 17 -1 10 -8 7 5 -7 6 7 -16 4 -2 8 4 0 2 10 
8 11 -7 8 -4 2 6 7 10 -2 -3 10 -8 5 2 -4 3 4 8 10 -4 8 7 6 -4 -2 11 -1 0 -5 3 10 1 6 -3 -3 2 10 2 -1 8 -6 3 0 6 -4 -1 -12 -1 1 7 -2 0 1 -10 -6 -1 4 -2 -2 -6 -10 4 2 -3 7 -2 2 -6 -10 6 -4 1 -4 -13 3 5 -10 9 1 -16 10 7 4 -1 15 3 4 4 11 -8 8 -3 -7 9 -6 1 12 2 9 -8 2 6 6 8 11 9 -2 -1 1 11 -11 -6 -2 -1 -5 -5 -7 -1 -1 -3 -1 11 -14 20 3 -2 -5 -3 6 10 -3 -1 3 7 8 -3 -4 14 1 -1 -4 0 -4 4 -4 2 0 5 -5 13 -15 10 -4 8 -5 2 -3 3 4 -8 20 -2 6 3 12 7 3 -5 -8 3 6 -10 6 7 6 13 12 13 0 -3 -1 7 3 4 16 7 11 8 -2 17 12 14 5 11 15 0 10 4 13 5 1 5 -2 0 1 -2 -3 2 -7 10 -4 4 2 0 7 -2 -7 0 6 -3 -2 -5 2 15 -5 9 3 -3 -9 -4 17 -4 -12 -7 -7 -6 -4 -3 -6 -7 6 -5 3 1 -1 -4 5 -13 2 -4 -2 2 1 14 6 11 1 10 5 4 8 -3 -3 1 -12 -4 0 3 -7 -16 -6 -7 13 -2 3 9 5 -10 -12 -10 -2 1 -10 -5 -12 -5 1 -9 -4 -4 -12 -7 0 -20 -4 -12 -7 4 -5 -3 3 3 -13 8 0 -9 -2 8 3 -5 12 -11 -5 -1 -9 -3 -5 0 -8 -4 -12 3 -2 2 7 -2 4 -10 -17 0 4 2 7 -3 -1 -1 -5 -11 5 3 -5 6 1 8 -2 0 14 -7 0 4 4 5 8 -1 -9 3 -19 -1 -13 -7 -3 9 -2 -8 -4 -11 -5 -12 -4 2 -8 -2 -9 8 -7 5 1 11 1 5 -1 -5 5 -1 5 0 -2 -8 0 -4 -7 4 -5 5 -6 5 -3 12 10 4 4 4 11 15 -7 -3 13 -1 4 -12 4 -4 -10 2 -3 0 12 11 5 8 12 2 5 3 4 -4 8 -10 6 -7 6 -13 7 -8 5 -2 4 -6 -1 2 6 1 15 14 7 -16 -3 -12 -3 -5 8 -8 2 1 8 0 2 -2 -6 -3 -16 2 1 -6 -3 4 5 -8 -1 -5 -7 -14 3 -1 -1 2 -2 0 2 -3 -1 -7 -5 7 3 2 9 -1 3 -2 7 -8 5 -18 7 -15 1 1 5 -2 -1 8 -9 -1 2 12 -5 -4 15 -2 -1 14 1 -4 3 -6 1 14 -4 5 -12 3 5 2 13 7 -7 -3 -11 -4 -1 -5 3 -5 -1 0 -6 -2 1 -10 3 -1 3 1 -1 -2 -1 11 11 -9 -8 -1 4 4 -5 4 4 5 -2 7 -3 6 -3 21 -8 3 18 10 0 20 2 5 3 -7 5 5 0 15 15 0 7 4 3 12 11 -3 -3 -1 9 -7 -3 6 10 0 4 15 2 4 23 11 6 5 0 2 -2 1 -2 -2 7 -8 -2 -8 -5 -1 -10 6 -2 -3 8 -5 8 2 0 4 15 1 13 12 -3 7 1 10 -6 -4 -3 1 4 -10 2 
-3 9 7 12 -6 16 -2 6 3 7 5 5 4 -1 8 18 -6 11 7 2 -7 5 -1 9 0 8 -3 10 1 1 3 17 -1 13 -3 -4 -3 -2 -5 2 -7 10 1 -3 -3 -14 -4 -7 4 -10 -7 -7 0 -2 -7 -3 -6 -4 -2 -6 -6 8 1 -9 2 2 -9 -6 6 13 -6 -10 -6 5 4 -15 -12 -6 -4 -13 7 5 -8 11 -10 -3 -1 6 9 10 2 4 0 -3 -2 -6 14 -1 -1 1 -3 -4 12 -3 12 3 -2 -6 11 1 -4 6 4 5 1 -3 -3 -14 8 -2 1 -7 -5 0 5 -12 -7 3 8 -2 2 2 16 8 -3 -6 -3 2 -9 2 -10 -7 -2 -3 -7 -9 -1 -4 -7 7 9 -3 -1 8 -2 -10 6 13 13 3 11 -4 -2 10 9 6 2 -1 -3 8 6 10 5 7 -3 1 10 10 4 -4 3 13 5 15 5 4 10 7 8 6 4 8 4 16 -16 3 12 1 5 5 -4 6 10 8 3 8 0 5 1 9 -4 12 0 -9 -14 -6 4 6 6 -3 -6 6 -2 -3 5 5 -11 -3 -2 1 -3 -8 -2 -8 -6 14 3 -4 -4 -1 -6 -9 0 -9 -5 -8 -10 3 3 4 0 -3 3 -3 -1 12 -2 13 -13 6 -3 -6 -3 10 -5 -2 -5 -2 -2 -7 -2 3 -7 -4 -4 -5 -1 -7 2 5 4 -7 -10 2 -8 -6 0 1 7 -7 -19 -5 -4 -2 -11 2 -12 -6 -4 8 -3 -5 4 2 -9 -2 -4 5 -8 11 -7 -9 -5 -4 -4 -5 0 -2 -1 -9 -2 4 -5 -8 5 -18 14 5 6 7 5 5 -8 4 -8 3 1 -5 -2 4 -5 4 -2 1 6 -13 6 -4 -3 2 10 2 -8 -4 3 -5 -9 10 -11 -19 -3 -3 -1 7 5 10 8 -4 5 1 -3 2 -6 -1 4 1 5 4 -5 -9 6 -8 -5 2 -9 7 -8 7 15 -9 3 5 6 15 -4 7 10 20 8 -5 5 5 -1 4 -4 8 2 -6 -5 6 3 7 6 5 5 4 0 -1 10 -2 5 4 0 -3 16 4 1 1 -1 -1 23 1 1 7 -10 0 6 15 3 1 0 2 2 6 -10 -6 -8 3 -1 -8 9 -1 4 -10 -5 -1 -13 0 -4 -6 1 -6 -16 -1 6 2 4 4 -9 2 -9 10 -1 9 -1 7 7 0 -1 -1 -9 -1 -2 -1 10 -5 4 9 -5 -10 -4 -1 -1 3 0 4 -7 -5 6 -8 11 9 -8 9 1 -3 -9 -1 0 -12 6 -1 -7 1 10 1 7 -14 -1 14 2 5 -1 -7 2 -4 -1 2 1 -3 -8 5 -5 -3 -6 -8 3 -4 -3 -2 4 -3 7 0 0 -2 -1 0 -16 -6 1 19 -3 1 -10 0 3 10 -4 -16 -2 5 -2 -8 -1 3 11 6 -1 -3 -5 -4 1 1 11 10 10 2 0 1 8 7 -2 23 7 -1 0 3 7 -15 1 10 -7 7 6 13 1 6 7 7 13 -6 2 5 -6 10 -7 11 4 -9 -1 -5 11 -1 -6 0 -10 9 -2 -3 3 -1 6 4 -1 12 -8 7 3 -14 2 -14 -1 6 9 1 -4 5 -8 3 
9 1 0 4 -8 6 -1 6 3 5 -4 9 10 2 5 9 7 6 9 14 8 1 3 5 -4 0 14 15 10 -1 6 4 5 3 1 4 7 -4 7 -2 5 1 2 0 -1 9 -7 3 -2 -10 -1 -2 -8 2 -1 1 -8 -8 -11 3 1 -11 -19 2 -8 1 7 -4 -3 -4 -3 1 -4 0 -6 3 4 -1 -9 0 6 -10 -10 -10 -4 -8 0 3 -1 2 2 -3 6 1 -10 -1 5 4 -8 -5 -1 15 -5 -2 -1 10 -2 7 0 0 0 9 -7 3 -3 6 -4 1 6 0 3 -14 1 0 -6 14 6 6 0 -2 4 8 -3 -5 -6 -8 -5 -9 -4 3 -8 -1 -5 -8 -4 -2 -3 0 11 -7 -1 7 -4 7 -5 -5 -4 -1 2 8 4 -2 -6 12 -8 7 -6 6 2 10 7 0 1 11 1 11 6 0 7 3 1 13 -4 14 7 6 10 15 7 8 -1 8 6 1 1 5 -1 -3 3 6 14 0 -7 -5 17 -5 11 -1 19 0 3 -15 0 6 13 8 -5 -1 -1 -7 -1 0 -5 9 7 1 9 0 0 -13 3 4 1 -5 -4 3 1 3 -8 -2 -1 -4 -6 5 3 4 -8 -8 -10 -3 1 -7 7 -1 -1 -4 5 -1 0 -13 1 2 -3 -15 -1 -8 -17 0 5 -5 0 -10 -14 9 13 16 -1 -1 -9 2 1 -11 7 -11 4 -16 -4 -9 -7 -14 0 -7 -25 0 1 2 3 -8 -1 -5 -21 0 5 3 -8 -13 -6 -2 -2 -6 -2 -3 13 -2 -1 -1 -12 -2 -1 -2 -4 -9 0 -13 -4 2 12 2 -1 9 22 10 15 5 6 10 1 -1 -1 0 -2 1 1 6 -1 5 6 5 7 8 0 2 1 4 -2 -2 21 -10 -9 6 5 0 -1 -3 3 1 12 11 -5 0 5 11 5 0 -3 -1 -6 0 0 5 1 -4 2 -3 4 -1 1 -6 13 3 3 0 -3 7 -2 12 11 -2 8 0 -4 -3 10 5 1 18 0 8 -1 10 6 0 -4 6 0 5 9 8 5 17 4 10 0 5 -4 3 8 6 7 -5 5 1 3 2 0 9 -4 -8 3 2 -9 8 -7 -8 -6 2 -4 -1 -4 -5 4 -2 -10 9 0 -5 -2 -7 -14 -7 -12 5 -8 -5 0 -4 3 0 -5 2 -14 -2 -4 -9 -4 5 20 0 -10 -4 1 -6 -4 2 -9 -3 -6 2 -3 8 -6 -1 0 -3 -4 -12 -2 0 -3 3 23 1 1 3 -3 4 5 5 9 4 -9 3 6 -13 -4 -11 -12 3 0 -3 -8 1 -8 5 3 10 -3 8 -8 -4 -2 -7 2 -3 -7 1 0 15 -5 11 -2 -1 0 -2 6 -2 -6 -1 5 5 9 2 1 -4 4 7 2 1 4 1 18 -14 -5 16 1 1 0 8 6 -1 -2 3 -15 -1 2 6 5 -5 1 3 7 11 8 9 3 8 4 -3 -2 -2 8 4 -4 5 -4 2 0 9 -1 6 15 15 10 11 13 -3 0 -6 6 10 -1 -5 -2 9 8 -4 1 10 4 -3 9 1 -4 9 11 -4 6 -3 -1 4 -4 -1 -6 1 -18 0 5 8 3 1 
1 5 7 -5 -2 8 7 5 4 4 9 -6 -3 10 3 1 -5 12 -6 0 -5 4 -6 5 4 -1 0 -1 5 11 -1 2 -8 -1 -4 -7 2 -15 6 4 9 12 -3 -9 3 1 -7 -5 -3 -2 4 -4 -2 6 -5 6 5 0 -12 -5 6 -11 -2 0 2 -3 -9 5 12 -3 2 -6 -7 3 2 3 2 -7 14 -15 5 -5 14 3 5 -5 3 4 -2 6 3 3 1 3 3 -4 8 -12 6 -2 1 -6 -3 1 5 5 5 8 7 -5 7 7 0 4 -10 -6 -4 4 -4 7 4 0 6 8 -14 -1 5 4 9 2 -4 2 5 11 -1 -2 0 8 11 -1 4 -4 4 10 5 9 -2 9 -3 9 6 -7 1 -1 3 3 -1 7 -4 -1 -9 -11 -2 -8 6 -1 3 11 5 -6 1 14 1 3 6 3 -3 15 5 -10 -4 -5 5 6 -2 15 -2 -5 2 12 -4 7 0 10 2 -3 5 -3 5 2 14 7 4 4 5 0 -4 9 -3 10 4 7 0 12 -8 -10 -16 4 -9 4 7 -2 7 7 -7 -6 -7 0 -10 -6 -7 -5 -5 -2 -10 -2 -7 -11 -9 -9 -4 -9 0 1 -11 -5 -12 2 4 -9 3 0 0 10 7 8 -7 7 -8 -1 -2 -10 -6 3 -9 1 -7 -4 -17 1 1 -4 4 0 -2 -7 5 0 -10 3 0 -6 -12 0 -2 -11 5 1 -3 6 0 -10 -1 1 -24 -3 3 -3 7 2 -5 2 4 -9 3 -14 -1 -5 -1 5 -9 2 6 5 -7 6 3 -9 -11 -5 -3 -4 1 -9 -3 4 2 -14 5 0 12 -3 0 -6 0 16 -1 7 0 6 -2 1 1 -2 -2 1 -2 12 -3 -7 5 6 16 1 4 20 -4 6 10 6 -4 10 -6 -4 11 10 9 -9 5 -8 0 0 1 -1 0 4 -6 8 -1 -2 -5 -2 0 -8 0 -3 -1 1 -2 0 3 3 -4 -4 -7 -3 -5 4 -2 -8 8 4 9 2 2 4 3 15 2 5 4 0 6 19 -1 -3 4 6 8 2 -1 10 -4 16 0 1 5 2 9 2 11 -4 10 -6 2 -2 9 -2 -14 2 4 9 0 -8 -2 -8 -4 8 0 6 -8 -2 8 -1 2 -5 -17 -3 -8 7 0 -8 -7 -7 -4 -9 6 -6 1 4 7 -4 -4 -9 9 5 -16 1 0 -6 0 -9 -2 -2 -1 8 -4 14 -5 -2 -3 -5 2 -9 9 -10 -17 4 -3 -3 8 3 5 5 0 -8 1 -9 -8 3 -10 -1 -8 -10 4 -10 11 -14 -7 -1 7 -4 2 -12 -3 2 1 -9 3 -7 -3 -8 7 2 -11 5 -2 4 3 -7 9 -5 2 6 -6 0 12 -4 2 1 -3 10 4 12 1 11 -3 2 0 4 0 -5 1 1 0 1 2 -5 5 8 2 -11 7 12 7 1 0 -6 5 -7 -3 -6 2 7 -2 0 1 10 3 0 15 4 6 -9 5 2 11 3 9 8 -5 11 1 3 3 -2 12 10 -9 0 3 2 2 -22 -1 6 14 -3 -2 -5 1 4 19 4 10 5 5 -8 2 -11 -1 3 7 9 3 -12 -11 -1 4 7 
0 5 3 -9 20 1 0 7 -7 9 7 17 8 -10 -3 -3 12 11 4 -4 9 -1 -4 1 13 1 11 16 4 4 -3 -1 10 3 1 4 -2 5 -12 -11 3 8 6 6 -6 12 -4 2 5 9 -10 1 -2 -5 2 -15 -7 -3 0 -2 -5 -8 -10 -7 -5 -4 4 -10 -5 -14 -2 -1 9 -5 -2 -9 -5 7 15 -15 5 -3 3 3 -6 0 -4 8 -10 -1 -1 -4 7 -7 2 -8 -9 3 -6 -10 -2 -2 8 -1 6 1 2 -1 1 3 4 3 6 2 -2 8 3 -12 -4 -5 2 -1 -10 -4 5 13 0 2 11 2 15 3 4 15 3 0 -5 2 8 0 22 0 11 1 -18 1 5 5 -2 6 -9 9 -10 5 -4 -6 6 3 9 12 1 2 7 6 0 12 13 -6 1 5 -4 15 -9 7 0 3 4 9 4 -9 2 2 5 8 12 4 11 9 7 -5 21 5 16 8 10 1 -1 15 -3 15 4 1 3 5 8 -8 12 4 7 4 -4 8 -2 -8 -4 8 0 -4 -3 3 -14 -6 -8 -1 -9 0 1 0 -14 1 -8 0 0 9 -7 -11 -4 -3 -7 -2 -6 -3 -2 2 5 5 -7 -15 0 -12 4 1 6 -19 0 6 -1 -2 1 9 -9 3 3 -13 2 -8 9 -2 3 -6 -4 -2 -4 -2 -11 5 -6 -5 -11 -7 -9 3 -3 -11 5 -2 -1 3 -7 -12 -11 0 -9 3 3 -10 -4 -8 7 -7 -3 0 7 -9 9 -10 6 -8 11 7 -12 9 -1 0 9 3 2 2 -7 -17 7 -1 -2 1 -3 -8 3 8 -1 -2 4 -7 13 4 12 -2 7 6 -2 0 0 8 9 1 -4 6 -14 -2 2 3 7 0 1 0 0 -1 5 -4 -2 3 -2 8 3 -7 10 5 14 10 0 -6 11 -2 0 -4 -2 -3 -6 5 3 8 -4 12 3 13 1 4 8 2 3 -3 -3 -2 2 -5 8 7 9 -5 -5 0 -2 -1 5 -3 2 7 5 6 -3 10 3 -9 -1 -9 8 10 8 0 2 12 7 3 3 -5 8 4 3 -4 2 -1 11 0 -5 -4 10 4 8 -6 -2 4 0 0 1 0 -8 2 -9 1 0 -4 -2 -7 -4 -5 -11 7 -9 -6 -9 -7 0 1 1 7 -6 -6 -6 -1 -5 10 -8 12 -3 7 3 0 -4 1 -11 -3 -5 5 2 -6 -4 4 8 -3 -3 3 6 4 -4 8 -8 -3 3 -1 3 2 3 -7 4 -3 2 2 0 -5 -12 0 2 -8 -6 -10 3 -9 -6 -4 2 -1 0 -1 -5 11 5 -1 -8 7 0 1 -16 2 1 -1 -3 -2 -3 0 13 -7 -5 -7 -2 8 -7 -2 -6 -4 10 11 -9 2 -10 5 15 -3 8 -6 2 2 4 -7 -7 -2 0 -3 1 2 5 3 3 16 -20 -5 -4 4 5 4 7 -5 12 12 8 7 10 3 4 -1 6 -9 13 4 -8 6 1 17 8 10 2 7 -2 -10 0 6 3 12 2 -7 21 5 -5 -5 -4 -2 11 4 1 -6 13 -1 6 12 7 -7 16 1 1 1 1 -4 0 -14 0 -4 -11 7 0 -4 12 0 
-3 6 -2 -1 4 5 2 -4 -3 2 11 -4 -5 0 10 4 -2 12 -5 0 3 2 5 -7 6 -5 6 -7 8 11 13 -2 -13 3 -5 -1 -3 1 -13 -4 -4 1 -8 2 7 -2 -7 -6 -3 -9 12 1 -7 0 2 -4 0 -1 -4 6 -3 -10 -5 -4 -15 6 -13 -11 4 2 6 -1 0 2 0 -11 2 -16 -9 -3 -2 9 0 -6 6 1 2 7 3 2 4 -3 -1 -1 -2 -1 0 -9 8 2 3 0 1 6 2 5 1 10 3 -5 12 13 -5 0 1 1 4 0 7 0 6 -5 -8 6 -6 22 -6 7 14 4 -3 7 10 -3 -2 8 -3 -8 -11 -1 -3 -6 1 -4 -6 7 9 -4 -2 2 12 3 -4 -2 3 1 4 2 -6 8 6 0 0 6 7 4 6 5 1 11 7 4 -2 20 9 2 0 10 -1 -9 7 0 12 15 -2 0 9 6 4 18 16 7 8 8 7 12 5 -3 -3 -7 5 11 -5 8 6 11 -4 9 -7 -1 -7 -2 -8 6 9 -9 0 -2 -4 0 -9 8 -3 1 -1 -6 1 -11 4 -6 -2 -1 -6 1 1 2 6 -1 11 -4 -10 -5 9 -3 -10 -2 5 10 -8 14 -10 0 -5 10 8 2 -6 10 -1 -6 0 -5 0 0 -3 -1 -2 1 3 3 5 10 -3 0 0 -4 -5 -13 5 -8 -1 6 4 2 4 9 -3 1 -13 3 -1 2 -16 -15 4 -9 3 6 -11 -11 -13 -4 -15 -3 -3 2 -12 -2 -9 3 -5 -3 -8 0 -2 7 0 1 -6 9 0 -17 5 -10 -4 6 8 2 -7 2 -2 0 2 4 -2 -1 4 14 -1 12 5 -5 -15 2 -10 3 -9 18 -4 11 17 3 7 5 8 3 8 -5 12 3 8 2 4 -10 9 6 -2 10 14 6 4 2 5 0 1 -12 0 -4 5 5 -3 2 7 7 6 -1 2 -3 5 -1 -12 3 -5 -5 3 -3 -5 -14 8 -2 12 4 9 -11 7 -4 4 2 -3 0 4 0 -2 1 8 0 -2 10 13 9 -2 1 13 9 10 7 -1 3 1 1 0 -1 -4 -10 -9 -16 9 3 -12 7 13 -2 8 -1 -2 -3 0 4 0 -6 2 -2 -8 -7 7 -15 -22 -4 0 -4 -17 -12 -9 -6 1 -1 -12 6 -2 -4 -7 11 -4 -8 4 -10 -2 -1 -11 5 6 -9 -1 -7 -5 3 -2 3 7 -7 -2 0 6 4 5 2 -8 -1 2 -1 10 3 -1 7 3 -6 6 -10 4 -5 -9 1 -8 5 0 14 -1 -3 0 -1 11 -3 4 12 -12 9 -2 2 -7 1 3 -2 6 -2 -5 -6 2 -10 -9 0 6 14 11 6 -11 10 2 4 -2 3 -7 -1 -5 7 5 5 0 8 -7 -4 -3 6 -5 4 0 0 -5 0 5 -1 0 10 0 8 -1 8 3 2 3 18 -3 0 -4 11 1 10 11 3 4 1 7 11 4 2 9 0 0 12 11 13 9 11 8 7 9 0 15 8 2 -1 7 7 0 9 -3 0 2 7 6 2 -10 3 4 13 -1 -8 13 -3 -12 -6 6 -5 0 6 -8 -9 -1 3 5 0 
7 -3 4 5 3 1 -8 8 7 2 -2 5 7 2 22 -6 13 5 6 0 2 2 8 1 1 6 -2 6 -3 5 -4 -1 0 -2 2 3 0 -7 -1 -2 -1 -9 9 -1 -4 11 -15 10 -17 -2 -3 -6 3 4 3 6 -8 9 -7 5 -5 0 -2 -4 -11 3 7 -4 -6 -2 -12 16 -10 1 1 -6 6 6 -12 4 13 2 5 1 -7 -3 5 5 1 -2 4 2 3 3 -6 -15 7 -1 9 7 3 4 -9 5 1 8 -1 3 14 4 -6 -3 3 -7 -3 -4 -8 -2 8 3 0 -3 4 1 5 -1 1 -2 -2 19 4 4 -3 12 -8 18 -8 7 8 3 2 7 12 -2 3 -1 -5 2 8 11 8 8 -3 -7 -12 2 3 10 8 -6 -10 2 4 4 2 -9 0 -4 9 -10 -4 1 -1 -3 0 11 2 12 5 7 4 15 0 9 7 6 -4 7 4 -1 10 6 11 12 -4 -6 11 4 8 -7 9 2 1 9 7 -5 6 5 2 -10 1 -17 8 -2 0 -15 -18 -8 4 7 -7 5 -6 -22 -2 -1 0 -23 -9 -2 0 7 -3 1 -8 8 2 -13 2 -11 -10 -8 7 -2 11 0 1 -6 1 -1 1 0 -12 3 -5 11 7 7 -6 3 6 -4 -9 -4 5 2 9 -5 4 -15 -2 -18 -3 0 2 -6 4 -12 -7 2 3 -2 -5 -2 -3 -8 -3 0 -12 -1 -16 -3 -4 -16 -5 4 1 -11 2 0 -4 0 -2 -11 -7 -8 3 -2 -9 2 7 -7 3 -2 -3 12 6 1 2 -5 3 -2 3 8 10 -11 -12 2 7 12 2 -1 3 -4 -6 0 5 -1 5 15 6 -7 10 6 1 -1 10 -2 5 7 -1 4 5 11 3 5 -6 9 8 -1 0 -6 6 1 6 7 -1 0 4 8 -6 0 5 -5 -4 -3 -1 1 -6 11 5 -9 8 -15 8 -13 3 -14 -7 -8 1 -9 -2 -2 -6 0 4 10 -1 -7 -3 -9 -10 -7 -1 4 -1 -2 -5 -7 2 1 6 -1 0 -1 2 2 10 -5 7 6 11 7 13 0 -4 14 2 2 -5 1 2 7 -1 -4 -6 -3 0 -5 0 -8 -1 -9 10 1 4 -10 -1 2 1 -8 5 -3 -6 -2 1 3 -10 -8 4 -9 0 -5 7 -4 -7 -7 -5 -11 -6 -9 -5 0 4 -2 -12 2 -12 -6 -2 -3 -2 -3 -2 -1 1 -4 -10 1 2 -2 -2 -11 1 -13 6 10 6 -5 -9 3 5 -5 -6 -5 -9 0 -4 8 -5 9 -9 1 12 -6 -4 -8 5 1 2 6 0 1 0 -3 -1 3 -7 4 -7 2 -3 0 7 -4 2 -5 5 -8 -8 1 -3 -5 0 0 -7 -12 -7 0 3 8 -1 -5 1 -10 5 -6 8 13 5 -7 1 4 -23 -2 4 0 -3 6 5 8 -2 4 -6 2 8 10 14 6 9 -2 22 -10 8 -2 4 -8 11 3 11 6 -1 10 3 9 14 -11 20 14 -2 2 6 2 5 3 -10 7 11 3 -7 3 2 -1 -2 9 10 5 6 -1 16 2 15 4 2 4 -13 -1 8 4 1 -1 12 0 3 1 -10 7 -2 2 
-3 -6 -5 -4 2 -6 9 6 0 -11 -10 17 -1 -1 1 9 -1 -1 4 5 3 10 -7 6 -6 -4 8 12 1 5 24 8 -4 10 -8 -2 -9 13 -11 -4 -3 2 -3 -10 4 5 -9 -5 -3 -9 4 -2 -5 4 -13 4 -7 -1 0 8 3 -3 -4 3 -5 -1 3 -5 -1 4 3 -5 -12 14 -10 -14 4 -3 1 10 -21 12 -17 2 1 -11 -1 -1 3 2 2 -2 -6 -5 4 0 -6 -7 -8 -8 0 7 8 -1 14 3 1 -3 5 2 7 4 13 -8 -7 4 12 -7 6 -6 -2 -2 1 10 -1 -7 -1 7 8 6 6 2 3 8 6 8 3 1 -1 9 10 -4 6 -2 4 -7 -10 4 5 -5 -3 -4 8 -2 14 1 -16 -2 2 7 -4 -4 -6 -7 -1 -5 -3 -4 6 5 -4 8 6 9 8 10 6 11 6 3 0 5 3 -1 9 2 11 -1 8 4 13 13 6 9 8 4 1 -5 8 6 7 -4 6 2 13 -6 -14 -2 -2 -9 7 1 -1 -14 2 -4 -12 7 8 -5 7 -1 0 5 4 -6 0 4 2 -1 -13 4 2 4 -6 -5 -3 -3 5 -1 -7 15 -1 6 5 -9 0 -12 11 -11 -4 0 -5 2 4 -1 -7 13 -1 -1 -14 7 -14 5 8 -4 -3 3 1 3 1 -15 7 -6 -10 -5 4 -11 6 11 -17 -7 6 2 -12 -2 -13 -1 -9 -7 2 -1 2 8 6 10 -4 6 3 6 -5 -1 3 -2 5 4 -5 -10 -2 -5 3 1 -5 -12 -11 5 4 1 -8 3 -7 0 5 -1 -2 11 -3 0 -7 -13 -2 -2 -7 2 4 -2 4 9 4 -6 6 -3 7 -6 15 -4 4 -1 -3 3 -5 5 -2 13 -3 4 11 9 6 -4 7 -1 8 4 5 1 3 6 8 6 -2 -3 -5 -5 6 9 9 1 -2 -8 -5 -13 -6 -2 -1 -11 -4 -2 3 -11 3 -8 -2 4 -5 -2 2 4 3 1 -1 -5 5 -1 4 -6 10 -4 3 4 -3 4 2 4 5 1 -6 7 1 7 15 8 4 -10 -5 9 2 1 1 3 -9 2 3 9 6 -7 8 -7 14 2 0 -3 2 7 5 -14 1 3 6 -6 -6 -3 -2 -10 -4 2 -4 -5 -4 10 7 -1 -9 -7 -11 -7 -5 1 2 5 7 -8 6 -3 3 -10 -5 -9 -8 -4 0 -8 2 -9 -8 -13 15 -1 4 -4 -1 -1 4 2 3 1 8 -7 -1 -4 11 0 -1 -11 6 10 -11 4 -8 7 3 -8 11 -2 7 -4 12 -5 -4 14 -8 13 10 15 14 12 -2 0 5 -4 12 4 6 5 9 -1 -5 -4 -5 -3 5 -12 3 -8 2 -8 1 -3 5 13 0 -4 3 1 -9 11 10 2 -7 4 -3 -6 7 -3 9 9 -7 5 2 -3 8 13 3 -1 0 8 5 1 -2 5 -7 9 12 7 11 3 14 2 9 3 -1 -3 14 8 10 -13 12 15 9 6 2 22 5 8 7 -1 9 -4 5 4 3 10 11 3 11 2 -1 0 4 6 -3 2 -2 9 -6 -10 2 10 -12 1 1 -5 8 -13 2 -13 0 -4 -1 -19 
-4 10 -8 11 2 7 16 -9 4 18 -11 -3 3 -5 -9 -9 -6 3 8 -1 2 14 10 -7 7 6 8 -1 1 4 0 2 13 -4 4 -8 9 4 -4 2 -7 -4 12 -4 -5 -5 6 7 15 -5 -8 -3 -3 7 -3 -6 -1 4 -3 0 -3 -5 10 -9 -6 1 6 -2 1 6 1 -8 -8 -6 -11 -11 -1 -12 -5 -1 2 3 14 -10 -14 -8 -9 -6 0 -8 -11 -2 -3 -8 0 -1 -5 -2 2 11 -2 5 8 0 -1 1 -2 4 11 5 6 -2 9 5 -1 2 1 2 3 11 1 6 7 -10 7 -2 0 14 4 10 4 -5 3 7 -3 -4 17 -2 6 -6 -1 -2 -1 1 0 -8 -5 -2 2 -1 -5 3 -2 9 -5 -5 -7 3 0 1 -15 6 1 3 3 3 -4 -4 -6 14 -2 -2 9 13 -5 -2 1 -1 15 -2 10 11 6 0 3 -6 13 4 -5 17 0 -2 0 -1 5 1 1 3 -2 -1 3 -2 -2 4 -5 0 8 1 -6 -4 -11 -3 -12 -8 -15 -11 2 0 -1 4 4 -9 -5 7 0 -6 -6 -9 -4 -9 5 4 -3 -1 6 -3 5 9 -7 -3 -26 -5 3 -6 2 1 -8 1 -1 10 -15 -4 4 1 -4 -1 1 -1 -3 -2 -7 -7 -7 1 -2 -6 7 -13 -5 12 -3 -1 9 -9 2 6 -8 -4 -13 5 -6 2 -2 -10 -3 -8 -3 -4 -7 2 -12 -1 -15 -13 11 10 3 9 5 1 6 2 2 -3 -14 3 -11 4 -6 7 -4 -4 -1 -4 -9 -2 -14 -12 1 -4 -3 0 -5 -12 8 -1 -16 3 -9 -10 -8 -15 4 7 8 2 -9 -3 0 -11 -1 5 9 5 -5 5 5 12 19 -15 2 9 11 -3 -2 0 18 3 14 3 4 2 -5 -13 -2 -15 2 -1 -1 -2 -1 -9 0 4 4 -11 5 0 -9 0 -3 4 -1 -23 -4 3 6 -8 -10 0 -6 2 -28 -4 -6 11 9 3 1 5 -17 7 4 2 -1 0 6 6 -13 0 1 10 9 -14 18 9 4 3 9 16 11 12 8 9 15 11 4 -3 0 14 2 10 -6 -2 4 -6 0 -8 3 -10 -3 2 -4 -8 -4 4 1 -5 -8 8 -5 3 -11 -5 1 2 5 -2 6 -7 -8 5 -9 -9 -9 1 -3 -8 -8 -13 -1 0 -1 -6 1 0 -7 -9 1 -16 -2 -10 4 -12 0 2 -3 -2 3 -15 -10 -8 -4 0 -7 9 -3 -1 3 7 1 -17 2 0 1 -5 1 2 6 -5 4 -11 -4 15 1 -11 6 -5 10 -8 12 6 3 8 -13 -3 -8 -6 -7 0 2 -8 2 6 1 -5 4 -4 -4 -2 -3 0 7 10 7 -3 0 -9 9 3 2 8 11 -4 4 -5 13 2 -12 3 -6 -3 0 3 0 -9 -2 7 -3 13 -5 5 10 -8 -5 14 2 7 -10 4 10 7 2 16 11 -2 5 4 16 7 1 18 0 -3 17 11 17 14 10 8 9 11 9 1 12 3 5 14 9 9 6 0 8 -5 -14 0 -2 2 1 12 -6 4 -3 -3 -5 -7 7 0 -1 3 6 7 -8 -9 3 -11 9 6 -9 10 
-2 1 3 2 3 -9 12 10 -12 -10 13 -8 4 10 6 0 7 -6 8 -7 7 3 -4 5 1 -9 -10 -6 1 4 -4 -2 5 8 -7 12 6 -2 -6 -1 1 4 -3 -3 10 -4 10 -12 -6 -6 12 1 2 -2 7 -8 10 -14 -2 -3 1 -1 6 -6 8 -2 -5 -3 -8 4 -2 -3 -9 -5 -3 2 -1 -3 -1 5 8 -9 1 -5 -5 -1 -8 -5 -1 1 -4 0 4 2 -4 -20 4 -12 -13 -9 -8 -2 -1 6 -6 -1 2 -4 4 -7 7 1 0 5 -7 3 -5 6 -7 7 -2 -5 11 9 6 15 1 -1 -6 -2 3 -5 0 6 7 -3 13 -8 -2 -7 -5 -5 -1 1 0 -3 -2 -2 6 1 21 -14 8 1 -1 -7 2 -8 0 -2 -1 4 3 3 0 -3 -7 -7 10 1 -6 8 1 -8 3 6 3 -2 11 -1 12 -3 2 2 6 10 12 3 12 7 8 8 9 12 1 0 -2 -4 5 3 1 5 4 -3 8 5 1 7 7 9 1 -1 11 2 0 6 12 -1 -3 -15 -10 -8 -2 2 -6 -8 -5 -3 4 1 -6 3 1 -3 -1 -6 -5 -7 0 -7 -5 8 11 6 3 -7 -6 -5 1 -6 5 -7 -2 9 4 -14 -1 3 2 -3 -10 0 -17 0 -10 2 6 -6 -1 0 -3 -11 -3 -14 -2 8 -2 -4 -2 13 -7 5 -13 0 -1 6 -4 -1 7 -1 5 2 -1 -5 -3 -9 1 -4 2 -2 8 1 -2 0 2 6 0 2 1 -5 -10 4 7 -14 -10 -8 -1 -1 5 3 7 -3 -5 6 -2 2 -13 2 -3 -4 -3 -13 23 -9 3 -7 -2 -2 -7 1 -1 -6 -5 3 -12 10 9 -3 4 -2 6 5 0 -5 6 7 20 1 9 4 1 5 -3 8 -3 1 -5 8 -2 4 -10 -4 3 -7 -3 9 6 -2 8 1 5 3 2 -5 -1 -9 5 -4 -8 -2 2 -12 6 -3 4 3 -4 -3 6 2 10 1 6 3 -7 -7 -1 7 9 3 3 4 9 2 -2 5 -2 -5 4 11 -13 2 10 8 12 11 -4 11 20 -6 5 5 5 6 -8 -5 -7 -4 8 16 -4 -5 7 -10 5 1 2 -6 -10 -1 -3 5 -6 -7 3 -12 -3 3 -11 -3 -3 -8 7 -10 1 -8 7 -10 2 -8 -4 -11 -8 -1 -9 -20 9 -6 3 0 -10 -6 6 -1 -7 -3 -1 -4 -2 -1 0 -5 -2 -11 8 10 10 -2 6 -8 -6 7 -7 -5 3 -13 -1 -1 0 4 -7 3 -5 6 4 0 0 -1 -7 7 5 -8 1 12 5 0 -8 9 -3 5 12 14 -5 -4 -2 -2 -11 -4 -1 -1 -3 -10 1 12 1 -4 4 0 0 4 8 9 2 2 10 11 -12 6 -3 2 -3 2 2 10 -4 16 7 -3 10 -4 5 4 -9 -10 13 -3 2 6 12 -3 0 5 3 -7 -1 2 22 7 2 0 13 7 14 3 8 16 1 -14 14 18 3 20 0 11 0 16 7 -10 2 1 11 10 -10 4 6 6 6 3 8 -5 -2 6 10 6 0 -1 -1 4 -2 -2 4 14 -7 -4 7 -3 9 9 5 -4 
5 3 -6 -4 -3 -6 1 -6 -2 -10 11 -8 5 5 -9 5 -4 -7 4 3 -16 5 6 4 -4 6 11 -11 0 6 4 4 9 1 4 -4 -16 0 1 -6 -5 5 -8 8 -9 -2 -5 9 2 7 13 0 6 11 9 -3 10 -4 -1 -10 10 1 -1 0 -16 4 5 3 4 -4 4 -4 -5 0 -1 1 -1 -10 -1 2 -3 11 10 -9 2 -6 -5 3 -6 -5 -4 -6 -2 0 3 3 -1 5 -2 3 3 1 3 -2 7 13 -1 -7 9 8 -7 19 -4 8 0 -5 5 2 14 13 17 -10 1 1 16 -2 5 9 -7 7 -10 14 -1 18 8 5 3 -2 4 -4 1 4 -5 1 -1 -7 -14 -4 -2 -4 7 -5 7 1 5 -10 -5 8 0 9 0 -8 0 -5 -2 2 6 4 2 7 -1 9 -5 6 11 1 -1 6 11 13 0 -3 1 1 2 3 -2 -1 6 -2 14 13 -2 3 3 0 0 4 -5 -4 -2 10 7 7 -2 -4 10 3 -1 1 -1 1 3 7 -13 -6 -5 5 2 5 -4 -2 -2 -15 -15 -7 -10 -5 -4 -14 0 -2 -6 12 -4 -1 -11 4 -3 -1 -1 0 -12 9 3 -5 -1 10 -1 0 9 -17 0 7 -12 5 -10 -2 -4 -5 6 2 -2 -1 -14 -3 1 5 -9 -12 -9 -4 -2 -11 3 -3 2 0 -6 9 -7 -3 3 6 9 -8 -1 1 -1 -7 7 -1 -6 7 -9 -5 6 -6 6 -7 -6 5 -6 -8 7 -11 2 -5 5 -12 -4 -3 -2 3 5 -8 -8 4 -2 -8 -5 -5 -11 5 -3 -10 7 12 -8 8 -8 4 1 9 -4 6 12 3 9 2 5 11 -1 5 2 -1 4 18 0 1 -3 -1 1 7 1 0 8 4 5 0 15 -4 2 3 11 4 -3 9 -7 4 -3 2 0 2 1 -1 -9 -11 4 0 0 -6 0 6 8 -6 -8 5 -3 3 -6 -13 0 -6 -7 -3 3 9 -8 5 7 -4 -7 2 4 6 -1 2 -7 8 0 2 -1 2 -11 3 -3 11 -3 7 0 10 3 2 5 16 2 4 10 11 9 -10 7 9 -2 -8 -6 -2 -7 4 -6 0 -6 -8 -3 -3 -10 8 6 2 4 1 2 -3 -10 13 -10 11 -1 -2 0 3 -5 1 -6 3 -4 -6 5 -11 -19 9 1 -10 2 -10 -9 -4 -5 -8 8 1 -7 -2 0 -7 -13 -5 -11 3 -4 1 -3 -7 -9 -7 0 -8 8 -2 2 -7 6 -1 5 1 0 2 -7 -12 3 1 4 5 -4 4 0 3 4 2 7 10 5 -1 -9 -9 7 -7 1 1 -3 -2 -1 -2 7 7 6 1 -3 -1 0 9 16 -12 8 -9 5 7 -11 -4 3 4 -9 3 2 -12 -8 -12 4 -11 7 0 0 -6 -2 -15 -4 -2 -9 -7 8 -4 -3 2 11 4 3 -4 2 11 0 6 12 1 -6 9 6 3 11 1 8 -3 7 9 12 5 5 6 5 1 0 8 -4 10 12 1 -3 6 -1 10 -3 2 4 4 -2 1 -1 6 -1 10 14 1 5 -7 11 -9 -5 8 4 2 12 -8 -4 4 -8 3 -3 -15 7 -6 
0 8 4 13 9 -5 -4 10 7 -2 5 9 -2 -5 -2 -10 10 -4 4 0 -7 0 -11 8 15 -3 3 11 4 -2 5 -2 6 2 -5 -1 -1 0 -1 -2 -5 -1 5 0 5 -1 -9 -14 0 4 -2 6 -2 -7 4 6 -8 5 4 -7 11 -16 -3 2 -1 5 -6 3 -24 1 14 5 -1 5 -12 5 -7 -4 -2 -4 1 5 2 -4 -1 1 7 3 -7 -1 -1 3 5 -8 8 -4 -9 -2 0 -1 0 5 17 -2 1 8 5 3 2 2 -1 3 -5 -1 -9 8 11 -3 9 -6 6 11 10 0 4 -7 -11 9 -2 3 -6 2 -3 -3 -1 0 -6 12 -4 9 -9 -3 -3 2 -7 5 4 -3 -9 6 -7 -6 -6 3 -2 -10 -6 9 -1 2 9 2 0 6 5 2 -6 9 -1 8 2 6 -2 -6 7 2 1 -6 1 1 -4 1 -14 13 0 11 12 7 5 4 -2 -7 2 3 15 3 1 7 5 11 7 -2 11 1 7 3 7 -6 13 6 3 -1 -6 -5 9 7 -4 3 -2 -6 3 -7 7 -1 -8 -5 2 6 -1 6 1 8 -7 -2 -9 -3 -3 -11 -2 -3 -5 -1 -10 1 -13 -11 -4 -4 -9 -7 -1 4 -2 -4 4 -7 10 4 -3 15 4 -9 2 -5 1 -3 -10 -2 0 -1 -4 -2 -5 4 -4 2 9 2 13 6 0 -3 5 -7 18 -3 -11 -1 0 5 -13 2 0 -3 -10 -2 1 -5 0 5 -10 3 8 -1 -5 -6 5 -3 -3 5 -9 1 -7 -10 -11 -2 -4 -10 -1 -4 -7 4 0 -15 -2 -7 -12 2 -1 -1 7 -12 3 2 1 12 11 8 7 6 4 2 8 -4 19 23 1 -3 -1 18 19 -3 13 10 14 -3 4 -4 11 1 8 -1 4 -4 0 -4 0 5 -1 -3 5 -5 -3 3 -4 1 -3 5 -8 4 8 2 -10 -3 0 -13 -12 -1 -6 -8 -5 -4 -16 -9 1 2 4 -5 13 -1 1 3 8 7 13 -5 -4 -5 0 -8 3 6 -1 7 18 5 1 1 13 6 5 -6 8 9 0 -14 0 -1 -10 1 2 4 0 3 -6 0 2 3 -2 -4 10 9 -13 2 11 -5 -6 -1 7 8 -4 3 -3 -1 -3 3 1 -1 -6 3 -1 6 -1 -5 -1 -1 -2 -8 -3 -3 -3 0 7 5 -16 9 5 -5 1 -2 -3 -7 -2 1 5 -1 -1 6 -12 -5 3 2 -6 3 -4 2 -2 -1 -10 -2 3 3 -11 -5 -4 -1 3 0 -2 13 -5 -4 -7 3 -6 -10 -3 1 -4 -3 4 12 3 8 11 5 0 8 0 -2 10 1 5 5 9 8 -2 -9 -5 -1 14 4 -2 18 -8 11 8 -1 14 13 0 -1 7 5 -5 -2 9 -7 4 1 -21 6 3 16 2 1 10 7 8 -3 -7 -2 0 -4 -14 -4 -1 2 0 3 11 18 0 5 1 7 6 5 -1 9 16 12 3 6 17 11 6 -5 8 -7 8 -2 11 16 -8 -6 13 -10 8 -14 6 1 -9 -1 8 -3 3 6 0 1 1 0 0 -2 -8 -1 9 -3 7 10 -2 -11 12 -6 -2 -8 -15 -14 -9 10 
3 -2 2 -14 6 7 2 4 1 -1 -9 4 4 4 -3 4 1 1 -8 11 14 -13 5 -3 -1 -1 -1 -4 6 -5 19 0 4 -4 10 6 -7 1 -7 -2 -3 -2 3 2 -5 -16 5 -3 -5 3 14 4 6 -7 0 -2 7 -1 -1 -1 -2 5 4 -3 -8 -6 3 -6 1 8 -4 0 13 -7 1 -7 -3 1 -10 -2 -2 -4 -2 2 -5 -3 -6 -4 -5 12 0 -4 5 7 -2 -1 8 -16 8 15 10 6 -2 5 3 -3 6 8 -9 6 5 -1 13 5 -2 5 1 -6 3 5 7 7 -2 17 17 0 18 -1 10 2 -5 16 7 6 6 5 9 3 14 14 -6 0 1 6 7 -8 3 -13 12 -2 6 10 0 0 17 3 6 6 -4 4 -1 10 -8 -9 -7 2 -1 -6 16 -6 -16 6 8 -2 2 0 1 2 4 9 -4 -6 13 -4 -1 -2 -1 -1 16 10 4 1 16 6 17 -1 1 11 4 3 3 6 7 -1 4 -8 -4 -5 -12 3 1 1 -10 -13 -5 -12 5 -8 3 6 8 -1 -9 -14 -10 -3 -15 1 1 -6 5 -3 7 -13 -14 -9 -10 -19 3 -7 -2 -13 -23 -5 -12 -10 -2 -4 -4 -5 0 4 -3 5 -5 1 2 -2 -5 5 -4 -5 1 0 -3 -7 8 -10 2 -7 -6 3 -6 10 -8 -5 4 11 -3 -3 -1 15 2 -3 -4 -1 -8 -1 -2 4 5 3 -1 1 -14 0 5 7 3 -10 3 -5 -7 -8 3 1 -9 9 12 -13 1 -9 -15 4 -8 -2 4 -7 -1 -10 0 0 -13 7 -1 -2 -6 -5 7 6 1 7 0 1 9 8 5 -2 15 3 7 -6 16 -6 -5 6 15 1 2 17 7 13 6 -1 8 9 14 5 5 1 2 -9 -1 0 23 3 9 -7 14 8 11 2 0 5 11 -10 -1 3 -4 3 -7 4 -7 13 -4 -1 0 -5 -10 -3 -3 -1 5 11 -10 9 7 4 -4 8 -3 8 3 -4 -4 -8 11 -4 0 -7 8 6 5 -2 -10 4 7 -4 1 -5 -6 13 1 -4 9 -1 11 5 11 4 5 1 2 4 1 3 3 6 5 4 -1 0 -19 4 0 1 8 -8 1 10 -3 15 -3 -10 0 -5 -2 -7 -1 13 3 -5 -7 10 -5 1 0 1 -10 -10 5 -5 -12 -9 15 3 -15 -11 9 -8 -9 -7 5 -14 -7 -11 -5 -10 -8 1 -19 -5 9 -19 -11 1 4 9 -3 5 -1 -1 4 3 -7 0 -13 -5 5 -5 5 -2 -5 7 -5 5 8 1 -13 11 5 16 -1 3 8 3 14 -10 9 0 -5 2 -6 5 -1 -8 3 -6 -3 -5 -8 7 6 3 10 4 2 7 2 4 6 1 0 -9 0 -1 -11 -6 -2 4 3 -1 -1 -2 7 4 -6 2 6 -8 12 6 1 5 -2 5 17 0 5 8 9 -3 4 -3 -4 -5 9 -1 9 10 -13 -7 10 8 -3 9 1 -4 14 -2 -6 14 0 7 18 2 3 17 -4 -2 4 3 0 -2 4 8 6 -3 9 2 -4 2 4 0 1 5 12 13 16 0 7 -1 9 2 -1 7 5 -5 3 -2 
2 -9 -2 5 -3 4 6 -11 2 12 13 -3 -6 0 1 -1 9 -2 5 5 2 1 7 -14 5 7 1 0 8 -3 2 -13 -4 -3 4 -10 -5 14 3 -2 5 0 6 -9 3 11 0 -11 -6 6 7 5 3 11 1 -10 0 1 -11 -5 3 -6 -11 7 2 -1 -5 3 -19 4 0 4 2 -16 7 -1 -5 -2 -2 1 -14 -6 -8 -6 -4 -3 -3 -6 -4 1 -17 -9 9 -4 -1 3 3 3 3 -5 13 -2 6 4 2 8 -5 10 -1 4 10 12 -11 13 9 0 9 7 19 10 -4 1 9 11 2 10 19 1 -1 12 6 -3 4 1 11 7 9 -1 -10 -1 -5 6 -13 -6 8 -10 7 -12 -10 18 7 -4 4 -7 3 -1 -4 2 7 6 17 3 -2 0 7 10 -1 0 -3 2 9 0 12 -1 -2 -2 2 -1 5 14 -4 3 1 2 1 4 12 -3 -7 5 6 6 4 4 5 -10 -9 0 7 4 -4 2 -3 4 9 -1 2 7 7 0 5 -8 -5 -8 -2 -1 -6 -11 3 0 -6 -1 -3 -5 -8 -3 12 -1 2 2 -2 -10 11 -2 2 3 3 -1 -3 -8 4 -11 -7 -7 -10 -6 -4 -1 -5 -7 -12 4 -3 3 -1 -10 0 -9 -2 6 3 -13 1 -9 6 -12 -5 2 -5 -3 0 -12 0 -10 4 5 -5 -14 3 1 0 -10 -5 5 7 -1 -7 -4 1 -13 10 8 -3 -15 4 -5 10 -4 -4 -9 7 0 -1 -6 9 -5 2 9 -1 -9 -1 1 -4 -1 1 -6 -9 8 -17 2 -11 -15 2 -4 -5 4 -3 -3 10 11 -7 -1 -5 4 -2 -5 1 -4 10 -3 9 2 0 -6 -9 -4 -4 12 7 8 10 0 9 1 1 -4 -1 -1 1 -1 -3 -2 1 0 -3 -11 1 1 8 -3 8 1 0 -11 -3 0 8 -2 -7 1 3 4 -1 5 12 1 -2 8 3 0 -4 -8 1 4 0 3 -3 -2 -3 -12 -2 -4 -9 -5 3 -4 -1 3 -2 -3 6 2 3 2 3 4 3 -2 12 4 -1 -1 -6 0 -8 -5 -6 0 -5 1 -5 0 1 0 -4 -3 8 -4 -1 3 4 1 -1 2 -9 5 11 9 2 -5 -3 -7 0 1 -2 0 -8 -2 -3 -6 -10 9 -10 -8 7 2 0 -9 -12 -11 -7 1 2 0 0 -2 -3 -1 -9 6 -6 3 -10 0 -6 4 -7 -3 14 -17 7 -14 -12 -4 -3 0 1 -8 -10 1 4 -6 -6 -2 -7 -9 7 5 -6 -13 12 -7 5 -5 -13 6 2 6 7 7 -2 11 -10 15 -1 8 12 1 -12 14 -5 -1 13 0 3 -16 10 -8 4 -1 10 6 -2 -1 -3 6 8 -2 13 3 6 8 1 -6 1 2 -2 8 7 -5 -11 -5 5 4 8 -10 -7 10 1 -2 -7 14 10 21 -7 15 8 2 18 1 -1 -2 2 9 -5 9 6 6 6 -1 12 7 5 15 9 0 10 11 -2 15 -1 2 4 3 -1 2 10 -5 0 -2 -2 -3 4 13 13 -2 8 0 -2 -2 9 4 -2 1 5 3 11 0 -3 2 -5 4 -7 -6 1 -4 0 7 -5 -4 
-5 6 6 -4 14 8 8 18 1 -11 5 0 -5 -3 4 0 2 -3 7 1 3 4 4 -4 9 -2 -4 8 1 11 0 2 -5 -1 8 -5 -7 -10 -2 3 4 -10 -3 5 -14 9 -7 1 -18 -16 12 6 0 -1 17 2 15 -1 -14 0 3 -11 -6 -3 -2 -13 -4 4 17 -5 7 -2 2 6 -8 -1 -8 2 -11 -2 6 -12 -10 -8 -1 -10 14 -6 2 -7 -5 8 -12 7 -1 -1 -7 4 5 3 -3 20 10 2 10 13 -5 4 13 5 0 0 11 8 -2 -13 8 5 8 -6 11 4 6 4 9 -4 4 6 2 -2 -9 11 10 -1 19 -7 7 8 8 3 8 9 3 -1 -8 14 -18 -2 5 13 1 0 3 -2 8 6 12 -3 5 -5 -11 6 3 -3 -2 3 6 -5 -6 -3 -2 8 -2 11 4 7 3 12 0 -3 3 8 5 15 5 5 3 9 -1 -12 7 5 3 1 -1 1 2 0 -1 -7 9 -11 13 -3 -5 8 3 2 4 7 7 8 -6 -7 7 -5 -7 6 -1 -11 12 -3 -5 0 -8 -14 0 -5 -4 4 7 4 1 1 -18 2 -2 -22 -3 -4 -4 -15 -11 -7 -8 -4 -16 -9 -8 -6 -2 -3 5 8 -15 6 -3 -9 -12 -11 -16 0 -2 -13 -12 1 6 1 -8 -10 4 -6 5 0 5 2 -4 26 17 7 10 -2 6 5 -13 10 0 1 -5 -6 -8 -3 -7 -3 -1 9 -14 1 -1 9 -6 -12 0 -1 -9 0 -5 2 6 0 1 2 -1 0 5 -10 1 -2 -5 -3 -5 -4 1 -1 -2 14 -7 -13 9 8 0 5 0 7 -1 -5 -5 -4 -4 -4 -7 5 3 -13 3 7 -2 -6 -2 -3 -1 2 2 12 4 5 9 1 5 4 -4 7 -4 -1 -11 -9 -6 10 5 -3 -3 7 6 -1 9 1 4 4 3 1 -15 12 -3 7 -4 2 -3 16 8 4 -13 -14 -6 -1 -12 -2 3 4 1 1 2 -8 -7 -9 2 6 -7 -8 -13 0 -4 1 -10 8 -12 -4 10 -4 -8 -9 -5 -4 -3 4 -6 -1 -7 0 10 9 -7 15 2 -7 -1 6 -1 -9 -6 2 -1 3 -8 9 6 1 0 6 11 5 3 4 -3 -1 -7 -15 -8 0 -7 -7 -4 -2 -7 10 -4 -1 -11 -3 -12 -10 -9 -13 5 -5 -5 -7 -5 3 -4 -2 12 -8 -4 1 2 -11 -4 -10 -9 -12 -4 -5 -9 -19 6 -5 3 1 0 -7 -2 -8 12 3 5 -1 -10 -5 -1 -9 7 -1 -1 11 0 8 9 -4 6 3 1 3 6 6 -3 15 -4 2 3 8 7 -4 8 4 -5 0 2 3 -2 13 -7 -2 5 -3 2 2 -10 -3 4 0 -7 0 11 6 3 -4 -4 -4 -6 3 6 12 -6 3 -5 12 -2 -6 4 16 2 -3 8 3 8 -2 -4 0 -13 13 12 -1 -4 12 2 -1 15 -1 19 -4 3 -1 11 -2 2 9 1 1 3 0 14 3 3 9 7 19 1 -2 -1 -8 7 -6 14 -4 2 -14 5 -3 -8 11 6 -4 1 -10 7 1 5 17 10 1 -6 4 1 8 10 -12 6 -9 -5 -2 
2 -6 7 -2 -3 12 -5 6 8 -9 5 3 -7 9 6 -7 5 10 -3 8 -3 1 4 2 -6 -2 2 12 -6 -4 -12 -11 2 13 3 -5 9 5 4 -13 -3 4 13 1 6 1 -4 -12 -9 4 -6 5 -1 -4 -2 4 3 -9 -4 3 -5 10 7 7 2 -4 0 1 15 -8 -5 -1 -7 -7 10 4 -11 -1 6 -12 -2 6 0 -6 -3 5 -13 8 1 -7 9 0 2 -4 4 -4 6 -4 -5 3 -3 10 6 3 8 6 5 -1 9 10 -3 -3 9 -10 15 10 4 3 -11 -3 3 3 6 6 12 2 -1 4 2 3 7 8 1 6 -1 -7 -1 1 1 -6 -17 -1 -3 -1 7 -5 13 -2 -6 1 -1 15 0 9 2 -1 0 0 3 3 0 0 1 -6 7 3 2 -7 5 -15 2 7 7 5 5 -2 -2 -1 4 -6 2 4 -2 5 -6 4 9 -11 6 -5 -2 7 -5 11 -7 2 -1 7 15 6 4 -4 1 6 -3 1 0 5 -1 11 -6 5 5 -7 10 -14 -4 -16 -1 8 -3 -11 -9 -4 0 8 1 1 1 5 4 -6 -4 0 6 -11 2 4 -3 -5 -3 -4 -6 -4 -7 1 -10 4 -12 -11 4 -8 -8 -3 5 -3 -8 1 -10 -2 -14 -19 -7 4 -1 3 2 -19 -7 1 -9 3 8 -1 2 2 4 4 3 4 7 -12 2 7 -1 -4 -9 -5 -5 5 0 -14 21 6 -11 2 -12 1 1 9 9 0 4 -3 -4 -8 9 2 -1 -5 -6 -1 4 1 -5 -19 0 7 -3 17 0 -3 -11 3 4 8 10 7 3 -1 -4 3 1 3 -11 11 5 -1 6 2 -2 -13 4 2 3 0 1 8 12 21 8 -8 -4 8 -1 -7 -6 -1 3 10 -4 -2 -6 2 5 0 16 -3 4 8 -6 1 -6 -9 0 1 3 -8 13 -8 -2 6 -8 5 9 4 -13 3 2 0 -5 1 -7 -4 -5 -1 5 6 5 -6 0 5 -2 11 -7 -10 -5 -1 2 -2 -14 8 -2 -5 -3 -3 4 -9 6 6 -7 -1 -16 -5 7 2 -4 -16 -6 -11 2 -2 -11 1 7 -6 5 2 0 -3 -9 3 2 -6 5 -4 5 -7 -7 -1 6 2 2 -10 1 4 -2 1 6 -8 10 -12 -7 -2 4 -7 -14 -8 -1 2 -1 -4 4 -7 0 -1 -5 -13 2 7 0 -11 -8 -3 0 -2 -8 0 -6 -1 2 -10 -3 -11 -10 7 -6 2 4 -7 -3 -3 -9 -6 -7 7 -6 -5 -3 8 4 1 10 5 -10 -6 3 1 10 8 9 5 3 8 1 5 6 -5 3 5 -1 10 -2 6 -6 10 6 -1 0 -7 8 11 12 0 -2 -14 20 12 -4 0 -3 6 -7 2 3 -3 -3 8 3 -6 1 -2 4 7 9 -1 9 -2 0 1 -3 1 -1 1 7 11 9 24 1 -6 4 7 -3 0 7 7 -8 9 -3 7 6 5 2 18 19 -13 6 2 2 14 5 20 0 13 -3 3 -2 13 5 13 6 3 16 3 11 4 2 8 7 -8 10 4 7 -12 10 -2 -5 4 -1 2 4 -10 -9 -4 -4 -9 -13 3 -3 -6 
-10 -5 -19 -7 -17 4 -5 1 -13 10 -3 3 -3 3 0 -4 4 3 7 6 -14 1 -3 -1 -7 -11 3 7 -1 2 -4 -8 -3 8 -9 0 2 2 -3 -1 -4 -1 -19 0 0 -5 8 2 1 -3 -1 -5 4 3 -6 -1 2 11 -12 3 -2 -2 -1 1 -4 0 -3 3 -1 -11 0 -6 11 -5 0 -7 0 -8 -1 -13 -5 -2 -12 -4 -6 11 11 -1 1 -1 -12 -1 0 -3 -3 -12 11 5 -4 12 9 13 -7 11 1 -3 8 10 -11 -1 8 11 5 4 -6 7 10 5 -2 4 4 14 7 18 1 2 13 2 16 2 8 -2 2 4 7 9 7 2 0 6 6 5 4 5 6 11 -7 4 15 0 14 11 -6 8 6 -5 -5 -1 3 -9 -1 10 -11 6 0 -2 0 -12 0 -1 -2 0 1 3 4 4 8 3 -3 6 13 1 10 -12 4 0 14 0 4 1 -16 -4 1 3 5 -4 5 2 -6 -9 7 5 1 -2 14 -4 -8 1 2 -3 2 -9 -3 -6 -3 4 -12 3 -4 5 -4 2 -3 -3 11 1 3 2 1 -7 6 -4 1 -7 -12 -7 -6 -9 -9 10 -10 -13 -1 6 -6 1 2 -4 -1 0 -3 0 -7 10 -5 5 -2 -6 -2 -12 -4 -9 -16 -7 3 -8 -10 -3 -6 -6 -7 -13 -6 -1 5 -9 -4 1 -5 6 2 -2 8 0 5 -5 -1 10 6 -7 -6 -8 -4 -4 7 -6 7 -8 8 1 6 9 -5 -5 2 -5 -8 -9 -1 0 -2 4 -17 -1 -3 9 -6 -3 -5 2 3 1 -1 -7 -10 -6 1 7 4 -4 2 11 -4 -5 7 2 -7 -9 7 -4 -10 2 2 -7 0 2 9 2 5 -1 -2 5 13 5 7 -1 18 -4 2 18 4 0 -2 2 2 7 10 14 1 5 16 2 9 11 0 11 -3 8 -1 6 10 3 3 -9 -10 -6 9 -2 -15 9 0 -7 -8 -5 -6 13 -3 8 7 -8 4 -8 6 -2 1 -4 -8 -5 -22 -8 -6 -5 3 -1 0 1 7 -2 3 0 -1 11 3 -3 -7 -11 1 2 6 4 -3 -8 2 1 -10 2 -2 0 3 -1 -8 -4 1 5 -8 0 3 4 5 -5 2 1 8 -8 -5 -4 1 -1 2 -1 2 -2 3 -2 -7 2 -12 -8 -18 -6 1 -5 1 -1 -10 0 -11 2 -17 -4 2 9 -10 -7 -6 0 -2 -10 -15 -26 -7 -8 -2 0 -5 3 3 0 11 -4 5 11 1 6 4 -3 -10 -11 2 4 6 -2 4 -11 -1 12 1 13 -3 10 10 9 5 0 0 4 6 10 -12 3 -4 -1 -1 8 -12 4 -8 -8 -7 7 0 8 -3 1 0 2 -1 2 -5 8 8 -7 16 9 -1 3 -4 7 5 5 12 -6 1 2 1 5 2 4 9 -7 11 3 3 9 5 -2 5 5 5 1 9 15 12 1 6 5 14 -8 -3 21 -2 9 14 10 -4 12 9 6 10 -10 1 6 13 5 -5 -4 12 -5 6 0 4 2 10 5 7 -2 6 -1 11 1 -4 3 7 14 1 -5 20 9 -1 -5 7 3 9 4 -6 13 1 3 4 9 
1 -6 6 9 11 4 1 -2 6 5 -5 -3 -9 -3 -10 9 -15 -3 -6 -10 4 -6 4 -8 9 -2 -2 2 11 2 -1 -11 -2 -7 15 6 0 2 4 5 -8 8 2 -3 -7 12 9 -8 1 -9 20 1 18 9 -1 12 7 3 12 -10 3 0 9 3 1 -5 -5 7 -6 4 0 -3 -10 3 -5 -7 -1 -1 -4 -7 -8 0 -6 4 -9 -2 3 8 3 8 4 2 -6 -3 3 -4 -11 0 -11 9 0 -3 5 7 7 -2 14 0 29 4 1 -4 10 6 8 6 9 -6 -1 6 3 9 7 5 0 -1 0 3 11 2 14 1 11 -9 12 -3 4 6 -10 -14 -8 11 11 -1 -4 1 0 1 -5 5 -12 10 2 -5 -1 -1 6 -15 10 -8 -5 -9 -7 -3 -3 3 0 11 -8 0 6 -7 6 9 14 -1 4 0 8 -4 8 1 5 9 -7 0 0 -11 2 9 -13 1 2 -3 7 4 -1 -12 0 -14 -10 4 9 -3 7 -3 1 1 3 -8 5 -13 4 3 -7 1 1 2 1 2 7 -10 0 5 2 0 -3 1 4 6 -1 -1 -5 -9 -9 2 -12 -5 -11 -6 -5 0 0 -3 -6 -8 -16 1 4 -9 -1 -20 7 -9 -1 -16 -7 1 -2 -6 3 -13 -1 3 -8 -7 1 -1 2 -13 -3 0 0 -4 9 2 9 6 2 1 2 -2 5 -7 -1 -1 8 -4 13 -11 9 4 7 8 -3 -4 11 5 17 6 2 11 -3 8 16 2 -12 -1 -8 1 2 -7 -2 2 -2 1 -4 2 0 9 6 -4 0 3 3 7 -5 0 -2 15 7 -4 2 2 4 3 9 16 -12 -4 10 7 1 9 -9 9 -4 11 12 10 10 7 5 -1 0 6 6 18 2 13 -1 1 4 5 -8 -2 5 10 -1 12 11 3 -2 4 5 0 -2 -4 -6 -3 3 -9 -1 -8 0 7 -6 2 -10 8 -3 6 0 2 -6 5 11 -4 6 -7 9 1 6 -3 -13 -7 -1 2 -1 -8 -1 -4 -4 -3 9 -8 -7 -9 8 0 -4 13 -20 -2 -21 1 2 2 -2 -5 0 -12 -8 -2 -14 -3 -4 -5 -7 -2 0 7 3 -4 -1 10 0 0 -4 6 -12 4 7 -2 12 -7 5 -6 -10 -7 -11 3 5 -3 -5 -14 -12 -1 -4 0 -5 -5 -8 -14 -5 0 -7 -3 -6 -11 0 -5 2 -3 -1 -17 1 0 -4 -9 3 -4 -3 1 -14 1 7 -13 5 5 -3 3 -1 -2 -3 -9 1 1 5 -2 7 8 -2 -1 4 -3 -3 9 2 3 3 -1 1 5 14 0 -3 -2 9 5 -1 -3 6 -2 12 9 3 7 -6 -6 17 -5 15 4 9 3 7 0 12 14 2 4 0 -4 7 -1 1 5 -12 14 10 -1 -2 -9 7 2 2 -4 5 6 7 2 20 8 -3 -3 9 2 5 10 -2 0 -1 2 -4 -4 7 5 9 1 2 13 6 2 -1 11 8 7 6 6 -11 11 -6 -5 9 9 -2 3 -5 16 7 0 -10 3 -3 5 -8 -3 8 1 -6 12 -5 -3 6 8 7 9 -3 -8 11 13 6 -4 -11 0 -8 2 1 -6 
2 0 -2 5 -4 4 -3 3 -10 -6 -1 -7 9 -2 0 -16 5 -11 1 1 -5 10 -3 -6 -19 -4 -3 0 -15 8 -4 -8 -2 -3 3 2 -13 5 -4 -3 8 -2 9 -5 2 0 1 2 -3 5 -1 -5 4 -1 9 8 4 -5 4 0 13 0 1 -5 -2 -7 -7 -2 -4 6 -1 2 -6 3 -5 7 -9 3 -2 -3 0 -9 2 -2 5 -7 10 -5 -7 9 2 5 -7 -13 -1 1 -9 -8 1 1 -1 9 -2 10 8 -8 5 -6 -3 1 6 10 9 14 9 3 1 8 17 -5 4 12 11 4 4 -6 4 1 7 4 -1 10 5 10 9 3 8 -10 7 1 2 -8 -2 -5 4 4 -6 1 3 0 1 2 -1 10 10 19 2 4 1 3 0 4 -7 6 1 1 -12 7 5 -8 -2 6 -3 4 3 9 -2 -1 -6 -6 8 -7 -3 6 -3 -7 -5 4 2 -1 0 -5 1 1 -8 -4 -3 8 18 4 -5 8 2 0 2 -5 -3 4 -5 -1 15 7 15 -8 1 -5 -1 10 3 8 -1 14 -9 -8 -11 -2 -9 7 6 2 9 -3 -2 -6 2 -5 -12 -1 -10 0 4 0 -9 -4 1 -5 -6 -15 -3 6 5 1 -9 9 -4 -5 2 13 -10 -5 -4 -12 -10 -2 -16 -5 -8 -4 -2 1 -10 -1 13 -9 -6 -3 12 4 5 -1 11 5 -4 -4 -2 3 5 21 -6 3 -5 -8 -3 -1 7 -2 -3 13 7 4 -4 1 -5 8 -4 1 4 -9 4 6 -6 9 -7 -3 -5 0 7 1 0 -3 4 6 4 -6 -1 1 2 1 2 -9 -6 9 -1 4 3 4 -2 1 -2 -6 7 8 -8 10 10 -2 11 -1 -4 15 0 9 -3 0 -5 6 4 9 1 7 5 10 4 8 -1 1 11 -7 11 5 4 9 1 8 -2 0 10 -2 2 3 5 6 -6 4 11 -4 3 -5 7 1 -2 3 -9 5 3 0 -10 1 2 6 3 -7 1 2 1 -4 -16 -3 -10 1 -4 5 1 -13 -2 -10 1 7 -3 -3 -7 -3 -4 0 -7 1 6 -7 9 -1 -3 9 3 0 -1 4 10 -4 10 5 4 4 -2 -6 1 -8 2 -8 6 1 5 -6 8 8 -6 2 3 2 -2 -5 15 -9 -3 -5 1 -5 -9 3 -4 8 -4 -13 9 -4 0 -10 9 0 -14 3 -4 1 -16 -8 -8 -16 -14 -15 -5 -11 -10 -13 -4 2 -5 7 13 -3 -5 -7 -4 -3 5 2 1 -4 -14 -1 1 -2 4 -2 -3 -5 -2 -2 -9 3 14 13 -10 0 4 10 6 6 6 7 7 -8 8 0 13 7 -10 13 -6 -2 5 9 0 -7 4 3 0 9 -1 0 8 -9 -7 5 11 -3 11 9 -2 -9 12 -4 6 -9 -1 9 -4 1 13 1 2 4 -6 -2 6 7 3 -11 8 16 8 13 6 -1 8 4 4 8 3 -2 7 2 12 -3 1 7 8 3 14 6 2 0 10 -5 11 1 1 8 6 5 6 1 -5 6 -2 5 -5 10 -11 7 -3 13 6 -1 5 -12 -4 3 8 9 6 -5 10 2 -7 15 -6 1 6 -12 6 4 
-1 -8 1 -8 -2 -6 2 -17 10 -7 2 6 -14 -4 -9 -17 -23 6 -10 -3 -1 -9 2 -3 5 3 10 -6 -2 11 -1 -4 2 1 6 -11 12 7 17 -4 7 -3 -8 6 6 5 -17 0 14 4 -8 -1 12 5 -1 7 2 0 1 -1 -2 -4 -4 -1 0 1 -1 6 0 -6 -9 -7 -3 1 -5 0 -4 4 -5 -4 6 1 -4 -6 3 2 -7 5 2 6 -1 -9 18 8 -3 -14 6 -9 -3 3 6 12 -3 4 0 2 1 4 28 6 3 -2 5 1 5 -2 1 2 6 7 -3 11 4 1 1 19 10 2 4 19 9 2 14 -5 15 14 5 16 -12 4 -7 -5 -1 0 8 7 -3 7 2 -5 3 2 11 8 5 2 6 3 -3 8 9 -6 0 13 2 -3 0 -2 2 4 -2 4 8 -4 0 2 -1 6 7 6 4 -1 9 3 0 4 -3 -8 -4 4 1 -11 2 7 -1 -2 7 -11 -11 5 -1 -10 1 4 -3 -3 -4 -6 6 0 16 -9 -4 1 -5 4 -4 10 0 1 -10 -8 -10 2 4 -4 -5 -6 13 6 -10 -3 -10 -3 -16 12 10 0 -5 -11 -10 -3 11 -8 -10 -5 -2 -7 -10 -4 -12 -4 -6 -3 1 -10 -3 -16 -3 -4 -7 -4 3 -11 -3 -5 -10 -7 2 6 4 4 -5 4 4 10 8 4 11 9 -7 6 12 4 -10 4 4 4 10 3 0 -1 -7 -7 -4 -3 11 5 -1 4 -2 -4 -3 -6 -2 8 -2 -2 -5 0 7 3 -9 -3 2 -4 9 -11 2 7 1 0 3 -4 4 9 0 -1 -2 -8 -4 3 -3 -1 7 4 11 22 3 -3 3 -5 2 1 6 4 0 5 -3 6 6 4 -1 -2 3 -2 10 -1 7 -1 1 -3 0 -17 -2 7 2 3 -7 -2 3 6 9 0 1 1 15 3 -4 -3 3 0 13 -2 3 19 12 8 7 1 -1 12 0 6 -8 -9 -1 4 4 -2 11 4 -7 1 -8 -8 -4 -8 -9 -9 -5 -9 -12 0 -2 -11 -3 1 -15 9 0 -1 0 -10 -1 -7 -2 -10 -12 -8 0 -9 -11 -6 7 5 2 -8 12 -2 -1 -14 -8 5 -4 -1 -12 7 -6 -2 -6 4 3 -15 0 -2 14 12 2 -4 2 -5 -10 2 -4 -16 -2 -2 -4 3 -5 2 1 -14 -6 -4 -10 -8 5 -13 -14 3 -10 -4 -4 -16 2 -12 -15 -1 7 -4 -13 16 0 -8 7 3 -2 6 5 2 -1 0 0 -6 8 1 -8 8 -3 -15 2 2 6 4 -10 17 2 -9 -2 10 13 2 2 14 7 0 9 -1 7 4 3 1 2 12 10 15 0 -7 1 1 7 4 6 12 18 3 1 -9 15 -5 -4 -3 11 7 -3 1 -1 1 3 16 5 -1 -1 6 -4 13 -7 -2 3 4 4 15 -1 9 15 14 5 1 -3 -3 -5 -1 14 -6 5 1 23 4 -6 -3 7 1 -3 12 0 10 -7 9 9 -5 -3 -6 7 1 -1 8 -3 6 -3 -1 0 6 4 -15 6 6 2 -2 7 4 -8 5 3 -3 -6 -5 -1 -4 -3 2 8 -2 2 -2 5 11 -1 3 
4 -3 -10 -5 5 -11 2 -4 10 -9 -2 5 -10 -5 -9 -3 -15 -12 3 -10 8 -11 0 -5 -18 3 0 -4 -8 6 1 2 5 5 -3 -5 -3 -13 -10 1 -5 1 2 -4 2 -1 6 2 -3 -1 -4 2 -9 14 16 -1 10 12 -1 0 3 -5 5 -3 1 3 -7 2 -12 5 -4 -4 -1 1 -1 0 1 -7 -5 5 -8 -5 7 0 1 9 3 1 -2 8 -2 -6 6 -6 -6 -8 -11 0 0 1 8 8 6 3 6 7 5 6 -6 8 10 7 15 12 9 16 -1 6 -3 8 9 -1 7 -2 4 10 -2 -10 7 6 -4 4 3 -7 3 1 3 6 6 -8 -4 2 11 10 4 1 12 5 6 10 15 12 7 5 4 10 3 4 -11 -3 4 12 9 -5 -8 -2 -4 -4 -5 8 -5 0 -16 1 2 2 -4 7 -3 -2 -10 0 1 -3 1 2 -4 -10 5 -6 0 1 15 -6 -1 -11 8 15 -4 1 5 -14 -3 -3 0 2 3 -4 -2 2 4 -6 6 6 1 3 6 3 1 7 8 -2 -12 -2 1 1 2 9 0 8 5 -1 13 -4 -3 -1 0 8 5 6 -12 -22 -7 -8 -7 -9 -9 -13 3 -7 5 2 -4 -7 -7 10 -8 -2 -10 5 -13 -2 0 -8 -5 -13 4 -9 -4 -4 -8 -1 -2 -6 -5 2 6 4 -7 -4 10 2 0 -2 3 1 6 0 -9 4 5 -2 -5 2 -10 3 -2 5 1 4 2 5 -19 -4 0 -6 -3 -7 -13 5 -10 -4 3 6 0 -5 -9 -5 -1 1 -3 1 -7 -3 -5 -5 -4 -9 -1 4 -10 1 -6 3 -6 -7 -5 -3 1 0 3 -7 -2 -2 11 3 -5 10 -7 4 -2 -9 15 6 -5 6 3 6 5 -9 2 4 6 12 -8 1 4 -6 7 14 -6 0 3 -8 -1 17 6 8 6 1 1 -1 4 8 4 10 6 12 -12 -4 8 -1 2 -7 7 8 9 4 -5 -4 -1 -14 13 -10 -4 -5 0 -5 -5 -17 2 -21 3 -9 -3 -9 13 0 9 -9 -10 4 -9 0 2 -2 5 -5 -5 -5 -1 -3 6 -15 -1 -7 -5 -2 -4 -12 -2 4 -4 -10 1 -5 19 -18 0 -2 -2 13 1 0 8 -11 0 -8 1 6 -12 1 2 -6 -18 1 -16 -6 -5 6 7 -22 7 -6 3 -9 9 -6 6 -12 -1 -5 -4 -10 -6 -2 -5 4 -12 2 4 5 -7 0 -4 0 2 15 2 -1 3 -14 5 -4 3 -2 -7 1 -10 -7 7 6 3 1 -3 0 2 -2 -8 16 20 -7 12 7 2 0 9 9 3 12 5 -15 10 -4 -7 6 -5 12 -8 1 1 -7 10 0 5 9 5 -1 6 -6 1 -4 2 10 -2 0 7 6 -6 0 1 3 11 0 15 12 7 -4 10 6 -1 5 0 7 5 7 12 5 17 2 2 2 2 7 17 1 2 -5 2 5 2 -2 7 -3 6 7 8 4 8 14 5 -2 12 2 4 16 0 5 3 1 1 1 -9 0 -7 15 13 1 8 -2 -4 2 11 0 -5 -9 8 -6 -12 1 -9 4 -4 2 -2 -11 3 0 1 -1 
10 1 4 -4 6 0 2 7 -12 -4 -14 0 -5 -8 3 -2 0 2 -2 -12 -11 0 -12 -5 14 -2 1 -3 0 -2 -5 3 7 8 5 -2 8 0 -4 -11 5 -4 -2 6 1 6 -1 4 7 4 3 8 9 2 10 -3 -5 -1 0 4 7 0 4 6 2 8 -11 6 7 -7 -1 -4 0 -9 3 1 2 4 -8 -9 3 5 -6 6 7 1 -4 1 4 5 -14 4 -10 -5 -3 -1 3 0 7 2 -7 -1 18 -1 7 8 10 7 14 -3 3 7 7 0 -2 10 2 -4 6 6 5 13 0 -1 7 10 23 -9 5 -5 11 14 12 -1 6 -8 9 -1 8 5 -1 9 -14 3 5 16 -4 10 -4 -4 2 -3 -4 13 1 2 -3 0 0 3 3 -8 4 3 1 13 4 3 2 8 3 -4 -3 2 6 -3 1 -10 -17 11 -3 14 0 2 -2 6 4 -5 9 4 -9 4 -8 -5 -13 6 -11 1 -1 9 5 2 2 1 -9 5 -1 5 0 -1 13 4 1 -7 5 0 8 0 1 -10 4 -10 4 -4 -14 -17 13 6 7 -7 -1 6 8 -3 1 3 3 0 -8 -16 -8 -3 -2 -6 6 2 -12 1 -8 -16 -4 -2 6 -2 1 -7 -13 4 -11 -22 3 7 -4 0 -8 -16 2 -10 2 3 -7 12 2 9 5 -6 -3 -3 3 2 -3 -5 3 -4 11 -9 2 -4 2 5 -10 2 0 -9 5 9 3 4 13 -7 -2 -6 8 7 -12 8 -10 2 -1 0 -6 -3 6 -12 -3 -3 -10 -4 -9 6 -17 13 4 -2 -5 -12 -3 -5 -6 7 9 1 2 -8 12 10 -4 19 -1 4 2 -1 -18 -2 4 -14 9 -4 9 1 6 -11 17 5 9 14 -10 19 -8 11 3 3 -5 -2 -2 -3 1 6 12 -5 13 1 -12 -10 0 -3 2 7 10 2 8 2 -2 9 4 -11 11 16 -8 -2 2 -8 -10 -3 1 -1 15 -15 -2 6 -8 3 -10 -1 7 -16 7 -4 2 -9 -13 -13 -11 -13 -1 2 -3 -1 -8 -3 -2 4 -11 -7 -4 2 -7 -16 -13 2 -9 -1 -16 -19 -3 0 -2 3 -5 0 4 4 4 11 -3 -3 3 -4 4 -7 -2 -2 -13 2 0 3 -1 3 0 14 13 -4 -12 -6 4 6 -1 5 2 -10 -3 15 7 -10 -7 -9 -1 -10 -3 -1 -4 -7 -9 -7 -6 -2 -2 5 -12 4 -6 8 1 -8 7 6 -5 -2 10 3 2 -1 -6 12 5 2 5 -1 13 -10 6 7 5 6 -1 8 14 -4 2 7 -2 11 10 -1 17 -5 4 15 1 3 16 0 7 9 -2 -5 -1 -13 0 3 6 4 3 2 -10 -4 9 8 -3 10 2 4 3 5 6 14 -4 -5 4 1 -3 1 7 1 12 10 11 19 8 -7 0 -7 -11 8 -7 16 8 7 -2 4 9 3 -2 5 5 5 -1 9 -8 0 11 -9 6 0 -3 4 2 -5 8 8 5 3 8 -12 10 -8 10 2 -1 -5 -3 -1 -2 8 8 -5 0 7 11 -4 4 -15 -6 1 -1 12 -1 8 16 -1 3 -15 11 -9 -13 4 -6 5 8 -2 
8 -1 -6 -3 -5 1 -7 -5 -9 -8 -1 1 -18 10 -13 -12 -12 -1 -10 -12 -1 -5 15 15 -6 -8 1 4 -1 3 7 1 -3 -9 1 -1 1 11 -4 1 -3 6 6 -3 0 6 -2 1 4 0 5 4 -6 2 6 1 4 10 -16 12 3 7 10 -8 0 7 2 -7 -9 0 11 0 3 -9 -1 -8 0 -5 8 1 -1 -5 3 12 4 -7 15 -3 1 7 3 -1 -13 -12 15 3 -5 -2 5 1 11 -5 1 -5 15 20 2 3 7 22 -9 -8 13 5 7 8 4 -6 14 1 -1 -2 -5 13 3 -1 6 6 3 9 14 -3 6 1 6 6 7 -3 0 1 2 3 -1 2 4 -6 -1 12 5 12 4 1 7 -5 -4 -4 16 -9 9 -9 -13 -1 7 -1 2 -14 8 -10 2 14 -2 1 -4 2 -4 -1 -3 8 8 4 -1 -17 -3 -9 -6 -1 -4 0 0 5 10 -20 8 -3 -1 6 2 -1 6 -1 2 11 1 4 -5 7 -6 -6 13 9 -13 -9 -9 -6 -15 10 2 6 -14 12 15 -5 -7 0 -7 -6 5 0 3 -2 3 0 -19 -1 -6 -1 -1 -3 -5 -17 -6 -12 1 -13 -1 -1 -15 -7 2 -19 -10 0 -3 4 0 1 3 -11 6 0 -6 -6 -16 8 -8 -3 -4 0 6 -3 4 2 4 3 12 11 7 -2 2 8 13 7 2 3 8 4 1 -8 6 -19 5 -1 5 -4 0 13 5 -1 -4 9 6 4 -9 -1 -1 -2 5 5 -3 -1 3 3 1 -2 -4 -11 -2 -3 -4 0 -3 -7 9 -9 10 15 -1 5 1 1 -9 10 0 11 -3 4 7 5 12 -10 -1 -4 10 3 7 5 8 -6 -2 1 2 9 -11 2 8 1 5 5 -2 -7 4 -5 -4 4 -1 -1 -8 2 -2 7 -5 -1 2 9 -6 20 -7 6 0 6 2 2 14 10 4 2 -6 -9 4 -2 1 -3 0 6 -4 -3 -18 6 -2 -4 -6 -8 -3 -2 -8 -15 -3 -9 -8 -6 3 -1 -6 -6 -9 -12 -7 -6 -7 -6 -7 6 -1 3 -8 -1 3 -4 -9 2 -3 -3 1 9 6 -12 0 -8 0 -1 -11 3 8 1 -5 3 3 7 16 2 3 -3 2 0 3 -16 4 -3 -12 0 9 -11 -5 -2 -5 -10 -8 -13 -15 4 1 -4 -2 -11 -4 10 1 4 2 6 -6 -10 8 0 6 -9 5 -2 -11 -1 -1 1 10 -5 9 -3 -13 0 -7 4 1 -6 8 -7 8 2 -7 -8 1 -7 -9 0 -1 16 9 -6 5 6 -4 9 19 4 -2 5 3 7 6 2 7 3 3 7 14 5 10 14 13 8 13 -8 5 0 11 8 6 17 8 7 4 5 4 7 7 -3 3 1 -1 5 -2 9 3 1 10 -6 1 -2 -9 -9 12 5 16 -9 9 -10 1 -6 6 -11 7 3 5 0 0 4 9 1 -2 -10 4 8 -3 9 3 -4 -2 -9 7 4 5 -5 -9 7 12 0 0 3 7 0 -3 -4 -5 3 -9 7 -3 6 -2 -2 9 -3 -6 12 1 -3 -2 -2 -7 4 0 5 -6 -8 -6 3 2 2 6 -5 -4 -11 
-4 -9 4 0 -11 9 -5 11 -20 8 -11 -1 -10 -3 -7 10 -8 -14 -8 -2 -6 -3 3 -10 -1 7 -6 -8 -10 -7 -4 3 -9 7 3 -1 5 18 2 3 3 -2 3 8 2 2 5 8 11 0 10 3 2 12 6 11 0 2 0 3 -7 8 6 0 2 0 8 -5 3 2 8 -8 -12 -4 -3 2 -3 -4 -1 7 -3 -2 -4 8 -6 3 -10 -3 0 2 3 -10 1 -2 6 2 11 -3 -3 -5 9 4 5 3 -1 2 3 2 6 -8 18 6 2 12 3 10 2 4 -4 -4 13 -2 7 -1 18 13 3 7 9 6 6 25 -1 18 0 -2 16 15 9 20 -13 1 14 -7 2 12 5 -1 -5 -5 4 11 -8 -3 8 5 1 2 -4 7 6 14 3 5 -3 -4 -5 -9 12 -4 11 -1 -1 -2 -3 3 3 -12 -4 3 6 9 6 -6 -9 7 -1 -7 1 15 -2 -9 4 -10 1 7 1 -14 -5 3 8 7 0 11 2 -4 4 -11 -6 0 0 5 0 3 -10 4 -10 7 -1 9 7 -2 -4 -6 -6 2 -2 6 5 11 0 -5 0 17 7 -4 4 -18 -10 3 -10 -17 -6 -8 -9 -10 4 -5 -11 3 -7 3 9 2 -4 -12 -9 -10 0 -4 -12 6 -6 -9 -12 -4 1 -7 5 -14 6 -2 3 -3 15 12 -2 14 0 -7 3 -3 4 8 0 3 4 3 1 3 4 6 7 1 -3 8 -1 6 8 -13 -7 -8 -9 7 -2 -3 5 10 9 13 11 7 10 6 11 11 0 8 -5 8 6 6 -1 -7 12 3 -1 16 1 6 4 8 1 -6 2 -1 -12 4 3 4 0 9 5 -1 13 6 -9 8 -2 3 4 -6 -2 -3 -7 0 -1 -3 1 -8 2 -8 3 11 4 -2 4 9 2 12 -13 5 -5 2 1 -3 -4 -7 6 1 -5 -1 -6 5 -1 0 10 1 3 -7 6 -1 2 -2 7 11 -3 2 -3 7 5 7 -14 -4 -6 -3 -13 1 -4 -11 -13 -6 -5 -4 -12 -10 -1 -3 -16 -4 -5 0 -12 -5 0 0 3 -7 -5 -5 -14 7 -19 3 -19 -1 -7 3 -15 0 4 6 5 -15 12 7 2 1 4 -7 7 -7 1 -6 2 10 12 -4 -4 8 -8 -2 -10 2 -9 0 2 -2 2 0 -11 1 -6 -4 -15 6 -8 -1 -10 6 3 -5 -1 -3 13 4 4 -4 -1 -1 4 -6 -3 -9 7 -2 -3 1 -10 2 10 -6 -4 6 -3 4 -7 2 -13 8 0 9 -6 5 0 4 1 7 12 5 6 8 5 7 2 15 6 -2 3 -3 9 15 4 14 4 8 5 8 -2 3 -1 1 5 5 12 -4 18 10 11 9 10 0 16 4 3 4 5 -17 12 6 9 13 4 3 3 10 1 7 2 2 11 5 -1 6 11 11 -11 6 -3 6 -3 2 2 -1 -2 3 3 0 3 -3 -1 2 -2 -4 0 -1 8 -5 4 2 8 5 -2 1 -12 5 4 1 7 9 -2 15 -6 3 2 6 10 7 7 4 -5 -1 1 -2 1 8 4 6 6 1 6 1 2 2 -7 1 -20 -7 -5 -1 
2 -10 3 -1 -3 -9 2 -10 4 10 -5 14 -5 -1 2 -6 -14 1 1 -5 -3 -10 -3 5 6 -12 6 2 -9 2 -7 9 5 -9 0 19 -3 -4 18 -3 12 1 -4 0 0 -7 5 0 5 4 9 3 0 4 1 3 13 -2 -3 -6 8 4 -4 8 -10 3 -5 -3 -5 -5 0 7 8 -3 -2 4 -10 -7 0 -3 2 -1 5 6 0 1 -5 12 4 -1 0 9 4 -10 4 -2 5 2 -1 6 1 0 -10 14 -1 8 -1 10 -7 5 1 -7 6 -1 -3 -3 -4 -4 3 8 4 4 10 1 -2 0 11 -1 3 13 3 1 1 -7 12 -1 8 13 1 2 10 8 10 0 10 4 11 8 10 6 9 6 0 8 0 7 4 12 -5 -5 -4 -5 -3 -3 -6 6 -8 3 -5 -3 -3 -2 9 12 0 -3 7 -17 2 -12 3 -27 -8 -1 0 6 -10 10 -9 -1 -12 -6 -2 -7 -7 2 -5 -5 8 -2 8 1 8 6 -10 -1 -2 1 11 -7 3 -3 0 6 -4 1 8 3 3 -8 8 10 -4 -3 -3 -4 5 4 0 9 2 2 4 6 -1 -13 5 -11 -2 -5 3 -10 -5 -6 -3 -9 -6 -7 3 -3 -2 -11 -4 -9 -7 4 12 -5 3 -12 4 -16 -6 -2 -4 -4 -8 -4 5 2 -7 -3 6 1 8 5 7 -3 3 4 4 7 11 0 0 -2 -5 -4 -2 -4 -1 -5 -11 2 -2 4 -7 -11 3 20 -5 4 10 1 11 14 14 9 22 10 0 10 -13 18 -3 10 -2 6 5 8 7 -1 -4 -5 -5 -6 8 -2 -12 0 -13 -9 -14 -2 -3 14 -2 3 7 8 3 3 6 -4 -7 8 -5 -1 -4 16 6 7 -17 3 3 12 -9 -5 -9 -11 0 10 -3 5 2 -2 -5 -1 4 -1 10 -2 7 -9 4 -8 4 10 -5 7 10 2 6 18 -2 3 -17 -4 -14 3 -21 7 7 7 -12 -11 5 6 2 -5 1 -15 6 -2 -7 -15 -20 -1 -12 -4 -10 -13 -4 -2 -8 5 -7 -7 -5 -10 -5 7 1 -7 -7 0 -6 2 -4 -3 -10 -8 -4 1 2 -4 4 -1 -8 8 -7 0 5 6 7 7 -18 12 2 6 -6 -5 -13 1 -1 -1 5 3 -8 -8 -3 14 -3 6 11 0 -6 -8 4 -2 2 5 7 8 18 -1 6 4 11 0 1 0 5 5 -1 3 7 -7 0 2 -8 7 6 -8 0 -1 -9 10 -2 1 -5 0 -1 0 10 -3 -15 0 1 3 2 5 -6 -4 -7 11 -12 0 14 19 -4 -1 0 6 0 2 3 10 6 9 14 -8 7 6 -1 6 13 5 -4 10 -3 5 13 4 -3 14 -11 12 12 0 6 5 3 -2 4 -16 4 2 0 -8 -4 3 4 9 15 -11 10 4 0 3 10 -8 9 4 -3 -2 4 8 -3 -2 1 -2 -14 -3 -3 -6 -7 -4 -5 15 -9 5 6 3 5 -2 10 -2 14 -7 7 0 0 -2 -9 -11 9 5 6 8 -7 5 12 -1 3 -8 6 -1 -3 2 8 4 -1 1 1 1 -4 3 2 10 3 2 2 -6 -4 4 3 1 -4 -6 
-5 -1 10 0 -6 6 -18 -4 5 3 -9 -10 -12 0 1 -1 -5 -4 -17 -5 -3 -15 -11 -5 -2 -11 1 1 0 -3 -1 8 8 -2 -3 -4 3 -2 5 -1 -8 0 -1 6 1 -8 8 7 9 -4 1 0 3 6 4 23 -7 1 4 -1 -4 3 -3 14 -8 3 4 -5 -7 -1 -6 7 4 5 2 -4 5 -3 0 -6 7 -4 -2 0 -3 4 7 -1 -3 -1 0 4 0 6 1 3 5 1 6 12 -4 6 8 -12 4 1 2 4 6 -6 -3 7 0 9 -4 4 9 -9 -3 8 7 16 -1 4 16 19 9 11 -3 -3 13 7 -3 9 -4 2 10 1 9 11 -1 -10 -7 3 -8 19 -5 12 10 9 0 -2 12 1 12 5 -4 1 -4 -8 5 -8 6 -1 8 -5 -3 -3 -5 -4 -2 9 -6 -12 9 8 2 0 -9 -2 0 17 -5 -13 -6 -2 -4 -1 -14 -2 -8 -14 8 0 -5 -1 1 -2 1 -11 -1 14 9 7 15 -7 5 1 -6 0 -6 -9 -4 -1 -9 0 -9 -2 -1 1 0 4 -1 -11 4 -3 2 -8 9 2 6 -6 3 4 0 4 19 -5 -9 -5 -5 -9 -9 6 -7 8 -13 4 -7 -13 -2 0 -3 4 -8 7 5 1 -3 9 -8 1 2 -12 -5 -5 7 -3 1 1 -1 4 -5 -5 -8 14 3 1 1 7 4 -5 2 -4 7 -9 2 4 -16 13 0 11 9 5 -2 7 -8 17 7 17 -1 -1 0 6 7 7 -2 3 2 9 1 16 2 -1 1 5 -3 7 8 -9 -5 12 -2 2 1 4 -2 2 -4 -3 -1 11 -7 9 0 -7 -3 -5 -3 4 7 7 -15 3 8 -14 8 -2 -2 4 8 2 5 6 -2 -3 2 -9 1 -9 -15 -10 4 4 -2 0 5 9 8 7 -6 9 3 -3 12 6 11 3 14 -1 11 7 4 -5 -11 1 -5 -6 2 5 -1 2 -4 -3 -9 16 -1 1 -10 -5 1 -6 -3 2 -8 -8 7 -1 -1 -5 0 -10 -9 2 -5 8 -7 5 -3 -6 0 -14 0 10 -4 -15 -3 4 -20 1 3 -3 -2 2 8 4 -6 8 5 -2 0 -1 7 2 -1 4 15 -7 -7 1 4 4 -9 2 -14 -8 12 -3 15 -2 2 8 8 -14 -13 2 -6 -1 -1 -7 -6 0 1 5 -7 4 0 3 -2 3 -3 -4 -5 2 1 2 -5 5 -4 -7 -7 -8 -13 9 10 -5 11 -1 0 7 -11 -2 -2 1 6 -6 -8 -4 -4 10 -10 0 -4 9 2 -8 -6 7 14 11 6 7 14 5 5 0 -4 7 -9 7 12 -13 0 -1 10 11 -8 -14 12 8 1 1 -5 -1 10 -4 6 11 1 0 10 -8 17 4 -5 2 4 -6 5 3 9 1 3 1 -1 1 5 7 13 3 14 9 -11 8 -1 13 0 3 -8 -13 9 -8 6 1 -4 -2 5 0 6 -7 5 2 1 -8 12 6 0 -3 -6 3 3 0 7 -9 6 8 -4 9 -1 4 3 5 5 7 2 2 1 1 -5 -1 5 1 3 1 5 10 1 10 -3 7 -11 -13 0 -8 3 -12 2 -12 1 -13 
1 -2 -10 3 -4 -6 -3 5 -1 -9 5 -10 -7 -11 4 -35 2 -3 0 -9 -5 2 -5 4 3 -4 0 8 3 -3 -6 15 -2 5 13 6 0 1 -3 7 1 8 2 -8 4 13 -9 10 -1 12 1 5 9 3 3 -7 1 -5 -3 10 13 -13 3 3 -2 8 -1 3 -8 11 -3 7 0 -2 11 4 1 -3 -11 -2 4 0 5 2 -6 5 -1 -6 10 2 5 1 6 -2 7 -2 -7 -9 9 5 7 -1 0 -7 3 3 -8 5 8 4 16 2 -2 12 13 4 5 5 -5 -3 9 -7 2 9 6 -9 8 -2 7 0 -8 14 -3 8 14 3 3 -4 -1 16 0 16 10 12 8 -3 2 5 9 9 0 1 7 5 2 -3 -3 12 3 -3 -7 6 9 -3 4 -4 1 -14 -4 11 1 4 3 1 6 -8 0 -2 9 -5 -11 -6 0 7 6 5 1 -3 -2 2 2 5 -3 -5 -12 1 3 -1 -6 -4 -2 -7 2 -3 2 -8 -11 18 12 -2 7 -7 -8 -8 -7 6 -1 11 3 9 7 -1 -4 9 -7 4 -1 4 -2 3 0 -1 2 0 -2 0 -2 -8 4 -10 -6 2 -3 -15 -2 -11 0 3 -5 5 5 -7 5 -17 0 -5 -7 7 8 0 -16 -6 -10 4 -10 4 -9 -4 3 -5 7 -4 4 3 8 9 -7 -5 -2 -8 4 5 2 -4 -8 -1 2 3 -5 5 -6 -8 1 -2 0 9 -5 0 4 -9 -4 4 -1 12 -4 5 -3 -6 2 -5 11 -11 -2 8 -7 -1 6 -7 1 11 -4 -4 11 12 -4 2 7 -2 12 6 18 -1 8 2 11 8 4 2 -8 -10 -1 5 -12 -2 -13 -2 1 -12 6 3 10 10 -2 -2 13 6 1 0 -2 -5 -1 21 -17 9 0 5 7 3 -8 3 6 7 5 6 4 -4 -3 3 0 18 -5 0 0 6 -4 8 -3 -9 -6 -5 -10 -2 -9 4 8 12 -8 5 -10 11 -7 -3 -3 -8 1 10 -13 -11 -4 -6 -8 -1 0 -4 -10 -7 -16 -8 -4 -2 -6 0 -1 -10 4 -10 2 -8 7 -12 -2 1 -2 -5 0 10 5 1 -1 -11 -3 -2 -4 8 4 5 -3 -4 1 -5 -7 -5 -5 7 -9 -5 -6 -5 -14 -5 -8 7 -5 10 5 -7 -2 -8 -2 -7 -3 -9 -5 -1 8 8 -7 -8 7 10 6 -12 17 0 0 2 3 3 2 5 -2 6 -4 10 2 0 -1 1 -4 -7 5 -10 10 -4 -8 -11 -3 7 -8 0 -8 -1 -5 -6 9 0 2 -7 13 8 4 4 2 0 6 8 6 -12 11 -5 -2 18 17 4 6 -23 0 13 7 -2 3 10 4 7 0 -1 9 6 -1 9 7 -1 25 -3 16 14 4 9 2 4 12 9 5 3 -3 -7 11 2 11 -8 -1 -9 2 11 2 11 -9 -3 3 2 2 -6 -6 -9 -5 -8 -1 8 -10 5 4 -2 1 4 9 10 -4 1 -1 3 -1 1 3 11 -6 1 3 -2 -2 3 3 -10 1 12 12 -2 5 7 -7 11 -8 2 10 12 4 0 1 -10 -9 7 -3 8 0 -2 -3 -14 8 3 1 -5 
-4 0 12 1 -3 -3 2 -11 -2 -19 3 -5 10 -6 -9 12 3 -9 -5 -3 -16 3 2 -6 3 -10 4 2 -10 7 -5 7 11 -2 3 -5 -8 6 4 16 13 -2 -8 1 1 3 7 10 -4 7 15 0 -6 6 8 -6 2 3 -4 -3 -11 13 -6 10 -11 -6 -1 5 4 -10 5 -3 6 -9 6 10 2 -3 3 -6 5 -1 9 8 9 11 11 -4 11 3 5 3 1 -8 -7 0 -1 8 1 -2 8 6 9 2 -1 -4 4 7 -3 -4 5 0 -1 10 2 -6 3 6 22 -6 1 6 7 6 15 7 9 3 6 -1 -1 7 5 -4 12 -1 1 -7 6 0 3 -14 4 -1 2 8 -4 2 6 5 0 7 -5 9 12 0 1 -9 -9 -3 -1 -12 1 -8 9 6 -9 -1 -10 2 -9 0 1 1 1 1 -5 5 -5 12 9 -6 -2 3 -12 -10 -2 -5 -1 -2 -10 -4 1 -11 -2 3 -10 -3 8 -2 6 11 1 -7 4 -2 2 -6 11 -9 -12 3 0 -3 -3 -5 1 -6 0 8 -2 7 10 -10 -9 -13 -4 -5 4 4 -10 3 4 -4 -1 7 -8 15 -4 -9 -6 -2 -5 1 6 -5 -6 -12 2 -8 2 7 -14 -4 1 -4 -4 -5 -6 -10 5 0 -5 -3 3 -1 -9 -10 6 -6 5 -9 6 -2 9 2 4 2 1 1 6 -2 4 1 0 0 12 10 21 -8 -2 4 10 -8 4 -2 13 4 0 3 1 -1 8 2 8 -4 -4 -3 4 -5 -5 4 3 -8 -1 7 5 -9 -9 -4 -4 -20 -2 -8 5 -2 8 15 2 12 5 10 8 14 4 -7 1 -12 9 -7 -1 -12 -6 -7 -8 -4 10 -10 8 -7 1 -1 -3 7 -1 2 5 -5 -2 -9 -18 -7 1 3 6 2 -7 11 8 -1 10 4 -11 5 3 -7 6 -4 -1 -9 2 7 0 16 -8 -4 -8 -8 -9 -8 9 3 8 -13 2 0 -2 3 8 0 0 -13 -2 -11 -11 0 7 4 1 -4 -8 -15 3 -5 5 -6 -5 9 -21 9 -11 2 -9 -3 2 -9 -7 -11 -9 -5 -4 -7 -4 -1 4 4 -9 -11 3 -12 -8 -6 -2 -5 2 -6 -1 8 -9 10 0 -1 0 -2 9 1 5 12 2 11 9 -2 -3 7 -9 8 -8 9 -6 1 3 6 7 -3 -2 -8 10 -1 -11 10 7 -4 -3 -7 -2 -11 1 3 1 0 -6 6 2 -2 4 1 1 12 7 -2 13 6 6 -7 4 -4 -5 -9 0 5 -2 0 -6 8 -3 -6 4 4 -3 16 -11 4 11 5 3 6 0 -4 5 -1 10 -11 1 2 -1 -1 5 3 12 5 3 -2 12 20 16 9 10 13 6 4 12 8 11 1 -10 6 7 3 4 2 3 -4 6 -2 -6 17 -2 10 1 0 -5 -2 13 8 -2 -1 -16 1 -4 -7 -22 4 -2 -2 -9 -4 -4 -5 -10 3 2 4 -4 -5 6 -7 -4 -7 -9 9 5 19 3 -4 9 2 2 4 7 2 -4 -1 4 -2 -5 -6 -1 -5 12 -4 -2 8 7 6 14 0 7 9 4 -4 7 -4 0 -7 -9 -1 3 -4 -4 -4 
4 -3 -4 19 3 0 -3 -1 -2 -9 -15 -5 -5 5 -14 -6 -4 0 -3 -7 -2 -4 13 -1 -15 7 -1 7 5 3 9 6 2 8 -9 5 6 -3 -3 0 -6 -1 6 -6 -9 -2 4 1 15 7 -8 2 10 1 6 7 8 5 -1 -3 9 -1 0 3 0 5 -9 3 -1 3 7 -10 4 15 8 5 15 3 9 2 12 3 4 8 -6 0 8 -5 3 -5 13 2 -2 13 0 -1 11 13 9 7 11 -9 -1 -9 -3 -3 7 2 -4 4 10 3 3 1 0 5 4 -4 10 3 15 7 3 7 1 -3 -3 7 3 -3 1 1 4 13 -3 5 3 3 -3 11 6 -5 0 -5 -3 3 1 7 4 4 4 4 6 -2 4 6 13 0 -2 10 6 4 7 1 -3 -4 6 10 2 -2 -7 -1 -10 -3 -9 -4 2 -19 9 -20 -3 1 -8 -12 -5 -1 -12 -14 1 4 -1 -3 -3 0 -5 -8 -6 -5 4 7 -1 -3 2 18 6 -2 -11 -5 3 5 9 -4 -10 -5 -9 -6 -6 -7 -7 -7 4 19 7 5 0 7 -6 -15 -4 -5 -1 0 -7 2 -9 -4 -12 1 -2 -7 -4 -11 0 -6 -4 3 -5 -12 6 4 -2 1 9 0 3 13 -11 7 -4 -5 0 -10 -14 0 -4 3 -4 0 -1 -10 -5 -1 9 -5 -2 11 3 17 -1 10 9 11 9 3 6 8 0 0 -3 15 11 -1 8 2 -8 10 -10 7 -3 2 1 4 -2 -6 2 -1 -2 1 -1 8 0 3 11 9 10 5 -8 2 -3 -2 -1 3 -2 7 5 1 3 -2 -6 3 4 3 1 3 8 0 4 13 -3 5 -7 -7 -13 -1 2 -17 -3 4 -7 9 5 9 -2 -5 1 -7 3 7 -5 -5 -2 1 -11 -4 -3 0 14 -14 -6 -6 6 1 4 -2 -4 -4 3 6 10 7 12 -1 5 -12 -8 -3 12 0 0 3 -11 5 -3 -8 0 2 5 15 6 -4 4 3 -2 -8 0 -8 -3 -23 -15 -5 -11 4 -6 0 -11 -11 -8 0 11 0 -10 -8 -19 -1 -8 -12 -1 -4 4 -8 1 -9 -1 5 1 -7 8 -6 -1 -1 -3 -8 1 -3 6 7 -1 5 9 10 2 0 0 -13 -3 6 1 -11 1 -5 7 2 -6 11 9 9 9 0 3 6 -4 -2 5 0 12 8 10 4 6 12 -3 -5 -8 6 8 2 -8 3 -5 -3 2 3 -1 11 -6 7 -9 -5 1 -3 -5 2 4 -3 1 3 -7 0 -1 -24 8 -1 -16 -4 -2 5 13 -1 13 9 6 3 1 7 -5 5 15 6 -1 6 -6 6 0 -1 2 -13 -2 6 4 -3 -5 10 7 -3 6 8 11 -5 11 -3 0 17 8 11 -4 5 1 1 3 1 3 0 -9 7 -11 0 0 11 -10 -2 0 -7 4 6 4 -2 -7 5 -3 1 3 4 -12 4 -9 10 -14 1 -3 -11 4 -10 8 1 -17 -2 0 1 0 5 -7 3 3 0 20 -3 -8 -1 -2 3 3 1 -5 5 8 2 1 3 -8 -4 -1 4 2 5 -6 5 4 -6 11 8 -3 6 -4 -10 1 -6 -7 -8 -5 -4 
-9 0 6 -3 -8 3 -8 9 -9 -6 -6 1 -10 -13 -6 9 -1 5 -4 8 0 -10 8 -4 2 6 6 -4 0 2 -3 -6 7 -2 -2 1 -5 13 18 -7 -1 4 1 -18 -8 -9 12 10 9 9 11 -6 4 7 14 11 -10 4 5 5 4 11 6 -11 10 -4 4 7 -1 2 -1 0 10 -11 5 3 -8 9 4 6 8 -3 5 6 0 4 5 17 -3 3 2 6 14 -7 2 8 -1 1 -3 4 3 -1 8 4 8 0 -9 2 18 -2 3 -5 10 4 -1 -5 0 -13 -8 0 0 -4 1 7 -4 13 5 11 19 10 -10 24 0 1 6 6 12 14 12 -1 3 9 -4 -2 3 -8 12 4 1 3 13 -6 1 9 8 4 4 3 10 7 4 -3 -5 -2 -4 -2 -11 -9 -3 -7 -4 -6 5 -7 -5 -4 -1 -12 -8 -6 -15 3 8 -12 -8 -19 -18 -14 -8 9 -2 3 -5 -7 -15 -4 1 -4 12 -3 2 8 12 -7 1 0 7 -9 0 -11 -4 -12 -3 3 7 -3 -11 -3 1 2 0 1 -5 10 -2 9 4 -3 4 -8 4 -9 -8 -16 1 -8 -3 13 -7 -11 9 -8 -5 -8 5 2 -8 9 -2 9 17 4 12 -9 -4 3 -3 -6 0 -7 -7 -2 -3 -2 0 1 -6 0 6 -6 0 2 0 -4 11 -2 -3 2 12 11 5 3 19 3 -2 3 -10 9 -8 2 -4 24 8 4 -5 -2 7 15 3 2 -4 3 -1 17 9 7 5 2 10 13 1 2 1 3 0 9 -3 -9 0 0 5 6 -7 3 -2 16 8 -1 -1 -8 6 -6 -9 -16 0 7 -8 -1 -5 -10 -2 9 11 7 0 2 0 8 5 3 -1 12 3 -12 6 3 0 -1 14 -1 2 -2 -2 -4 11 1 5 1 2 17 -3 -8 -2 -1 2 4 -12 -9 5 3 -7 5 4 3 -3 0 -4 12 9 2 -1 -5 -6 0 2 -17 3 5 6 13 10 -6 -10 0 -10 2 -4 2 -8 -6 -13 -15 -5 -15 -9 -10 -7 -14 0 -11 7 -3 6 -2 1 -8 -10 -6 1 0 -2 -4 -11 -3 6 0 -8 5 1 -3 -18 -8 -14 -2 -2 1 0 -8 2 0 5 7 8 2 -3 0 -3 -4 14 -11 4 0 -5 5 3 10 -5 14 -3 13 4 12 3 -2 7 8 -2 9 1 3 -7 16 0 -7 -1 -6 -9 5 8 2 5 2 12 1 10 -5 8 1 -4 10 -8 16 4 -2 -1 0 -3 0 6 -1 -1 -12 0 -1 -4 -3 5 5 -8 3 -3 4 -10 3 14 -2 1 -3 8 5 -6 17 4 -5 2 2 5 -7 20 -1 7 10 6 14 3 -2 17 1 14 3 2 1 2 8 8 -3 11 1 3 4 -5 1 -1 3 -1 -4 2 2 3 -1 8 3 6 -11 -4 -7 4 1 2 -2 1 11 0 3 -5 -5 2 3 7 -11 -2 -1 2 1 1 4 5 -1 -7 14 -7 2 5 5 -8 -3 2 2 12 -10 -4 3 0 -10 1 -5 1 -7 10 4 3 -2 13 0 -4 2 9 9 -5 3 -8 3 -5 5 -14 1 1 -6 7 1 
-10 2 6 10 11 1 8 1 -1 -5 3 0 0 7 0 -12 -6 -2 0 -14 7 -2 -7 -10 3 8 -13 -6 -5 -7 -3 10 3 4 -12 11 -1 4 5 7 4 6 13 12 10 -6 10 0 -2 -7 -1 -4 12 -1 5 23 5 9 -1 6 1 -4 4 8 -4 5 -3 3 15 7 20 6 0 10 3 9 7 -7 18 -1 -9 9 2 0 -4 10 -4 7 11 -4 3 4 -3 11 2 5 8 -4 10 -6 7 1 -2 -1 5 -10 18 -19 -12 -2 -5 -5 -2 3 5 7 4 -6 -5 0 -7 -2 1 -4 -7 9 -6 10 -8 6 -11 -2 -8 9 -6 11 9 -4 -3 -8 10 -17 2 12 -9 4 -3 1 -3 3 -4 15 3 13 2 2 10 -1 -14 0 3 0 -1 -6 5 -1 -8 7 5 10 8 -6 2 1 3 2 -9 -1 -1 2 4 4 5 -18 -2 -6 5 -10 3 2 -6 1 -15 16 -1 3 -8 -6 -2 3 -7 11 -11 3 -5 10 -2 -8 -4 -3 4 -4 4 -14 -3 -6 9 -4 3 10 -2 -8 15 0 5 -2 -8 5 14 6 8 -6 1 -1 -3 0 -3 2 -3 1 -8 16 -4 -4 7 -23 3 18 -11 15 -1 9 0 -3 9 -5 -1 10 0 -9 16 -1 6 -3 -9 -10 2 -13 2 13 -1 5 3 5 8 12 5 12 0 2 4 -1 1 -17 0 1 3 -7 -10 11 -12 -7 8 0 11 5 7 15 1 2 -1 12 11 3 7 8 7 3 0 3 -4 10 5 3 2 17 10 2 -5 8 6 6 7 27 3 10 -5 -2 14 -4 -7 -6 -10 2 -9 -10 -9 0 -8 1 -7 1 11 0 0 2 9 -11 8 -1 5 10 -10 8 -4 5 -3 0 -11 -8 6 -4 -1 5 -2 5 -5 2 -6 4 7 17 1 0 -8 1 17 7 -2 0 5 2 7 -1 6 3 -4 6 3 -7 3 -5 6 7 -1 9 5 4 6 10 0 -14 -9 -4 -5 -10 -6 5 4 -6 -6 1 -8 6 2 -5 -21 -1 -8 -4 -4 -10 -5 -6 -10 6 10 -9 -15 7 3 -2 -9 0 -4 -2 0 0 9 5 -10 -3 2 -9 -4 -10 0 7 -2 8 -7 -3 -1 -9 11 3 -6 5 -15 17 -4 -7 12 0 7 5 -7 -12 0 5 0 0 -6 8 0 -14 9 15 0 -1 1 5 0 3 -2 -2 -10 -5 -8 4 2 1 0 3 9 6 5 8 1 4 8 0 2 12 -3 -2 0 -7 -2 -2 -9 2 -3 3 4 -2 -16 4 11 -7 -4 -1 -10 9 0 -18 4 9 2 2 1 0 4 11 9 3 0 -11 -7 -2 18 1 15 2 14 12 6 8 6 5 1 -3 10 6 14 -3 6 2 4 15 13 -2 4 3 12 2 6 -6 2 16 0 -3 -10 8 -9 -17 -12 -5 6 -7 2 0 -5 3 -1 -8 -6 0 -13 6 0 2 -6 -6 -6 0 3 -6 3 2 0 6 -8 -6 7 -5 0 -2 0 -6 -6 9 -7 3 4 2 -3 -7 -5 -2 5 -2 -11 -8 9 2 -3 4 12 -5 -1 0 4 -3 -10 -3 0 8 -4 10 
1 -3 12 -1 3 -4 6 6 2 6 10 -5 -2 -2 -1 7 -11 -1 -13 -5 -2 0 2 15 -3 -2 -1 -4 -14 3 0 -3 2 -8 4 1 -1 3 -5 -4 -9 -3 -4 -3 -1 8 3 3 6 2 -2 1 7 6 12 -6 2 6 1 1 0 0 3 5 2 0 -4 0 10 -5 4 7 5 9 3 4 8 1 3 8 -2 14 -10 5 21 2 -10 4 12 21 3 -6 6 -4 12 9 -13 4 0 7 4 6 -6 -3 2 7 6 -1 -1 -6 14 -3 -8 -5 4 2 2 -5 -2 4 -16 3 4 -5 7 1 -4 12 1 1 6 6 3 -7 1 11 8 4 13 -8 -6 7 4 -13 7 1 7 4 8 3 -1 12 -8 0 9 -2 -2 3 13 0 -7 -6 -2 -11 -12 0 -9 6 3 -2 -2 -4 -8 0 0 -2 0 7 7 -11 -6 -6 -3 1 -13 -10 0 -9 0 -8 11 -1 -8 -6 -9 -5 0 -1 -4 7 -4 8 -8 -9 -17 -6 -6 8 2 -1 -6 6 3 4 3 -2 -4 -1 -4 -2 -7 16 -3 -7 3 4 -1 8 5 5 -4 8 -3 5 -5 2 -3 -4 8 -15 7 0 1 0 -9 6 0 10 -1 13 7 10 3 11 -9 -11 1 -3 1 2 -1 -4 -1 9 8 5 18 3 15 -10 -7 -9 7 0 -1 5 4 -2 5 9 -2 6 2 -6 -10 -3 -8 -5 17 -10 -1 24 1 9 6 -3 13 -16 8 2 4 -2 3 5 13 4 -4 11 18 -10 11 -4 5 2 11 6 -2 3 16 5 10 2 2 -6 1 12 -10 11 -8 4 0 0 1 -12 7 -10 -3 -9 2 0 -3 -8 -5 4 8 11 -5 6 6 11 -6 3 -3 -13 6 -1 2 0 -2 3 -1 0 5 6 6 -3 -3 -3 -1 -3 -3 7 7 6 4 -3 13 -9 0 5 7 5 2 -1 -1 -3 -1 1 1 0 -6 -7 2 8 -9 5 -7 9 1 -1 3 4 -20 0 -15 -4 -4 -3 -7 -7 -6 -3 -16 -10 -9 -3 12 -3 -13 -1 9 3 -3 1 2 -12 -6 -1 1 -11 7 -6 -6 -9 -2 -14 -2 -3 -9 4 5 -5 -15 0 -6 -2 1 6 -3 0 5 -2 6 -9 2 -4 4 8 10 6 -2 -6 1 4 -2 3 4 6 6 12 -7 12 14 8 1 5 12 7 5 18 -9 4 4 -1 -6 6 11 6 8 -6 11 3 11 11 11 0 -3 -4 6 5 0 -4 7 -1 -5 -7 -9 1 0 1 4 -7 -1 11 -5 1 -6 1 -10 6 14 -5 7 -9 -2 2 3 7 2 1 4 -3 0 14 -3 1 1 3 0 16 2 -3 6 10 9 9 7 11 12 8 8 7 -13 1 10 -3 3 1 4 -6 -10 6 11 -2 1 1 -5 -13 12 -6 0 -8 -1 -12 -4 -7 3 -11 2 -7 -9 -2 -8 -7 1 2 -3 -2 -10 2 -8 6 1 3 13 1 -1 -4 -8 11 -6 -1 0 -22 5 -8 6 -10 -1 8 3 -1 -1 6 -2 -12 -1 -13 -5 -5 -6 -2 6 -5 -2 2 3 -5 6 4 -8 -1 -7 -7 -2 0 -13 5 1 -3 
-2 -7 0 2 2 -9 5 6 -4 0 -1 0 1 1 -6 6 -1 7 2 1 -5 -3 4 8 4 0 -12 12 -5 2 1 3 5 4 -10 3 -14 1 5 -2 5 -1 1 -11 10 -9 -4 5 -4 -1 1 -3 4 -2 -1 7 9 9 16 17 -2 7 -8 10 -3 3 6 -8 11 6 11 22 12 15 -13 -4 6 -2 7 9 7 8 13 2 -3 9 7 9 -6 1 -6 0 -3 3 4 -3 8 9 3 14 4 0 9 0 0 -6 7 5 -2 2 -6 -11 5 -1 -9 -3 -2 -4 1 -13 0 -3 0 11 0 7 -4 -1 -7 10 11 6 4 6 17 11 0 11 18 17 7 8 -7 0 -2 1 5 16 8 2 2 4 -1 2 2 8 -2 -13 -1 3 -10 6 0 7 -16 4 -7 9 -2 15 0 13 2 5 -8 5 -7 -6 1 9 -6 1 -8 -9 -4 8 -9 -1 2 -2 -1 -1 3 -14 -4 0 -4 3 10 -1 4 -19 4 0 1 -2 -6 3 -15 -5 8 4 7 -1 -1 10 -1 -3 12 5 6 -5 3 4 -1 -12 -4 -5 5 0 15 -2 -3 0 10 -13 0 2 2 -7 4 2 2 -4 6 11 -5 3 6 -4 8 10 4 1 -10 4 2 7 5 -7 3 -9 -5 3 14 -2 -2 4 2 6 3 -2 3 4 5 -6 6 10 10 5 -2 6 3 10 0 7 3 -3 3 -13 1 -2 -7 11 -2 -8 0 -5 -1 12 -4 0 3 5 -10 2 1 13 -16 11 0 9 -2 -4 -2 2 0 1 11 0 -13 1 1 4 -3 0 2 9 9 -2 6 10 5 -1 -3 -2 3 7 6 -9 2 5 3 1 -3 -9 12 -2 -4 1 2 7 1 7 -7 -6 10 -2 13 1 3 5 8 -6 -2 -4 -2 4 -8 -5 6 -5 3 0 0 -1 -3 -6 -6 6 1 -3 14 -10 -5 11 -4 12 -10 4 -1 16 2 3 3 6 -3 7 9 -7 -11 14 4 -5 -8 -1 -3 6 6 -6 -4 -17 -5 -1 -2 -6 -5 -9 -8 0 -14 -19 -3 7 7 -14 -11 -6 -5 -3 0 -12 -8 5 -13 4 -4 3 2 -16 -8 -9 0 -13 -4 -3 0 -4 7 -10 -5 4 4 2 11 9 -1 3 -3 11 5 -4 -5 3 -2 7 -3 13 5 1 4 0 5 -1 12 8 14 1 21 -10 7 0 -2 7 2 2 -4 7 9 2 -5 8 5 -3 0 4 8 1 12 9 -4 0 -2 -8 1 -1 -5 -4 10 12 3 11 14 3 11 6 -8 2 -4 9 4 0 -1 -15 0 -6 -4 -3 10 -7 -7 -4 7 7 -5 7 10 -6 19 -6 -1 3 -9 -8 13 -1 -1 7 8 6 8 -7 9 5 -1 -5 9 -9 -3 -4 -6 3 -4 7 12 -6 7 12 -2 1 0 -3 -7 1 -10 -9 -2 -2 -8 7 0 -8 -7 -12 3 -2 0 -11 1 2 3 -2 -4 -9 4 -1 -12 3 -1 -4 -1 3 -5 1 -2 -8 1 -9 15 -5 1 12 -3 -1 0 -4 -4 -12 5 9 11 6 -10 17 -12 9 9 11 -9 -12 -3 -18 6 2 7 -2 5 -11 3 -2 
-1 -5 4 12 -12 -6 11 -6 19 1 9 7 0 -8 1 -7 -7 1 2 6 10 5 5 2 -7 -3 -11 0 -7 1 13 -5 4 0 7 1 3 19 -5 -5 6 5 5 -13 2 7 1 -12 2 13 2 2 8 -3 1 1 10 5 6 0 -4 3 3 10 7 2 8 9 5 19 12 -4 3 -3 12 6 4 -1 4 9 6 3 3 2 19 3 2 9 1 7 5 -2 -12 -2 -7 1 8 2 -2 3 0 0 -5 -7 0 1 -5 0 -3 2 3 -1 -3 2 -13 6 -5 4 -17 11 -16 2 -1 13 -4 -2 16 -15 15 -4 4 2 10 -2 -5 -3 6 -2 2 -20 10 3 -8 1 9 6 1 3 4 13 -5 12 3 -4 2 7 7 11 6 7 15 1 -2 -7 6 6 2 -7 -15 -1 -4 3 -9 -4 -2 4 11 3 -15 3 5 -7 -6 -4 -6 4 -7 -11 -1 -8 5 -11 3 -4 -1 2 4 -2 -15 8 0 0 6 0 1 -9 8 4 3 -8 -6 -3 -11 -3 -5 -3 -13 -4 1 6 0 -13 3 -2 7 5 6 2 -2 6 -1 -1 7 3 -10 -14 4 -8 4 -4 -4 -2 -3 14 8 11 -8 4 3 4 11 9 -2 -2 2 1 6 -5 -9 -2 6 -2 7 15 4 -7 -7 7 -2 -4 5 0 -5 0 8 -2 1 9 -2 13 0 -8 10 9 6 -6 12 -1 22 -4 8 2 4 -5 9 -7 -8 10 -8 3 9 7 4 2 9 6 3 15 13 -3 -1 -8 7 5 -5 1 5 1 -7 0 8 1 -12 8 0 6 -2 6 -5 8 -3 7 7 7 0 11 1 8 -9 -8 -2 -7 8 5 1 7 -7 -7 -1 2 -2 2 3 -3 -3 8 -8 -10 -10 -12 -10 -2 4 1 5 -5 6 2 11 -3 3 1 11 4 2 2 6 -4 -4 0 1 8 -4 1 -7 -9 3 -14 -9 8 6 0 6 2 -3 6 2 1 3 -2 -2 3 -14 -6 -2 -10 -1 -2 0 0 2 -21 -7 -11 3 -10 -7 9 -10 -1 -4 -3 -7 4 -4 2 2 -11 -8 -8 -5 -7 -9 -9 7 2 -4 -9 -2 -3 2 2 1 -4 7 7 10 7 -9 -9 4 5 11 8 2 6 0 -2 2 4 -1 6 -9 2 -5 8 -1 -1 0 5 8 16 10 6 5 8 18 15 9 -1 8 -2 11 3 6 6 4 7 14 9 6 -2 11 2 -7 12 -2 -5 0 -10 4 -2 -5 -12 -9 -9 3 -5 -3 0 -6 -2 0 1 7 -5 1 5 4 7 -1 8 -2 -3 1 13 12 7 -3 -3 1 -2 -7 6 10 11 -2 -2 9 0 6 0 -2 3 -1 12 20 8 0 -6 4 0 3 0 7 3 -3 -8 14 4 1 2 -1 5 9 -2 7 -6 7 -7 8 7 -10 5 4 3 -1 6 -3 5 -25 -4 -5 -1 -13 -17 2 -1 1 -5 -1 -7 8 1 -2 3 -1 -8 -4 -6 -5 6 -11 -10 7 -3 -2 0 -5 1 -10 11 -2 1 -2 3 -3 6 8 -5 -15 -3 -5 2 -5 -14 12 -3 12 0 8 -4 -18 4 -3 7 -5 3 -2 6 
-3 -6 7 -6 7 -3 1 5 4 6 3 -9 -6 -1 11 -1 -3 -10 0 -3 1 13 -5 -10 10 -2 -2 -3 -8 6 -5 -3 5 -1 -4 2 5 0 -4 3 -8 1 3 3 0 -8 5 19 3 -6 -2 6 3 6 -1 11 2 2 -3 6 6 1 2 6 -7 9 -1 3 -3 11 9 0 8 9 16 2 2 -2 11 7 5 4 9 7 0 0 -2 -3 16 -2 6 1 -8 14 -4 9 3 0 4 3 -2 2 1 0 -1 2 -5 -8 9 6 2 -7 13 -4 5 3 -2 0 10 8 10 3 6 -2 8 -6 8 -7 3 3 -1 0 3 4 4 6 5 7 -1 15 15 -3 6 0 2 14 9 4 9 13 -4 11 -7 1 -5 -6 8 2 0 3 11 -1 8 4 -1 3 4 9 5 -4 2 -4 -3 2 4 -3 -8 12 12 -12 2 -2 -6 -8 -3 -3 -11 14 -6 4 -5 -1 -4 -11 -4 -11 8 12 3 5 -7 -1 -4 -7 -5 -4 -1 -7 -10 -2 -5 -8 -3 -18 -4 9 1 3 6 3 -13 16 1 -2 -8 1 -4 -7 -2 1 -9 -1 1 -2 9 6 3 2 4 6 -4 3 -3 12 -5 -10 3 5 5 2 6 -8 15 0 7 -5 -12 -1 -8 6 7 -13 9 -9 -7 7 -8 -15 -7 11 1 3 3 16 4 17 -1 3 -14 0 0 12 7 -2 0 1 -9 -3 -5 13 14 7 -9 7 -5 0 -3 6 3 -3 4 8 2 7 8 10 -2 9 3 8 10 -9 3 -1 7 13 4 7 9 3 10 9 5 15 13 7 -7 5 -5 -4 7 -2 -2 -5 -8 -5 -15 4 -7 2 -2 -9 -15 9 -1 -10 -3 -5 3 -17 -4 -5 2 4 9 0 -11 -4 5 -9 -4 4 -11 -3 -11 -2 -1 3 -7 9 -5 -2 -1 5 2 -12 -1 5 -2 2 7 -8 2 7 6 -2 -5 -3 -2 1 -1 -4 -2 -2 -6 9 -1 3 -9 -5 -2 6 -7 -14 -5 8 -6 4 -3 -14 -15 4 -7 0 1 3 0 -4 -3 -9 0 -2 6 -11 -8 -4 -6 0 -3 2 -8 -4 -17 -10 -3 4 -7 -3 -6 -6 1 -1 -4 5 -7 2 1 -10 11 1 1 4 7 -7 -1 3 -7 1 -9 -7 11 -2 -1 2 0 9 -1 6 6 10 6 6 5 -3 0 7 0 17 3 -3 7 4 -1 18 4 12 1 7 8 3 8 -8 12 5 -7 -1 3 -3 4 9 -6 -5 3 2 2 2 1 0 6 -11 2 -8 -6 1 8 -4 3 -6 -3 -5 -2 -6 1 4 8 0 -4 -14 8 15 -11 11 17 1 -3 -9 13 0 4 14 0 2 7 0 0 8 9 5 0 10 -7 2 -5 2 7 -2 -8 15 -4 6 3 2 2 2 -5 2 5 4 -1 9 -4 -2 -2 -6 2 0 3 5 -3 -1 1 3 4 -3 -7 -8 -8 1 -11 11 -9 9 -3 2 13 -1 -10 5 -3 -8 -2 -3 9 -7 -2 -7 -3 -2 3 -3 4 -4 16 -6 0 -3 2 0 -14 -3 -5 -1 10 -7 2 -2 7 -7 6 -10 2 -4 13 2 -4 -12 7 -3 11 -5 
6 7 -8 5 -4 5 8 12 7 2 4 8 -4 -1 -14 0 -9 -2 17 4 -1 3 -5 -11 2 8 -13 -13 -4 1 1 4 2 0 -11 1 1 -2 -4 -4 -1 8 -1 -12 -4 1 -15 -4 6 1 -2 9 5 1 3 -4 -1 17 3 1 9 3 1 10 11 7 -2 8 1 5 5 9 0 9 2 8 9 -9 10 5 4 -4 7 12 5 0 0 8 2 7 3 -4 1 -7 4 -5 -2 -3 3 2 4 3 7 -8 4 -5 8 -5 10 -6 0 11 -12 -2 10 -8 -5 14 1 7 -3 11 -6 10 3 2 -7 1 -3 0 -3 1 12 -12 1 -10 5 -10 0 -11 3 5 5 11 -8 -1 -9 -5 -3 2 4 6 -10 3 9 -8 -5 -3 -5 -6 -13 4 6 3 -14 -6 14 -5 5 -6 -2 4 12 -6 -9 8 7 3 -4 -5 5 10 -1 6 -12 6 -1 6 2 6 -5 -4 7 -13 8 -5 4 0 -5 2 1 -17 0 8 1 -2 -2 -1 -9 -3 3 6 -4 -3 -1 8 8 -8 -7 16 13 -6 10 -7 -8 -4 -7 -2 -9 5 0 -3 -6 6 2 1 5 3 8 -7 2 -9 5 14 -8 3 0 4 -5 9 -1 18 2 -1 15 2 -5 -2 2 -8 -2 -12 0 -4 12 -3 2 6 2 -9 4 -4 -3 9 6 3 -8 5 -4 2 1 -13 8 -1 -3 4 2 3 2 -2 0 2 6 -1 -4 8 10 1 3 7 2 14 15 6 3 10 10 -3 1 -15 -3 15 14 14 3 5 -1 -3 -2 -3 3 8 -4 4 -1 -2 8 0 6 -8 -6 -4 4 2 -2 1 -4 -4 -3 3 -7 -6 5 -1 0 6 -3 0 -2 -5 -7 2 -7 -2 4 2 -5 -1 -7 1 -7 -9 6 8 -1 -2 -5 15 -3 -2 8 -6 -2 -12 1 4 -11 3 8 0 8 5 1 7 0 9 3 0 -4 -5 5 -2 -2 5 -3 -1 -11 7 -1 2 -10 -13 -8 -9 2 -5 -3 -6 4 1 -18 -9 -9 9 -6 -5 6 -4 5 -3 3 -11 5 3 -3 0 -6 0 -10 6 2 -2 -10 -9 -9 3 1 5 -8 -8 -2 -1 5 -9 -12 0 3 3 4 -10 9 11 -8 9 7 8 9 10 -2 4 -8 -1 -1 2 9 -7 4 -3 -3 -1 9 6 6 4 1 -1 -3 5 -6 5 -2 5 12 5 -1 2 -12 13 -1 1 2 16 0 3 0 7 12 6 -6 -3 -3 -4 -17 -7 1 -6 8 0 -1 -3 -5 0 11 -6 -4 -4 9 -5 13 -2 8 15 1 -6 9 3 4 2 -11 3 5 0 -5 7 10 3 8 -2 0 -2 9 1 -12 5 7 -7 1 17 10 5 2 2 7 -5 5 8 0 1 5 -4 -10 -3 1 -2 -5 7 -1 0 9 2 1 -6 -5 -5 14 0 -1 1 -14 2 2 -11 0 -18 -7 -9 -2 -3 -3 -2 -6 1 -8 12 -1 -6 -2 -6 -2 -3 -2 3 -13 9 -3 2 -1 -8 5 -1 -8 -8 -10 -7 4 4 9 -7 5 -8 -2 -5 1 5 -2 5 -2 3 -9 3 -11 9 6 -3 2 1 9 7 -11 2 
1 9 2 -4 2 12 3 -10 6 -2 -3 -6 -1 -10 7 -3 4 2 6 6 0 -2 -6 0 4 6 12 5 -10 10 4 -1 -4 7 4 2 -5 4 0 -9 -17 -3 -6 0 -3 -8 12 2 4 4 0 -1 2 -7 -6 -5 3 -7 4 4 4 7 15 -5 3 9 4 8 7 4 9 4 -2 3 4 9 -1 6 16 8 7 1 20 15 9 12 10 -19 0 2 1 9 0 2 4 8 7 4 -6 4 1 6 8 3 3 2 3 -8 0 -3 5 -5 -4 1 -13 -6 13 0 -2 -7 -2 1 8 -12 0 -2 2 5 -1 7 4 -2 -8 3 0 -8 -5 -6 4 -5 3 -8 -9 -2 5 -4 14 4 -1 7 -6 9 3 -1 -6 -4 -11 0 -1 2 7 -2 0 -1 -5 3 -7 3 -7 8 -4 -5 -9 2 -1 4 4 -6 -12 -3 1 -6 6 -5 -4 -5 -4 1 5 -7 -5 0 6 -12 10 5 -2 5 -2 -4 6 3 -10 1 -6 0 1 5 -1 3 -12 -4 7 -9 -6 -4 3 10 -3 -6 -11 7 4 -2 -3 -2 -4 2 -2 -2 0 -7 9 -1 2 2 9 0 11 -13 7 12 -8 4 3 12 -3 8 10 1 8 5 8 5 -15 6 18 -10 7 -3 12 -5 2 9 -8 6 5 3 -5 -9 9 -6 -1 -13 3 -6 -5 -3 2 2 8 4 -2 0 3 0 -4 -3 13 -3 3 2 14 1 9 16 0 10 9 5 7 -1 7 13 4 3 -7 10 -4 12 1 -2 3 -4 -9 -9 -10 -1 4 3 -1 -1 2 6 -1 1 0 9 -7 3 -3 9 0 -1 5 1 -2 3 -12 -1 -7 -4 -12 -11 4 5 -7 2 -2 -5 -4 0 -13 -1 2 2 -9 2 -7 -10 -2 -9 -1 0 5 0 -4 -7 -3 9 -3 1 -1 -6 -9 4 -3 0 -5 1 -14 -7 -9 -8 10 -3 10 -3 -2 -3 8 6 -6 -2 3 2 -3 6 2 -14 9 -4 -2 -1 -5 -2 2 -10 -4 3 -8 5 -8 11 1 1 4 0 -5 0 -5 -13 3 -5 -6 1 6 -1 0 -9 -10 -4 6 -8 -2 -6 -9 -4 -12 0 -12 -13 1 2 6 1 16 -3 1 0 -5 -3 -3 5 7 0 3 -1 -5 5 2 3 -5 2 7 2 0 8 2 16 4 1 -1 15 1 12 -2 16 -3 9 -4 8 9 6 2 5 -4 8 -2 11 7 -1 -7 -9 0 -9 0 -1 -8 -7 3 -8 1 -12 2 -9 2 -8 4 0 4 12 4 3 -4 -7 -1 2 2 -1 2 1 9 -7 4 0 7 -1 6 -6 -7 2 -15 0 6 -4 3 -7 12 4 1 5 0 16 -5 1 9 5 9 11 -6 4 -4 2 4 6 -13 7 2 -7 -6 -8 1 10 -1 -3 2 8 -3 4 7 5 3 0 -6 18 -2 3 8 9 2 -8 -8 -5 -9 -6 -7 -2 -7 7 -1 -3 -1 -4 7 7 8 2 -7 4 -14 -3 4 -18 -1 -13 0 11 13 -3 0 -3 -13 -4 -6 -1 -7 0 -18 -5 -8 9 5 11 2 -10 14 -5 10 -6 -1 -2 0 -4 0 3 6 1 8 3 
7 5 5 6 15 -2 9 1 3 12 2 7 -1 0 5 -7 4 9 0 1 -3 5 15 -2 -7 0 -5 -13 11 0 5 3 10 1 -6 0 8 8 2 -3 -2 7 10 -1 -1 -1 5 -6 -4 -4 -12 4 -6 2 4 -2 20 5 6 -2 0 1 0 13 6 0 4 2 -1 15 10 8 3 4 9 2 10 12 2 1 4 11 11 19 10 5 5 20 0 8 6 5 -3 -1 0 -5 6 5 -8 14 -5 -8 -1 -4 -12 0 6 2 -15 0 -2 -12 -1 7 2 -7 -9 -6 0 9 3 -6 7 9 0 -6 4 -17 2 -5 6 -7 3 -7 -4 -2 2 -4 -13 5 -21 -6 2 4 6 -12 3 -10 6 -4 0 -3 0 0 -5 2 2 6 -5 1 -3 -5 -11 10 7 -17 8 3 -6 -1 9 -11 5 5 4 -1 -1 -5 6 1 -18 4 -9 21 5 -8 1 0 -1 -6 -9 10 -4 -8 -1 -4 5 2 -8 -8 0 1 -5 -4 9 8 3 2 -6 1 3 7 4 -12 5 9 -7 -8 2 -5 2 -2 -5 -3 6 -7 4 2 2 -5 7 1 7 0 8 2 8 -6 10 9 -8 -3 -8 8 6 18 14 19 15 6 6 14 -1 8 9 3 1 2 2 3 -2 -3 -2 2 6 5 -10 -2 4 5 -8 4 3 0 6 -14 -1 1 -1 -3 4 -11 -4 8 3 -10 0 8 7 3 -10 7 -9 5 5 4 -9 0 -7 -2 2 17 6 -6 2 2 9 16 11 10 -3 -2 9 -3 6 -8 -1 -14 -11 -1 -16 -2 -1 -3 -2 11 4 2 6 -8 -2 2 -7 -5 -11 5 -5 1 -8 1 -8 -2 -1 0 -3 1 -5 -6 6 -8 -9 -19 -5 -3 -14 10 2 3 -3 -8 10 -11 -7 -4 -3 -3 -8 15 2 9 -2 0 -6 -1 4 -5 4 -10 -3 -5 5 -8 -8 6 -12 -2 3 5 -3 1 2 -10 1 -1 4 5 2 2 -8 -1 7 -1 10 -2 -4 9 -8 -1 -3 -1 -4 -5 3 8 -6 -3 1 -7 7 -1 2 5 0 -8 6 -9 6 0 -8 -11 4 -3 -2 9 0 -6 -3 0 3 3 1 -6 -3 3 -13 2 -15 9 7 3 10 -5 8 -4 -1 1 1 -1 -2 -3 1 -3 0 0 3 2 2 5 2 10 4 4 -11 5 4 9 8 0 15 13 6 12 7 9 13 8 21 3 16 11 -1 11 9 -2 10 5 7 11 0 11 15 -4 3 -7 -8 0 -3 7 4 -6 5 1 3 -14 8 9 1 9 4 6 12 -10 6 -5 8 6 -9 -6 -3 1 -7 2 2 1 1 11 -2 2 -3 1 3 -7 3 -1 21 4 -6 7 5 5 0 -10 10 8 -4 10 8 7 -4 10 5 -4 0 -7 -3 -11 10 7 3 0 -8 -1 2 -4 -6 2 -1 -8 -3 5 -1 -9 -2 9 -16 -1 0 -1 -10 2 2 2 -2 10 -2 -2 -4 6 -4 5 -4 -3 -5 1 2 0 7 -4 -7 -3 2 -13 -4 -3 -7 -9 7 -5 -3 4 4 -2 1 2 -13 1 -2 -3 -6 2 11 2 -3 -9 7 -3 -11 -1 7 4 
-7 1 17 -13 14 10 5 -4 -5 7 3 8 19 -2 -5 3 5 -8 0 9 1 0 1 -7 -10 4 1 10 -8 7 16 -7 14 -1 1 -1 0 -8 -2 6 -2 -17 -2 13 -8 1 -2 13 -12 -5 1 -12 0 12 1 5 7 -10 -3 1 8 0 10 0 2 11 -2 16 15 6 11 0 8 24 6 9 -2 7 13 15 2 6 10 3 -6 7 3 -2 9 -3 6 17 -3 -7 9 4 14 0 10 -12 -5 -4 -5 9 -5 1 0 5 -3 -5 -9 -9 -14 -7 -2 -4 2 5 -5 4 0 -2 -6 10 5 5 -8 7 10 -2 -3 3 -5 -6 -6 -2 -8 -1 1 -4 11 8 -6 -6 5 11 4 -1 2 0 8 8 -1 -13 6 -10 0 -7 2 -7 -6 2 -2 -5 -11 -5 -7 5 -13 14 -10 4 1 14 1 1 -2 -6 -10 -7 -8 -4 -15 -2 -1 5 4 -5 5 -6 3 -9 3 0 -3 8 -5 6 2 -3 -3 -4 -11 -10 -12 0 -6 -6 1 4 4 -5 -10 -6 5 1 -9 -2 5 3 3 3 3 -8 -4 9 -12 -5 12 0 6 5 7 0 4 1 -3 0 6 -6 2 -2 1 4 8 2 15 4 7 0 4 9 5 3 7 15 4 11 6 3 -1 5 5 6 -4 -3 6 12 10 1 -6 -2 5 -4 -7 12 1 7 8 -15 1 6 3 -8 2 10 -5 1 -5 12 8 12 7 5 0 -8 10 7 12 2 20 11 9 5 -1 -14 5 5 4 11 -5 -7 -3 -1 3 -1 -1 -4 4 -6 5 -3 8 11 14 6 4 -1 -20 9 -1 2 6 7 1 7 -8 -1 -1 -17 -5 -2 -2 -17 2 -8 4 14 -1 11 -3 2 -12 -12 -6 -5 13 -4 -12 6 -3 5 2 11 -1 -5 -4 -4 -12 -11 5 -6 -6 -10 -7 -9 -9 -4 -2 3 5 -3 4 -3 9 -1 -9 -2 -4 4 -2 -3 9 4 -4 -12 -7 9 3 -10 8 -5 7 -6 14 -7 0 -2 -1 6 10 1 -4 -11 -6 15 -1 0 -5 -2 5 -2 1 -11 -1 -1 4 0 -8 -4 -8 -3 -13 -18 -1 -11 -9 3 -11 10 -7 -16 -3 5 14 7 1 2 -3 4 2 1 6 -1 8 -10 -4 -1 -8 16 -3 11 10 -1 2 9 -2 17 -2 -4 -2 0 7 6 3 2 -1 5 7 -2 7 1 9 11 3 12 -5 -1 11 3 -5 1 3 -2 11 -7 4 4 -4 3 -1 9 -1 0 -3 -2 13 -6 -1 12 -2 4 -19 3 8 5 5 -4 -5 -5 0 13 4 -3 -7 4 1 4 -10 6 6 2 4 3 -2 1 -9 0 -1 -4 4 3 10 7 -4 13 -2 7 -7 6 -1 2 0 -2 8 6 2 1 3 -7 4 -1 -1 -2 2 6 1 9 -3 0 -4 5 -7 9 3 12 0 -2 6 1 -5 2 8 -10 2 -1 1 2 7 8 -3 -15 -6 0 -3 -1 6 -3 -1 -8 -7 -1 -7 -8 10 -4 -7 -5 -5 0 -3 -5 0 1 -18 5 1 3 2 -1 2 10 6 -4 -2 5 -8 -2 12 3 -3 11 6 7 -4 -4 5 14 -3 4 
-2 -12 0 10 8 0 8 4 7 6 13 -5 9 4 5 4 3 -4 8 -6 -1 10 4 7 5 5 -5 -1 1 -3 2 13 3 2 12 10 -3 -5 -1 4 -4 -2 4 1 8 4 -9 -5 -8 8 -2 4 20 10 1 -6 -3 2 17 5 10 12 -1 1 -5 0 5 4 11 2 1 16 -2 -1 5 13 7 7 2 -8 5 4 1 8 18 4 4 12 8 2 7 13 14 4 8 -5 -10 -4 0 -3 6 1 4 -3 8 13 -15 -1 -6 -1 12 -21 2 -2 1 5 -7 -6 -7 -1 -6 -1 -5 2 -10 -5 -3 -8 -9 -3 -9 -11 0 3 -7 0 2 -1 5 4 -2 0 0 3 -8 4 -5 5 6 0 4 3 2 -12 13 -1 0 5 1 2 -6 3 -6 -13 -6 10 12 -6 11 -9 -5 4 -3 -2 -3 -8 -4 -3 -13 -3 -14 0 3 -11 -15 -5 -6 -1 8 -7 7 0 -3 -18 -3 -11 -4 -9 -6 1 5 1 7 -2 2 4 -1 -2 2 -12 -20 14 -8 -3 3 3 2 3 0 -9 9 -9 -9 8 -8 -7 9 -4 -3 3 -15 -1 1 -4 -6 17 8 -1 4 -12 -2 -4 10 5 -2 5 3 7 1 3 3 9 13 4 15 0 2 1 8 -3 11 -1 -2 -5 -2 -4 -2 14 -5 -8 -3 -8 -4 -11 -1 -4 -4 -2 -7 -4 -17 4 -1 5 -8 3 5 2 -5 0 -16 19 -3 4 5 11 13 -4 4 8 15 -3 -2 4 6 8 8 0 -2 12 -2 12 7 0 1 -9 6 3 -4 -5 -8 2 23 13 -6 -2 0 -3 1 11 -5 -3 -1 -4 1 -2 8 5 9 -5 -4 2 3 -9 2 -3 0 1 -9 0 3 -6 -3 -4 4 -8 1 5 -2 14 4 -5 -8 -9 -8 9 2 3 2 -16 4 3 -3 2 4 1 -5 3 -14 1 -13 -1 -6 -3 2 0 2 -3 0 -1 4 -1 -8 11 -3 -7 -2 -2 -4 2 10 -4 0 4 2 5 1 8 -7 7 -11 -4 6 -2 1 -7 -4 8 -6 4 14 2 -4 2 2 1 10 10 0 -7 -7 -1 6 0 -4 -13 -5 2 -2 -1 9 3 -1 3 6 2 -10 2 -11 7 -11 -6 1 9 -7 3 15 7 2 8 -4 12 11 4 11 -3 4 4 0 16 -1 6 0 4 1 11 10 0 -4 2 15 3 5 4 7 -1 15 9 4 12 9 -5 8 2 6 5 5 4 2 4 -10 1 4 -2 1 2 5 2 -5 10 -4 -13 8 -5 -1 7 -5 -2 -5 13 4 1 0 6 3 -7 6 5 -2 -3 0 0 -6 3 2 0 -1 -7 6 -5 4 -2 3 2 2 11 6 8 11 -1 6 13 2 13 3 10 -6 3 -7 7 4 7 -6 8 -8 16 1 6 5 5 5 -6 -5 6 -6 -2 0 -11 -1 -4 12 0 0 -16 8 -6 15 -6 8 -6 3 -3 3 -3 5 -5 6 6 -1 -12 -4 -3 -4 -12 -9 -10 2 5 -6 -1 -5 -7 -5 6 4 2 -11 -3 -7 6 5 10 -11 2 16 -5 -2 -12 -8 2 7 -6 5 -5 -2 12 3 -6 4 -1 
7 -6 -7 2 5 6 2 17 -4 -1 0 7 -4 6 7 -1 -5 6 -9 7 -5 -9 10 -10 -4 -7 10 8 -1 3 6 8 3 7 -6 -5 -2 -4 -7 -10 -4 3 6 5 6 4 -3 6 -1 0 1 14 -3 13 3 10 1 9 1 6 5 18 7 5 11 10 6 10 0 0 2 2 14 -5 4 6 5 17 20 17 11 10 5 -4 14 -3 -1 7 0 11 -7 8 -8 3 18 -4 4 -1 10 0 6 -16 5 9 -10 1 -1 -3 -3 5 -12 -10 -5 4 8 10 2 4 -1 -4 -8 -4 -6 9 0 9 6 2 -18 -4 6 -6 -2 -5 1 3 -6 4 -3 7 0 -12 -5 -5 -4 -3 1 3 -2 -3 5 -5 6 -1 8 3 1 -4 -9 -3 3 -11 -4 -1 -2 -5 -3 2 -8 4 8 13 2 3 -6 -1 -4 -2 -7 -5 -12 10 3 -4 15 6 -2 -4 -12 4 -3 -3 -8 8 -13 -9 -2 5 -3 -2 -9 -12 -7 7 -12 -9 -8 -1 -13 3 -2 -5 -10 13 -7 3 -3 -3 4 1 -2 -1 -13 -2 6 -2 5 -4 -8 -2 6 4 12 5 5 1 -7 2 6 14 9 15 2 5 9 8 2 -5 11 6 0 0 3 -1 5 12 -2 6 10 5 -5 -7 1 -7 -3 20 1 -7 -3 0 -5 4 1 8 -4 1 4 3 -3 -11 8 7 7 -4 4 2 8 6 -1 2 4 2 4 7 5 7 2 3 8 0 8 4 -1 10 19 12 13 -1 1 -1 12 7 14 7 3 23 3 -2 12 2 5 16 6 2 10 19 15 3 3 -4 -4 2 5 0 8 3 -1 -3 8 2 4 -2 0 2 9 1 -10 -2 3 -1 -4 0 3 3 -9 -7 -3 -5 -6 -9 7 -1 1 -12 2 -5 -6 1 -6 -7 -5 -9 -12 0 -10 14 7 -5 -6 1 -6 -6 8 -14 -1 -7 3 -2 1 -7 -12 3 3 4 4 1 -7 4 5 1 -12 11 1 2 -2 1 -5 -13 2 1 2 -12 4 7 0 -3 2 8 3 -3 -6 -21 -4 3 -6 -5 -3 -1 7 1 -5 7 6 0 -2 2 -2 -7 -9 -10 13 -6 17 -6 0 8 3 -1 1 0 2 5 -8 5 5 9 -6 15 -9 -2 -3 7 5 -6 2 7 5 4 7 7 1 -1 6 8 -1 -2 -4 -14 0 16 1 4 2 2 12 -3 7 9 12 2 10 11 -2 -4 -1 7 4 3 -4 4 0 -2 7 -4 10 -4 -6 4 10 -5 0 -6 -5 4 -4 8 4 2 1 4 -7 -6 -5 2 -11 1 -4 -4 10 -10 9 6 4 -5 1 0 5 3 1 10 5 -14 8 -8 -7 -4 -2 -5 11 3 -1 -6 0 -13 -6 3 -1 3 2 0 3 -2 9 -13 5 8 -6 1 0 8 -15 11 -9 -3 8 -12 10 2 2 1 -6 -6 -5 -2 -2 -13 1 9 1 -4 7 0 -1 -14 -14 1 3 7 -16 0 -6 -2 -1 -7 1 1 -1 -18 3 8 -11 -2 7 0 -5 -4 -8 -4 1 4 6 8 9 -11 4 2 -4 1 0 -1 1 5 -9 -1 -9 -6 3 5 -1 7 
6 14 -5 11 5 0 4 10 2 14 16 10 4 5 1 8 6 2 2 -1 2 4 -1 2 10 -7 2 -9 2 7 11 8 7 1 1 -8 2 -5 -11 -6 -2 4 1 2 4 3 4 -2 3 3 1 17 -1 0 1 -3 -7 6 9 4 1 2 0 20 -2 6 9 6 3 6 3 -6 2 -3 4 2 -4 7 0 -7 3 17 0 2 11 0 6 5 5 -3 8 -1 10 -8 13 -3 3 -4 8 11 -1 13 -3 3 -9 -10 5 -8 -3 -5 -2 18 1 -9 -8 -3 -1 1 -7 -1 3 -10 -4 0 -5 -7 -1 -9 11 -7 7 -11 -11 -16 9 -1 -4 7 -4 -1 1 1 -9 14 -13 -3 -7 -11 10 -4 2 5 -3 7 1 6 -8 -3 6 -5 -3 12 -12 6 -2 6 1 -6 -1 12 3 -2 1 -4 2 0 -4 2 2 4 2 1 -3 -5 -5 1 2 4 7 -1 4 0 7 -6 12 -1 -10 -2 -8 -3 -13 4 6 7 -1 -13 -2 -8 1 -5 -12 -9 0 5 1 3 -12 -13 4 10 -3 8 0 9 -3 -1 -3 -2 0 -1 -6 3 -5 4 3 -7 -10 1 2 2 2 5 2 10 7 25 14 6 -2 0 3 2 1 -8 1 0 -2 6 -9 4 1 15 4 5 -15 7 5 -4 -2 -6 0 -20 -4 -10 6 6 -3 -1 -7 0 6 2 2 -1 19 6 12 1 7 2 2 13 -2 -1 7 -2 9 -5 -4 -1 -9 -2 -6 7 2 -7 2 2 -10 12 1 6 1 -7 -2 5 7 4 0 -6 -1 -7 7 0 2 8 10 5 4 1 2 -2 -13 -2 -7 1 -8 -5 -8 11 -1 4 -4 -2 -5 -5 -1 0 -2 -1 -2 11 -3 -4 0 -9 -10 3 -6 -9 -6 -19 -2 -5 -7 9 -22 -2 -5 -12 -14 5 -15 -8 1 -10 -12 -9 1 0 -5 -9 -8 -3 -4 -12 6 7 -11 -1 7 -8 8 3 3 3 8 0 -1 0 -6 -3 10 -6 8 -14 2 4 -1 4 13 4 -5 -4 -2 -2 6 -7 4 -9 -12 -9 2 2 -1 -6 -2 -18 -8 2 3 -1 10 -3 -1 -10 13 -7 -12 -5 2 -2 -6 6 -11 -3 3 -16 4 4 -8 0 -3 -7 -9 8 2 -5 6 14 7 5 -9 7 5 -1 -5 14 -1 5 6 16 -15 6 -5 11 8 3 13 2 3 11 9 -10 6 5 1 9 -4 4 1 -4 6 1 17 0 8 2 -12 7 1 -10 -2 0 1 2 8 -3 -2 -6 -2 0 2 -6 3 3 -4 12 6 -1 17 10 -5 4 -6 10 4 3 -2 12 0 12 0 6 -6 1 3 -5 7 13 -7 -2 6 10 -4 -2 13 -8 3 -10 5 10 -2 -8 5 0 -2 6 -11 5 -6 6 -11 -4 6 13 -6 11 3 5 3 6 6 2 6 -4 6 8 0 -12 3 2 -4 3 -15 -6 12 -3 5 -8 0 3 -6 2 -1 -10 9 2 -1 -7 7 1 -1 -6 -12 3 -2 2 -2 -1 -3 -6 3 -2 -6 -3 1 -4 3 -5 -3 6 14 3 -7 12 1 9 -9 16 -7 -1 -6 2 8 7 1 -1 5 2 
6 6 12 5 4 4 -1 14 -9 5 0 10 9 4 8 16 15 -9 5 -3 3 -3 12 -10 7 -9 -3 2 -5 -2 11 -2 -2 -4 10 -2 3 5 1 -16 -10 8 5 1 -1 -2 8 14 3 3 11 6 10 5 6 7 6 -2 5 8 -7 6 -6 12 0 4 2 10 -10 17 -4 2 -2 11 5 12 13 19 13 3 1 11 5 5 7 3 0 -2 1 9 5 5 10 3 0 -7 -4 -15 6 1 4 17 -5 6 5 8 -2 6 -3 -3 6 2 0 6 2 0 -4 2 0 4 1 3 2 -9 3 -4 -6 -7 0 -9 -12 3 0 2 4 -4 3 -11 7 -5 -4 -2 -9 8 4 17 -3 -9 1 -7 -1 0 3 4 -3 7 -2 -3 -4 -3 8 8 4 4 1 6 9 -2 4 3 0 4 2 4 12 5 -1 -7 -1 -4 5 -2 -6 8 2 -3 -8 -6 -11 -1 -2 -7 -8 1 0 -11 8 -7 -4 5 -4 -1 -7 -7 -6 -3 -5 -10 -8 -16 -10 -13 0 -1 -4 5 -7 2 6 0 -9 -4 15 -3 20 1 3 6 10 8 -1 2 2 -9 -3 3 6 7 0 -1 3 -1 13 4 4 -1 -8 3 -3 8 14 8 3 2 18 18 3 7 3 5 16 0 0 4 8 1 2 -4 -6 12 2 9 -3 -5 6 -4 -2 -3 0 4 4 -5 3 12 3 8 5 -7 11 13 -5 0 2 1 -1 3 0 6 -1 17 6 -3 8 -4 -10 -5 -12 4 -1 -12 -10 -5 -11 3 5 6 -2 8 9 12 2 -7 9 12 -6 14 2 10 -7 -2 -10 -4 2 -4 0 0 -5 -8 2 -1 -15 -3 0 -11 -9 5 -10 2 2 -2 4 -7 2 -4 -7 -2 -2 -5 -14 -7 -12 -8 -6 -4 -5 -1 -12 5 0 -5 -12 -4 11 -6 -1 -5 1 -5 -5 1 -5 -4 -4 8 -3 4 -9 -4 6 0 -7 -8 -10 -8 0 15 -10 -19 1 -9 8 1 -8 7 12 -2 -4 13 -10 -3 0 4 -7 0 12 -6 4 9 -1 -5 -11 1 5 -5 11 -3 -7 -3 5 -3 -3 6 2 -3 -2 -6 -5 1 -5 3 -7 1 11 -5 -10 2 1 8 -10 10 -9 -2 -4 0 4 -5 1 2 2 0 -9 6 14 -12 4 17 6 6 -2 3 -7 1 11 11 5 4 0 1 11 5 3 -5 2 2 -4 11 -6 9 1 9 16 -2 -3 -1 9 4 -3 -2 -4 2 0 -7 3 2 7 12 -8 -1 -8 -6 0 -2 6 -13 -2 1 -4 9 7 2 3 -7 -7 9 5 -1 -5 7 11 8 0 9 8 -8 1 -5 -7 4 3 -3 7 -1 -2 -5 -6 0 -4 9 -1 3 7 1 -10 -1 13 6 2 -7 -15 -12 0 -13 3 9 2 -10 11 1 -4 10 -1 -6 -2 -7 -13 1 1 -5 6 12 -2 -1 -10 -4 9 0 -13 6 -14 -5 3 -11 0 -5 2 -2 -20 4 1 -12 -8 -19 1 8 -2 7 -6 2 -7 -8 9 6 5 -7 -5 -1 -1 -2 -10 -2 5 -8 -14 1 -1 -4 -1 2 -3 4 -2 -3 -2 1 -8 6 -1 10 1 -1 
10 -1 12 2 2 -1 -7 11 1 -5 1 -4 0 -1 -4 4 7 0 2 0 -2 1 7 1 12 4 10 -6 10 3 -11 6 9 -8 3 3 11 9 -4 3 -5 9 -6 -3 -4 9 -9 -6 5 -3 8 -9 18 8 7 7 1 10 1 3 3 4 5 9 12 7 8 0 10 2 5 -2 -4 0 -1 1 8 4 2 6 5 5 9 -7 3 6 16 15 13 7 2 2 -16 -9 3 -5 -2 4 0 9 -3 -4 9 1 5 -3 17 -3 5 3 -1 2 -4 10 -6 -7 -9 -13 12 7 -12 2 -5 -4 -14 7 -5 11 1 0 -7 -3 -6 -6 -9 -10 -1 -11 -3 -1 -5 1 8 3 11 2 1 -4 0 -1 1 -1 -2 1 -3 4 -6 2 1 4 -5 -5 -2 12 -1 3 2 0 9 -3 7 1 -2 2 3 2 5 13 0 10 0 5 -4 11 1 2 3 8 13 -3 -7 2 1 8 2 0 -24 0 -2 -2 9 -17 8 -5 -7 -4 -1 -15 -6 12 1 -9 6 4 0 -10 -4 1 -8 0 -3 7 11 5 -3 -1 -3 3 -4 2 4 -4 3 4 16 5 0 3 6 8 -6 10 14 1 7 9 0 11 12 4 6 5 0 -1 -1 8 -10 21 2 -1 -4 13 8 -3 1 -8 12 3 -9 -2 -1 -11 -1 -2 -9 6 5 1 11 -3 -9 13 3 2 -4 9 -13 1 -6 -4 0 6 9 10 -7 -3 11 8 19 29 33 42 42 61 55 71 61 62 63 57 63 53 58 48 30 31 25 7 6 -5 -12 -3 1 9 -1 7 4 -4 -8 7 6 5 -1 2 2 -6 2 -3 -10 -4 -1 -6 -1 0 -6 1 1 -12 1 -9 -5 -8 -4 -5 -6 -3 -11 -6 -12 -13 -10 -9 -4 -9 -3 -7 -5 -23 -2 -9 -3 -3 -10 -4 -6 -6 -7 3 -15 1 1 9 3 -4 -8 10 6 -4 -2 -7 -9 -9 -4 1 -3 1 6 5 -2 9 -20 -3 1 6 -10 -9 -1 -5 -2 0 1 -6 0 5 3 -10 -13 2 -5 2 -4 -5 0 6 -10 -9 0 -12 1 1 -4 5 12 -1 1 -8 -10 -11 3 -5 3 2 -1 -5 4 -10 4 -6 7 4 -8 4 2 0 -2 12 16 -8 2 6 0 4 10 0 6 6 5 4 2 1 5 5 4 2 7 8 -1 5 -2 10 4 -4 9 -3 0 14 3 -11 8 17 2 0 7 5 9 0 -1 14 15 10 4 10 11 3 -1 -10 0 2 6 4 0 -3 -1 4 7 9 9 2 6 10 -7 4 -1 12 -2 2 8 -7 -2 6 -5 -7 4 -17 -6 8 1 -2 5 1 8 3 -6 -6 -5 -8 -5 -1 -4 -4 -15 -9 1 2 -1 5 -3 -2 -2 6 -3 -9 -8 -1 17 0 10 8 6 5 3 -1 10 -6 -1 4 -6 -9 -2 4 -7 -1 4 1 -7 10 -7 -9 -15 5 1 5 -2 0 -1 3 4 2 -15 5 0 8 -8 1 7 -10 0 -6 6 -11 -2 -8 2 -6 -2 -7 -9 2 6 -8 -4 -2 5 -1 13 0 5 2 2 9 6 2 9 -1 11 -5 12 -2 -2 16 
0 8 13 -1 13 11 1 2 -6 -10 3 12 8 16 0 5 4 -5 2 2 6 -2 -11 7 7 9 1 -4 1 5 3 0 -11 9 2 -4 -7 1 -2 2 6 -1 -6 5 4 11 -7 16 0 1 11 10 10 11 4 3 -2 14 -1 8 6 4 11 -6 2 -3 0 15 -1 -1 0 6 6 -1 7 6 3 9 -3 2 -5 13 -2 14 -8 6 8 0 9 -2 8 -15 7 2 7 0 -4 6 -10 3 10 1 2 4 -10 -9 0 6 4 6 4 -14 -4 -1 1 -13 5 -7 8 0 3 -3 -11 -1 -17 -4 -4 -3 -10 -7 -14 -6 2 -6 -8 -6 -4 0 -10 -12 -2 -7 4 -10 3 -4 2 1 -1 -5 -3 -16 -3 -5 19 4 5 -5 6 -8 10 -1 -2 8 -16 1 9 -8 12 -1 12 1 2 4 5 8 11 5 -3 -3 -1 -2 -7 2 -3 2 -10 0 -14 3 -2 -13 -6 6 -7 0 -7 2 -9 3 -3 3 -5 1 4 0 8 -6 4 -18 -15 -5 -2 0 2 -1 2 -4 13 -3 11 4 9 -3 -2 -7 6 10 4 2 1 10 -9 -6 2 0 12 7 6 12 4 10 10 2 9 13 6 9 7 7 18 3 12 6 8 9 1 6 9 12 8 9 2 -3 3 -6 -2 -1 8 6 10 4 6 8 7 3 6 -10 2 14 2 2 10 3 -1 -3 2 11 0 6 10 0 -4 3 5 24 70 79 80 84 79 61 77 79 76 81 88 71 73 74 84 70 64 70 86 69 71 56 61 44 37 18 -15 -3 -4 2 -1 8 7 8 -12 -5 0 3 14 2 12 -10 6 -12 -5 1 -4 -7 1 -11 3 -7 -11 0 -4 3 2 -6 -3 1 3 -2 8 -4 1 -13 -13 -6 3 -19 -16 -3 -3 -13 1 -5 -5 3 -4 3 0 -8 -8 -1 -14 -4 2 -8 -6 1 -12 -7 3 3 -7 -4 3 12 1 -1 4 -1 -11 -3 15 4 1 -15 8 0 -7 6 -5 3 1 4 -2 -6 3 0 -10 -4 -1 0 -6 -1 6 -2 -9 13 1 2 4 -3 0 -7 10 -15 4 0 0 -5 5 -3 1 5 -4 14 1 9 7 -7 10 -7 1 -1 -2 7 3 2 -7 0 6 -6 -5 1 -5 6 1 9 -2 3 1 10 -1 -5 4 -2 7 -3 6 -4 17 8 -6 1 3 -4 10 4 -3 8 2 0 15 0 17 6 14 -5 15 12 -2 5 2 9 1 2 -2 3 -6 11 7 5 0 11 14 -3 1 -1 1 3 -8 3 9 -1 14 -9 -3 5 3 11 -4 -8 10 9 0 4 -12 4 -4 -15 1 8 8 -3 6 -6 -5 0 3 -2 -4 -5 -13 -1 0 3 3 11 -7 3 2 -5 -19 -1 -2 -6 -1 -4 -1 -3 1 0 -6 3 -8 -11 3 -4 3 -9 7 -6 4 -7 5 1 -7 -9 -4 -5 0 -10 4 -7 -3 -1 3 -5 -8 3 -10 -3 6 -8 -7 1 -5 7 2 4 -7 -3 4 -6 -6 -2 -7 0 0 -2 -5 -2 -7 10 0 4 -5 -5 -1 6 -5 -2 9 -9 -10 -7 11 -7 18 2 2 0 
5 5 7 10 15 7 12 5 2 -2 2 3 11 2 2 7 1 1 14 5 0 0 6 2 6 22 12 -3 4 -1 9 -2 2 5 8 -2 0 20 -1 -5 -9 -7 14 5 8 -10 -6 0 -13 1 -6 -9 -10 14 1 5 7 0 10 2 1 1 11 1 2 -6 0 5 -4 -1 -10 1 7 -4 1 14 0 6 5 8 8 3 1 9 7 4 -2 5 4 6 -1 -1 13 3 10 7 -5 -4 15 -2 10 5 1 1 0 -5 -7 -10 -1 2 5 7 0 7 -7 0 -9 8 -6 0 -8 1 -7 -9 -9 7 -8 0 -15 -6 0 10 -2 -4 -10 -9 -2 -7 -13 -2 -15 -2 6 -7 -6 -2 -7 16 -8 -4 0 -6 -3 -7 4 2 -2 9 -8 5 -4 -3 -7 2 0 3 3 8 1 -2 10 -12 0 7 6 0 6 0 7 1 6 -2 11 -3 0 0 -1 10 1 2 -1 -4 6 -7 -21 8 -5 -2 2 4 -5 2 11 2 -12 -1 -9 -11 -2 -5 -8 3 1 7 -1 8 -3 -8 4 -9 1 3 2 -11 6 5 10 9 -4 8 8 -9 14 5 -2 1 11 -2 2 7 12 3 -1 0 -1 10 -9 5 7 1 0 -9 10 12 -3 4 2 4 -8 5 -7 0 2 9 3 7 5 4 8 5 -6 8 5 2 -2 18 11 5 15 12 8 -4 4 0 -11 -11 6 0 2 5 -11 6 39 66 77 88 82 71 79 98 106 104 119 125 144 127 136 140 136 138 136 128 109 121 107 100 89 89 64 64 69 61 52 53 19 4 4 5 8 0 9 4 15 7 1 5 9 9 -5 -1 -2 -5 -4 -4 -6 3 1 -13 4 -4 9 12 4 -7 -2 -3 -6 3 -5 0 -6 12 -3 -2 -11 1 -3 -15 -14 -13 -16 4 7 1 4 0 -4 -4 1 -1 -2 -2 -5 7 3 -13 -4 2 -7 7 7 -1 -4 0 3 4 8 -2 -14 6 2 3 8 -2 2 -2 -3 -13 -2 -2 0 -7 6 4 2 4 1 -8 5 5 1 -9 -3 9 -3 -3 0 -7 1 7 -4 4 -1 -7 -4 -2 -1 -1 -15 3 5 -6 -1 13 -5 3 4 -1 2 1 11 -3 12 -1 -7 1 -5 13 4 7 0 3 14 11 -7 5 4 12 7 12 -9 3 4 16 18 -6 -4 10 2 6 7 3 9 -1 3 -5 6 9 -4 9 7 0 -3 -3 8 2 -4 3 2 -5 13 14 7 4 0 17 7 2 0 13 14 6 -1 2 7 -1 6 -1 -1 -3 3 -10 -5 -1 5 -4 -12 10 5 4 -7 -6 1 -1 -1 -3 -5 -1 4 -13 3 4 5 0 7 -12 8 -7 -4 -6 -2 -3 -13 -5 0 1 -15 4 17 -5 -10 -13 0 -5 -9 12 0 -9 4 10 0 2 12 0 -5 0 -4 9 3 3 4 0 0 -10 4 -13 -7 9 -3 6 0 -3 6 0 9 -7 -3 0 5 -11 2 -14 0 6 -4 -16 -6 5 -5 6 -10 -17 -12 -4 -6 -20 -8 -6 7 2 0 4 -2 -9 2 -9 3 8 6 -1 -3 1 19 10 0 13 9 12 4 0 
11 8 19 6 5 2 -4 4 0 -1 6 2 7 19 10 10 8 7 1 13 -7 10 4 11 8 3 4 5 3 14 10 -7 8 5 9 -1 2 -7 16 10 -6 3 9 5 1 -3 -3 -4 11 4 4 16 14 5 -3 13 9 -4 9 -2 6 5 -14 -3 5 6 13 1 0 10 -5 -2 10 1 -8 -6 17 -3 -2 7 11 12 5 9 4 10 14 1 7 0 -5 7 6 0 -4 1 14 -2 7 3 1 1 -2 -2 6 -3 1 7 -4 -2 0 -7 -11 -15 4 -10 8 -3 -8 -1 -4 8 2 9 1 14 4 11 -3 1 -2 -8 5 -5 -16 -15 -12 -4 -10 -12 -2 2 -8 -11 -4 8 -6 -3 1 9 5 -7 13 -3 5 6 3 2 17 2 -19 10 -1 9 -1 0 -3 -1 10 -4 5 -4 6 5 8 6 4 -1 -7 6 -6 15 -6 -3 2 -2 5 -10 -9 8 0 1 -5 -3 -3 -1 7 -8 -6 2 6 2 3 21 4 10 6 -16 7 4 -10 5 1 -4 4 -3 0 7 5 2 -3 3 -2 -1 -9 1 -1 16 5 7 1 3 -4 10 -9 10 -3 7 5 -1 5 17 8 15 0 10 0 2 7 6 6 -1 -15 14 0 3 -6 -2 -3 4 6 9 -6 3 9 3 -1 -7 -3 4 3 2 0 7 -3 -3 6 3 6 -5 1 -6 -5 15 9 3 9 -10 -3 21 55 75 80 76 88 107 122 144 172 167 173 159 154 164 159 172 150 167 161 155 150 160 140 151 146 141 147 135 110 108 102 81 69 74 49 56 29 12 -9 -3 -5 4 3 -10 -1 1 -6 1 2 3 0 -1 4 -3 9 -1 -8 7 4 -6 -17 -3 -2 -1 -13 -4 -17 -3 2 -16 -3 1 -5 -4 2 3 -9 -6 4 -16 -5 -28 -11 8 -16 1 -5 -3 -10 -7 3 -10 -8 3 0 8 -11 5 -8 -1 0 6 4 1 -4 -7 11 -1 -7 -4 14 -4 -3 3 9 1 12 5 5 5 -5 -10 13 -5 -5 -1 -1 -8 -2 3 7 1 1 8 -2 -2 -3 3 3 -7 -5 1 -5 11 13 -2 10 1 -8 0 -2 0 18 1 3 8 8 -8 3 0 -10 -4 -4 0 16 -2 -2 5 -10 0 -1 9 -8 12 15 1 -1 4 2 -12 14 -10 9 0 0 17 15 6 11 6 2 -3 2 8 -9 3 8 9 15 6 13 8 -1 -5 0 1 -1 -2 -1 11 9 7 7 10 0 -1 15 5 18 12 5 -3 4 -2 -2 -4 -3 8 5 12 -7 3 -10 7 -2 -11 -7 -10 -2 4 -9 -4 -6 6 1 1 -11 -15 -8 -2 2 -7 -9 -3 3 0 -2 -6 -1 6 0 11 -7 -4 -6 -1 -1 6 -9 -6 -7 -10 3 -12 6 -2 8 -6 0 -6 1 -2 -2 -10 8 5 7 -6 6 0 6 5 0 -1 4 -10 2 15 -10 5 -5 -7 2 -8 -6 -18 -8 -8 -3 -6 -8 -8 7 -9 -14 4 -10 -3 10 -17 -12 -4 -11 3 -8 7 -16 6 -2 -5 -2 5 0 -1 10 -6 1 4 -2 9 1 2 -8 -4 -3 10 4 14 -3 18 
-6 14 6 10 1 12 -3 -7 1 5 7 3 5 5 14 -9 2 5 -1 1 9 6 6 1 8 5 9 -4 -8 -8 -1 11 10 -6 4 9 5 4 7 1 8 2 4 -10 9 4 8 -4 -4 -2 9 -16 5 8 -8 8 0 8 3 15 1 1 2 10 -1 11 2 10 -4 5 9 -8 16 13 13 16 -6 -1 0 7 1 10 4 0 -2 8 -4 7 -2 6 6 6 2 9 2 3 -4 4 -1 12 6 3 1 0 -19 -7 -1 -9 -2 6 -3 -11 -5 -7 -4 -6 0 -2 -5 7 -10 -1 2 -22 -3 -5 -11 -8 -9 -3 -2 -4 -7 6 10 -4 -2 -17 -5 -11 -6 -12 -4 -3 -6 -12 -3 -4 -5 -3 0 5 10 -9 2 10 9 3 15 11 -7 8 4 3 15 7 19 8 4 1 6 -1 -6 12 7 0 7 -9 17 4 5 6 -2 6 5 1 11 5 -6 -10 -4 0 1 -4 -10 -1 0 7 -3 -5 6 -1 -11 0 -3 -7 -5 -1 -11 3 -18 1 2 2 -1 4 -1 6 10 -6 6 7 -2 -5 -2 3 3 4 2 4 10 7 5 1 5 -1 6 7 -9 15 6 1 -9 10 11 -14 3 20 -3 17 5 7 6 2 9 2 10 0 20 2 6 -10 7 7 9 -1 3 1 -11 -1 -17 6 6 18 -5 -1 4 10 -9 -5 -4 -4 3 5 -4 -11 -13 12 30 88 74 71 108 147 164 178 167 163 164 164 156 166 155 152 163 153 158 158 150 165 150 150 153 158 153 158 146 141 133 157 132 133 125 112 81 65 52 64 32 8 -2 -11 -1 -1 5 2 5 10 -16 3 -1 9 -2 -6 -17 -4 -3 -21 -9 -6 8 -8 -9 -3 12 -12 0 -8 -10 -7 -6 -8 -1 0 3 -2 4 10 -13 -1 -11 -10 -2 -7 -7 -3 -15 -9 -11 2 1 -10 -6 8 -3 -5 -10 6 -11 -3 11 -2 -8 -7 -5 -16 8 2 2 -5 6 1 13 4 -5 -2 5 6 -4 2 -5 7 1 0 21 5 -7 2 -8 2 5 3 -4 -1 1 -8 -5 -3 6 -2 0 10 -5 3 -5 14 0 -13 -3 -11 -6 -10 10 -18 1 5 7 -7 12 12 -3 16 1 10 -5 -3 5 4 -2 -13 1 -3 2 -11 -7 3 5 0 -3 8 16 8 18 0 16 3 0 -5 7 -3 10 4 5 8 12 10 8 -5 12 8 2 3 13 6 -2 1 9 0 11 2 2 5 5 9 2 0 -6 -8 3 -2 10 -1 7 3 -6 0 1 -2 1 10 -16 0 5 12 -5 1 1 13 2 -10 -12 -11 6 3 -5 -3 -16 -1 -11 1 -4 -3 -2 -6 -7 -4 8 -8 -4 -6 -15 -10 6 0 -8 -8 -9 -7 -4 -6 0 -9 -7 -2 4 -4 -9 16 1 -12 -2 -14 -4 -1 -6 7 9 -10 10 -7 2 0 1 3 -3 19 -3 4 1 7 3 -2 2 -5 5 -8 5 -17 -2 -7 -7 8 -4 -13 -8 1 3 -8 -5 18 4 -1 10 -13 4 1 -3 3 2 1 7 -7 5 5 -15 4 -3 -5 0 1 13 -7 5 10 -11 14 4 12 5 12 
10 1 12 0 4 0 14 12 2 4 -5 2 7 5 3 8 15 0 11 15 8 9 -4 6 8 1 12 4 2 3 7 4 5 5 7 13 1 10 3 -4 -10 -4 5 2 6 4 -6 16 6 9 -3 20 -1 0 2 4 14 -11 1 2 0 1 -14 9 15 11 -12 18 2 7 3 -1 5 -3 4 6 -1 -4 10 2 3 -4 5 -4 7 6 -4 5 -2 2 10 14 1 -2 -1 9 -1 -10 5 4 -1 1 12 2 4 8 14 6 -2 21 4 1 0 -9 4 -2 9 6 -8 -5 -6 4 -5 -11 -4 7 -10 7 -8 -5 7 1 -2 -3 11 -1 -6 -7 -4 -7 8 25 18 22 32 23 23 3 21 16 -6 -1 17 8 3 5 -2 1 1 2 -3 -2 4 7 9 2 17 -3 5 -4 4 6 5 6 6 8 4 2 0 1 3 7 11 -4 -7 9 1 4 8 -8 7 -5 4 6 4 1 0 6 1 4 -4 6 -1 -15 1 -8 -3 2 -3 5 3 6 -6 12 -7 10 1 8 -9 7 -2 8 0 5 3 2 -4 -5 -3 6 -2 17 7 19 -2 4 -1 4 -6 8 0 9 0 1 3 3 7 -7 -12 2 4 -1 -5 5 9 3 0 10 4 1 0 -4 23 -9 7 6 0 0 -7 -1 1 0 3 3 3 4 -2 -1 -12 5 8 -6 1 5 -5 9 27 86 93 67 110 155 168 182 172 165 174 166 154 167 148 163 170 153 141 164 172 163 161 148 161 152 163 161 142 141 136 154 151 145 147 142 137 129 128 115 83 60 59 60 16 12 -6 -1 5 -2 6 -4 -10 -5 -3 -1 -10 4 9 -7 -12 -7 -1 -4 -19 -5 16 -17 -2 -4 -16 3 -7 -10 1 -18 -12 -5 -11 2 -22 -17 -13 -5 -5 -8 -5 -10 -1 -1 -14 -3 -21 -14 -5 1 -10 3 4 -1 3 -6 -3 -7 -1 3 -2 1 8 -3 -4 -8 3 -6 3 -5 2 2 6 4 9 0 7 9 3 -2 16 -2 3 -15 8 2 -4 -4 0 -4 -1 9 4 3 2 -1 7 -5 -4 -15 -12 0 1 -1 0 0 4 -9 -1 3 -8 4 7 11 3 9 -7 7 5 4 0 -9 -4 2 12 -1 3 4 -6 -11 -8 1 7 4 -7 9 -1 -8 -9 -7 -11 -13 0 -7 4 2 0 6 -13 2 -5 -4 6 10 3 6 -7 -6 12 10 2 13 1 1 11 -6 0 -5 1 -7 8 -2 9 6 2 5 10 5 8 0 -8 3 -2 -9 1 -11 -18 -8 -13 4 -10 -1 -10 10 5 -1 1 -10 6 5 -10 -12 -14 -15 -5 -12 -12 -8 -7 -5 -2 10 2 1 -4 -2 3 7 -9 2 -8 -5 -8 1 -15 -7 -11 2 1 -9 -2 -11 -11 5 5 3 3 7 2 -2 14 -6 8 9 -7 -1 -1 -7 3 -2 -5 -13 0 -6 0 7 -3 -6 7 10 -6 2 -6 -11 -1 -11 -5 0 12 -13 -11 9 -11 -1 8 -1 8 -12 -5 -5 -5 -6 -2 -2 -3 -4 9 -4 -1 9 -4 -4 -4 5 -15 -6 13 3 9 -6 -5 -2 5 -3 -6 -9 0 -7 
4 7 4 0 14 -3 -10 -2 -7 12 14 21 7 17 14 0 5 14 -6 14 9 -3 10 -1 1 8 6 6 7 6 -2 2 7 4 8 4 14 3 9 3 -1 8 1 9 -5 2 2 -1 10 -3 11 4 -6 -1 8 9 4 4 5 -5 -14 -1 9 0 -5 -6 -1 5 3 14 3 3 -4 15 0 7 16 7 0 0 5 5 13 12 7 1 4 -1 -5 0 -5 5 -1 6 9 7 9 -1 -7 -2 -2 11 4 2 5 3 19 6 7 3 -8 -4 5 -2 -4 -16 3 8 -5 -3 0 -10 -3 -6 -4 -5 -1 1 -2 3 -7 1 4 -1 -7 -9 6 24 63 75 81 86 77 88 90 95 90 105 92 89 86 59 59 31 19 16 -4 6 -1 9 7 -6 9 -2 -5 6 4 -2 13 -5 1 -5 -3 2 15 4 11 0 7 8 -8 3 4 0 14 14 -2 -5 -4 -7 -5 7 6 7 0 1 -20 -9 2 -1 -6 -2 -5 -5 9 3 1 3 6 1 0 11 5 2 -2 2 6 0 1 7 -12 9 6 -6 3 1 8 7 4 5 19 7 5 1 -7 5 10 5 11 4 10 8 0 7 -5 7 14 -4 0 8 3 -4 9 7 4 3 0 11 -3 -2 2 3 11 5 3 10 12 0 16 3 -7 6 5 1 3 -1 0 8 9 9 0 9 2 -7 -2 57 101 61 94 151 168 191 169 175 176 177 175 168 165 172 165 163 157 158 171 154 151 157 168 159 155 159 163 155 146 148 157 147 153 154 143 153 144 147 135 136 124 108 71 61 55 45 -1 0 10 -3 9 -2 7 4 -1 1 16 -3 0 1 -7 7 -3 -6 17 0 -7 -3 -14 -11 -4 -8 -9 -4 -8 -14 -5 -7 3 -6 -14 -7 -13 1 -7 5 0 -10 -8 -11 -9 -6 -9 -15 -5 -11 -2 -7 4 -12 6 -3 1 -8 -10 -3 -1 -5 5 4 0 13 9 -1 -10 15 -5 5 5 -2 3 6 2 18 7 -2 1 4 -4 10 11 -3 -6 0 11 5 14 -4 -12 3 -2 -3 11 -4 9 -3 -5 -10 9 6 -9 -3 11 5 5 -5 5 -8 4 -8 1 1 0 -3 6 3 -4 3 -2 6 0 3 6 14 -12 -6 -1 -6 4 8 -1 -4 -2 7 -12 4 -9 -13 -4 -1 -3 -8 1 -1 -7 -13 8 7 -2 -2 -6 6 7 12 2 16 -4 2 2 6 1 0 2 11 9 10 5 -4 10 -3 3 5 -9 0 -3 -5 -19 -12 -9 -18 -8 -9 -12 6 -9 -5 -9 -4 -12 1 2 0 -5 -1 1 16 -11 -2 -15 -1 -9 -2 0 -6 -11 2 -10 -6 -2 3 4 -15 -16 -3 0 -5 -7 -6 -9 -11 8 12 -9 0 -15 -3 -5 2 -5 -14 2 -11 1 -4 -8 -4 3 -6 10 -2 3 0 0 3 -5 -13 -2 10 1 -4 1 -2 11 1 14 -2 -1 -4 -1 -14 -8 7 1 2 -7 -8 5 -16 1 -1 9 0 5 -1 -2 2 0 2 4 -6 20 -2 -7 6 3 4 7 -14 2 -2 -3 6 2 5 -2 5 -2 8 8 1 13 0 11 5 
-2 5 20 11 7 -8 4 15 3 2 -10 13 4 5 1 10 0 7 -4 0 -3 8 4 4 16 2 7 -1 6 2 8 5 -1 4 9 2 5 6 1 -2 1 11 -5 -1 0 -1 12 1 1 -2 6 10 3 4 -3 0 0 2 -10 5 7 -9 -1 -9 3 -6 7 18 -10 -4 1 2 -3 0 8 7 -5 11 5 -5 5 -4 10 3 6 3 7 3 10 -7 17 2 14 8 5 -11 8 6 -6 1 5 0 3 -5 6 4 -3 -2 2 4 -5 -2 7 -8 2 2 -1 -8 -4 -16 -1 -19 6 -6 -2 -1 -5 -13 8 -6 -11 4 -3 -10 -5 -6 61 67 58 56 78 94 110 95 103 95 114 80 91 76 71 88 74 96 84 71 56 47 14 4 -2 -1 14 2 9 15 12 7 -2 12 14 -1 9 13 7 5 8 -10 5 2 -3 -5 -2 0 2 2 -4 4 -5 -2 2 5 -1 1 2 2 -11 -1 0 4 -4 -2 4 -2 -1 -13 -2 -4 -9 -7 16 -3 7 2 0 9 0 0 7 10 -8 4 3 -2 9 7 -3 11 -11 -2 3 6 9 5 5 3 8 -1 1 -2 -2 8 9 7 3 -3 -11 6 10 12 -4 6 11 0 7 15 -2 5 6 12 5 6 -8 -7 7 1 0 -4 1 11 -2 2 3 10 8 9 15 13 7 4 -12 13 3 10 72 93 75 125 170 174 192 175 170 175 168 179 174 166 165 166 160 167 163 161 166 163 163 164 164 150 165 161 165 166 168 160 150 158 162 160 157 163 144 144 146 158 145 132 127 97 64 57 52 12 4 4 -3 3 -1 4 6 -9 9 4 -3 -1 -6 -11 0 5 -5 -7 2 -20 5 8 1 -4 -11 -9 -18 -9 -9 -7 -21 -13 -4 -5 -15 -2 -12 0 -1 11 0 0 3 -9 -14 1 -5 1 4 -7 -4 3 -2 1 -2 6 10 -5 7 2 2 -2 -5 7 -6 8 9 -3 3 6 8 -6 13 -3 2 6 -1 7 5 8 5 -3 -4 -2 -5 -7 4 -4 12 5 6 7 -7 -5 3 1 11 -2 7 2 -1 -2 11 -3 -4 0 12 -4 5 9 -3 10 2 4 6 7 9 -2 9 -10 2 6 -1 -4 5 -11 -5 2 -13 -9 0 -17 -2 2 -3 16 7 -3 -4 3 14 11 4 9 2 -1 -1 9 -4 3 3 8 5 8 0 7 -7 -7 4 21 2 10 5 12 -4 5 4 0 -2 -5 -11 -7 -5 4 -3 4 -1 -1 19 12 22 4 -4 -6 19 -3 13 -4 7 -1 -4 17 -10 -3 -3 6 -12 2 0 -18 0 -18 -8 0 -5 -10 10 -4 -10 2 -6 -10 -7 -4 8 -6 4 3 -5 -12 5 -13 -4 -9 0 4 -3 5 -5 2 6 8 3 10 -8 5 -7 6 -7 -12 11 7 -3 -10 1 1 -4 -2 -5 -6 -3 6 -7 4 3 4 -12 5 -7 -9 -9 -11 7 3 -10 7 -14 6 6 6 -6 5 -5 5 0 0 -2 7 5 1 1 8 3 -2 5 4 -4 -1 1 7 -3 -1 4 -8 17 2 -3 8 3 -2 1 5 2 -2 3 -5 
17 3 10 -3 -8 6 -5 -6 11 -3 15 0 7 15 -10 3 12 7 -1 12 12 -1 2 8 -6 9 -7 9 7 1 10 5 9 19 -4 13 -4 5 7 6 0 -11 -5 -1 9 -2 3 8 1 16 5 2 -6 13 -5 12 -3 3 -1 -2 -4 2 6 -12 -9 10 -17 -4 0 0 9 0 3 -11 -5 3 8 -12 -3 -5 4 -7 4 -9 3 -8 4 10 -2 -2 -3 0 6 -2 4 -8 -10 -6 2 -1 -3 12 -6 -1 -4 -2 14 -6 5 -2 0 -8 -5 -14 -3 -10 11 -12 -12 0 -5 -6 8 -5 -9 -7 -7 9 -10 0 -2 -1 0 -7 -8 59 37 77 112 146 159 163 164 157 180 172 164 170 177 169 141 142 116 122 95 83 69 95 87 65 45 18 -4 3 -9 6 6 10 10 -4 2 -9 -4 9 -2 11 2 -6 6 6 -3 2 2 -4 0 -1 -5 1 -12 6 -7 -3 -1 3 4 3 4 8 -4 -8 2 0 1 2 4 -9 -6 -5 6 12 4 0 2 6 -11 14 5 0 6 6 -5 3 9 2 -2 11 -4 -2 3 10 -1 3 -2 -1 -3 11 7 0 10 -1 3 7 11 -7 -7 4 5 9 16 -3 -2 3 -7 8 -1 3 -1 15 7 10 2 -2 1 0 6 -4 -4 4 -4 10 0 2 -8 14 -3 7 10 7 1 -4 17 -6 7 47 85 88 144 183 180 189 166 166 173 177 181 178 164 158 146 170 162 160 172 170 161 167 171 162 154 166 166 163 148 163 153 160 154 151 154 163 161 155 156 157 151 151 154 137 138 127 112 67 70 52 -5 -3 8 10 -8 7 9 4 9 1 6 -3 -12 9 -14 3 1 1 -10 3 -8 -15 2 -5 -1 -10 -10 -21 -2 -15 -7 -15 -18 -7 -19 -5 -4 4 -5 -2 -2 3 -5 -13 -2 -12 -15 3 -9 1 -5 -6 3 9 -4 8 -2 2 6 2 3 4 9 -1 17 13 -5 7 -2 6 0 -4 4 4 6 8 10 7 -3 4 -3 -7 5 -1 -4 6 11 0 7 -3 2 5 -4 9 1 1 2 -2 -1 0 12 9 10 0 -5 -7 1 -6 -2 12 4 1 2 -4 3 11 -1 -5 0 -5 2 -1 3 1 7 7 4 -3 11 7 -1 1 8 9 10 0 3 21 3 -5 -1 -2 15 12 -6 5 13 -14 -5 5 -9 -2 3 8 12 0 8 4 1 9 4 5 9 2 10 1 -3 -9 -6 -5 17 2 -2 7 8 16 9 13 4 -1 6 -2 -1 10 1 7 7 13 16 5 16 -6 8 5 14 9 -6 -4 -5 -4 -7 10 -9 -15 -3 5 -7 6 0 -2 -6 4 7 3 0 -6 18 -13 0 -5 -8 4 -16 0 4 -4 -1 -1 4 -1 13 -2 3 5 -3 8 -13 10 0 13 -2 -6 6 5 -4 -15 -6 8 17 6 -2 -2 7 6 0 7 3 0 -9 5 3 0 4 5 2 -6 1 1 -5 -17 3 -5 -3 -3 8 -1 2 -1 -4 22 3 4 6 6 -4 2 1 2 -1 6 8 8 -1 1 4 -4 5 -1 10 -2 10 7 1 9 10 -6 
-1 9 -3 -7 9 0 -6 8 -10 2 4 11 20 11 6 7 19 -7 15 2 8 3 9 14 0 21 7 14 -9 14 5 10 -4 14 -1 4 11 -5 18 -10 -7 7 0 7 3 1 1 -2 0 6 7 -6 9 4 -8 1 0 -2 -4 0 -5 -4 -6 3 -6 9 2 1 -14 -6 8 2 -5 2 1 -1 -8 3 -2 -2 5 -5 -2 7 -1 0 -1 -1 10 -5 -1 9 -7 2 13 4 10 2 -4 -9 3 7 7 7 -11 2 2 -6 -7 -5 0 1 -2 -13 1 -16 -12 -5 -8 1 -16 -22 -18 3 -8 -2 -8 -7 -2 -8 -10 -3 -7 0 16 56 54 146 163 170 160 167 182 179 161 185 177 173 178 189 177 183 184 181 171 163 150 121 89 83 90 90 73 43 10 -2 5 3 3 7 6 -14 -5 4 9 11 2 5 3 -3 -8 -8 2 2 5 8 10 -7 4 -15 7 4 -6 -4 1 -6 3 6 5 -4 10 1 9 11 1 5 -5 9 9 -8 7 -4 5 4 -4 10 2 -8 -9 4 10 4 4 -1 7 1 11 4 -2 5 -2 -3 1 4 7 7 5 2 5 -8 6 1 2 5 6 -3 8 8 5 -6 -2 5 7 5 13 7 -11 -4 4 3 -1 -8 9 3 3 7 4 -5 15 -3 5 -1 7 4 3 9 5 -3 4 -13 5 3 17 81 72 152 180 178 179 176 187 177 182 184 180 173 167 165 169 176 180 177 169 173 168 170 158 161 178 172 154 163 174 160 167 171 171 166 162 170 156 159 162 152 154 153 168 147 152 143 137 121 62 73 24 5 10 6 7 -10 2 -3 -6 10 -6 0 -3 -4 3 -7 -17 1 -7 -5 -4 -18 1 -5 -8 -8 3 -7 -3 6 -15 -16 -3 -17 -15 7 -7 -1 -7 -4 10 -4 -6 1 -9 5 -8 4 4 0 -4 1 8 -6 -2 11 9 7 -1 -5 -3 9 15 5 6 0 13 5 -3 1 2 -5 -3 9 2 8 6 6 13 0 0 -4 -7 1 -1 -9 3 1 1 6 16 4 15 10 5 21 9 7 12 0 -7 0 0 7 5 -4 12 11 -3 6 12 17 6 14 9 7 5 11 5 5 0 -11 4 -3 4 6 4 14 15 13 8 6 10 -5 -12 1 2 -6 6 -6 -6 -8 0 4 0 0 6 1 -10 -5 10 4 3 7 14 3 10 8 -1 5 -3 -8 7 -1 -21 1 8 8 26 14 11 -2 6 -2 2 6 4 8 0 -3 1 12 -6 1 0 4 -4 8 8 -3 20 4 -7 -6 -3 -5 -7 1 -4 -8 -2 0 -10 -8 -10 -11 10 -12 -7 -7 -13 -3 -13 -4 -10 -4 -11 -6 -7 -3 -7 -21 -5 0 5 -6 -8 7 -3 -3 -9 5 8 -9 -6 9 6 -7 13 10 7 3 -2 3 8 -4 0 -4 2 -1 11 -5 12 -6 4 -8 -2 7 2 4 -1 2 -8 2 2 6 -1 1 5 3 -4 8 -1 6 1 1 -10 11 -2 3 0 -2 1 7 -5 2 -5 10 0 0 -7 14 7 -2 11 -6 7 12 8 10 -10 10 2 6 5 17 
14 -8 6 -3 1 5 13 9 -1 3 0 22 7 2 -7 7 10 6 -14 3 6 11 1 13 0 9 7 -5 4 -5 10 10 -6 6 3 13 8 4 -5 5 10 10 -5 -2 -3 0 11 9 -4 5 1 11 -19 8 -12 20 12 -7 1 -6 -5 -2 -5 -2 -1 7 -6 4 10 -7 -1 5 0 -1 -4 -7 11 -4 10 -1 8 7 2 -10 2 -1 -15 1 8 3 13 1 2 5 -7 -1 -1 8 17 -6 8 11 1 1 6 19 -4 -11 1 7 0 -13 -8 -10 -3 -8 -1 -12 -6 -8 -9 -5 -9 -4 5 -4 -6 -5 -11 -8 5 5 9 -4 19 81 58 153 157 159 148 160 162 186 172 166 172 175 166 187 189 192 190 187 182 185 185 189 170 157 126 105 77 96 83 62 15 -13 -12 -2 -6 -3 -11 -2 -9 -5 15 12 7 5 6 -6 0 -9 3 0 13 -2 13 8 9 0 1 1 -2 1 7 10 -5 11 3 13 2 0 10 -1 -5 -3 -6 4 0 0 -3 -1 0 -14 5 12 3 11 6 -4 0 19 -8 0 1 -7 -6 -1 9 -3 4 7 -4 7 3 -6 1 5 10 -5 8 10 -2 0 4 -8 9 -2 7 -19 1 -3 3 8 -1 0 -6 -8 8 8 -2 9 -4 6 10 6 0 -6 0 8 9 -4 -3 11 14 5 -3 2 15 -2 36 79 94 179 186 172 187 177 177 172 170 182 176 179 172 172 193 172 170 172 166 170 182 158 170 178 170 165 171 165 168 171 158 172 159 174 162 174 171 170 157 182 155 156 157 152 151 147 135 144 96 68 36 -7 10 1 10 10 13 8 5 -5 -8 1 -14 -6 -4 0 -7 -12 -4 -5 -2 -6 1 4 -12 -6 -3 -6 0 0 -7 -12 1 -1 -7 -3 -11 -9 0 -3 -6 -5 9 4 -6 -19 -4 2 -5 3 -11 1 -1 -4 -7 7 -12 -7 -5 -4 5 3 5 -11 17 2 10 2 4 3 1 0 0 8 4 -6 15 2 -5 12 8 1 2 8 3 -1 19 -3 -7 -2 10 1 -1 12 8 12 4 0 5 -8 0 8 0 -1 -2 3 2 9 -11 0 1 7 3 5 9 0 4 -5 5 -6 -2 9 -4 10 14 2 8 8 -4 -6 12 -6 3 8 -10 -7 -2 16 -5 -18 15 18 -9 -4 -3 -1 3 13 -2 3 5 5 11 4 2 12 8 1 3 8 -3 -1 2 -6 13 8 14 6 -2 -11 12 6 12 5 1 4 -2 10 -7 -7 16 -4 -5 10 -3 4 8 -4 -14 -1 8 1 -5 13 7 -8 13 -8 1 -10 -4 -8 -12 0 -1 -13 2 0 -13 -4 4 -8 -11 8 -7 -11 4 -7 -2 -15 4 -15 3 -2 -6 3 1 -5 14 -5 -4 5 -4 5 -10 6 -6 3 -2 -3 -1 2 10 -10 7 3 9 -6 -1 5 -3 8 2 13 -7 6 4 1 5 5 6 -8 -2 1 4 -4 1 2 5 3 -3 1 11 -5 -1 5 5 15 2 3 5 7 10 -18 13 3 7 0 3 12 -3 -12 9 -4 4 14 -10 17 -4 6 14 5 5 11 6 -2 
-6 9 4 -6 4 5 -4 -11 10 9 -2 3 -3 2 4 -3 2 -4 5 0 8 -1 -8 7 -7 4 -9 13 0 24 9 7 19 6 5 13 9 -6 18 -2 4 -1 -2 -9 7 -9 -2 11 15 -1 6 0 3 -3 3 12 -1 -11 9 -6 4 -3 9 -3 -4 -7 3 8 -2 -2 3 -2 2 -9 -2 2 -3 -7 16 2 2 -3 4 2 -8 -11 -11 9 -1 9 -7 3 1 9 1 -4 -2 -3 -4 -4 3 -2 -9 6 -2 -5 -18 -2 0 -15 -7 0 -6 6 4 5 -18 15 -12 -15 -7 -12 2 -7 -3 4 -3 -17 -4 0 -8 3 -9 5 4 61 58 96 142 157 170 148 159 156 171 168 173 166 180 173 182 188 191 180 198 186 179 196 197 179 187 180 148 116 85 86 82 58 9 10 -6 0 -2 1 -3 20 -5 4 5 7 -6 18 -5 13 0 -15 -1 -3 -8 0 11 2 6 16 1 0 6 0 1 -2 -1 8 3 7 -3 7 -2 -4 10 12 -10 6 8 2 8 8 0 -3 6 -1 7 1 4 -14 4 0 4 8 7 5 -2 -4 -5 -5 10 -5 8 15 4 -6 -1 -10 -1 1 4 -7 10 0 9 -6 1 -1 1 9 4 2 -2 -4 2 3 -5 7 -4 -5 0 2 -3 3 -1 9 4 1 12 -4 0 2 -5 2 8 0 9 8 34 79 123 198 183 176 186 181 170 181 180 175 173 169 177 170 178 177 172 181 170 183 161 165 174 178 177 164 170 173 172 170 163 167 161 162 161 165 170 160 163 168 158 158 157 157 156 147 144 143 99 80 46 -7 14 3 -1 2 4 -10 4 -5 8 5 -1 6 -4 -5 -7 -6 -2 -4 -2 3 -2 2 7 -4 -7 1 -4 2 -1 -10 -6 -17 -18 0 -1 -2 -2 3 -1 -8 0 -9 -7 2 -7 -12 -2 -7 5 -13 -10 5 13 -10 11 2 7 -4 -2 6 2 5 5 -6 2 7 6 9 7 7 -3 18 -4 13 2 11 11 -5 2 -6 0 -1 4 13 2 2 8 11 4 4 8 -1 9 4 7 15 4 -2 -3 8 17 9 6 -3 9 4 9 10 13 9 7 7 11 4 3 -1 11 14 6 16 16 -4 3 -5 12 -13 2 1 12 9 -2 -11 -4 -6 -5 -3 -6 3 3 -5 8 -6 5 9 -1 0 -3 -2 3 3 1 -2 8 -3 -5 -2 -7 -2 -12 1 5 -3 7 13 3 5 3 0 15 2 -12 -2 0 5 4 1 8 3 -8 -1 7 -7 7 5 -3 8 -6 -6 0 1 -8 -13 5 3 -1 -6 -5 1 -4 -2 -2 -11 -6 -1 -1 4 -15 -5 -14 -2 0 6 -10 6 -3 3 -10 -2 -1 4 -15 2 -8 -8 0 -2 -4 2 5 2 5 0 4 0 2 1 -6 -1 9 12 0 -5 9 -4 -4 -7 4 -1 7 3 7 6 3 2 3 -4 0 0 15 -4 14 4 -4 1 1 13 -2 10 7 6 -9 9 12 -5 1 12 -10 11 -3 14 3 4 6 1 -5 6 12 6 -4 8 5 6 -5 8 12 10 -2 0 3 3 17 2 5 9 
13 12 3 8 12 3 10 9 6 3 3 6 3 11 11 1 4 9 0 5 8 10 1 5 -4 6 0 -2 6 8 -1 2 4 3 1 9 -2 6 5 -5 4 3 3 4 -14 -5 3 -4 2 -1 -5 0 -11 8 -11 2 -2 13 -6 -4 4 -7 -13 1 -4 6 -5 -9 3 12 7 -7 -6 -3 5 8 -6 8 6 -12 -6 -5 2 8 -3 -1 0 -4 6 2 -1 6 7 6 1 8 5 -1 5 -3 1 -2 -14 -3 -3 -2 12 -2 -6 -5 -6 5 -12 7 -2 -1 5 -3 -11 -6 -6 -13 9 -4 5 1 9 -1 -8 -8 0 2 5 -14 -14 18 91 72 111 145 152 174 173 168 160 159 172 171 175 186 173 178 188 191 176 193 186 175 184 177 191 169 199 180 147 118 83 89 75 16 0 -5 4 -5 -1 -4 3 13 7 5 4 -6 -7 -10 -9 15 5 1 -9 -9 -12 5 10 -1 -6 14 8 6 11 -1 7 -4 11 10 5 -5 14 -2 -2 6 7 2 6 9 24 0 -1 6 4 0 -4 -7 -4 7 -4 4 0 -3 5 9 -7 2 5 3 8 7 8 4 6 -7 4 -3 1 6 7 -2 -1 1 9 -6 3 -1 -2 22 -9 2 2 9 -6 5 3 -4 -3 11 -6 2 4 7 -3 6 -7 10 12 6 -5 7 -9 -5 4 0 5 7 43 91 127 184 188 180 178 189 179 182 173 182 175 172 179 180 172 173 177 179 181 183 167 177 170 177 184 173 176 162 175 163 157 162 164 160 169 173 182 163 171 178 173 160 169 168 154 169 148 152 117 90 36 -6 8 3 8 1 -5 9 3 12 3 -6 7 -2 6 1 3 -1 -12 11 -9 -3 5 -8 -3 -3 -3 -8 0 -10 -1 0 -2 -2 6 -6 -2 4 5 -4 3 4 3 10 -10 -12 -9 3 -7 -16 -5 -3 10 -7 6 -8 -5 7 1 -7 7 -6 -2 -2 7 -3 4 0 -1 8 9 -7 -5 -6 1 8 7 8 0 19 6 4 -17 6 1 11 7 0 13 11 -2 -2 2 11 12 -8 0 5 -1 2 -7 9 5 6 3 8 16 22 -1 -2 9 11 4 2 1 19 0 2 5 20 -2 3 -1 6 1 2 8 12 -5 -5 5 0 2 3 11 -3 -9 9 0 4 1 -9 4 6 -6 5 7 -6 20 3 1 8 6 11 11 -2 11 0 -2 0 -4 1 9 8 7 -2 19 4 6 20 9 0 6 1 12 7 12 15 9 2 14 8 -4 6 9 -1 3 -8 1 -3 11 -1 -6 -8 -10 -4 1 -18 1 4 -9 -16 5 0 -5 -8 4 1 -3 4 -8 10 -18 -1 6 -8 -8 3 8 -13 -9 -6 -5 6 -7 -3 0 -8 -3 2 -2 2 4 -4 1 -2 2 5 2 8 1 -6 12 -5 -2 -9 2 9 1 -4 0 4 0 7 0 -3 5 1 6 6 1 -1 -6 6 12 5 7 -2 15 -8 0 3 12 4 3 3 -3 -3 14 -1 11 8 -9 17 -7 8 7 10 6 -3 -3 9 1 1 5 8 -3 -5 -2 -5 -1 -3 -5 -3 12 0 
9 -2 13 -2 -4 2 -4 -4 13 10 4 -1 10 16 -3 -2 4 10 -6 13 -2 0 4 8 2 6 7 6 3 3 12 6 10 8 15 9 5 2 5 -2 -1 3 -1 -9 14 -1 -2 6 -1 3 -4 2 5 7 -5 -10 -2 2 5 1 0 1 0 -14 -2 -21 -3 -3 -7 7 -7 -4 -3 -6 -1 2 7 -10 5 -10 -3 -5 -9 1 2 -8 5 4 -12 8 1 6 -1 -8 12 -3 1 2 0 9 0 3 -1 2 0 10 -6 3 -11 2 -11 -3 -5 15 -3 -3 -9 5 9 1 -7 -6 4 -15 -3 -8 -2 -10 -6 -6 -2 1 3 -5 -8 -6 36 102 68 115 157 173 157 169 186 176 171 176 156 156 136 144 124 125 132 139 148 143 149 159 177 183 174 188 172 168 132 112 77 93 50 12 2 6 8 -1 11 5 5 -2 -8 0 6 10 -4 5 -7 -12 9 -1 1 -5 13 -2 9 9 6 3 9 15 10 7 11 8 9 8 5 10 12 2 4 8 13 8 9 5 6 3 2 -10 -1 7 9 -1 -3 1 9 8 -9 -1 7 -9 4 3 3 12 -6 6 4 8 -5 0 6 -1 -4 1 0 -11 -7 11 5 1 -8 8 4 3 5 11 2 9 -11 4 12 -12 5 13 -9 0 1 9 -3 15 1 7 5 4 10 2 5 10 12 13 46 88 116 191 175 194 176 186 184 176 178 177 174 184 178 183 178 180 171 170 172 180 170 174 183 192 159 170 181 182 180 173 171 190 168 170 163 174 174 171 163 154 163 172 155 160 158 156 149 162 99 77 37 -9 9 6 1 4 3 0 6 14 6 7 1 -3 -2 4 -8 -7 -3 -10 1 1 -1 -6 8 0 -1 -14 -3 0 -2 -6 -7 -2 -4 2 3 2 -8 4 8 1 -9 4 2 -11 0 20 -12 10 -5 -12 -7 1 -10 -12 3 3 -9 11 -2 -6 -2 -1 -10 10 8 10 7 -4 7 7 -8 2 -1 -4 2 13 -1 4 0 14 -6 1 9 -8 3 6 19 16 -3 9 -5 3 14 9 6 5 4 5 2 -7 8 11 6 14 7 5 15 6 8 -12 15 0 1 15 1 -5 -1 6 -7 2 -1 6 -7 -1 6 0 -1 1 -4 -10 -8 -24 16 -8 3 -12 0 4 -6 4 2 5 7 -3 -6 -2 -13 -6 -2 -2 -2 7 -15 -2 -13 12 -7 -18 9 1 7 -5 -9 12 17 -7 16 8 5 6 4 1 5 10 8 7 4 3 -2 9 -14 -8 -7 12 -10 -4 11 -9 2 -7 -7 7 -3 -13 -8 6 -1 -5 2 3 -4 6 -21 10 -1 -6 -15 -9 1 -5 -6 -3 0 1 2 -8 -4 11 -4 -6 5 -7 3 8 -7 5 -11 1 0 -14 5 -9 5 4 1 6 0 -10 -3 2 -7 7 5 8 -1 8 11 14 7 6 4 -2 4 11 11 6 5 7 1 -2 7 4 -4 -9 -1 5 14 5 16 9 6 11 -11 12 1 5 0 0 12 5 5 6 9 9 -6 -4 16 -4 5 11 2 0 3 11 -1 -4 2 11 1 3 5 2 4 -3 
5 7 5 20 3 8 4 8 2 9 9 5 1 4 6 13 2 11 -7 2 1 14 -1 2 0 15 1 8 7 8 8 12 10 3 4 14 2 10 6 -12 4 1 1 3 -7 -5 8 -2 3 2 5 6 8 7 -4 -4 12 -2 -6 -8 -6 -19 0 -3 -2 -1 0 -9 0 2 4 0 -10 -1 1 -5 11 -3 -1 -2 5 4 8 -5 3 -2 8 -7 -2 -1 -2 8 2 6 4 -2 -11 -3 0 3 -4 -5 1 5 -2 7 -6 -12 -5 -6 6 -5 2 2 2 -3 -3 -9 -2 -11 -5 -3 9 -10 -5 4 4 -9 13 -16 -2 0 -14 1 -5 -8 -14 23 93 72 121 159 168 167 176 174 180 180 186 187 183 198 172 192 197 172 193 179 189 171 167 166 160 153 171 170 163 159 124 84 72 58 23 -5 0 1 0 8 1 2 9 3 15 -2 -3 0 2 -9 4 -6 0 -5 -2 11 8 3 8 19 4 19 1 3 8 7 6 3 -5 13 9 6 -2 10 6 -1 -1 2 0 3 -1 8 3 9 10 8 -3 -10 -3 5 -3 7 1 3 -2 1 5 0 7 2 1 0 -1 -7 -4 -9 6 4 1 6 -13 1 0 10 -7 10 -7 7 4 17 3 0 11 2 -10 6 8 8 6 -4 1 -6 -5 -3 6 11 12 3 8 7 4 5 -4 -3 26 76 93 179 189 170 190 180 187 190 177 179 185 195 181 178 177 177 180 189 182 182 187 174 168 180 189 177 186 163 167 180 183 170 173 176 190 162 175 177 182 177 173 161 177 161 141 166 155 140 92 65 14 -5 -9 -7 -7 -13 9 7 2 -5 11 13 8 -6 9 -13 3 14 -12 2 -4 0 4 -4 -10 15 15 7 13 4 0 -11 -4 -1 -2 -6 -7 -3 5 4 0 -5 13 5 -11 0 6 11 2 -6 -8 4 9 -4 -2 -7 8 -9 -1 0 4 0 4 -2 0 -7 3 6 -4 4 3 -6 4 -8 -1 17 -2 16 -2 -1 12 4 7 4 14 -9 9 11 14 18 5 13 4 7 15 -3 4 18 3 -6 10 8 17 9 21 8 5 0 1 22 4 1 8 9 5 -6 9 4 -1 3 -2 -7 3 0 3 -1 -9 -5 -2 -18 -3 -5 -4 -7 -13 -1 2 -5 4 -5 -17 1 2 -21 -3 0 -6 7 -4 2 8 -3 14 -3 1 13 -4 2 2 -5 -8 -3 2 3 -6 -8 -4 11 2 0 0 -2 -5 5 -10 1 -6 -4 -6 -6 -2 4 -15 5 3 13 5 11 -13 9 -7 -6 -10 -6 -6 -9 -12 -11 -2 10 3 5 -6 -7 -4 0 -8 1 -7 -5 -10 -11 -1 -7 -6 3 -3 -10 2 -6 -4 -8 -4 -10 3 0 -4 2 2 -20 -10 -1 -3 6 5 -13 -5 6 -9 12 9 -3 -3 3 -5 -11 -1 -2 1 1 -12 13 -2 1 -2 5 3 3 -5 11 -5 2 6 3 9 -1 16 7 13 -5 3 -8 -5 16 1 -1 1 -2 4 13 7 -2 9 4 14 -11 1 -1 -2 5 9 3 5 9 -11 1 5 -7 -2 5 2 10 4 -5 4 -1 
-1 -1 6 -2 -3 1 1 13 5 -2 -3 3 22 6 12 -4 3 9 1 1 12 12 7 8 3 1 4 11 3 8 14 -3 14 2 4 1 -7 5 1 -12 -7 -11 3 1 0 6 -1 -9 7 5 -8 -2 -2 -1 7 3 -4 -1 6 -1 2 -1 -15 -8 -6 -10 -13 -7 5 -9 -12 -4 -11 -6 -13 1 -5 -3 10 -6 -8 11 -3 3 -2 -2 -13 10 -3 -8 5 1 0 0 5 8 12 -3 6 4 -3 4 -6 -6 -3 19 -6 7 -4 0 3 4 -3 1 7 -1 -4 -1 17 1 -8 -2 -8 -9 -8 -6 12 -9 2 -2 0 -8 0 -11 -6 -2 -2 3 40 109 80 104 154 175 192 178 172 183 164 167 157 139 120 130 141 137 146 151 156 168 171 175 204 167 168 172 177 151 162 112 86 70 62 24 -3 13 4 16 -3 1 -2 7 1 7 3 4 8 -12 10 5 5 8 -1 2 -6 9 0 0 11 2 1 3 11 2 6 7 14 7 -4 7 16 -5 17 6 -2 -5 -3 8 2 3 12 -6 8 5 -2 -7 -5 3 0 -10 6 -1 -7 6 2 3 18 -1 13 9 8 5 6 4 -4 -12 4 -2 0 2 0 -7 3 16 4 3 6 10 4 -8 1 11 -3 4 0 -3 15 5 7 -8 5 -6 2 20 -10 -4 0 -5 15 1 12 18 33 137 85 165 174 188 182 192 187 186 181 189 185 182 178 186 181 185 177 178 173 175 183 177 177 187 185 191 185 182 187 194 177 171 187 180 167 178 178 165 176 164 168 163 166 163 149 149 163 141 102 128 66 26 23 12 9 2 -5 -1 3 10 -13 -1 7 1 4 4 -1 8 -5 3 0 -12 -1 3 1 6 -4 3 -1 -3 5 -2 -2 6 -4 -6 2 -4 2 0 4 -1 4 5 1 -19 -5 -1 1 -12 -7 -5 -6 -10 3 -10 -2 1 8 -7 -5 -6 3 0 -8 6 1 -15 6 -5 0 -13 -4 -5 -7 7 -7 10 9 2 11 0 2 -4 -4 -13 16 8 10 -2 3 4 14 -2 11 -5 9 0 4 20 10 -2 6 9 9 8 -9 -2 1 15 -1 -7 -9 7 -3 -2 7 4 -10 -6 5 5 -6 -15 -1 -15 3 -12 -1 -5 -3 -10 -2 -11 -15 -5 -7 -1 4 2 4 2 5 -2 8 -18 8 -9 -3 3 -3 -7 -4 -5 -6 -12 -4 11 -3 3 2 8 3 -12 12 -3 -6 -4 3 6 -10 5 -6 -1 -1 2 -7 6 -7 2 13 -3 -7 -2 5 1 -10 -4 -2 -2 2 6 -5 0 2 -4 -16 4 -10 -6 -4 4 13 -10 1 -14 3 1 -12 -4 1 -15 -15 -6 7 1 5 -2 0 -6 3 2 9 7 -2 -1 -7 4 2 0 -1 6 -10 2 5 13 -4 3 -8 -1 -5 1 -4 8 2 8 -2 4 5 3 5 3 9 2 1 8 7 6 6 1 -3 -3 8 10 -1 -3 11 0 -5 5 -4 12 12 -2 10 8 0 9 21 5 2 2 2 2 0 13 15 18 -1 11 -10 7 13 11 6 5 -2 -1 3 2 -2 3 0 8 0 6 
10 5 -2 -5 4 -4 3 -11 10 5 10 1 7 9 4 0 13 5 -14 3 4 1 6 5 9 6 11 5 9 16 3 25 10 25 1 2 4 -6 1 9 -10 3 0 12 8 1 2 1 2 2 10 -10 -7 -11 8 -1 1 0 0 1 -12 1 1 2 -5 0 -3 -11 -10 -5 -6 -12 -1 2 -8 1 5 -5 -13 -4 0 -7 0 12 -8 0 -6 5 8 1 2 9 3 1 12 -3 8 -11 -21 -5 -1 -3 -8 8 7 -12 -1 -2 -11 -6 1 -1 3 -7 -11 -2 0 -2 8 -3 2 -3 -3 4 6 -6 -11 -1 -1 4 3 6 2 2 -1 -3 -17 -5 0 23 88 73 94 124 189 171 182 179 182 180 175 166 170 171 172 184 185 173 174 179 161 172 148 166 158 164 174 160 163 149 126 81 69 60 12 -11 1 6 6 0 1 -10 16 8 -1 6 8 7 -9 12 -6 5 4 -7 10 6 5 4 3 6 3 10 4 9 1 -4 0 -1 3 -1 -2 7 -7 0 -3 11 8 -9 7 -3 2 5 0 -5 1 10 -1 1 3 -12 7 -8 -1 0 -2 -3 1 5 4 12 -5 -15 -5 9 -9 -4 3 7 -2 -2 -3 10 4 -10 25 -9 14 5 -9 8 12 7 3 0 8 8 10 -2 -13 -6 -13 8 4 9 33 47 48 86 86 80 88 87 87 105 160 147 170 183 180 186 178 179 178 195 189 189 193 190 183 190 179 193 186 187 192 201 176 187 172 189 176 191 178 179 171 181 165 175 173 168 166 174 172 169 160 163 180 181 167 160 166 163 151 123 77 88 93 85 85 83 76 59 50 41 34 14 11 -13 0 2 -1 3 0 7 4 5 0 6 6 13 5 9 -1 -1 -9 13 0 -10 -4 -1 0 1 -6 4 -6 1 7 0 -2 -2 3 1 5 -1 -7 0 -5 7 -5 3 0 -4 5 1 9 -15 4 -7 0 -4 -7 -3 4 3 4 -9 -10 13 5 -6 3 4 6 1 -4 7 2 0 -7 12 12 7 9 17 2 -2 0 8 3 7 8 15 19 10 1 10 8 7 0 4 2 10 3 6 1 9 1 10 4 8 -2 5 5 -1 -2 -10 -7 -3 -4 6 -8 1 6 -6 -10 2 9 7 -1 -8 -4 6 6 -2 4 -3 4 -13 -3 -4 -4 8 14 15 4 -18 -2 -1 -2 3 3 16 -1 -4 5 5 2 0 7 4 3 13 8 3 4 3 6 11 15 -1 17 -1 -3 13 1 5 -4 9 6 -11 7 -10 3 -9 7 -5 1 4 2 -5 3 -5 -7 6 -1 -1 4 -9 14 11 -5 -12 -1 3 -1 -8 2 -12 -12 -17 6 0 -11 -5 -1 5 4 -2 -10 -1 3 -8 -13 3 4 4 -6 -2 2 -1 0 9 -4 9 2 11 2 -2 -8 0 3 2 10 -6 -2 3 1 -5 16 -1 3 10 -3 7 10 5 0 10 -4 21 9 6 0 -5 9 4 -7 7 11 7 1 2 2 9 -2 -6 -1 -5 2 2 4 3 9 1 0 7 1 2 4 5 3 1 -10 10 3 -10 -5 9 2 18 
2 1 5 -4 13 9 -1 8 11 -2 -2 13 1 12 2 4 3 -12 -5 7 5 13 5 0 9 4 11 6 1 3 12 7 5 -7 5 5 -4 11 2 3 -6 -8 6 1 5 9 -3 -5 -3 -7 4 -2 1 2 4 -5 6 -2 6 -14 -12 3 -3 -7 -8 -4 0 -4 5 -8 -3 -9 3 -5 0 -6 7 1 -14 3 -7 7 -8 -2 -1 -5 0 -3 -4 -8 -5 2 10 -1 -4 22 -2 15 -11 -7 10 -2 1 -2 11 -5 -3 -3 -7 -9 3 -11 -4 -15 5 -4 -5 -2 -8 5 -8 -12 6 -1 -4 -3 5 -5 9 7 8 6 -1 3 2 -4 2 5 2 0 30 71 96 87 136 162 184 170 186 195 194 193 189 192 186 174 190 181 185 174 188 176 178 166 191 165 193 155 180 157 155 129 73 70 45 3 11 4 4 0 9 12 3 -1 8 2 1 4 4 4 9 4 6 2 8 1 5 11 1 -2 1 0 1 7 1 11 9 -4 14 14 1 -3 -2 5 0 9 9 6 7 2 4 16 5 10 -2 -7 13 -4 4 -7 -2 7 -14 1 -4 -1 0 -5 0 -8 -10 4 10 -12 -6 2 0 5 -3 9 1 5 1 -1 2 20 7 8 17 8 6 -7 7 -8 -8 3 4 20 21 52 58 70 68 88 72 74 80 74 68 83 83 94 97 109 120 153 159 161 164 187 183 178 190 193 187 189 197 192 203 193 193 184 192 189 180 188 187 178 178 184 180 182 180 179 185 166 165 180 192 183 183 187 176 162 177 166 169 162 171 166 172 156 152 142 140 124 112 96 87 84 92 93 80 85 97 85 83 77 40 25 31 0 17 -3 -15 -7 -8 -5 13 5 3 1 22 9 2 2 1 12 11 0 13 2 3 3 8 1 2 4 1 2 18 16 -1 9 16 -10 0 0 -1 3 -7 -19 -17 3 -5 0 5 9 -5 12 3 5 -3 3 -3 6 1 -7 -1 -4 -1 7 6 0 17 -4 -1 2 -6 1 10 7 8 21 12 -6 3 9 4 8 12 12 17 6 9 7 14 -5 2 12 -2 -10 8 -2 7 4 -13 9 -2 -3 -6 11 -1 8 -3 4 -3 0 -2 6 -1 1 -5 9 5 6 -5 -7 -2 -1 10 9 3 -5 -4 -15 -11 3 -7 -6 -1 1 4 -2 -3 -4 4 2 -3 -5 -2 -7 -1 3 10 -5 10 10 8 -10 3 9 1 2 -6 8 -7 7 -4 8 -11 11 -10 -7 9 -13 7 7 -2 2 5 1 -4 12 11 0 4 -6 3 -3 -1 -6 -4 8 -2 -2 -8 1 -7 7 5 9 -17 1 1 1 2 -8 4 0 6 -3 0 -8 -8 -10 0 -14 -2 -11 -3 -4 4 -11 5 -4 1 -3 -4 10 2 -9 1 13 2 -2 -7 4 -2 0 0 0 -4 0 -10 5 4 6 4 -3 3 3 6 -12 1 1 6 0 -4 -3 8 2 10 9 0 12 -9 -1 3 4 6 2 10 3 8 -6 1 2 7 5 14 0 11 9 4 4 6 -3 0 9 0 11 -5 8 0 -2 4 8 11 -2 
-9 6 -2 5 -5 11 4 9 6 -1 -3 11 -1 7 0 -9 -5 22 6 15 14 -2 -1 8 9 8 4 10 5 3 7 -1 15 13 -3 -2 12 2 -4 -6 -10 9 -9 -5 -3 15 -10 -4 21 2 -3 8 1 -8 2 11 -4 4 -12 7 -9 -5 1 -10 5 -4 -6 -12 -6 2 1 4 -14 -9 -10 -6 -9 4 7 1 -7 -4 -5 5 -3 -6 4 1 2 7 12 11 2 2 -3 -6 2 0 2 -8 0 2 -7 5 10 2 -8 -3 11 3 -2 -4 9 1 -2 -2 3 -1 -9 -9 -14 10 -9 -2 -5 7 9 0 -3 2 5 -2 3 3 3 10 -9 0 7 -10 -5 7 61 96 76 130 170 174 179 183 186 175 193 191 183 185 200 191 194 188 191 187 187 183 167 173 172 172 172 166 162 145 116 65 61 31 -1 0 3 7 10 3 0 10 7 7 7 -1 5 3 -1 11 17 7 6 5 2 -5 7 5 4 4 -3 -2 6 -7 3 6 -9 1 14 9 -8 -7 2 -3 1 -8 0 -4 15 5 12 -2 -2 2 9 -1 10 8 -2 2 -9 8 0 1 -10 3 -1 13 -6 -7 10 -3 -5 -10 -5 -6 -2 11 5 6 0 7 7 11 13 -6 -8 -1 -12 4 9 27 44 72 70 76 74 76 76 76 89 87 96 112 126 137 131 147 149 156 160 142 149 149 156 156 180 177 169 182 199 186 176 185 190 192 183 182 192 195 186 190 197 185 175 179 178 181 177 174 191 178 183 188 174 186 174 173 168 164 169 166 169 159 173 167 175 163 168 166 164 170 170 181 184 178 176 174 149 148 140 132 110 110 94 85 89 92 82 93 81 73 52 19 13 2 3 2 -2 9 3 -6 7 21 3 -1 -3 1 11 -1 2 -2 1 8 -4 7 5 2 2 -7 6 22 2 22 9 -12 -3 6 9 -3 1 0 -15 -1 -2 -8 3 3 -8 -2 -4 6 -6 -2 6 -8 11 -2 -1 4 7 0 -3 9 11 -14 6 0 -8 0 16 14 12 -2 3 13 2 -1 -1 2 8 18 0 11 -6 2 4 3 3 -1 10 -7 0 -2 5 -14 8 14 7 -9 13 -5 -11 0 4 10 4 -5 7 3 12 -9 -10 2 -9 8 5 -9 -1 -2 -11 2 -9 -13 -3 -3 -9 -6 15 6 7 3 -5 -1 3 -1 -7 -3 -2 -4 -11 -8 9 -6 0 6 -12 0 -1 3 -2 6 -1 9 8 -7 8 0 8 -2 5 7 0 14 -3 -4 3 0 4 -2 -13 -9 -7 -7 2 5 12 -1 -14 -3 -2 -4 3 -15 7 -3 -3 -14 1 -8 -10 7 2 -6 -14 -2 -1 -16 -7 5 -4 -5 -2 12 6 -8 -2 6 8 11 0 -5 11 4 -4 15 5 -9 6 -5 -2 13 7 1 12 6 -3 -2 -4 -5 3 10 -1 -2 10 5 8 9 9 4 10 10 1 -1 5 13 -3 2 6 10 14 5 7 -2 8 8 5 -2 5 -3 6 0 -6 -2 1 2 1 5 5 -1 12 -9 6 5 3 20 0 1 -1 -7 2 -9 9 11 3 2 1 3 
-2 -3 0 10 0 -1 5 11 2 6 3 6 13 6 -2 2 6 1 14 -7 10 13 4 9 7 6 -2 13 -5 12 7 -10 10 6 1 1 8 7 10 -4 2 8 6 19 -8 13 -5 1 -3 -7 -2 1 -4 7 -4 -6 12 -14 -8 -16 -4 -10 -3 -6 -9 -5 2 -1 -3 -6 -6 -10 -16 3 -2 -8 -3 -5 2 -7 10 -4 3 5 1 -5 -9 -9 1 2 -8 5 4 -1 -2 -3 6 -2 1 -8 -4 -17 -5 4 -5 -12 2 13 -3 2 -2 9 7 3 1 2 -10 2 -9 -14 -2 -2 -1 -4 -5 0 11 -6 4 1 0 4 2 1 9 2 -7 -4 9 8 6 -2 20 47 82 81 129 165 167 199 177 188 179 192 186 195 185 189 194 190 187 185 173 196 177 166 182 179 171 178 163 150 140 87 68 64 16 3 9 -5 -8 6 -1 8 7 -1 -1 12 21 -2 16 -3 1 -1 1 10 4 4 8 4 10 0 4 3 -12 0 13 5 4 3 -2 -1 11 6 5 6 7 3 0 13 7 -3 -2 -6 0 -11 12 7 8 4 -13 8 1 -7 -14 4 -12 14 6 1 1 -3 -4 6 6 5 -2 -2 -6 -12 18 4 4 -2 -5 -11 -2 12 14 33 55 69 74 82 77 72 80 85 106 106 116 132 131 142 144 144 144 149 137 125 141 135 128 139 134 140 150 143 141 170 178 174 190 179 187 184 181 183 184 188 188 174 191 179 184 173 185 189 184 183 191 193 195 187 179 184 181 175 170 189 177 168 183 167 155 164 155 160 176 160 146 169 171 178 166 162 162 168 165 175 165 176 186 175 181 171 156 160 127 110 107 82 89 82 90 86 85 88 48 42 20 1 -3 2 6 -1 13 6 13 4 5 -1 2 -10 1 -6 3 -2 8 8 8 -2 3 -4 12 9 -3 5 -9 14 -12 6 -9 18 -2 16 -7 7 8 -6 8 6 -7 2 -5 3 -12 6 1 -1 -9 -8 0 9 -6 1 -12 -2 -8 -8 8 8 0 3 7 12 -2 11 6 10 -6 8 2 6 19 6 8 11 -1 -13 -7 3 -4 3 2 -10 3 -5 5 -4 -7 4 -4 10 0 2 4 -2 -4 2 0 2 -3 -3 18 -13 -4 3 2 0 -5 -6 -5 -11 2 4 -11 7 2 3 -5 7 -1 1 -1 2 1 -6 -13 2 10 11 7 0 2 4 0 -3 4 1 3 1 6 5 -3 3 14 -5 6 -13 10 -11 -11 -4 11 8 3 11 1 -1 8 8 7 1 5 2 2 -8 7 9 -4 -5 3 -4 3 -1 7 6 -10 0 -1 -2 -8 4 -2 0 -7 6 -1 -4 -15 7 -8 -4 7 -7 -6 -5 12 -8 6 7 -12 -4 -8 7 -9 -12 -7 -2 10 -2 -8 0 5 14 4 1 -4 14 -5 11 10 8 9 7 -10 -3 7 -6 9 15 16 -3 12 -1 11 14 9 -4 6 0 15 5 4 3 6 15 -4 20 0 11 8 -10 3 18 -4 4 12 9 -6 1 -3 4 3 5 5 12 2 -11 9 -9 -2 -8 8 -4 5 -4 4 3 
-1 11 15 4 5 5 8 -2 3 -4 4 5 0 1 14 -7 -3 7 1 -2 16 1 14 -4 -1 16 4 12 -1 -2 10 7 1 11 -1 9 8 1 6 6 6 -3 1 -1 4 -13 7 4 3 -13 -7 -2 -5 -2 1 10 -10 -1 -1 4 -1 -1 -7 -4 -3 3 -10 -10 -9 -4 -6 2 -2 -5 -3 2 -1 -2 1 0 -8 -1 -4 2 14 -13 1 1 -4 6 -2 3 -5 1 11 -7 4 -3 -14 3 5 -4 -7 -5 9 -17 0 0 0 10 5 2 -1 5 12 5 -6 -2 -12 -11 11 2 1 -3 -1 4 -3 6 -9 -7 -12 8 4 5 -4 10 17 -13 2 5 2 10 1 13 56 79 84 124 159 176 187 184 184 178 183 194 193 186 189 198 200 194 177 183 178 192 178 178 166 177 162 160 164 134 94 61 50 13 -4 -2 15 -11 -5 -1 7 8 10 14 5 1 5 11 6 2 13 -5 7 10 -1 3 7 5 -1 7 0 -3 3 17 8 3 15 4 7 -1 4 7 -8 -1 -8 -7 -4 -14 3 -4 6 -5 11 -8 -4 -7 4 -5 -4 -3 4 6 -2 3 6 6 0 8 17 -2 -10 -10 12 7 -1 8 5 5 -13 17 29 47 68 75 78 73 71 70 94 102 111 127 141 142 143 135 147 145 143 124 123 124 120 114 127 125 121 115 127 110 112 117 125 132 137 134 163 159 178 177 175 172 170 179 169 191 184 185 184 191 176 188 181 187 181 189 180 188 181 176 180 181 166 172 156 157 167 160 150 157 182 160 166 147 157 155 149 138 148 152 151 157 170 163 163 156 169 166 163 173 167 173 183 179 182 190 175 173 166 156 127 110 101 91 85 92 90 59 50 34 12 5 -10 -2 5 11 20 0 12 3 2 0 -11 6 4 -1 6 4 12 7 -1 2 -5 -2 2 4 -9 0 -4 9 13 1 -3 12 -10 16 6 7 9 -8 -2 -2 -18 -4 3 3 0 2 5 10 2 4 -5 -2 3 -2 -3 3 13 9 12 -12 -5 21 -2 13 13 7 -3 9 14 6 4 8 -5 -4 -4 9 4 14 0 2 -5 0 5 -3 -5 19 6 7 -11 6 9 -7 0 3 -2 3 -6 1 2 -10 8 17 -3 -4 -5 -2 -12 2 -18 -4 3 -7 4 -4 -10 -5 -5 -5 -9 1 11 -12 -8 2 -3 -4 -6 -4 -2 1 -4 -9 -6 -16 0 1 5 2 -1 3 -2 -9 0 -8 3 -6 3 2 1 5 -1 4 4 -3 5 10 6 7 2 2 4 2 -4 4 -2 5 1 -1 0 5 -5 7 8 0 9 2 -2 -10 -8 6 1 -2 -5 2 1 12 -4 -4 -1 2 1 -5 -11 9 -8 -1 -7 -1 -18 -4 -7 2 -12 -9 1 2 -3 2 -3 5 0 -3 2 0 -6 10 5 2 7 0 13 -6 -5 14 14 0 9 -7 13 -7 0 -4 18 1 2 4 10 -1 10 14 11 8 -3 4 3 -4 18 3 -14 2 6 10 8 8 2 9 -7 -2 1 6 0 -8 7 8 1 -7 16 7 5 1 -2 2 2 12 
2 9 5 -2 -2 3 -9 16 2 8 4 8 -1 6 13 0 -8 -3 6 5 9 1 3 5 2 12 0 15 9 12 -5 2 15 -8 -1 -2 8 11 9 6 17 -15 3 1 -4 5 10 -5 -4 2 -2 0 1 -8 -4 -12 -6 -12 -1 -5 -4 -5 -8 -2 5 0 -3 7 -9 7 -2 -4 -6 -6 -7 4 -16 5 0 6 -7 8 2 2 5 0 -2 -4 -2 -2 -9 0 -11 -7 -13 0 -11 5 -3 -8 -19 4 2 -1 2 -6 3 -6 2 -10 13 1 3 5 5 3 -1 7 -2 3 -4 11 -5 -5 -2 -4 5 8 -7 -1 2 0 1 6 9 1 3 0 5 -6 0 9 15 -2 31 51 80 85 127 173 175 181 188 183 183 192 185 189 192 187 189 183 199 188 189 190 174 182 175 182 166 169 146 150 126 79 76 39 -3 -4 -5 -1 4 -1 9 0 14 5 4 -2 4 -7 0 12 10 -2 9 -3 17 16 9 12 10 3 20 -5 13 13 3 25 -7 -2 10 8 18 9 -16 5 2 13 9 -13 6 -9 1 0 2 0 -1 4 12 -1 7 5 3 2 -1 3 5 7 -7 9 9 0 6 13 2 -7 1 2 19 31 74 79 65 67 77 75 86 118 136 131 140 137 133 130 122 111 122 109 107 101 100 106 97 90 105 88 95 88 90 111 118 114 112 131 132 136 147 147 159 142 164 148 170 163 175 168 171 180 180 187 188 174 189 188 186 179 180 174 177 176 183 174 177 166 171 170 167 171 166 168 167 174 162 170 148 140 141 133 123 124 129 124 136 144 135 143 143 140 150 157 162 154 163 170 169 179 166 173 172 186 173 186 174 186 181 167 136 118 97 89 82 88 82 95 67 29 18 5 -3 3 -3 -2 6 -9 2 -4 2 -18 6 -9 -10 9 9 -1 -2 -7 -1 -13 4 -6 0 -5 -5 4 3 3 7 1 6 0 -4 10 -2 1 4 -7 8 1 -4 -12 2 -4 8 -4 10 14 -3 3 5 -1 6 15 9 -17 6 1 9 -8 5 2 -7 2 4 -4 25 -2 11 1 0 1 8 1 21 14 -1 -2 2 -1 -7 3 -4 18 12 -8 -3 2 -10 -3 -3 -3 -17 5 -2 4 -2 2 -8 -9 -2 -13 1 -16 4 -5 -2 3 6 -6 0 -8 -2 -4 6 -1 -6 -7 5 -1 -10 1 -25 5 2 -8 -9 -2 -10 -4 0 1 -5 2 7 5 -3 1 2 4 3 -11 6 -14 -4 14 -11 -11 7 1 -9 5 0 4 6 1 3 4 6 -1 -5 -3 2 -5 -4 6 1 -4 -1 -3 0 -2 -5 0 3 2 -13 11 6 -8 1 7 -1 -7 -1 -5 0 0 5 -1 -9 0 4 8 0 1 4 14 -2 3 4 4 -2 4 10 -6 7 -4 -4 4 3 -13 7 -1 10 10 3 4 11 -4 14 -1 12 8 -2 -3 -1 8 1 9 -1 1 9 0 -6 8 -3 5 10 12 2 2 4 -8 2 -8 -1 16 11 9 13 5 8 4 6 4 11 14 0 2 2 -4 6 2 4 3 12 -5 2 2 
4 -1 -4 3 -11 17 -9 16 6 17 -2 3 5 8 -9 3 0 -6 0 11 2 -2 7 3 1 2 1 -4 11 10 15 1 14 2 8 3 12 0 11 -9 5 6 0 -5 -9 0 2 5 -4 -6 -4 3 -6 -4 -11 -12 -2 -5 1 3 -16 -5 2 -10 -15 0 -14 1 -14 -10 -3 4 -2 4 10 -17 -10 4 0 -2 -5 -1 -3 2 3 -5 -8 -1 -6 -4 1 -4 2 -10 -2 15 2 -5 -3 4 -12 3 -1 4 4 -2 -7 -10 -2 7 3 -12 10 4 -7 3 4 3 -8 -14 10 -17 10 4 2 -6 4 0 -3 -2 3 7 -11 13 12 9 2 -2 2 14 3 -12 -5 9 1 13 57 74 89 123 170 187 183 176 182 183 187 202 185 199 184 183 192 184 180 186 182 166 174 186 153 174 165 155 133 100 62 59 24 12 0 1 16 9 0 -7 5 -6 2 6 0 -2 6 5 12 15 5 12 -5 2 2 4 6 -5 15 17 17 12 15 -11 1 3 9 10 11 4 -6 12 7 12 -3 -8 -19 1 -9 3 13 9 1 5 -12 5 -5 8 6 4 9 3 -4 -18 10 -7 1 -11 7 -5 -3 19 36 56 75 76 59 78 84 115 120 135 138 133 120 118 111 102 91 90 91 90 90 88 88 88 83 84 80 89 103 102 110 131 119 129 129 126 132 128 124 108 130 143 144 149 159 161 171 165 172 172 168 178 167 170 179 173 174 185 166 171 168 175 171 180 172 178 156 157 172 164 155 157 171 160 163 165 159 155 149 145 138 134 136 134 135 145 123 133 127 121 134 122 118 121 131 150 145 157 156 159 157 161 161 175 177 168 176 166 175 194 174 190 182 163 143 106 102 68 89 92 85 81 41 21 -2 9 6 8 0 4 -6 6 11 2 7 5 -3 5 -2 -3 -7 1 -15 -9 -8 -1 -2 0 4 8 8 -1 5 1 -3 13 -4 2 6 -6 -10 -11 -5 -4 4 1 -1 -2 1 0 3 -6 2 15 6 9 17 -1 -11 -9 6 -4 -2 2 -4 11 -4 10 5 5 -5 -8 8 10 -2 14 5 4 1 6 -1 9 5 2 -3 8 -6 7 -4 -2 -7 -4 -17 -2 7 -1 -5 -5 6 6 -2 6 2 -7 4 9 -4 0 -5 -2 -2 1 5 -2 -2 1 1 0 -17 -5 -2 -8 7 1 0 5 -3 -5 6 8 2 -2 6 -16 -4 -3 5 -2 1 -6 2 1 -11 0 4 -10 1 3 0 12 0 -1 0 -4 -6 14 -1 0 -3 5 7 -12 3 -2 0 3 -1 -14 1 1 3 8 -8 9 7 8 -13 12 5 9 -3 -10 2 -2 -8 2 9 -8 -5 -2 -8 0 11 0 -11 -4 -6 -6 4 4 0 -7 0 -7 6 -3 9 6 5 9 -1 -2 2 10 3 8 4 -2 4 10 1 3 5 6 -3 8 8 13 -2 14 12 12 1 6 16 10 6 11 14 4 10 4 -3 5 -2 6 5 2 -4 5 3 -9 4 6 5 4 9 7 7 11 -10 -4 1 -5 5 15 -8 2 1 15 6 -4 
3 -8 -7 -6 -5 -8 9 14 -4 -2 13 4 8 -2 5 -7 -2 4 -3 -1 8 6 1 -5 0 16 -2 9 0 4 11 2 -2 -6 8 14 9 14 13 17 1 0 23 -3 4 -2 -6 1 0 13 -3 -2 -2 -6 -5 -1 -2 5 -6 -5 -3 0 2 1 0 7 0 -3 -12 16 3 11 3 -4 8 2 -10 -7 -5 9 -18 -12 -9 -13 -3 -1 0 -13 6 11 -10 -7 -9 3 -4 2 -8 -4 0 2 -6 4 7 0 -8 -7 7 -13 9 -1 5 6 -1 -3 7 0 -6 1 8 5 -5 14 1 -2 -6 5 4 4 7 11 2 1 -9 -5 3 5 8 -1 -1 -10 0 -7 11 4 2 0 10 62 86 91 143 170 183 181 180 177 181 188 185 182 187 191 185 173 188 178 177 184 170 176 181 168 174 153 152 128 99 58 54 21 12 7 7 1 -2 11 3 -6 6 -5 -1 12 2 3 3 3 6 12 -1 -1 11 11 14 11 9 -2 1 -3 1 9 12 10 3 -1 -5 7 5 9 -2 -4 -4 -5 -3 5 -14 -7 12 3 0 15 2 -6 8 0 1 -4 3 -1 -3 -3 -13 -9 -8 -12 22 61 72 75 62 68 77 103 120 137 141 117 122 112 101 95 91 86 78 71 74 69 75 59 63 72 72 99 113 112 125 123 123 117 122 118 124 104 129 133 128 129 144 133 134 141 138 152 144 146 151 147 149 150 168 162 170 166 167 160 167 153 170 161 171 159 158 158 165 166 159 161 171 165 164 178 162 151 159 162 148 131 144 136 120 126 127 145 128 123 142 127 138 144 128 135 117 130 112 125 115 120 111 153 150 150 160 157 158 176 177 166 173 172 180 171 173 178 175 181 171 170 132 116 95 82 85 81 78 40 22 -9 8 -4 7 11 0 8 5 0 -5 3 3 -2 9 -21 -8 -16 9 -7 -7 3 -2 -5 14 10 7 -1 6 7 6 5 13 11 18 -3 2 0 6 -1 -12 2 -3 -3 0 12 -1 0 12 14 9 1 0 8 0 13 7 -9 -6 -2 0 14 7 8 6 -2 13 10 10 6 14 1 6 -4 13 -9 -4 -3 7 6 6 3 -3 -3 9 -2 -8 -1 -10 -7 5 -9 -2 -4 -1 -4 -1 -9 7 -15 3 -2 -14 5 -8 -6 0 -8 -4 -6 -7 -4 -6 -3 -4 8 -18 6 -14 1 1 9 5 0 -7 0 -4 -6 7 9 5 -14 -1 1 2 -8 10 9 -5 -5 -4 12 4 2 -18 3 10 -1 8 14 2 5 -1 6 3 -4 -7 -2 -8 0 -3 0 -4 -1 -5 0 5 -7 -11 2 18 -1 -17 -6 1 10 4 9 3 3 -10 -3 4 -13 3 -5 2 -8 -4 0 -10 4 12 3 3 1 -3 8 -9 5 -3 -6 0 -12 2 7 1 2 7 5 8 -2 1 11 10 8 3 21 2 8 4 -11 19 0 14 2 12 -3 2 7 -3 5 10 19 13 3 -1 14 -1 -2 5 -1 -2 -4 3 11 3 14 -4 13 -1 8 -1 4 7 7 1 9 -4 14 -5 12 -3 9 -2 10 
1 -8 -5 -1 1 3 8 4 -1 11 9 6 10 6 17 0 1 5 7 -1 5 -8 1 -1 -12 -1 8 -4 -1 -2 2 8 6 -4 6 0 9 6 -3 0 -6 1 4 -9 6 1 2 11 3 -14 -1 1 -3 1 0 -8 -2 -7 -1 -5 -4 -4 -11 -14 5 -10 0 1 -1 -3 -10 -1 -2 -6 -3 -5 -9 1 6 -1 6 17 -12 5 -5 -4 -4 4 -9 5 -5 -1 -5 2 -3 -9 6 7 -2 -7 2 -10 -4 3 -8 0 5 3 -2 3 -1 6 10 -3 8 8 6 14 -6 5 -3 -5 -5 8 6 -7 -1 1 4 8 2 7 -7 2 3 0 13 4 -1 -1 5 -4 -2 -10 6 -1 -7 4 60 84 92 146 188 183 179 179 195 190 189 185 186 182 185 193 179 180 183 162 170 172 169 179 173 162 146 147 127 84 70 51 13 1 26 5 -4 5 15 -5 -2 1 0 3 1 2 11 10 6 2 13 -10 4 -3 -13 8 5 3 2 1 2 4 1 16 5 15 6 -1 -7 4 9 10 2 4 5 8 2 6 -4 3 -4 11 -7 10 17 3 -11 4 -3 8 2 -6 -4 28 47 82 79 63 60 76 86 114 122 130 112 89 77 87 66 63 54 53 47 46 37 48 52 46 67 85 97 104 120 110 112 104 110 111 118 125 144 149 140 155 151 157 152 146 150 161 135 153 145 140 135 152 148 152 146 137 146 146 155 157 151 153 160 167 166 166 164 153 158 151 154 161 158 153 155 149 157 145 152 155 158 149 153 142 144 127 143 124 115 128 133 133 126 119 129 122 136 129 137 128 129 131 149 135 136 131 125 122 124 115 137 142 145 156 166 174 145 182 175 160 168 162 169 180 182 170 164 149 121 111 83 79 96 67 42 8 -7 0 8 2 -7 3 0 8 -5 5 -2 9 -1 -3 1 -6 -9 0 -7 -11 -14 3 0 -10 -3 1 1 5 -7 6 6 7 6 9 -4 3 11 4 18 -7 -2 -7 -3 10 -7 9 6 12 -3 -5 14 -6 4 9 3 4 9 10 6 -4 4 11 -5 11 -7 9 6 11 4 13 -1 5 3 1 -9 -4 10 10 10 11 -7 9 -4 7 6 3 -7 8 -2 -13 1 -1 -2 -21 -11 0 -1 7 -11 -3 4 -5 7 -14 -8 -1 -1 -7 -5 -9 -3 -8 -8 16 -11 -5 -1 -26 -6 -3 -11 -4 2 -7 0 1 2 9 0 8 -3 -3 -2 -6 -1 -2 3 -11 0 0 2 -8 16 11 7 5 8 9 4 6 -6 1 -6 4 7 6 -6 14 0 8 -7 6 5 5 -13 9 11 0 6 1 4 1 -9 -4 -5 14 2 11 -1 1 -11 4 -6 -2 9 -11 -11 0 3 3 -1 -5 5 -7 6 1 1 4 3 2 -2 2 21 3 -3 4 0 5 18 4 1 5 7 2 4 10 5 5 19 3 -2 13 6 10 9 7 -1 0 6 -15 -1 9 2 -3 2 1 6 2 -7 3 -11 3 7 -8 7 6 5 -14 2 0 -2 2 -2 -2 -6 -16 -1 -3 10 -3 3 -2 
-6 4 -3 9 -7 9 8 -3 0 -5 -1 0 1 0 0 -15 2 -3 -3 -16 6 9 -3 0 7 10 -7 14 -13 1 4 -4 4 3 4 -3 2 14 2 -6 9 -7 -8 13 -14 -3 4 -1 4 2 0 -3 0 -1 0 7 0 3 -6 6 -2 0 -8 -2 1 0 0 -2 -18 -2 -5 6 -10 -10 -5 -8 -10 -10 8 -1 0 -4 8 -10 -9 -16 -8 -1 -11 8 -8 -10 0 -4 0 1 0 -9 2 7 -5 6 10 -4 4 -2 1 3 -11 -6 0 -4 -3 9 6 -4 1 -1 -1 0 4 6 3 -1 -2 6 9 -8 9 3 1 1 13 1 13 4 3 9 1 2 3 -3 -2 -5 10 -11 -2 0 10 67 90 91 150 178 163 184 185 183 190 199 185 184 189 188 186 190 181 190 187 184 178 176 166 162 162 147 129 116 63 48 18 5 4 10 12 7 7 6 -1 4 15 -2 -2 5 1 -4 4 -4 13 0 10 14 1 9 3 -7 9 2 -4 12 12 -1 -8 -13 7 3 3 9 2 7 8 1 11 2 0 9 6 1 4 5 -8 -5 7 -3 -6 2 3 -9 -7 27 73 87 70 54 86 104 113 124 124 109 90 70 77 58 53 53 47 35 39 27 35 60 57 61 91 105 105 100 109 101 105 128 148 154 160 158 150 158 159 160 158 155 157 165 146 160 160 148 159 167 148 152 144 149 144 145 134 138 143 145 147 144 163 155 164 150 162 149 150 156 145 164 150 148 154 167 145 154 163 150 151 155 147 133 146 139 143 128 129 132 142 134 147 138 122 119 117 118 110 105 83 89 87 75 69 85 85 84 96 108 109 114 114 111 108 118 120 132 139 163 152 164 163 178 170 165 174 172 178 163 176 158 137 113 103 80 74 89 65 22 -4 -4 -1 3 9 1 9 -4 -3 9 -1 -3 7 7 6 1 -9 1 4 -20 -9 -5 -6 -5 -1 -9 4 4 -3 12 -10 -2 4 13 11 -2 5 18 5 7 4 -3 1 -9 5 -4 3 13 7 11 9 -12 0 -4 -10 12 8 -7 -5 7 17 0 7 6 0 4 -7 -15 6 -5 -7 -6 4 -9 1 0 7 2 7 1 0 7 10 -4 9 7 -4 -5 -3 4 0 -8 3 -2 4 -1 -7 -6 4 5 -6 -16 -8 1 0 -2 -1 3 -1 -9 7 -16 -5 -5 -5 -4 -9 -3 -12 -9 -1 -4 4 -2 -4 -3 -1 -9 13 6 0 8 -7 15 -8 -2 7 -17 8 3 -10 11 4 3 19 12 8 1 -12 6 -8 -7 1 1 5 -10 1 -13 4 1 -9 4 5 -6 6 -7 -2 -9 2 5 -1 -1 2 -9 2 4 -6 -6 -7 -8 2 -8 5 -9 -4 1 -12 1 1 -6 10 3 -6 -4 4 -7 -6 -9 0 -6 -1 -2 2 15 3 9 -4 10 8 9 -3 8 9 7 -1 8 6 2 7 -2 7 4 3 19 -1 2 9 12 0 7 7 10 0 -5 -1 4 13 11 -1 2 1 8 -4 -4 8 4 8 0 -2 12 17 3 0 1 -5 8 21 15 2 -4 
-6 -11 10 -8 4 3 -7 5 5 -7 10 -8 2 8 -9 4 0 -6 10 9 -6 15 -1 11 -2 1 7 -15 -4 1 -5 4 0 -9 9 4 -5 3 0 -3 6 -6 1 -7 5 6 7 -9 4 -5 -7 4 -3 10 0 7 5 -9 5 4 13 9 -15 -1 -4 8 -6 -6 -7 0 -5 -3 -9 -6 2 -9 1 -3 6 -10 0 5 -5 -3 -9 -5 -14 3 -3 -9 -10 0 -6 -3 -3 -8 13 -10 -5 0 4 -6 -6 0 -4 8 -11 1 4 -3 19 8 3 8 5 14 -4 3 1 10 -3 -2 6 0 4 1 -7 8 1 10 11 4 10 -2 1 18 1 4 9 17 0 4 -4 5 -3 3 1 -4 7 19 69 89 84 166 180 169 175 186 184 187 187 188 176 178 190 190 187 176 176 182 170 173 169 177 164 160 144 137 97 56 51 2 21 18 -16 18 1 17 -5 -7 -2 8 3 -1 12 3 10 -7 2 0 11 3 6 -5 -1 6 5 1 15 -7 -11 1 14 -8 4 1 8 9 3 -2 -7 2 7 4 4 3 1 -1 3 5 -3 -1 2 -1 -11 -5 8 53 85 81 73 76 90 119 123 106 91 66 66 53 53 53 41 31 10 22 11 14 35 56 68 74 67 85 77 79 98 124 142 149 164 158 150 163 167 152 159 157 154 160 151 156 169 168 159 162 166 158 161 151 152 147 162 142 147 143 135 137 144 145 144 154 145 147 145 141 137 145 145 147 160 153 156 155 161 148 152 157 152 155 161 159 146 158 141 143 147 144 126 125 123 106 109 95 75 72 73 76 73 64 73 64 67 60 71 66 76 64 52 56 60 54 59 84 90 102 94 92 92 98 121 127 148 161 149 166 163 158 163 171 161 170 176 155 137 130 112 83 70 72 74 35 16 -17 -6 -12 1 13 0 1 6 9 3 3 17 7 10 -8 -9 13 10 9 7 -12 -16 1 5 -6 2 -16 3 6 0 -4 -10 -11 12 12 7 8 11 4 7 -6 19 -1 -2 1 -1 5 -8 -12 -4 -20 -6 11 7 6 6 7 6 4 -3 2 2 -15 3 4 -5 3 3 -7 -3 1 4 11 -1 1 -7 -5 -1 1 -7 10 1 -11 -2 -3 -6 -2 1 7 -7 2 -9 -2 1 -1 0 -14 12 -9 3 -9 6 -10 -9 1 -8 -7 -16 10 -11 -6 -12 6 -2 -14 -13 9 1 -2 -8 -8 2 1 -8 3 -1 9 1 -1 10 1 3 7 -5 -8 3 2 5 -9 5 -4 5 11 2 13 16 2 9 -12 8 -7 -2 2 4 -2 0 -5 6 -6 7 -10 5 6 -6 9 17 -6 -13 -3 -2 -5 -7 6 6 -5 3 1 -7 4 -14 -7 5 6 4 -2 7 4 0 -1 12 3 -4 -9 4 5 3 12 6 -9 6 15 -10 0 5 2 -11 3 1 11 9 -1 7 -2 11 6 17 15 3 3 6 1 -1 10 11 3 6 14 5 4 2 -4 13 4 6 0 7 -5 -1 2 1 12 7 22 -15 7 6 -6 7 9 12 0 7 5 -1 8 1 6 
6 7 7 11 -4 8 2 0 -4 6 3 2 -3 2 10 -3 7 4 8 0 -2 -2 6 12 5 1 0 2 -10 -1 13 -2 9 1 0 -2 -2 -14 6 -3 9 -6 -9 -12 5 5 8 -8 10 -3 11 0 -3 11 -2 -3 -11 -1 -1 4 -13 -6 3 -4 -15 0 3 -3 5 -7 -6 2 -9 -4 -17 -4 -10 -5 5 5 -5 -7 8 -5 1 -1 -8 -6 -3 11 7 6 -3 1 3 -5 3 3 14 -5 2 -4 -1 -3 -2 -8 18 -1 -3 -3 -1 6 7 7 9 4 6 2 3 -4 5 11 -5 11 5 13 -5 12 -1 -3 5 -1 12 6 11 15 -1 14 6 14 15 1 0 5 8 0 6 -1 6 12 30 83 81 114 163 180 175 184 183 199 193 179 183 187 185 177 193 175 189 176 182 184 170 178 165 156 146 139 123 66 56 28 15 5 3 13 6 -2 13 6 11 12 4 13 7 2 9 13 4 4 5 3 3 -3 -1 2 8 4 -8 -8 -13 -1 4 0 7 -4 4 9 -3 9 8 -8 2 8 7 -12 2 -6 -14 -3 15 4 -3 12 14 64 90 62 69 98 97 127 119 92 77 66 48 57 54 27 17 19 6 7 7 34 47 84 77 72 73 70 117 114 142 150 158 150 138 147 154 147 162 146 160 139 153 151 161 158 157 170 163 159 164 144 172 163 155 172 158 163 175 163 142 166 151 143 142 145 133 144 146 143 147 137 149 134 133 135 141 147 141 143 135 138 150 150 152 150 142 142 129 140 114 120 102 94 79 89 67 77 66 73 64 61 56 68 64 60 43 48 64 51 47 49 45 54 40 50 57 63 42 54 54 50 53 75 80 87 94 94 115 115 129 146 136 137 138 128 144 136 134 142 148 158 142 147 125 97 73 75 79 46 7 -9 -2 1 -1 3 4 1 3 6 3 1 -3 13 3 10 0 -5 10 4 -1 -3 -7 -6 -2 -2 -11 -12 3 -3 7 -10 8 -2 14 -2 2 5 12 12 24 -1 -1 9 -13 -3 -4 -2 -2 -15 -10 9 -7 12 0 -13 3 8 7 -6 2 5 -6 2 1 -4 8 -5 -3 23 1 1 7 5 3 12 -1 5 -8 -9 -5 -7 -4 -4 7 -3 -4 0 0 2 10 5 7 -12 -4 10 -21 -10 -1 -3 -13 13 -7 -1 0 -2 -3 -4 -5 -17 -11 -9 -6 -6 0 1 4 -6 7 9 2 -11 -4 -6 2 0 0 7 0 -4 -12 -10 -5 5 2 9 -4 12 -4 8 3 5 10 3 6 0 3 -6 -7 4 15 -8 -2 6 6 6 -3 0 -2 -5 -8 -5 -2 6 -6 19 -5 -2 -3 -2 10 1 -7 3 -2 -3 1 -8 -6 -1 -14 10 -1 5 -1 -4 -1 -6 -3 -10 2 -3 -4 1 -10 -5 2 -2 -1 -1 5 5 10 7 -2 -3 9 -3 3 8 -5 18 11 0 9 -6 23 2 -1 0 1 5 4 15 4 4 3 20 0 -1 -2 6 -9 8 -7 3 11 -1 2 -3 -8 1 -1 9 -8 -2 -2 14 3 2 3 -10 0 -2 -9 4 
-15 -1 2 -2 7 8 4 5 -1 -2 7 8 7 8 10 -2 6 -6 -8 -8 -15 -5 9 2 5 6 -8 9 -8 -1 15 -4 4 8 2 -3 -14 4 -5 -7 -8 2 -12 3 -6 -1 -1 13 -3 10 -1 1 4 -10 -5 13 -1 11 -14 4 10 2 0 -3 5 0 -5 1 -1 -2 -13 -14 -5 -2 -4 -1 -1 -3 -1 -10 1 -1 1 4 1 -8 3 -2 -9 -6 -4 14 2 3 -3 -12 1 -3 3 -1 -2 0 -16 3 6 1 0 -4 -2 -3 -1 5 -15 5 12 2 10 2 7 6 8 1 15 7 3 7 7 14 -1 5 8 -2 6 9 4 8 9 10 -10 9 6 -6 -2 -5 13 -2 6 -9 -2 -3 9 31 82 78 143 183 160 187 186 181 179 190 182 186 183 182 184 181 182 181 185 176 170 182 166 167 148 148 133 87 55 66 19 15 3 12 3 3 -6 4 -7 6 9 6 -2 14 -8 18 10 1 2 14 -2 -7 4 -13 -6 5 -3 3 1 7 16 -1 2 -9 0 -10 -4 -1 4 1 1 4 -13 -2 -2 5 -5 -1 2 9 33 84 89 77 73 98 108 97 86 79 49 33 38 33 4 9 -3 -11 3 18 29 61 78 92 67 67 100 121 149 146 155 160 150 161 173 143 139 154 154 153 146 161 164 157 148 158 150 157 148 158 151 142 154 151 159 149 146 166 155 154 162 158 170 147 156 149 149 150 144 147 133 154 151 142 143 135 147 145 138 135 153 144 155 154 148 169 140 146 143 118 108 84 84 84 78 68 62 62 44 59 46 33 41 25 25 26 28 15 21 3 8 8 12 16 14 12 12 19 9 22 27 34 20 32 26 31 30 55 89 61 71 101 107 102 136 120 100 122 97 109 111 115 115 115 121 147 147 140 120 108 76 68 85 54 24 -6 -4 12 18 7 12 7 -3 0 7 12 3 0 1 -4 18 4 10 -2 14 -11 -4 -1 -7 -4 -1 1 -2 11 4 0 -10 -9 8 -10 9 12 12 5 7 3 13 8 5 2 -4 -10 -1 0 10 3 -5 6 7 2 3 -5 9 5 8 5 -17 8 -6 9 3 5 -3 9 1 -6 -4 -5 6 12 -5 1 1 2 -9 -2 -5 -8 -6 -7 -5 0 4 6 -2 2 -6 -3 -17 -8 -7 7 -12 -6 6 -3 -15 -11 4 -20 2 -16 -1 -4 4 -4 -10 3 -2 1 -10 -7 6 7 0 3 0 -9 -1 -3 -5 3 1 -3 -1 3 -3 4 3 11 -8 12 0 -10 6 -3 2 5 -1 8 8 -3 -3 10 11 -10 1 -1 -7 4 8 -2 8 -2 8 5 7 -7 10 -4 1 -2 -2 3 -6 -2 10 1 11 -2 -1 3 -2 -11 6 8 0 12 4 -2 5 -1 8 -2 5 -6 8 3 14 14 -8 0 10 -8 -1 -6 3 14 4 9 3 17 0 1 -3 -6 18 -6 1 -2 -1 11 0 15 -6 10 18 9 13 -3 7 5 8 -12 3 0 3 -2 8 1 0 6 17 3 2 6 -5 -2 -1 -1 1 -4 4 7 -8 4 3 6 
4 -11 14 -5 2 -8 -3 -3 0 11 9 6 1 3 -13 14 -4 -7 -6 6 -14 4 -10 12 1 10 12 6 6 3 4 5 -3 -14 1 -11 -11 -2 8 -5 -8 1 8 -3 -7 2 -8 3 -2 -5 -3 6 7 5 5 4 0 -1 8 3 -11 -4 -11 9 4 -5 -6 -1 1 5 -5 4 -10 -8 2 -5 15 -7 -2 4 -7 -4 -1 -5 -5 9 -5 1 3 -11 -3 -6 1 0 -2 -11 -1 -8 -1 -14 3 12 -13 -15 9 2 10 -12 8 2 12 2 -6 -3 7 1 1 14 12 8 3 -1 8 0 20 1 -1 4 5 7 7 5 16 10 11 4 13 0 4 5 2 -3 5 4 -9 -7 1 -6 1 9 9 12 57 95 98 163 157 190 184 186 186 186 182 193 195 187 171 185 190 190 183 188 171 178 169 159 154 145 140 110 73 62 31 4 4 0 2 6 4 22 8 6 7 3 -1 7 2 10 -8 0 3 0 3 6 6 -3 6 5 8 8 4 4 8 -1 -5 8 -2 5 0 4 1 -9 6 -11 -10 -3 14 -2 2 6 39 85 91 65 78 98 107 89 80 66 62 40 19 18 3 -7 0 -1 -2 36 50 75 70 75 81 106 134 141 159 153 158 154 161 161 161 155 148 149 163 152 163 159 159 164 162 164 157 155 170 154 168 169 151 167 150 144 150 153 153 160 151 164 161 154 148 155 167 152 158 139 151 153 153 152 140 156 152 143 142 152 140 157 152 151 151 151 155 150 169 167 133 96 80 71 64 52 58 26 31 12 15 8 -1 -4 -2 -1 -1 2 -2 13 11 11 17 21 18 10 20 13 22 28 21 27 20 17 32 20 31 21 32 23 21 57 69 73 64 77 87 106 103 121 104 107 86 85 77 97 105 114 113 120 130 125 127 106 73 63 100 60 20 2 -12 1 -5 15 -3 1 5 9 -2 8 17 9 -11 15 -14 10 13 12 -3 6 1 5 -4 3 13 5 -5 0 -1 -8 1 -8 0 2 4 -5 -2 -1 4 4 8 0 8 -1 -8 -2 3 -1 -17 -1 2 -9 2 -5 5 -1 2 -10 9 4 -18 -1 7 6 1 6 0 11 10 15 -1 -6 7 -7 0 -10 -13 5 -3 5 4 13 10 -2 7 -4 2 -2 -5 -14 -12 -7 -12 -11 -3 -13 -15 9 -5 2 -6 -17 -2 9 0 -17 -15 -17 -9 13 -6 2 -5 -12 -6 -2 4 -16 4 -8 0 -3 -7 -1 -7 0 -7 -7 6 3 2 8 -4 4 -1 -5 4 4 3 5 -1 2 3 -5 5 10 2 2 1 11 1 -5 -7 12 1 2 8 -4 -8 12 0 0 -2 -10 0 10 9 -1 7 -3 -3 1 1 -6 -3 5 1 -4 11 2 -1 10 5 4 3 0 -2 -9 13 3 8 5 5 9 12 6 2 19 -7 13 12 4 7 0 9 -4 10 -9 -7 12 -1 11 0 -4 -5 3 9 5 -4 9 5 7 5 -6 6 5 -7 6 24 4 -2 -4 2 15 -5 0 4 9 0 -2 0 7 7 1 6 -7 -2 6 -2 -8 
-4 4 -5 -9 -7 -5 -3 13 14 -3 -12 3 -1 2 -9 -5 8 -17 -2 -5 -1 -2 0 -4 -12 -4 -3 1 7 1 9 -3 2 -22 10 -3 -9 1 9 6 -7 -2 -1 0 -1 8 1 2 -3 0 -1 3 -9 -1 0 -13 -2 0 -1 -7 9 -5 3 -1 -3 6 -1 5 14 -8 -9 4 -17 3 5 0 3 -3 -8 -4 -12 -2 -12 -4 -10 -8 1 -4 -9 5 -2 4 -6 -10 2 -1 0 5 0 6 0 17 -10 -2 14 -2 1 5 -1 9 2 -2 15 13 8 9 -1 4 10 7 -6 9 -2 6 -4 -2 16 4 4 -7 2 8 -13 2 20 9 5 5 -5 7 2 4 -4 -6 2 8 5 6 5 7 9 11 39 81 72 138 164 185 182 192 179 185 182 189 177 173 184 176 185 179 184 178 173 168 175 161 157 151 140 111 93 57 45 17 -7 6 7 -3 -3 1 1 -4 15 2 -3 -5 7 -4 6 2 0 -1 8 2 -1 0 0 -9 2 4 3 -2 1 -10 6 1 5 14 5 12 -11 4 -9 2 3 6 -1 3 21 77 80 62 83 103 114 105 78 79 45 28 13 -1 -8 -6 -5 -7 13 55 87 84 78 83 87 128 160 154 154 156 162 152 165 148 152 165 161 158 158 146 160 163 157 153 157 161 173 158 157 174 155 168 166 164 147 167 152 167 160 156 154 154 153 159 158 157 162 150 149 156 163 151 149 153 156 169 160 154 163 151 145 150 136 153 154 148 150 165 154 168 150 138 99 99 52 23 23 12 0 9 8 -2 -4 26 6 16 9 8 1 11 10 7 11 21 22 16 25 20 28 22 18 34 28 36 23 29 47 23 27 29 28 21 35 34 29 30 62 81 73 64 57 58 64 77 96 86 52 62 53 60 86 101 90 122 127 130 114 102 77 58 90 53 8 4 -4 -1 1 3 12 10 0 4 -4 16 10 -4 21 4 -3 6 12 1 15 -1 1 -5 0 -3 13 6 -2 -15 1 3 -3 -2 7 -4 -13 -1 2 16 0 -2 -6 -8 -6 9 12 7 3 -5 7 -2 -9 2 2 4 -2 -14 1 2 14 5 2 5 2 6 6 12 3 -7 -2 7 12 7 -8 -9 1 0 -4 -4 -3 1 -14 -3 -2 -2 1 2 1 -4 -16 -21 -5 -10 -3 -11 1 -7 -4 -9 -7 -16 -12 -13 -5 -15 -8 11 1 0 0 10 -11 -14 -8 -1 8 -11 -4 -14 -11 1 -5 -4 5 8 -12 -2 5 -8 14 5 8 5 2 4 -16 -11 17 -2 9 -4 0 7 -7 0 10 -1 9 2 7 -9 -8 6 3 5 5 2 12 6 -1 21 -10 -7 3 1 7 -3 6 -4 -3 -3 9 -3 -2 -1 -2 3 7 4 4 12 5 9 -3 -4 3 3 10 -4 7 14 -12 2 12 6 3 5 15 2 3 11 -6 12 0 3 6 6 -3 12 11 10 -4 7 1 6 10 10 7 1 -7 10 -2 -6 15 1 -2 4 0 8 3 15 16 8 -1 0 4 11 10 12 -7 1 -1 7 6 3 -3 -5 13 10 
13 2 -3 -5 1 -1 13 -2 5 -2 -4 -10 2 0 -3 -9 -5 -6 -6 1 -3 2 -8 5 -4 6 11 9 1 2 2 3 -7 5 0 -2 7 -4 -4 11 -2 -6 -2 -3 12 -1 -8 -3 -1 5 -7 7 -12 2 -3 16 6 1 5 11 -5 2 14 -19 1 9 -4 17 3 -3 2 -5 -5 11 0 -3 -1 -2 -3 -8 -10 2 0 -1 -8 -12 -5 -2 -3 -9 8 -5 -1 -11 -9 -8 -11 -14 -11 -6 6 5 -10 5 -4 1 1 12 12 3 0 3 7 10 1 3 6 6 1 -13 5 7 7 -1 6 9 17 4 8 14 4 -1 10 2 6 9 -2 3 0 -4 14 11 10 -2 3 2 9 3 8 4 16 1 6 52 93 96 154 178 185 180 190 208 184 191 182 191 183 171 172 178 183 182 175 168 164 172 170 146 142 117 110 71 50 26 12 5 6 3 -1 3 -8 6 -1 9 -2 -15 2 0 -9 -6 -5 -4 -8 7 9 -5 6 -4 7 6 17 -12 5 -5 4 -2 4 2 -8 -6 1 -1 7 7 11 4 14 56 101 78 74 108 91 104 76 52 50 28 13 5 6 -3 -5 7 31 69 85 82 66 100 127 142 167 159 162 172 157 162 171 172 155 155 162 163 154 150 156 161 160 162 141 164 165 165 154 166 183 160 162 157 159 161 166 159 159 156 156 160 170 174 171 156 163 144 162 153 159 165 162 163 178 164 169 171 173 155 157 164 149 152 157 160 151 167 168 158 158 162 156 135 106 94 14 5 8 0 8 10 5 16 11 14 23 13 16 11 15 32 5 23 29 20 29 22 28 33 46 32 20 33 27 37 30 37 31 39 39 34 46 36 27 45 30 35 45 43 55 78 86 92 83 59 53 44 82 32 43 67 73 49 68 81 103 107 107 141 124 115 84 77 83 27 -1 15 7 -2 -9 4 -4 1 3 1 0 9 -12 0 3 7 19 1 -6 13 11 -9 6 -11 -1 -4 1 -4 -8 -5 -6 9 8 -10 -4 -6 -1 10 6 -11 0 -5 -4 5 22 4 3 -1 8 -13 -1 4 -2 1 5 2 1 11 0 -4 -7 -1 2 10 1 14 -7 7 10 8 5 -6 -2 -6 6 2 11 -9 9 -11 -1 6 1 -8 -13 -3 -5 -3 -1 -16 -2 -8 -21 11 -4 0 -1 -2 1 -8 2 0 -8 -2 2 -9 -12 -14 0 7 -8 1 -1 -12 -3 -3 -7 -6 -7 -1 7 -10 7 -6 -2 -7 0 10 5 5 3 -9 0 -1 5 -1 3 5 -8 9 0 12 13 -2 6 2 -5 -2 4 -11 -4 -4 -9 7 5 19 -4 5 4 3 -8 7 -10 -6 6 -5 8 -4 -6 4 -12 9 -1 -4 -6 -3 18 13 -7 1 16 10 7 2 4 -6 -3 5 -3 -8 0 3 -1 8 -1 8 -4 9 9 -4 -9 11 -4 15 -3 1 -6 0 -1 -4 7 3 -3 -8 0 6 -5 10 4 1 8 2 9 -4 7 5 6 5 5 7 -3 1 11 15 5 -3 5 -2 0 2 7 1 5 5 6 -9 0 -4 
12 10 -7 -5 12 8 -8 2 -16 1 11 4 3 -2 2 -6 -10 0 5 -7 -6 -4 0 -1 -6 3 5 -4 -1 1 8 5 -4 -15 2 0 5 3 10 4 -2 -7 9 -14 -5 8 2 -2 -6 -5 -1 -15 -8 10 -12 -1 -6 3 3 6 12 0 -1 3 9 -6 -8 4 10 -7 3 6 1 2 0 -3 3 6 0 -6 -3 -1 -9 2 0 -5 1 2 -3 -13 -11 -6 -5 -5 3 -6 7 -3 -14 -1 9 -3 -3 -3 -5 -4 4 -7 -3 -2 8 5 0 3 0 10 7 12 -7 6 -2 5 6 6 8 -6 -3 12 2 4 15 5 5 -3 2 6 -5 8 12 15 0 3 0 17 -8 6 0 12 9 7 13 5 7 15 72 79 128 179 183 187 184 178 184 182 176 179 182 189 182 187 174 180 178 165 162 171 166 161 132 131 130 85 58 45 14 13 4 -1 12 3 2 5 3 -2 -7 -2 7 -10 -9 -1 7 -10 0 8 2 9 -9 5 4 1 5 -7 0 7 7 8 -11 -5 -8 -2 14 7 8 4 15 39 99 75 68 98 88 79 84 61 47 23 -5 1 -1 -11 6 10 35 82 86 73 86 108 155 152 168 166 154 175 166 158 157 169 158 163 166 164 153 164 162 149 166 170 153 150 165 166 175 171 172 178 168 161 159 167 159 162 158 160 163 168 156 165 166 155 162 164 151 173 165 164 177 173 188 178 182 168 178 176 174 174 162 167 165 161 147 158 157 170 164 177 159 157 165 150 91 83 67 43 26 23 10 18 7 4 15 24 17 29 25 21 17 32 14 33 17 22 38 42 29 29 31 33 33 36 36 30 37 43 45 54 42 46 43 36 44 48 39 40 36 43 46 35 50 56 87 95 79 41 50 33 48 25 49 48 50 49 63 84 96 98 128 125 126 108 85 83 62 21 0 5 -1 2 -2 3 1 10 -3 15 5 -2 -21 13 -16 3 7 -7 -7 10 -1 -1 2 0 1 -4 -9 4 15 -2 11 -1 -8 7 2 7 5 -5 -1 -20 1 4 8 -1 -1 1 1 1 -2 -4 -4 7 8 -11 -1 18 7 -1 -7 7 9 7 3 -4 -11 -7 -5 0 -1 5 4 0 3 9 8 1 13 -1 2 7 -8 -17 16 -5 9 -4 -2 -10 2 -5 -10 6 -8 -6 -12 -3 1 -14 -7 6 -8 -3 1 -6 7 -3 -6 15 9 -8 0 -1 7 -14 -3 8 -3 -8 -4 7 0 2 -9 5 7 -6 -5 -11 5 10 -5 -2 -9 4 2 8 0 4 -1 7 -2 8 11 -8 -3 11 -11 8 -6 1 13 6 5 -3 7 7 13 9 9 1 -5 12 6 1 1 -1 -7 0 -2 -2 5 -7 6 5 -1 1 14 7 -1 3 5 -6 3 -1 0 2 14 8 8 0 5 2 4 23 -5 8 0 12 -1 3 -7 13 3 -2 6 4 8 8 -4 -2 4 -2 3 10 10 -6 1 -10 1 -8 9 3 0 -15 -7 0 9 9 12 -3 -5 14 6 6 4 15 4 -2 1 8 -6 -2 9 4 -4 -2 
-8 -1 -3 -4 -4 6 7 10 3 -11 5 -12 -7 -8 -2 2 -13 5 -8 -4 -7 -4 -19 -5 4 0 -7 4 -1 -2 0 -1 2 -4 10 -5 -4 11 2 2 8 0 8 -4 -2 -8 -2 4 -13 0 0 -3 10 -10 0 7 -4 -7 15 -1 -10 0 -7 9 -7 -4 -3 0 13 -2 -7 -10 -1 4 4 -8 -6 -8 1 -1 1 5 -1 5 -1 -7 -3 -17 1 -7 1 -3 -12 -15 -7 -6 -8 1 -8 -6 2 -4 8 -1 -8 0 3 10 -1 4 2 -4 -8 7 0 6 -2 0 -4 -10 -1 -3 5 9 3 4 -5 12 8 6 -6 18 13 0 20 1 22 10 12 2 2 10 2 7 20 7 3 10 4 2 5 17 8 1 34 96 95 169 179 177 174 186 184 173 179 189 168 188 183 181 182 184 184 173 166 165 164 158 127 129 121 107 64 46 33 4 -2 4 -11 10 -4 -5 4 -4 5 0 1 -13 -4 4 4 -6 0 -7 8 -10 -4 -2 -12 2 2 17 4 -4 9 6 -2 -1 13 6 0 4 8 33 80 88 61 86 90 86 75 74 45 20 2 5 4 -7 -14 18 56 71 82 82 88 127 154 173 174 161 167 163 163 163 180 172 162 158 163 161 162 150 162 150 163 155 154 150 162 173 170 165 164 158 175 154 171 167 166 165 174 155 167 162 163 159 150 155 171 165 151 162 164 165 177 173 170 177 186 182 181 178 196 192 188 180 181 176 183 168 172 170 159 168 169 168 161 155 162 166 125 87 72 63 50 25 40 39 38 27 22 37 40 41 33 16 37 29 34 39 48 38 37 37 29 53 44 29 34 54 45 38 38 49 46 44 45 54 48 48 43 44 44 44 55 41 49 51 44 44 49 49 63 58 59 53 43 44 25 34 37 45 36 60 72 90 107 137 156 142 119 91 88 75 51 9 -1 10 8 -3 -2 9 10 6 3 5 2 -14 5 -11 -3 -2 1 -3 -1 11 -13 -9 11 -11 -7 -3 -7 4 1 10 -6 -6 3 2 -2 -5 9 7 -11 -1 4 -3 -4 -5 6 6 -2 -8 7 -2 2 -10 5 3 2 -5 1 2 9 3 8 -1 2 0 -1 3 -3 -7 -7 -1 -8 -8 -2 -15 -3 6 12 -8 -4 0 -3 -3 -16 1 -4 -11 -11 -16 9 -7 -5 0 -7 -6 -4 -2 2 -4 -10 -8 -2 -10 -5 -5 -14 2 0 -8 2 1 9 -9 -3 -12 5 -2 -2 -9 4 -10 -6 -8 1 -1 8 7 15 2 1 2 -4 -6 0 0 -3 -2 6 5 -3 5 2 2 6 -3 -1 2 2 2 -3 7 12 10 24 3 1 1 2 -3 4 15 9 1 4 11 9 9 7 2 12 -5 6 4 14 0 12 6 -1 22 17 1 4 -10 -4 5 -6 9 3 0 6 -6 4 -6 22 1 -1 11 -1 6 7 6 5 0 11 4 4 25 -7 11 2 7 -8 -8 -1 5 4 -3 -5 10 6 -1 10 5 2 8 8 -1 -1 7 -13 -1 13 3 -6 5 12 3 10 -3 10 6 -8 5 5 7 
7 2 -14 11 6 -13 -7 9 -2 -7 -1 4 -15 -1 -4 -15 6 -2 -8 -14 -7 -5 -5 -2 7 0 -6 3 -4 -9 -1 -2 3 -7 -13 2 -4 -13 8 -2 -1 -5 -1 -2 4 1 -5 9 9 3 -2 1 2 4 5 7 -2 6 -9 1 6 1 -2 2 2 -7 -5 -1 -10 -5 4 2 -11 -8 -21 -4 -10 -11 -1 -8 9 -11 0 -11 9 -8 1 6 -6 -2 6 -3 -8 -3 -4 0 1 -2 6 2 14 1 2 -4 1 6 1 5 -11 -4 -2 1 8 0 -8 6 16 5 -4 0 9 2 -2 2 7 -1 15 9 8 12 2 -2 -1 7 0 5 1 -1 -1 1 4 5 17 4 9 0 15 5 2 11 7 5 7 19 22 92 71 114 168 192 187 180 183 179 191 180 182 174 186 182 187 179 185 176 165 168 159 164 151 136 127 114 95 54 40 21 4 -5 -8 1 -4 4 3 1 -5 -11 -6 8 -13 -2 1 -4 -4 -3 0 -3 -1 -10 8 -3 5 -4 -3 -9 -10 -1 -2 14 -1 -1 5 10 63 78 74 74 94 89 74 75 54 13 6 -7 3 2 -7 16 42 80 81 72 110 146 164 165 164 172 158 167 160 170 165 172 168 159 161 172 166 158 160 162 166 161 166 161 165 163 168 168 176 166 170 173 165 174 150 162 158 157 173 172 164 176 151 169 158 173 175 159 183 164 184 182 166 189 182 186 183 185 176 188 178 190 193 181 195 182 171 181 184 164 178 165 174 164 172 157 156 155 148 129 92 96 72 62 67 45 56 42 51 39 39 41 48 45 63 51 43 42 57 48 51 53 48 51 54 37 60 51 48 64 35 64 59 40 59 54 50 46 56 38 53 49 50 51 43 53 51 59 54 50 62 55 55 64 35 60 49 33 18 25 45 36 51 57 89 106 139 146 168 154 108 82 79 71 18 -7 7 15 10 -1 -1 8 6 11 -10 -2 -7 2 -6 -16 -4 14 -4 -6 17 9 4 18 -5 -7 6 -6 5 -8 2 4 -9 10 -9 -2 0 -6 -10 5 25 6 -8 -1 10 2 3 -8 -1 5 -6 11 15 1 13 4 9 -6 -1 1 6 7 -4 1 -11 -1 2 8 1 -9 -6 3 5 0 10 -4 1 2 2 1 6 0 -1 -3 -5 1 -2 -19 -5 -6 3 -1 -9 -16 -19 -3 -9 -9 -6 1 -3 7 0 -4 9 -9 2 4 6 -4 10 -8 -12 10 -3 -4 -1 0 3 -9 7 3 1 9 0 3 5 4 1 7 1 3 4 -1 0 9 -12 4 -7 -9 -5 8 4 7 5 6 -1 9 7 10 7 5 -10 8 3 4 12 10 7 0 13 14 4 0 -4 1 -7 12 2 1 13 -2 -1 0 7 2 1 5 -2 8 3 24 -1 5 10 7 0 6 8 2 7 4 -10 9 1 -3 13 2 2 2 0 4 6 -9 8 -11 -6 -1 16 1 8 3 -1 -8 5 6 0 -2 -3 3 5 2 12 5 8 10 0 5 12 -2 1 3 -11 5 3 12 1 1 10 4 2 -5 3 0 
-14 -7 -9 -12 5 -3 11 -3 -10 -3 -8 -5 -5 -10 -7 1 6 -8 -6 -7 2 -6 -6 -13 -2 -6 -10 -4 1 -6 4 -3 -11 -2 4 3 -4 -2 -3 -1 -3 10 1 1 -4 12 10 -1 -3 0 2 6 -7 8 -6 -2 4 1 4 2 -2 -3 -3 2 2 -2 0 -10 0 -5 3 -4 -4 13 -4 -9 -4 6 4 7 9 -5 8 4 -3 2 -8 -7 -5 -1 1 -6 -9 -4 -11 1 -7 -7 2 -11 0 0 -2 5 8 5 2 -3 2 6 3 -1 2 6 1 2 5 -3 12 -10 4 1 6 2 7 6 -10 5 3 18 4 10 10 16 7 6 10 7 6 1 9 11 4 6 -1 -1 2 10 7 8 9 18 7 4 17 34 95 84 154 171 169 192 186 194 175 175 181 167 175 177 183 177 182 177 180 162 172 157 153 132 133 108 86 48 30 34 4 -3 -1 -14 -7 13 1 1 -13 -13 -5 -6 -2 -21 -7 0 3 -7 -1 10 14 0 8 -3 -13 2 9 4 -4 0 1 13 -8 -2 23 81 82 80 90 109 88 69 77 27 -8 -1 -5 11 2 15 44 83 85 63 110 153 179 181 168 163 167 164 169 168 162 166 157 170 171 162 165 175 154 166 163 165 166 159 156 155 166 169 169 171 161 176 166 189 168 170 172 167 167 173 163 177 168 161 166 168 166 159 164 164 175 172 182 192 181 186 208 191 186 196 186 197 198 196 189 193 182 188 184 171 184 178 175 176 183 175 166 172 167 165 154 143 142 108 101 106 86 68 70 55 57 54 56 48 53 51 51 52 51 54 59 49 48 50 55 51 60 57 61 57 49 47 51 38 55 53 56 48 48 71 55 51 55 54 48 55 47 61 52 57 68 71 71 51 53 61 74 63 44 44 46 21 9 13 26 57 39 65 106 123 134 168 150 135 90 71 67 42 10 3 6 18 7 -2 4 5 4 2 4 -8 -18 12 -6 -4 -8 3 -4 -4 6 -11 3 5 8 -6 4 -13 -11 2 -8 7 2 -2 -8 -4 -14 2 12 9 -12 -15 -4 -1 -9 6 0 0 -5 2 -8 -8 -9 1 0 9 -4 1 2 -5 -7 14 -1 9 -2 -2 -3 -5 -6 5 8 -3 5 -12 -1 -3 1 -19 7 6 0 -7 1 2 -8 0 -5 12 -2 -2 -6 3 -5 3 -8 5 -11 -1 -4 -7 0 -9 -6 -3 5 -4 3 0 -5 0 -1 -9 -8 5 -9 -16 -7 -13 -8 1 2 -16 11 6 11 -9 7 2 -4 -4 -4 -1 0 -1 -1 -9 0 0 7 5 5 2 -2 9 6 -1 1 3 10 11 4 4 6 -1 1 10 3 9 8 3 4 3 11 16 4 -4 2 6 4 11 3 5 13 2 12 4 1 -5 -6 -5 12 3 17 -5 16 -3 4 5 -11 1 -3 -4 12 14 -4 -6 7 -5 3 -2 1 13 0 -2 2 6 12 -4 1 12 -1 5 8 18 5 10 0 12 -1 8 -6 11 3 3 4 4 -6 6 5 4 -2 10 5 -6 3 4 5 -14 -5 3 8 1 
4 -1 -5 -8 -9 -2 8 -1 4 -9 7 -6 1 -9 -20 -2 -2 0 -1 -1 -16 -8 -1 -1 -20 -5 -3 11 -1 0 3 -17 4 -5 3 2 -5 -2 -2 2 4 5 0 -3 -9 6 6 -8 12 2 -7 -1 1 8 -5 15 3 -5 7 -1 4 2 -2 -5 -8 -14 -7 -4 10 -12 -10 -9 12 -4 6 -4 0 1 -1 7 -7 -1 1 -2 21 -7 -3 -9 -12 -7 -9 -6 -2 -10 0 -2 -4 -6 -2 1 -3 7 -4 -5 1 8 3 3 8 5 -3 -15 5 11 4 10 11 1 -4 4 11 4 18 -4 9 9 8 3 3 10 12 0 -1 8 7 22 -3 -6 5 5 22 7 13 13 12 19 2 8 10 10 5 3 5 -1 4 14 75 91 117 172 188 186 174 180 186 187 191 180 170 175 174 176 173 161 169 163 150 160 145 129 130 120 101 81 45 41 6 -7 -6 -7 4 -1 -4 -8 -12 5 -1 4 2 -18 10 -6 -10 7 -11 1 -2 -9 5 -2 2 1 2 -1 5 -1 -2 13 5 33 94 61 79 108 102 79 72 51 12 -4 -7 10 -5 -10 23 73 100 85 105 140 156 166 181 154 165 167 174 178 168 175 169 156 164 181 176 173 178 173 164 155 158 160 162 167 170 159 170 167 174 173 170 160 171 162 176 173 186 167 172 176 184 181 172 173 168 162 179 172 179 177 185 187 172 185 189 182 180 195 184 183 186 184 192 191 193 195 185 179 190 182 198 177 182 177 163 184 177 171 167 161 155 162 127 126 116 111 110 88 80 81 75 65 58 69 64 60 63 64 58 61 61 62 47 60 43 65 46 59 59 62 62 62 58 69 64 67 62 49 57 66 47 60 66 55 59 56 62 49 47 58 54 53 64 53 68 59 68 73 72 54 37 56 34 23 13 27 42 56 83 110 101 136 157 158 145 115 77 64 34 16 6 6 6 5 10 4 6 -2 -11 -6 2 -11 18 -9 -3 -2 13 -8 2 15 -24 5 1 7 -6 2 -7 -9 1 -9 -13 -1 -9 -12 3 -3 26 -2 1 -9 3 -6 -5 15 -10 0 1 1 -1 9 8 -8 1 -4 3 -3 -5 -2 11 -2 -11 -7 -5 -4 -5 15 1 -2 12 -3 14 -4 -4 8 5 -7 -1 -10 -5 -9 -3 -2 -10 -5 -13 -11 -8 2 -7 1 -5 1 -12 -15 2 -8 7 1 -9 -4 10 -4 6 2 3 -1 0 -15 -7 1 -1 2 -7 -6 5 -1 9 -6 4 5 7 8 4 6 -6 13 0 1 10 12 10 -8 3 8 5 6 2 3 0 -3 12 -1 -1 10 7 15 10 5 1 -4 8 6 9 9 11 10 4 5 11 7 -11 -1 8 13 2 1 27 18 8 -1 5 6 6 -3 19 10 6 3 14 8 -6 -3 3 9 -2 9 -7 5 3 4 5 -2 -4 2 -6 5 9 2 5 -9 7 14 -4 4 14 8 -4 -10 4 -5 1 3 4 -3 17 -1 17 13 2 4 8 1 7 15 -8 11 7 11 -3 8 9 -6 -4 3 2 8 -3 2 4 15 
5 0 -2 3 -1 12 8 -3 4 -2 7 -13 -3 10 3 -10 1 3 -4 -9 -9 12 -10 -7 -9 -14 -7 -8 -4 -5 -7 -2 -3 -6 0 0 6 6 -13 -5 -10 3 12 2 -6 9 -7 2 1 -2 7 1 5 -2 0 -5 17 11 -5 13 9 -7 -10 -6 1 0 -1 4 -11 -5 -10 -2 -2 -4 -1 17 -2 1 2 0 -2 -4 -8 1 2 -5 1 5 -2 3 -5 -6 -6 -4 1 -2 -4 -5 4 -3 1 -4 0 -1 -2 -3 -4 15 1 4 5 11 10 -3 6 -4 3 -6 14 5 4 3 2 12 -2 -1 6 2 6 3 6 17 -3 -7 8 4 12 4 13 -5 10 4 0 11 2 3 12 12 0 4 7 -1 10 8 15 10 37 95 91 139 179 181 185 178 185 183 192 188 187 179 184 171 192 176 176 161 176 159 143 140 135 128 101 94 52 38 7 -6 1 6 2 -1 -13 -4 -1 -2 3 6 6 -2 -1 -14 7 -1 0 -7 -2 -3 -5 -4 10 3 -1 -3 -6 -2 -5 10 36 99 67 94 117 97 77 58 36 -16 -4 3 -11 -8 22 61 100 82 85 130 166 170 168 182 177 172 162 168 177 171 162 177 179 168 172 173 165 179 164 172 165 161 169 172 158 159 166 171 179 164 174 163 184 171 169 170 183 169 191 173 173 178 180 175 172 173 178 182 181 166 189 175 191 191 173 193 186 194 199 184 192 210 183 197 202 195 192 187 193 182 187 187 173 181 183 177 172 171 170 171 165 167 166 159 133 155 137 122 113 94 96 93 89 90 80 64 79 66 62 74 68 67 71 72 62 79 66 58 66 66 56 58 49 56 69 65 45 53 53 57 66 59 59 63 61 59 62 65 61 70 56 63 67 68 64 56 78 61 75 71 67 74 56 50 51 47 34 3 10 41 43 76 122 115 152 158 155 151 113 85 74 32 -6 4 18 13 -4 8 -8 -9 -6 7 6 -3 -29 4 -10 4 -8 -10 0 -3 3 -16 8 -2 -1 -15 -16 -11 0 5 -7 2 -5 -3 -22 10 -5 18 -16 -8 -7 -6 6 5 4 13 -11 -5 -5 7 2 4 1 -3 -6 1 6 -11 3 11 -8 -3 10 0 -7 -9 -9 1 -8 3 2 7 -19 3 -5 1 -12 0 -8 -10 4 -10 6 -21 -1 -5 -9 -9 -7 -11 -9 0 4 7 5 -19 -1 -7 -9 1 -6 -2 -2 5 -17 -7 -2 4 -11 -1 9 -3 2 2 2 3 3 0 -6 -3 -7 6 19 7 12 4 -3 -4 4 0 1 3 8 4 8 15 5 -3 -5 0 1 -1 0 7 16 1 8 10 5 6 14 6 0 10 6 8 8 1 9 4 5 10 0 8 1 13 2 9 4 15 -1 7 1 5 5 -1 3 18 -4 6 3 -2 7 12 3 -2 -2 0 -6 3 -1 1 7 11 4 -4 -9 12 12 1 -6 5 9 0 2 -2 -2 9 -11 -4 -1 5 5 -5 7 -1 3 1 -8 17 12 6 3 10 -2 5 8 -7 -8 2 3 2 -2 -6 -6 4 2 -1 -1 -16 
-4 10 -11 3 -9 2 -11 -5 2 -6 -7 10 -15 -11 -6 -5 -12 1 -7 -13 22 -18 0 -6 -6 -2 5 1 -5 -6 -3 3 4 1 9 2 12 -3 9 -4 16 0 3 0 0 8 -8 -1 2 7 -6 3 3 -8 12 -1 -10 7 3 11 -9 -4 1 -11 13 -7 2 3 -2 -13 7 14 2 3 -3 -13 -5 3 -3 6 3 9 -4 1 -8 -8 1 5 -10 -6 7 3 12 14 -1 3 -17 -7 -3 -7 6 3 5 1 0 5 10 2 7 -4 2 -13 -5 1 4 5 -2 -2 3 6 3 3 4 13 7 -1 20 2 5 12 7 13 1 1 6 -3 10 7 5 1 16 2 8 7 4 6 1 4 4 1 20 4 11 3 4 8 24 75 93 116 186 179 171 188 183 188 180 188 178 187 182 183 178 168 181 168 166 158 143 135 135 133 105 94 79 23 28 -4 5 -4 -4 0 -11 -6 0 9 -1 -9 3 -16 3 2 4 3 -9 -11 0 -3 3 0 8 -2 11 0 -2 1 15 54 98 75 102 114 90 83 62 29 -5 0 12 -11 0 26 80 76 89 115 164 182 161 163 170 168 169 172 164 154 169 172 169 172 159 187 168 171 170 175 181 169 175 169 176 168 166 161 171 172 170 166 173 163 171 173 175 177 165 175 172 170 175 183 162 184 181 170 171 181 164 187 175 190 176 187 190 178 181 194 196 198 185 191 194 201 191 192 182 193 187 194 196 194 184 196 187 188 183 182 177 179 177 177 161 164 163 145 147 133 128 132 123 110 93 95 93 87 77 74 85 77 78 65 73 54 58 72 70 70 72 60 66 69 64 68 74 65 73 69 65 68 70 70 64 67 74 68 67 59 69 83 67 58 73 73 61 70 71 70 81 77 77 72 75 67 69 45 50 32 9 22 45 46 79 89 122 158 165 176 157 130 85 64 48 1 -6 16 7 9 -4 -2 -4 -9 9 -6 4 -11 2 -14 -3 -6 10 -2 -20 4 -16 1 -1 -11 6 9 -12 -3 -8 -8 -10 -7 -15 -4 9 -16 3 -14 5 7 3 -4 3 0 -12 0 4 4 4 4 -5 2 -18 -11 0 4 3 1 -14 -2 2 -11 0 7 4 6 -2 5 4 -10 -1 -2 -8 -2 2 4 8 -1 0 -12 1 2 1 -8 -15 -5 3 -8 -1 4 -7 -3 -9 -1 -5 -1 -1 12 -11 4 -1 -5 -12 3 1 -9 -5 5 6 2 -7 -8 -3 4 -10 -5 -8 0 10 1 6 -4 10 4 1 -8 12 1 0 0 -7 5 10 -3 -5 5 5 3 3 12 4 15 3 8 -5 8 6 -5 4 1 19 5 10 -1 1 -1 2 -1 -4 11 2 -6 8 3 -9 13 4 1 9 -5 7 2 9 4 3 3 4 6 5 2 -1 -2 1 9 10 2 0 0 6 -6 -2 2 5 -8 -2 5 -15 3 11 -6 -5 6 0 -6 1 -7 11 -6 -5 5 14 -7 5 2 -5 13 3 -7 2 6 6 -6 5 0 0 5 8 8 5 6 9 -5 -2 0 0 -4 -9 -6 
0 -7 3 -9 1 18 -3 5 3 2 -3 -1 -12 -8 0 -4 -7 -3 -6 7 -14 -8 8 -2 -1 3 0 -16 -8 -4 -4 -4 1 -10 -3 10 3 -5 -1 14 -2 7 2 -7 -4 -3 -7 5 -1 -5 -6 -11 3 -1 3 -1 0 8 -12 2 -5 4 6 -4 8 6 -5 -2 -8 2 -3 6 11 3 7 4 0 -2 -2 3 -1 -16 -2 17 -6 14 -4 4 -4 0 -3 -4 4 -4 -10 -4 5 8 3 -4 -6 -7 5 5 2 8 3 6 10 -8 14 0 5 3 4 -5 -2 -8 6 -7 0 17 -6 8 15 -6 9 7 -1 5 8 -8 2 -3 -3 6 -2 0 2 9 -5 9 3 12 17 -4 12 -8 9 15 5 8 12 15 8 15 1 33 94 98 168 167 193 176 179 176 185 185 181 180 186 165 167 172 173 170 163 172 140 144 134 133 116 99 87 37 45 0 7 -12 -9 -9 -10 15 -1 -6 3 1 -7 -9 8 -2 5 -5 0 -2 1 6 9 1 -5 -1 2 -13 -3 -7 83 97 79 107 99 89 81 38 24 -1 3 0 4 -6 41 86 73 96 151 168 179 169 168 172 168 184 176 172 171 165 165 175 172 166 174 167 186 172 179 158 164 168 158 171 176 172 162 168 172 169 164 182 176 176 175 175 186 167 163 183 169 175 176 176 180 167 178 170 164 171 179 168 183 186 183 182 179 184 196 197 181 187 185 198 198 186 201 197 206 202 187 191 193 188 188 178 183 179 178 174 188 174 176 176 187 175 165 175 171 152 151 138 129 122 128 128 118 119 112 104 99 84 80 76 77 79 64 80 69 71 62 72 77 62 83 62 71 83 71 69 67 74 71 70 65 64 67 72 65 79 61 64 67 68 64 60 84 73 73 87 80 87 96 90 100 101 88 66 55 59 42 2 17 29 61 71 96 124 167 160 167 165 139 89 84 58 16 12 5 8 -1 -12 5 4 -11 3 1 4 -3 -2 -3 -3 -5 4 8 -7 -9 3 -4 5 -10 -7 4 4 4 -6 -8 -1 5 -13 2 11 -11 3 -10 4 -1 -2 -8 8 -1 -7 3 -14 -3 1 3 -5 -1 -6 18 -7 7 7 -4 -10 -10 -2 4 -6 -5 -13 7 4 6 3 6 -1 -8 -10 -1 2 -2 -3 3 -3 2 -4 -7 -6 -4 4 12 -3 -8 -6 3 -5 6 -2 -2 -6 -4 -7 -1 2 10 5 -13 -1 0 12 2 -2 -1 8 -3 -5 2 2 6 -12 7 1 13 -1 11 -2 -6 3 5 -5 -6 17 -6 5 6 -5 3 2 -6 1 4 -4 11 11 9 7 5 11 3 17 9 2 10 5 -11 12 8 11 -4 6 8 4 -3 6 8 11 4 9 8 8 7 12 5 -5 14 2 1 7 -2 -2 0 -7 -2 16 0 18 6 1 0 6 0 2 6 18 -7 7 3 8 -2 -4 8 1 -9 12 -4 8 -6 1 -5 8 11 -5 4 -13 -3 -9 9 1 4 8 13 1 1 5 7 16 0 10 11 11 -10 -3 -2 -6 -2 1 5 -11 8 10 -7 -9 
-7 -1 1 -1 -5 -9 15 2 -9 -13 -8 -4 -10 -1 0 -9 0 -12 -5 -4 -7 3 -10 3 6 4 -13 -2 -6 -4 0 8 6 3 7 -4 -12 -12 10 1 -3 -11 0 -6 2 -16 3 -6 -6 -1 3 -6 8 -3 -8 12 0 4 15 8 6 -4 4 3 8 3 0 -6 9 4 -13 6 -2 7 4 -10 3 1 6 5 -3 1 -3 -12 1 -16 5 -7 -5 -3 -9 7 2 15 6 -5 3 -1 -1 -6 3 5 -4 2 -1 5 -6 8 0 -3 4 -6 7 15 3 -5 9 -5 8 6 2 2 6 -8 -3 -5 -2 -1 14 9 20 -5 10 2 -5 9 -3 -7 12 12 12 -7 -1 -2 2 6 0 6 12 6 10 21 5 -8 3 -1 14 16 102 71 149 174 170 181 189 185 179 188 178 180 163 178 177 177 163 169 172 163 148 159 147 137 129 102 84 65 36 22 3 -5 1 6 -18 6 10 -11 -5 -1 -2 -5 6 2 -7 -11 -6 1 -2 1 1 -6 2 -9 4 -9 2 87 88 81 126 112 93 69 42 8 14 17 7 -6 9 54 88 85 125 158 171 184 174 170 177 177 183 180 178 157 164 166 163 161 171 174 173 166 181 170 160 171 168 165 174 174 172 160 166 167 178 168 173 179 166 174 166 159 165 177 170 163 184 169 178 188 173 180 185 181 187 177 174 177 190 181 183 181 188 179 182 176 191 203 191 192 185 210 198 176 196 180 192 182 188 180 199 185 186 187 190 166 172 168 183 159 175 164 173 167 171 172 159 153 157 146 151 142 126 124 124 129 111 126 120 102 111 99 95 92 93 85 90 78 74 65 70 59 69 70 71 77 74 74 69 64 71 69 68 72 80 75 86 81 68 81 87 90 105 89 89 91 105 104 106 111 126 117 118 106 93 76 63 37 3 15 27 69 76 77 129 158 171 162 164 125 80 58 64 18 4 -4 5 9 3 9 -8 3 -1 1 -10 4 -6 6 -11 1 7 4 -14 -8 -1 -11 -14 -3 -10 4 6 -6 -2 -11 -4 -9 7 5 -4 -19 -2 8 9 15 3 6 4 7 -5 6 3 0 -6 5 5 -2 -9 5 9 1 0 -3 -2 1 2 -2 7 -5 -13 13 6 4 -4 8 -4 -18 19 -3 0 1 -8 7 -1 -1 -1 -12 -4 8 -1 0 1 2 12 -1 2 3 -2 7 10 -1 7 -6 6 -1 -8 -2 -1 4 0 -11 5 -3 -2 -9 4 -4 0 -4 13 -5 4 1 8 13 5 2 -2 11 0 2 5 -1 -2 4 2 -3 -13 7 -2 4 16 -6 5 1 2 1 0 4 4 10 12 3 17 26 7 8 7 2 11 -5 6 17 3 6 -4 9 13 8 3 14 12 2 16 -2 3 2 13 -4 0 17 -7 -7 2 7 -10 10 -4 -4 -11 -11 0 7 -1 4 -5 5 4 3 0 -13 5 8 6 2 11 9 3 -10 5 17 -8 0 -2 5 8 0 -2 1 7 -7 1 1 8 -3 2 4 8 -5 5 9 5 10 -3 5 -6 5 -3 1 -6 -1 
-13 -1 2 1 6 4 5 8 15 -3 -11 -1 -5 -9 -9 5 -8 -5 3 -8 -4 -6 8 1 2 -3 -7 -9 3 0 1 -1 4 8 -11 7 5 -14 -2 -4 7 -5 -12 5 -8 4 1 -2 -2 2 -3 6 -5 1 2 -6 -2 4 -9 -4 0 6 -5 -5 -7 -7 6 2 4 2 13 1 14 10 1 -7 -1 -3 -7 3 10 9 -5 1 2 8 -4 2 -2 9 -1 -17 2 -7 -7 7 1 -10 -1 8 1 10 -5 11 -3 3 4 -12 6 7 -3 10 1 9 7 0 2 -3 13 7 -9 1 5 -5 -3 11 7 8 9 5 8 10 -6 18 1 3 15 14 3 3 0 -11 -2 4 2 -3 15 18 -2 9 17 11 11 9 22 -12 13 11 62 75 129 172 177 177 183 189 187 183 181 179 176 170 174 177 169 160 165 162 170 132 146 136 118 110 87 59 50 29 -1 -2 -10 0 -1 -8 8 3 -3 1 -6 -1 -9 -19 -3 -6 4 17 11 -2 -1 -2 -10 0 -14 3 80 98 93 141 143 96 95 45 2 15 2 4 -10 10 64 96 71 122 156 179 175 155 179 194 174 179 173 179 172 166 169 181 179 186 167 171 162 174 171 165 173 171 171 179 160 175 166 169 166 168 178 167 171 167 168 167 181 186 167 180 177 177 192 167 189 183 191 189 185 179 177 187 175 183 187 169 178 179 170 184 177 189 190 177 186 192 182 187 187 200 185 190 195 188 191 186 187 180 173 181 174 171 181 180 184 171 182 179 178 183 176 172 174 170 159 169 161 161 151 141 137 135 131 123 136 110 120 112 120 129 113 112 106 107 104 104 102 99 100 106 101 106 95 98 104 108 91 85 102 99 100 102 95 106 114 118 113 125 103 118 127 122 128 137 121 119 126 127 128 111 118 87 69 81 25 1 1 13 73 73 86 142 160 173 144 154 124 80 67 52 12 -6 0 -5 0 1 9 -4 -10 -3 -3 0 -10 -5 -17 3 -12 -6 -6 -6 7 -2 -8 1 -14 0 2 -5 -3 2 -1 -7 8 3 -2 -7 2 -6 -7 0 6 -6 22 7 -3 -13 -9 3 -2 -3 -8 1 -2 15 -4 -1 -12 -9 -5 4 -7 9 -14 -11 7 -1 -8 -10 -8 2 -3 -6 15 1 9 -3 -3 1 -8 2 -4 3 0 11 -10 -1 1 -5 4 12 -6 6 1 9 6 4 6 7 2 -7 -13 -1 -2 3 -1 -10 2 4 1 -2 0 -6 0 -1 -11 4 -4 1 4 5 8 5 5 0 4 4 -2 0 15 10 -9 -2 -5 1 -2 9 2 14 3 14 20 -12 22 10 18 0 -1 3 5 19 -8 10 10 -4 4 8 13 5 0 3 4 2 10 -3 3 -1 6 11 -9 9 0 6 -3 0 -5 5 -7 1 4 7 5 -12 10 -6 4 4 5 -2 10 -5 -1 -3 -9 -2 -3 7 11 5 4 7 2 5 -7 3 4 10 7 -3 -3 7 8 -5 9 0 8 2 -3 2 7 13 -1 1 -1 4 8 -3 11 3 -9 3 -15 -3 -5 -10 -10 -4 
1 -5 6 -7 -7 0 8 2 -7 2 -1 -9 -14 2 -3 -2 6 -4 -1 -7 -6 -5 -1 5 -6 4 -1 0 3 -1 -2 5 6 3 -13 2 -4 -1 -6 8 6 -16 7 -6 -6 0 -10 -1 4 -3 9 -10 10 -1 -4 6 6 10 9 2 13 -5 7 3 1 15 -2 4 -8 9 -5 11 12 4 6 7 -6 5 -10 2 3 8 0 12 -6 -5 0 -2 -5 6 18 5 -11 -3 4 0 -5 1 -3 3 5 -2 1 -4 -9 2 3 9 -1 5 -3 7 0 -8 10 -10 0 4 -7 -10 14 -3 -8 -2 1 -3 1 -1 6 15 3 11 -3 -2 3 6 4 -3 11 5 5 2 -6 4 6 -6 1 12 1 8 -5 -2 6 12 -6 9 16 19 38 83 91 177 182 176 175 180 184 184 179 196 177 177 178 172 171 170 168 156 146 140 138 139 126 117 89 65 47 35 17 2 -6 -5 -5 -15 -6 0 -2 2 5 -13 -7 -4 2 -6 1 -1 -6 0 1 3 0 -4 -10 47 120 88 146 147 92 81 54 26 9 -1 3 -4 5 85 84 84 138 175 183 176 170 180 186 169 186 177 181 188 170 187 171 190 179 163 168 181 180 180 179 180 178 172 192 165 169 179 167 173 174 179 171 174 179 185 178 178 173 175 179 171 184 181 188 189 183 182 186 177 177 193 173 183 179 175 186 178 183 182 184 193 180 197 177 191 188 179 189 200 190 188 188 199 189 199 191 187 188 184 196 194 173 174 191 170 194 185 191 180 184 168 164 165 168 169 175 166 166 170 157 168 167 159 164 157 157 140 129 145 134 135 116 124 123 118 117 120 113 109 116 118 121 120 120 102 122 117 105 118 105 118 112 112 118 108 91 129 124 114 129 128 131 133 138 139 140 143 137 137 136 154 140 122 80 66 59 40 2 -5 15 77 92 83 138 160 174 158 148 131 72 64 57 11 7 -5 4 -4 -10 -3 5 -1 1 5 -7 -17 -12 -17 1 -2 -10 2 -9 -8 -12 -2 -3 -3 4 4 -5 -5 -7 -9 -10 0 1 -9 4 10 6 -1 8 3 -10 4 -4 -2 -5 -8 9 -7 -1 -7 8 7 -4 -1 -6 -11 0 -1 1 0 -3 -3 -6 3 11 0 2 -8 -3 -3 -4 -5 -1 -2 -2 8 7 -3 -14 -4 1 -3 -1 -9 1 6 3 2 10 14 -8 0 -3 3 2 2 7 2 3 -5 3 5 -5 -7 -3 1 -9 6 12 7 8 7 12 12 -4 11 3 4 -9 -3 -5 -7 -12 14 -4 12 8 -6 -2 -7 6 -10 6 9 9 7 6 5 -14 3 9 -1 11 -3 9 7 28 0 3 -2 2 8 -6 -1 -9 0 2 13 0 15 6 11 5 0 6 1 1 -2 4 1 -7 10 4 5 6 -3 3 3 2 -3 7 -3 -7 4 -9 0 -7 -9 -1 -4 -7 4 -1 -13 -2 -1 13 7 1 13 -1 8 1 2 -9 9 6 0 19 -3 2 8 10 2 4 -8 -3 -3 11 -2 5 -4 2 7 2 18 -11 -9 9 2 6 -4 -4 -8 
-3 1 -7 7 -7 3 8 0 5 -8 -6 3 -13 6 -12 -3 -9 -3 -13 -2 2 1 6 2 -14 -9 -9 1 8 1 3 8 1 -11 3 -4 -5 -8 -10 -1 -14 4 -13 -5 -6 -5 -5 -3 1 -8 -4 6 12 3 7 11 -5 2 0 1 8 -13 0 -9 -7 -1 -2 3 6 6 9 4 0 0 1 -2 11 -4 -1 7 6 15 16 0 2 12 3 -4 6 7 -7 2 5 6 10 -11 9 0 3 -7 1 8 8 8 2 0 -9 13 7 12 2 -8 -10 7 8 -2 -4 7 -5 -4 1 -1 2 -3 8 -1 6 7 6 10 2 8 4 12 3 11 8 15 -7 3 12 -7 6 15 8 -2 9 1 -7 12 10 11 9 8 24 6 13 1 21 76 70 142 177 165 177 172 189 174 176 191 188 183 170 168 183 174 165 158 148 145 133 144 116 106 108 89 60 42 37 -1 6 7 3 -10 3 11 13 -4 -4 -1 0 0 11 -5 -1 4 -15 16 -3 -2 -6 -11 31 108 67 129 151 115 95 80 42 7 -18 -4 -19 8 64 76 89 143 183 186 184 176 180 188 165 173 173 176 180 175 187 172 175 167 173 171 173 172 181 180 178 185 182 181 177 178 182 162 166 168 189 179 181 175 190 188 182 183 182 187 187 175 180 182 182 185 186 181 176 170 187 172 178 175 177 180 169 181 196 173 180 181 182 194 185 191 189 185 186 192 195 196 204 183 186 189 198 192 184 187 188 190 188 188 190 187 186 179 179 177 181 186 174 170 185 167 160 180 178 154 161 173 164 172 157 159 156 153 163 158 145 163 152 151 155 148 146 135 137 139 133 137 124 135 122 135 122 121 138 129 123 145 141 140 145 148 135 132 140 149 137 158 160 154 150 153 152 152 136 148 146 143 140 143 120 88 69 45 34 -2 -7 12 78 86 84 126 166 142 147 150 112 69 68 21 0 -10 2 -6 2 7 5 -3 1 -2 -12 0 -5 -2 1 2 -9 -6 2 -18 -1 -15 -5 -5 -11 1 8 -13 10 -6 9 -5 -20 -9 -5 -3 -6 -5 1 4 4 15 -7 1 -6 10 -8 1 -7 -7 6 3 -13 -7 -10 8 0 1 -8 4 0 -6 -2 6 19 -13 2 2 16 6 7 1 7 -1 0 4 6 -7 10 3 10 2 3 9 -4 -5 -1 2 -5 -4 -3 10 5 -5 19 6 3 1 -16 18 -3 9 -8 -2 1 -5 2 4 -4 -10 5 -6 -2 -1 -4 14 5 12 -14 8 2 5 -15 13 6 -5 -6 0 -1 2 -2 -2 -6 10 8 -16 14 12 -6 6 7 7 10 5 16 -1 11 4 8 4 11 -4 2 1 13 3 9 4 3 6 5 9 -5 13 -2 -2 13 5 8 12 3 -6 2 4 11 -5 -5 9 1 8 9 -2 2 5 -2 -7 5 -4 -3 -21 13 -1 -15 7 -2 12 11 -4 -2 -3 6 -3 -3 0 8 4 5 -5 11 6 10 0 0 14 2 9 0 -6 4 -4 -2 -1 -4 0 0 6 -1 -5 -1 1 0 -4 7 -3 
-8 -5 6 -14 5 -6 5 -4 2 -3 2 -1 0 -3 6 0 0 -4 -8 -18 12 4 10 -4 10 -2 1 -9 -13 -8 -5 -4 2 6 -7 -6 -1 2 -2 -4 -9 -4 -9 -6 1 -8 2 -5 0 2 6 6 8 -1 3 -5 -1 4 2 5 -20 11 -4 5 -9 -4 8 3 -2 -2 2 -16 12 2 0 -7 7 2 5 6 7 1 7 14 4 -6 4 7 -13 1 8 2 12 1 1 4 -7 7 -7 7 -2 8 7 -5 3 9 7 12 2 -4 2 -7 2 3 -19 14 1 6 1 -4 5 -5 -4 -2 0 0 0 8 4 3 4 2 17 1 10 -5 10 -3 0 6 8 3 2 6 2 6 4 12 5 1 -2 14 10 10 9 1 9 19 4 69 100 125 172 183 182 174 179 179 192 177 181 179 183 183 166 163 173 159 152 149 143 132 137 124 110 86 88 33 41 1 -12 -13 -1 -7 -2 0 -4 10 9 -4 2 2 2 9 2 -9 -7 0 -13 1 -13 13 94 83 113 166 140 113 70 49 5 -12 -5 3 -10 60 101 90 145 189 179 180 187 169 194 172 194 166 182 175 177 196 175 180 176 170 175 172 176 186 182 180 186 164 178 176 163 168 165 181 193 177 187 174 169 190 183 167 172 177 173 178 165 183 188 176 176 178 170 174 183 174 177 179 183 168 177 176 174 180 177 192 178 192 191 182 197 190 186 193 190 194 185 191 196 186 180 194 186 173 188 192 186 197 187 182 193 181 183 175 184 187 166 176 174 174 165 178 182 163 162 172 171 165 159 173 165 170 173 155 169 155 164 165 149 162 157 165 156 162 159 163 144 149 153 166 159 158 156 153 145 150 158 141 151 155 154 152 147 158 147 147 143 148 149 152 152 145 150 151 144 145 164 151 139 137 132 119 83 67 49 11 0 6 16 71 73 72 133 159 155 159 145 92 51 65 9 7 -17 -2 -7 -5 -24 -7 -10 -2 -1 -18 -7 0 6 -11 -12 -4 -13 -3 -14 -3 -10 -10 -5 -8 7 -14 -12 7 3 -11 -19 1 -4 -3 -11 2 0 -20 -14 5 6 5 -14 -1 -6 -11 4 6 6 -8 -4 -3 1 -4 4 0 -5 -3 -1 -2 -9 -3 11 5 -4 -12 4 -2 10 1 11 7 5 -1 4 -10 13 -3 14 3 8 0 -10 -5 5 20 8 -3 8 11 3 1 11 5 -1 -4 6 -3 18 -4 -6 -12 -4 4 -9 -2 6 -7 8 0 10 3 0 -3 -1 2 9 4 -8 3 9 -2 0 -7 2 -2 -4 3 -13 -5 4 1 10 10 17 4 16 8 0 6 13 10 -2 19 12 4 5 2 13 6 13 8 1 9 1 5 12 -5 0 10 7 -4 8 0 -7 5 6 -3 4 -4 4 11 0 12 2 -11 -7 -2 3 -4 -5 -8 7 9 -1 -2 0 -10 12 1 0 1 0 -2 0 4 9 11 0 7 -6 -15 -12 2 1 -5 11 -5 13 6 12 8 8 4 9 1 -6 -2 -8 3 -6 5 2 -9 -10 2 0 -4 0 8 3 7 
-1 -10 3 -4 -13 -1 -5 3 4 9 9 -5 -3 3 -8 -10 -10 -4 -2 6 -12 -5 1 3 -4 -3 5 -5 6 -9 -5 -1 -4 2 -9 6 5 1 -3 -2 -2 11 3 -1 -7 4 -14 10 -1 8 7 6 -6 -2 -4 10 -6 -1 -1 1 -1 1 -2 7 -3 5 5 -3 0 0 4 5 13 6 12 -2 7 3 9 14 1 3 12 17 11 -4 12 -1 -7 -9 -4 8 3 11 6 -9 -1 -2 5 -2 4 6 10 -7 9 -5 1 -2 13 0 3 7 2 -5 7 -7 -4 -11 0 6 9 4 -7 7 11 -6 7 4 2 11 6 11 11 10 7 15 1 13 -1 4 -3 2 10 -6 -3 2 3 16 13 6 6 17 2 10 -1 -2 12 7 17 29 85 95 168 170 183 178 181 180 178 198 190 183 169 169 178 164 168 150 143 149 142 131 130 124 114 88 92 35 41 15 6 -4 8 1 10 0 -11 -2 0 -11 10 3 12 -2 -15 -9 -22 3 7 0 8 66 90 88 160 167 118 96 62 15 -9 -1 -5 -2 33 105 76 140 173 183 173 185 173 173 180 182 168 171 166 174 178 193 175 185 182 168 177 172 186 179 170 186 180 176 174 184 179 182 176 183 170 180 173 166 172 177 177 178 182 183 165 176 175 173 186 168 181 171 180 182 170 172 180 173 175 179 171 178 184 177 182 184 180 184 186 178 190 184 173 181 186 192 189 182 185 199 192 196 198 187 180 187 172 183 181 194 182 187 174 173 168 189 191 178 182 184 182 168 180 176 176 176 163 177 171 168 164 166 164 151 166 171 157 159 162 169 158 147 160 154 157 146 162 157 154 165 152 151 152 156 149 160 155 152 143 153 148 151 146 148 150 146 148 152 152 151 148 154 154 142 156 145 158 136 145 135 144 123 110 84 65 37 21 4 8 15 66 78 72 131 160 152 147 139 75 66 52 5 -1 4 3 -9 -2 -20 4 -6 5 -4 1 -20 4 -2 8 6 -9 -11 -2 -6 -8 3 1 -3 4 -12 2 0 10 -7 2 -3 -4 -10 -8 6 7 13 -7 8 8 -12 4 -6 -7 -4 -20 -9 3 1 -7 3 4 3 -7 5 4 -9 2 -4 -3 -1 8 -2 3 -9 12 2 -6 4 2 13 -1 -6 -4 0 15 -8 11 9 12 -1 13 12 -6 3 8 -2 -2 8 17 -6 6 2 -8 1 4 3 9 -1 -8 6 13 4 24 0 3 -4 8 3 -5 0 -1 3 2 3 -3 1 -6 2 4 -7 -2 15 6 1 -3 -7 5 6 8 0 10 -6 15 9 14 3 11 9 -1 6 14 1 8 7 14 13 0 0 -2 3 5 5 -4 8 7 4 5 16 10 7 12 1 6 -3 9 -6 -7 6 -10 11 -2 -5 8 1 -3 1 -5 5 12 2 5 7 -2 -1 -2 -8 -2 -3 -3 1 -3 6 3 10 -6 4 7 1 -6 1 4 3 2 1 -6 8 -2 7 5 3 -1 10 9 3 18 -14 -7 5 -5 5 9 -2 -9 0 3 1 -4 6 3 -3 
4 -1 -5 1 -3 -6 -5 -4 10 2 -7 -7 3 6 11 -4 2 -1 -7 -8 0 3 -1 3 3 -4 0 -6 -7 2 10 -11 4 -9 2 -2 2 9 0 -1 -19 -18 -5 -10 -7 2 -3 7 -6 -6 4 2 -3 5 5 4 4 -9 3 3 -4 3 -2 3 11 1 3 3 -3 8 -4 4 3 -3 9 -4 6 1 15 9 10 2 8 12 -5 9 5 12 -1 3 2 3 9 -4 9 -4 3 10 -2 11 -13 3 -5 5 4 7 -1 -5 -2 -2 4 -9 -6 -6 -1 3 2 -2 -4 -9 6 3 -3 -8 -6 7 0 1 0 11 9 3 -3 8 -4 -5 19 4 -10 -4 -3 4 2 3 -1 7 -5 11 6 5 0 15 7 3 14 5 -3 14 -1 16 83 73 145 183 172 182 173 189 172 171 188 187 187 177 168 174 158 154 153 143 132 144 126 122 106 99 76 74 38 18 3 -4 -3 -13 -13 7 -5 6 -5 6 7 2 14 -12 -14 2 -5 -3 8 3 61 110 81 155 161 137 98 82 25 4 8 0 -5 6 99 75 121 171 194 185 195 179 170 173 192 186 180 185 192 183 187 176 181 182 178 174 184 179 186 193 169 180 181 169 190 177 180 177 188 189 178 193 179 182 178 183 187 181 183 176 176 177 175 181 170 171 182 182 193 175 182 177 184 175 184 169 191 172 170 182 174 174 175 171 182 188 179 179 200 186 198 182 184 194 186 193 184 184 183 179 200 175 188 186 178 185 182 194 175 191 175 184 187 174 184 183 175 183 173 166 172 160 163 174 165 161 167 168 159 156 173 167 156 160 171 159 149 169 157 159 152 158 162 152 160 148 167 157 153 160 157 147 145 155 154 144 158 155 153 147 146 150 150 148 154 150 158 150 157 157 164 148 159 149 146 137 154 146 135 98 69 35 13 6 2 6 18 82 83 90 144 154 160 145 113 55 69 22 0 0 4 -18 -7 4 -11 3 -6 7 -5 -1 -7 8 -3 -6 -4 -13 2 -19 6 -6 -1 -13 10 -13 -3 5 7 -11 -7 -4 16 5 -1 -6 -6 8 18 -8 6 -4 -7 0 -2 -9 0 -3 -11 -11 -5 -4 -11 1 -10 6 -2 6 -4 -2 3 -4 7 3 5 -9 -10 6 -8 8 -7 3 -6 -4 -9 -7 -1 -7 -3 6 5 -4 0 12 4 3 19 3 11 0 8 15 1 6 1 14 -4 7 10 -11 1 8 -9 -5 -6 -4 4 6 -7 -7 -4 6 4 -7 6 4 2 5 6 -13 5 -6 -6 0 4 0 -5 5 -4 2 4 7 14 6 5 28 19 6 4 3 13 5 -4 9 12 16 6 2 5 -1 -4 5 -13 8 16 0 4 6 9 8 16 -2 1 3 8 4 8 -2 1 -2 10 -3 7 7 -1 -1 7 -7 0 10 -6 5 4 -3 -10 2 -4 7 -2 5 2 -4 11 -2 2 11 2 8 -8 -8 3 2 -7 1 2 3 -4 2 5 6 6 6 5 19 5 2 6 0 5 -11 -7 -2 -8 -17 9 -5 0 -5 8 -1 2 -9 
4 -2 -19 -1 5 -13 11 0 10 -6 -6 2 8 -1 -1 3 -1 2 5 8 3 -12 2 6 12 -9 6 -5 5 -8 9 -4 5 -1 5 -4 9 2 -1 4 0 10 -6 -3 -1 -10 -1 6 6 5 -3 12 -2 10 4 -3 8 2 -6 0 -3 8 3 5 -3 9 1 -4 7 2 -3 11 3 0 1 2 14 -6 -6 6 5 2 9 6 -3 0 1 9 6 10 8 3 -3 6 -4 -8 6 1 -2 -2 10 6 5 3 6 0 -7 -2 4 3 3 -5 4 -3 -16 -5 4 -5 -7 5 6 -2 -2 -3 0 7 9 5 -1 -8 5 13 5 -8 15 26 6 2 1 -1 2 -3 -8 10 11 15 -3 5 4 -6 17 4 12 10 -7 7 0 3 -3 4 52 82 139 168 190 171 178 191 174 175 178 178 181 176 167 156 156 160 151 146 143 136 134 131 114 100 94 78 46 33 20 12 -12 -11 8 3 10 -9 -3 2 -7 -2 -4 -15 0 -6 1 -4 -15 36 109 71 128 181 159 141 98 63 26 -9 1 -1 -7 54 93 91 170 179 180 178 186 170 189 177 189 187 175 189 188 181 171 177 179 172 179 187 182 181 179 171 183 167 188 189 185 183 180 184 172 188 180 182 171 172 176 176 170 174 182 172 176 177 177 174 180 183 178 185 184 172 182 190 187 189 181 181 171 175 183 172 185 180 185 181 178 176 188 191 194 180 188 194 177 191 180 184 182 182 189 181 184 187 182 191 182 182 187 177 184 192 189 182 170 184 180 173 177 184 177 171 162 170 177 176 175 166 156 166 163 158 182 154 169 166 163 164 157 170 163 165 152 156 153 159 162 159 141 159 157 160 152 150 149 152 152 146 157 153 156 153 158 150 146 160 157 154 146 156 154 147 159 153 151 140 158 142 144 145 127 113 83 59 36 -10 2 10 5 35 88 70 114 160 164 125 128 88 66 65 3 -7 6 -7 6 -7 -6 1 -10 1 -9 1 14 6 -2 -5 3 -7 -4 -2 -21 1 -2 -4 -5 7 -1 11 13 12 -6 1 2 -6 -1 -10 8 -11 4 17 -2 8 3 -1 -20 -6 -11 -3 -8 -1 -4 -5 -7 1 1 -13 -8 -2 8 2 -14 0 1 -5 -6 8 13 3 8 8 -12 8 7 -1 0 12 11 9 8 6 5 1 11 -8 16 10 13 8 -7 12 11 -2 -6 0 7 14 4 5 4 -7 -7 7 -3 0 11 1 4 -2 3 1 -15 3 9 4 -3 2 5 0 10 -1 3 4 -1 -6 -6 -3 10 -2 8 5 -5 11 8 -3 12 14 4 -4 14 4 3 -1 16 8 12 17 -4 0 5 11 6 2 1 4 7 6 9 -2 2 7 12 7 -5 1 1 17 -6 4 12 -16 1 -1 13 11 -4 0 -3 -12 -13 6 -1 -2 6 10 3 7 2 16 4 9 -4 4 1 4 12 10 2 -5 3 -2 -5 -3 -4 6 -1 0 0 1 -7 4 -10 7 6 -3 -7 2 1 1 2 5 5 -18 0 -8 -8 -5 4 -20 6 -4 -2 0 
-4 -2 6 -6 -3 6 7 -3 1 9 5 -6 -2 6 2 -23 -6 -6 0 -2 -6 10 4 0 0 5 -1 9 2 -8 -4 12 -1 -7 -1 1 -8 -3 -2 1 -10 -7 -2 -12 -3 -4 8 -2 10 -14 3 -4 -8 -2 -7 2 1 -6 0 -1 -3 -9 6 3 5 3 -2 -9 -4 16 6 5 14 2 8 -2 0 -4 -3 6 7 11 7 14 9 -1 -1 6 5 9 -7 19 5 0 -6 0 4 4 7 2 4 5 1 6 13 0 19 12 3 -5 -8 0 -6 8 -2 2 0 -5 6 -5 -2 9 4 -6 -4 9 1 3 10 4 -2 3 4 2 -1 -1 -1 1 2 8 -5 1 14 2 -11 -2 -1 3 6 0 2 11 -3 9 -2 6 1 19 1 0 41 89 99 163 176 165 180 187 186 189 176 184 184 184 166 168 169 170 160 146 145 141 133 123 122 106 103 92 60 35 33 16 5 1 0 6 -5 6 -16 1 -6 1 1 8 -6 -6 -8 7 -3 85 77 132 167 176 156 116 81 48 6 -2 9 2 43 108 83 149 186 186 181 179 174 184 166 176 187 184 189 183 186 176 174 176 180 176 185 189 185 171 183 183 168 190 182 187 178 185 186 194 173 171 195 187 183 181 177 175 180 170 177 185 180 186 179 182 185 177 190 180 176 176 178 182 184 178 178 167 184 178 182 184 170 182 171 181 188 176 187 175 182 183 189 183 186 191 182 188 184 180 181 187 168 182 184 169 175 180 174 177 189 183 172 185 178 189 166 190 182 174 173 166 168 179 160 169 158 172 177 175 167 179 167 171 169 174 169 157 168 156 162 160 162 165 149 157 155 153 152 152 151 150 150 158 159 149 150 149 149 153 153 167 149 151 145 145 154 156 153 152 150 154 162 156 145 144 141 153 146 144 138 135 93 61 29 20 -3 10 7 -3 26 82 85 155 165 149 151 133 79 62 41 -2 -3 -11 5 -8 3 -17 1 -12 7 8 -1 -3 11 2 -13 1 -5 -3 7 4 3 -5 -9 -7 -8 13 7 3 -1 -6 -9 -5 -6 0 -4 5 15 5 -6 0 10 0 -6 -5 5 2 -9 -3 -15 -5 -1 8 2 -9 4 4 8 6 4 -3 12 -5 -3 6 -8 0 15 -5 6 4 2 2 6 -4 2 -4 6 -2 11 -9 -2 16 8 11 16 -8 4 10 6 17 -2 7 0 10 -1 0 5 -3 2 -11 -4 2 -6 -4 -2 -5 -9 -4 1 -7 -2 2 11 7 8 3 5 4 8 -2 7 0 2 13 -12 -1 8 2 -6 3 -1 8 12 0 4 1 11 21 11 3 -1 8 0 10 3 -5 5 -9 -8 9 -4 11 5 3 -8 9 13 8 6 -4 4 0 7 0 3 -5 5 7 6 6 -2 -3 4 4 -3 4 -4 7 13 3 16 -1 3 8 -2 -10 4 -6 10 0 7 6 4 -13 8 0 -10 0 4 -8 -4 -2 1 -2 5 -10 -2 5 8 -4 7 -11 -5 2 -4 1 9 1 -2 -3 -7 -4 2 -7 -15 1 17 0 10 -3 
-12 8 -12 3 7 -13 -1 9 -6 -4 -8 0 2 1 -3 -4 3 3 4 -7 1 1 4 7 4 -3 6 2 -1 0 -7 -2 -4 5 11 12 11 -3 -10 0 -11 -10 13 -5 2 -6 -11 0 2 5 15 -6 2 11 8 4 -1 -4 10 -4 4 -1 -8 13 4 2 9 -5 13 5 8 6 6 19 -1 6 -2 1 4 -6 2 9 11 11 4 16 4 3 1 0 10 11 6 -6 16 -11 6 8 -2 -2 6 -1 8 11 -1 -2 -5 1 3 1 5 3 -8 4 4 3 17 -5 10 4 8 1 4 -7 8 -8 2 -3 -5 4 4 3 -2 -4 4 12 1 -9 -12 -3 2 1 0 2 9 6 -1 6 -14 -3 4 0 6 8 -1 1 -3 12 12 7 11 77 79 155 176 173 165 186 179 184 187 184 177 175 168 170 167 152 163 153 150 135 127 129 125 116 96 77 75 50 33 36 3 -5 -9 -11 10 -10 -8 -8 -3 1 0 -5 16 -14 4 4 38 94 107 156 177 168 160 103 69 37 0 6 5 15 93 88 130 175 178 184 179 179 183 187 183 199 189 181 198 175 177 185 185 179 176 175 185 181 169 184 185 175 191 180 183 184 179 179 172 180 173 182 184 180 166 171 180 177 173 176 171 181 170 182 191 195 176 188 188 184 178 184 180 176 174 172 186 189 179 176 167 178 166 186 184 185 178 190 173 191 187 177 187 194 190 178 191 169 184 184 180 190 194 185 180 190 193 187 172 185 183 179 185 175 191 178 189 172 180 173 178 166 173 168 159 167 178 184 164 166 177 164 167 167 157 169 163 164 164 172 171 157 160 159 168 165 159 172 152 167 145 152 160 148 152 155 149 158 164 160 172 152 151 155 159 160 148 154 163 150 152 152 152 153 154 156 144 163 149 127 149 139 102 61 37 25 9 -3 17 4 8 72 92 103 149 154 129 141 108 49 73 24 -2 -11 -11 -3 -5 5 -17 0 1 -5 4 -8 18 4 -4 6 -13 4 -3 -4 5 -15 -11 -3 -8 -2 7 1 4 4 -1 -6 6 -3 -10 -3 -3 3 -2 -4 -7 12 -7 -12 -5 13 6 -3 1 -3 -7 0 1 3 -3 5 -8 -2 -1 -1 6 6 -1 2 3 -3 11 -1 7 -14 6 4 5 -1 13 1 2 11 13 -1 9 -6 -1 5 12 12 5 10 11 14 -1 -3 -6 7 1 8 6 1 4 4 6 -10 4 8 -1 6 4 -4 0 9 -1 4 1 4 3 2 5 -4 -2 -1 0 15 -15 -11 7 17 -8 5 3 0 10 5 8 10 9 2 11 3 -1 11 5 3 3 1 -2 -4 15 7 -6 13 -2 -8 8 3 2 8 3 11 0 10 -1 0 3 -2 8 -4 -3 0 0 -7 3 12 -11 -9 6 -2 4 -8 15 1 6 0 5 -7 -1 7 14 6 -1 6 2 2 8 0 -9 0 -1 -6 -3 6 8 -10 -2 -2 5 2 3 -15 -8 1 2 21 -1 1 -7 -1 13 -13 -6 10 11 2 -3 2 -8 -12 -1 10 2 -2 
4 -2 0 1 -5 -9 19 -8 -3 3 9 1 18 -5 1 -15 5 2 -7 1 -8 3 12 -1 -11 6 1 -1 2 -9 1 -10 1 -8 2 -1 2 6 -10 -15 13 1 -20 9 -10 -3 7 -2 -6 -3 -1 -10 -2 -4 7 -9 13 17 -12 4 -3 4 8 -12 5 4 -6 6 2 5 2 10 6 -4 -8 17 13 9 12 -4 4 4 -5 7 -2 3 5 6 -5 9 3 9 -5 7 -12 3 6 7 9 1 -5 1 11 0 20 -2 0 7 -6 1 -4 -1 -2 5 -6 -4 5 -7 3 -4 8 -9 -2 5 4 2 9 -7 9 2 -3 2 -2 2 -6 2 5 -6 7 4 2 4 6 -3 3 1 4 6 2 1 -2 9 8 0 3 3 5 5 7 20 0 68 81 131 185 176 169 190 182 178 175 183 187 180 180 173 156 153 149 150 130 149 143 122 121 118 108 80 88 60 46 28 11 -13 3 -3 -1 2 2 -5 -7 5 -11 3 -9 6 6 6 84 79 132 169 173 162 157 103 63 18 -9 4 5 51 95 100 179 176 189 181 188 181 188 173 180 178 179 184 173 190 176 187 178 185 180 190 187 190 181 177 178 187 182 182 172 179 185 184 189 187 177 181 178 168 179 170 183 182 178 162 185 188 187 176 179 177 167 178 172 183 182 174 178 176 179 190 192 179 185 176 180 180 182 187 184 182 190 183 197 183 183 179 181 191 192 185 183 187 178 183 168 176 180 182 176 184 184 178 181 177 189 180 175 181 175 184 185 179 174 176 179 171 178 164 186 160 169 172 171 164 166 183 166 180 165 172 166 157 173 156 170 170 162 167 151 170 160 158 159 149 158 161 164 160 156 159 155 165 159 167 142 148 161 154 153 150 148 165 147 154 153 149 143 150 161 159 137 158 146 154 142 129 118 82 40 25 6 -1 7 9 15 27 107 82 160 153 146 149 132 84 54 45 -12 -6 7 -6 1 -4 -10 5 6 -10 3 10 3 5 -7 10 -10 5 4 9 -9 12 -10 1 -19 -3 15 9 -6 -7 -3 0 -11 -11 -6 0 -1 15 2 -5 2 2 6 -9 13 -11 -11 -4 1 -2 -5 -6 -2 -2 -3 6 16 -1 8 3 6 18 5 8 -1 -2 15 7 11 12 3 10 7 4 12 8 3 12 5 -6 0 7 17 6 9 -2 0 -5 14 11 5 -4 0 4 -5 8 -8 7 -11 -4 -9 4 1 -2 -2 1 3 -5 6 2 -1 16 4 -1 3 6 3 -8 1 12 -11 12 -5 7 0 3 5 9 -2 3 9 -1 -8 7 -2 7 8 22 -2 12 3 10 15 -3 10 -1 7 2 0 -10 0 17 3 7 -6 9 5 6 5 10 8 6 4 8 -10 4 -4 8 9 1 1 0 1 0 -2 0 -11 0 9 -5 0 7 11 12 8 11 -8 -2 -6 3 12 1 -2 -2 1 -5 -6 2 -6 -3 -8 -3 3 3 -2 2 -4 1 -4 0 -1 -8 5 2 -8 -6 -6 7 5 -7 4 -10 -6 -2 -1 -1 4 -15 6 0 
1 6 -5 -1 4 5 -11 -1 -5 -13 -4 -3 -15 -5 2 4 -5 4 3 -1 10 -3 1 -6 10 5 2 -2 1 -5 2 -9 5 -2 -1 -4 10 -7 5 -2 -9 -13 -5 1 -11 1 -2 0 -1 8 -4 -1 9 6 -7 -1 -5 12 10 13 -1 4 5 -7 -1 11 1 -3 6 11 23 -1 11 9 3 4 -7 2 1 10 3 11 5 15 1 8 4 2 1 2 2 7 13 2 8 9 0 -4 1 10 3 12 14 -5 3 3 4 1 -1 1 -7 11 -6 12 -9 8 -9 0 5 1 9 -2 -3 -2 7 -1 -4 5 18 0 -9 -14 1 0 9 -1 3 3 -10 -1 6 -3 -5 1 7 6 -3 11 -1 0 10 9 -1 -14 9 4 -6 4 -2 7 1 41 82 121 178 175 178 194 182 177 174 179 195 167 164 166 168 156 167 157 141 162 143 120 130 112 118 96 89 86 31 47 25 0 7 0 -2 -4 -1 -3 -4 4 -3 -2 -2 -5 -1 24 107 96 159 173 165 178 159 102 59 5 8 8 20 99 79 153 179 177 193 193 181 188 185 178 186 186 181 191 176 176 177 194 186 191 174 185 182 176 187 192 177 191 183 198 185 184 187 176 188 176 187 191 183 179 171 175 170 173 183 173 175 181 179 178 185 179 186 176 184 186 177 176 188 178 179 179 178 179 178 176 186 174 176 159 192 171 184 192 181 185 184 187 179 179 178 184 194 186 177 173 174 192 188 175 184 167 177 179 191 177 187 177 177 184 185 176 173 180 184 168 181 175 171 171 176 176 166 180 176 183 169 160 177 160 178 168 174 164 163 170 163 165 167 171 160 169 174 157 158 158 160 153 166 169 155 163 157 161 155 166 161 163 167 150 165 161 157 158 159 158 157 151 149 141 156 147 150 150 136 133 146 132 112 84 39 34 7 10 -5 3 14 -4 88 86 139 148 134 147 139 139 72 73 22 -4 3 -7 1 2 17 -10 14 -2 2 -2 2 -4 -5 -9 4 9 -12 -1 1 7 3 1 -6 6 -8 0 -5 4 -2 -5 -4 10 -10 -10 2 5 -11 -18 -12 -5 0 -8 -7 -6 -2 3 -3 6 -1 -8 3 2 1 -2 15 5 -9 -4 14 11 8 0 12 -6 6 12 7 7 6 3 -1 5 3 9 17 12 11 9 0 9 -3 3 5 6 2 0 7 -4 23 11 7 -3 3 8 4 2 -2 12 -3 0 -9 -7 -7 -10 7 5 -5 9 2 3 -4 5 10 -3 10 1 15 -2 2 16 -8 4 7 -3 -3 -6 4 0 6 8 14 5 17 4 2 -4 -2 17 10 0 4 3 10 8 3 -2 -6 7 -7 -9 -3 5 9 -4 3 1 9 -2 -3 7 -3 8 2 -3 1 5 0 0 -3 -3 -2 9 -3 7 -4 8 1 9 -2 10 -5 3 -4 9 2 9 -4 -9 11 4 5 6 1 10 -1 3 -7 -20 5 -10 -5 -9 0 7 -4 11 5 -2 -13 4 9 -10 5 -1 5 -3 2 0 0 -3 -3 5 7 4 -3 10 -5 0 
-10 3 -5 0 7 10 7 6 -8 3 9 -1 -8 -3 -5 3 1 8 3 7 0 6 -14 -5 -9 6 -1 -2 4 -8 7 -1 -7 -8 -1 -7 8 3 -6 1 0 -12 6 4 -3 3 0 7 27 -8 11 -1 4 -9 10 8 11 -5 -7 -6 8 -4 -9 7 6 -6 4 0 18 -4 12 0 10 3 7 0 19 1 -2 7 -12 4 5 -1 9 3 5 2 2 3 7 11 2 1 12 -5 13 5 0 -3 13 7 8 10 1 2 -10 -5 2 4 -3 9 -9 8 3 -15 9 0 -11 7 -3 4 9 -7 -3 14 2 3 3 -2 9 3 -1 -4 5 5 -5 5 -17 7 -3 1 6 -5 6 -7 -2 8 6 13 -1 -5 7 -1 -3 3 1 0 9 12 3 24 73 97 163 171 183 185 181 177 194 170 170 178 177 156 168 165 161 141 162 163 140 123 134 131 122 101 81 81 73 40 37 17 9 1 0 -6 -4 -14 -1 10 3 11 13 -1 -3 75 64 134 174 175 174 167 148 97 80 10 7 -7 33 98 74 180 174 187 187 177 180 184 182 185 178 190 179 182 174 167 183 176 184 182 179 187 184 178 201 187 189 185 189 182 188 188 202 180 186 192 180 177 172 172 175 175 189 187 183 179 174 178 187 185 185 181 173 177 194 186 179 179 177 174 183 183 185 183 177 177 176 181 176 181 157 193 188 183 184 189 182 178 198 177 189 193 176 179 194 184 177 175 176 177 188 187 187 191 183 196 181 176 190 173 189 177 178 177 166 170 168 170 179 184 175 176 175 179 175 171 174 173 168 168 164 175 163 169 171 162 165 167 167 171 167 161 163 170 165 170 170 166 168 160 162 153 160 156 159 162 161 175 157 168 148 166 151 166 152 159 155 154 152 149 147 152 155 157 154 145 151 131 114 90 50 35 9 -1 -5 8 14 5 64 104 128 168 142 149 141 148 88 60 49 -4 1 9 4 6 4 -4 2 -11 -2 7 -9 5 -10 7 -4 -3 1 2 1 0 -1 8 -2 2 5 -5 -3 -7 8 -9 -10 -1 5 -6 9 17 -4 -5 -2 1 9 3 -13 -16 0 0 -6 -5 6 6 -1 6 0 -3 -3 -1 -4 10 8 6 1 1 6 -8 3 5 8 4 2 -3 7 8 7 11 13 10 4 0 8 14 -3 3 14 -2 -2 1 5 -4 3 19 6 7 5 3 -10 -2 1 -4 4 3 1 2 -3 2 5 3 1 10 3 -6 9 0 -1 -8 3 1 15 -2 -2 7 11 0 8 -1 1 6 -15 11 1 0 9 0 18 7 3 -5 5 5 3 12 6 1 -2 12 5 10 1 5 4 9 -1 7 -9 -5 1 -3 -2 6 0 -9 7 10 -1 -2 -10 4 11 1 5 -3 6 -6 -3 -2 1 -5 -8 6 3 0 15 -9 9 3 11 7 3 -17 1 -13 -11 -1 4 -9 0 3 -8 -3 0 -13 -4 -4 2 0 7 0 -3 -5 -5 1 -12 4 3 -4 -10 6 -5 15 -6 1 4 -5 -3 6 12 -3 7 -1 
7 14 12 7 23 -5 14 1 -5 2 -7 7 -5 -4 -6 1 -2 2 11 2 3 4 12 3 -1 3 -7 5 -1 -3 2 -19 -2 9 -2 -6 10 -3 3 0 -2 -10 -7 -2 -5 0 2 -8 -7 -1 4 2 -1 12 -1 1 13 2 -5 4 9 7 1 0 -8 -13 19 10 1 16 11 6 14 14 8 13 3 2 -6 23 13 -6 15 2 0 4 0 10 10 -1 0 8 8 -5 6 13 -1 -1 -1 2 12 1 5 -3 7 -7 -5 3 2 -5 1 3 -6 1 -2 1 1 3 -3 -5 -5 -3 -3 -2 5 -10 -6 9 -14 -2 -4 -3 3 2 2 9 11 5 4 -3 11 -1 8 22 4 11 1 -3 -1 -8 8 0 0 6 6 -1 10 -9 -5 22 -2 5 86 92 162 178 170 191 184 184 175 170 172 183 174 169 167 153 172 156 144 138 143 144 131 129 124 113 107 82 79 47 37 30 13 -11 -1 -10 -3 -3 -1 -10 0 13 -14 5 29 107 85 166 173 173 166 166 158 86 85 6 13 -4 44 93 110 192 184 190 182 199 175 191 180 180 187 175 171 181 159 191 182 186 198 177 184 190 188 198 188 171 196 189 181 186 179 184 185 188 185 183 181 198 183 182 178 181 177 189 179 183 176 182 182 182 188 188 181 178 173 183 179 192 172 172 183 178 184 173 187 168 180 178 184 184 178 177 186 183 175 191 184 186 191 190 176 183 175 195 183 183 178 182 183 184 178 176 176 185 187 180 185 187 180 176 170 183 178 173 175 189 169 170 176 178 178 170 176 160 175 166 177 171 163 162 174 169 167 173 165 160 171 176 160 169 159 154 162 168 168 163 165 160 147 167 161 159 163 161 160 157 160 166 155 154 161 154 167 160 151 146 147 159 165 151 165 160 155 165 156 150 134 126 120 85 58 36 16 17 11 -3 -5 -1 72 74 153 155 140 153 149 153 132 69 60 9 6 14 -4 1 8 -2 -6 10 -4 14 6 -5 -3 6 -3 2 -2 -1 -3 -9 2 0 -10 -4 12 1 -5 8 -10 -14 -10 10 -15 -3 -3 4 -9 0 -13 -5 -1 7 -16 -9 -2 -1 -14 -15 -3 8 0 7 -2 0 9 0 -3 5 1 2 -1 8 4 10 7 -10 8 7 4 14 -7 0 11 -4 1 10 3 5 12 -2 13 -7 7 -1 -7 7 22 -1 -3 9 16 -10 2 15 13 -2 3 -1 -10 9 3 9 1 4 -4 0 -5 -2 7 -1 17 -6 9 -4 12 1 0 -1 -7 -3 -6 4 2 2 10 10 -3 2 8 -7 20 7 4 7 0 6 4 13 6 3 15 6 2 8 6 6 3 -6 -1 16 5 1 15 -1 -4 4 8 0 3 7 -1 -3 8 2 -5 2 6 -1 7 5 0 0 3 -5 0 -1 11 0 0 3 9 -8 2 0 3 -6 -8 -1 0 7 -7 10 -4 1 4 -3 -7 -3 -5 -1 2 5 3 1 -9 -5 -3 -10 -9 4 -5 0 6 10 14 -12 2 0 -2 -3 -8 -11 8 -5 -4 -1 -5 1 
6 -1 -9 -2 -3 7 -5 -8 15 2 2 1 -3 -2 0 -11 -11 2 2 13 10 -3 -1 6 1 -12 -5 -6 6 0 -2 2 -6 3 -5 -3 3 0 -5 -5 3 -13 -4 -2 -3 -8 1 12 0 -5 9 9 7 14 -3 1 11 1 11 4 -3 -5 -3 3 1 11 -9 -7 10 0 0 4 7 2 -12 3 -2 6 8 -5 8 2 11 -2 4 3 14 0 5 6 -2 4 19 6 -4 4 12 5 9 -9 6 1 3 3 2 2 4 -4 -6 1 1 1 2 -2 8 0 -2 0 6 5 3 7 -6 -7 3 -8 5 -1 5 2 4 3 -6 -2 15 11 -8 -8 0 -9 -5 7 -8 -5 -5 -1 -4 -3 2 6 10 -1 8 2 -6 -2 -1 1 -3 9 -7 5 87 63 151 163 192 194 186 177 179 183 174 185 181 166 175 173 165 151 152 145 148 121 145 134 115 124 98 99 69 80 58 19 19 13 -1 3 -4 10 3 1 0 -4 -10 2 60 85 130 177 178 180 172 160 159 106 80 15 -4 10 67 83 154 188 179 194 176 187 194 175 193 178 180 184 187 180 183 194 184 180 190 183 190 184 183 184 196 176 180 176 177 198 193 190 190 166 173 182 180 181 195 185 157 186 184 188 175 180 187 182 182 177 177 189 191 175 191 164 179 173 175 187 180 176 195 179 185 175 180 191 183 183 173 182 186 178 192 175 180 184 181 179 185 178 186 184 186 192 179 179 187 182 182 181 194 174 183 185 179 175 172 182 184 182 179 187 179 179 171 169 183 171 192 172 179 176 170 165 180 176 176 173 173 168 166 164 171 160 168 171 162 178 166 165 157 171 164 161 170 160 171 160 159 168 153 159 153 161 164 175 160 170 161 163 181 155 148 157 164 166 160 145 151 151 144 138 158 139 142 133 102 79 54 32 6 2 13 4 5 12 92 79 142 160 139 144 152 148 135 94 66 43 2 2 4 4 3 12 10 -1 -2 0 14 18 -3 5 0 0 6 0 -9 4 -3 -12 -5 6 8 -2 2 2 -3 -14 -5 -7 6 -8 9 -4 1 -25 0 -16 -6 -12 -4 -12 -10 -6 11 -5 4 7 -2 13 2 0 -2 -4 2 9 0 -5 6 -3 4 5 4 14 -8 5 7 2 5 1 1 0 14 1 12 5 0 2 0 12 11 3 -1 0 6 -3 9 8 4 14 9 -4 4 2 8 -8 5 -2 3 3 11 0 -3 -1 8 3 -4 -8 11 -3 16 14 0 -4 1 -3 -5 9 -2 8 -8 0 -7 -6 -4 -1 -1 -6 7 -11 5 4 8 16 -15 11 -6 12 7 -2 -5 4 -3 -4 7 6 -2 8 -1 13 8 15 -7 7 7 -6 9 -5 13 14 -12 2 2 16 2 1 -2 -7 3 0 -9 4 -5 -5 3 2 3 9 8 19 1 2 -5 -8 7 2 -1 7 -3 9 -7 -4 -9 13 -14 -2 -12 -2 -5 0 1 -8 -8 13 -14 4 -15 1 4 14 1 6 -4 2 -6 -6 1 -5 -3 19 11 3 0 0 17 -5 
3 5 2 9 3 -9 3 -1 12 -1 -9 -5 -10 -1 7 8 16 -2 8 1 -6 3 7 3 1 -11 6 0 0 -3 -5 13 -6 0 4 0 -4 -4 3 3 11 0 -12 -12 3 -5 1 0 -2 10 -2 4 0 -1 -8 9 0 -1 -3 0 3 7 8 0 2 2 2 10 6 2 7 3 1 13 4 1 7 10 -2 1 9 -1 12 16 2 20 1 0 6 1 7 9 2 5 7 -7 -1 3 17 -8 14 0 10 -1 -2 9 3 -8 -5 15 -5 6 -7 6 9 4 -7 -6 3 4 -6 19 -7 -11 -6 7 7 -4 1 5 -5 8 -13 -2 0 3 -2 1 -8 6 -6 4 1 -4 0 1 10 -8 0 1 -4 -6 9 8 13 -5 16 1 -4 -1 8 -9 44 80 131 166 178 176 185 186 175 184 190 158 178 169 168 162 167 162 139 145 135 153 146 139 126 112 109 93 87 63 81 49 45 21 9 -1 -2 -1 -4 -6 3 0 -5 15 98 86 145 184 183 189 175 178 161 103 103 20 3 6 76 74 171 188 185 191 189 185 188 176 183 176 187 177 170 179 179 195 181 183 190 183 183 198 194 195 181 177 185 177 184 190 190 173 193 188 183 198 188 185 203 182 184 188 182 185 175 183 176 193 192 174 189 181 182 191 182 189 178 181 187 179 188 177 184 177 186 185 183 187 182 178 184 181 192 184 184 199 183 187 185 187 191 179 195 175 176 185 185 191 182 183 197 188 181 188 180 182 183 184 181 186 177 182 183 169 176 176 178 185 173 171 179 173 173 171 180 176 163 174 177 173 169 179 173 166 162 170 165 176 173 155 172 165 172 167 164 162 155 156 163 155 150 171 178 171 169 162 167 150 168 159 177 156 153 158 164 157 162 156 159 152 166 140 157 162 149 143 144 119 107 74 41 26 2 14 8 1 1 30 81 94 157 144 150 149 149 141 154 117 74 60 9 3 -2 6 1 -7 -4 -4 4 15 4 2 -5 9 10 6 2 -5 -4 -11 -11 -11 -12 2 -6 3 -18 7 4 -15 -13 -16 0 -1 -1 -14 -5 -4 -1 -13 -6 15 4 -11 5 0 1 -1 5 -3 3 -5 2 3 -4 -4 -6 3 5 0 9 6 4 15 4 1 11 -3 -2 7 1 -4 13 9 2 3 4 11 8 14 0 4 14 12 4 14 11 -10 10 -8 6 3 -2 -5 1 3 8 -2 -4 11 -12 -14 10 -14 4 2 3 1 -5 15 -10 8 6 -10 5 3 -4 -10 12 0 0 4 0 5 4 5 -2 -7 5 6 4 9 4 3 -1 1 7 5 12 8 -6 7 10 10 2 3 14 12 -6 2 5 1 1 0 14 1 14 -1 3 11 4 4 0 8 -4 2 6 2 6 7 2 -5 -3 1 -4 7 -8 1 2 8 1 9 -2 -3 -6 -3 4 -2 5 1 6 1 0 -2 4 -7 2 -4 -3 -7 2 -5 10 3 14 -1 1 4 5 8 -1 -14 -2 2 8 0 6 -1 -6 1 -9 -3 4 2 16 6 -11 -5 
4 6 6 -1 16 1 12 7 -4 -10 14 5 -1 12 19 5 4 4 8 10 1 -5 3 2 -14 0 -4 1 1 -7 -1 -10 -10 -7 10 7 2 -6 -10 -3 4 -4 -9 0 2 13 -5 4 14 -1 9 12 2 0 3 11 2 1 14 -7 4 -7 -6 3 -4 -6 2 3 -7 11 -4 13 11 18 13 -4 2 -4 5 -8 2 8 4 4 0 -3 0 7 -9 8 2 -6 -1 7 3 9 3 -4 5 8 17 -2 1 8 3 1 8 -7 4 -4 2 3 5 11 3 11 -2 3 -1 1 -5 -9 -4 -5 -4 -2 0 5 5 -5 8 -2 -5 -4 5 -10 1 0 -5 -8 4 4 -1 5 -9 -16 -23 2 -11 -1 10 3 0 -1 12 -1 6 0 -5 11 12 7 42 75 110 177 170 173 196 183 179 180 168 185 173 165 173 170 146 155 158 140 136 140 148 145 127 129 120 96 96 92 82 68 29 37 24 -10 5 -1 4 10 5 -4 -2 43 86 110 177 164 179 178 190 184 166 106 99 35 -6 -5 93 82 178 187 174 185 183 190 191 186 193 196 181 177 177 201 188 182 184 183 192 180 187 193 178 200 175 180 187 180 183 188 179 183 184 183 197 182 177 180 185 185 169 184 187 188 184 187 193 191 189 182 187 203 177 185 180 179 187 189 178 177 177 179 188 188 189 188 184 182 197 180 189 175 181 187 183 182 188 185 185 183 182 191 180 185 185 181 181 172 177 185 177 171 177 187 173 186 187 179 182 184 171 175 172 176 178 173 182 180 179 181 183 169 180 164 175 170 164 161 172 170 159 168 170 179 167 169 182 163 172 175 165 168 173 183 175 176 155 164 177 158 168 161 156 163 172 154 162 170 161 172 167 161 149 160 165 159 151 154 154 160 154 153 150 156 144 149 140 117 99 68 39 19 -5 17 20 10 -1 54 81 118 163 154 154 148 144 153 155 149 95 63 30 5 4 2 6 14 -4 -5 -1 19 1 14 0 2 5 -1 -6 12 -16 0 -12 -1 -6 7 4 2 -9 -9 4 -10 2 1 10 2 7 -1 -3 6 -1 2 8 -2 -2 6 -2 -7 -3 -4 -3 -2 14 -6 -1 -7 13 -3 -1 5 0 8 1 11 0 -9 -8 9 5 6 13 0 -13 3 1 8 1 7 17 -7 4 -2 4 10 13 4 8 -2 -1 7 1 -2 -2 4 -7 -2 1 5 6 -3 -2 -3 2 3 5 1 -5 7 -2 22 -7 11 -3 -5 0 9 14 20 9 5 -1 -1 5 3 7 -1 -6 -3 -2 -2 3 -7 -1 -8 4 -2 12 -1 0 6 -5 -2 -16 8 6 -2 -11 9 -3 -2 14 -7 8 7 0 1 -5 13 -4 2 0 2 5 6 7 3 3 -1 8 -6 -2 -2 -3 4 1 10 -1 -9 6 -3 4 8 7 5 8 -4 2 9 0 6 -3 -2 -3 -9 -5 -8 -4 9 5 -14 1 6 3 10 -8 9 8 -18 4 1 -11 4 -1 4 6 -6 3 -2 -4 -5 8 -5 9 14 1 10 -8 0 11 -5 
-2 -7 -1 1 4 1 15 -1 3 9 -5 1 -2 0 -4 -7 1 0 -7 1 4 -3 6 4 -8 -4 -4 4 -2 2 -9 16 -10 3 -1 3 8 0 3 -2 -8 -3 3 -7 -1 -7 -4 8 -7 -3 8 5 8 7 -4 4 4 16 3 6 3 -1 -4 8 1 7 9 -3 0 4 16 -9 5 10 6 -3 8 -3 0 15 -2 8 8 12 21 7 0 7 6 -4 3 19 2 14 -2 7 -3 7 12 3 17 13 -4 8 4 -2 -1 0 8 4 19 -11 10 0 7 -6 14 -2 4 1 19 14 -1 0 -6 1 5 -14 -3 6 0 -7 -13 -8 -9 -4 8 -3 2 6 -12 -6 0 -7 -4 13 -4 5 -7 -9 8 3 11 -9 -2 -5 12 -1 -3 2 8 1 16 90 101 164 177 181 183 197 167 199 182 167 167 170 161 165 172 144 153 142 158 154 136 132 137 130 125 118 104 103 85 90 67 36 28 -4 -4 14 -4 1 4 -1 -1 94 78 156 182 175 177 200 194 199 174 132 86 96 8 -9 89 84 178 180 172 200 185 204 200 184 182 171 192 191 184 190 184 193 192 184 192 188 200 183 179 180 190 165 178 181 196 189 187 182 193 195 193 174 189 180 176 192 178 194 187 184 186 180 179 191 185 184 182 182 185 197 171 190 189 173 183 185 181 186 175 186 185 185 183 186 178 180 173 193 181 183 190 175 198 182 190 194 188 181 193 181 177 198 182 191 176 182 194 181 185 173 175 182 177 181 169 177 174 184 189 175 170 174 176 180 179 172 172 166 178 170 171 179 173 179 176 164 174 174 164 168 168 173 169 166 179 163 167 155 166 159 173 176 184 179 169 166 160 164 171 160 155 176 166 163 167 161 160 155 161 153 157 155 143 159 150 163 159 144 145 156 138 142 138 109 84 47 26 20 13 6 14 -12 29 91 74 135 165 163 154 159 154 161 146 154 110 67 65 16 7 1 -12 10 7 -1 10 -6 13 2 -1 0 0 -1 1 0 1 -13 -7 -15 5 -10 11 -5 -2 13 4 -15 -11 0 -12 0 -11 2 -8 -9 -2 2 -2 4 -1 -9 -4 6 2 -9 1 14 -6 5 10 -1 -8 4 11 -7 9 2 20 1 16 4 1 -2 9 5 2 7 -5 -1 6 2 19 8 1 9 13 5 5 15 8 2 -2 4 18 -6 6 14 0 5 -13 0 -1 2 8 -6 -9 11 0 -7 6 1 3 5 3 5 -4 6 5 -2 2 2 0 3 9 -4 2 11 -3 13 10 -12 -5 -2 -2 7 -3 6 -3 0 18 5 16 -4 8 4 11 0 -6 6 -12 0 5 -3 -3 -12 5 8 -10 0 0 6 -3 0 2 4 10 0 7 -5 -2 15 0 8 3 7 19 6 4 3 -2 -8 1 7 4 4 -10 -15 5 5 -6 6 -5 -3 -7 -5 7 -5 4 -1 -1 -8 -3 -11 -10 -10 -6 5 -7 -4 10 0 5 5 -17 -10 -2 8 0 -2 5 5 -8 -6 -3 4 7 11 -6 -11 1 4 3 -4 8 -2 
-2 -10 -4 5 0 13 -7 1 7 -6 -3 1 -3 10 8 7 4 1 15 3 -11 9 5 7 9 10 0 -6 -2 -2 0 -11 0 -7 -5 -10 -4 1 -5 -2 -2 -9 10 -8 1 -8 10 -3 5 -8 5 -7 10 -8 5 -8 3 -1 5 0 -6 -9 2 1 4 0 6 9 3 -9 -7 2 4 15 5 7 8 5 9 12 5 13 8 -4 -5 12 -3 5 -4 -4 8 3 6 -2 8 -5 5 3 -14 5 -4 -3 10 10 3 9 3 -2 6 -4 -1 -8 10 -1 -11 -5 7 -3 -8 12 -4 0 -3 2 3 2 15 18 -8 -5 -11 1 9 2 3 -1 4 -9 -8 -5 -1 -6 0 -8 -14 -3 -7 -9 -1 0 -4 0 0 2 4 4 -6 6 -3 -2 10 0 7 91 80 149 166 185 181 178 189 176 182 175 169 166 157 160 177 165 159 145 149 150 142 139 125 144 121 115 114 114 109 85 69 36 18 40 9 -5 8 -1 -1 -11 43 105 115 169 179 179 191 193 185 185 177 170 96 96 39 -15 87 70 180 183 176 192 185 181 192 192 187 192 191 185 187 194 192 192 191 190 187 180 193 189 190 185 196 193 184 182 189 188 198 173 196 184 186 183 191 184 177 189 193 182 184 184 189 178 195 188 187 183 197 187 181 182 191 179 194 179 187 176 177 191 181 187 181 179 177 188 190 176 193 178 181 182 191 181 179 181 199 175 190 187 184 185 180 189 180 182 174 184 188 180 179 187 178 183 172 177 183 177 178 183 189 185 179 174 179 170 179 175 182 177 173 174 171 174 183 167 172 175 167 184 170 165 175 174 169 175 179 166 174 187 169 164 172 173 152 152 167 170 165 160 161 174 156 160 165 165 169 161 169 154 157 160 148 157 163 155 162 144 169 152 148 143 150 137 117 104 92 46 24 24 -4 6 14 11 71 80 91 169 170 161 147 161 159 159 153 149 150 79 65 26 10 13 -2 3 8 2 -4 -1 3 -12 8 13 -1 7 -1 -11 2 0 5 13 -8 5 -9 -5 4 -12 -7 -2 -7 -4 2 6 -7 6 -4 -4 4 -8 -1 8 -4 3 -16 -7 1 1 -1 9 -7 4 -4 -5 1 -5 -6 20 2 4 25 8 3 9 1 -13 5 14 6 6 12 12 5 -3 6 3 6 -2 0 7 0 11 20 6 2 12 -5 12 7 -1 -6 -4 12 13 -2 8 2 2 7 -5 8 1 -2 2 -2 -1 19 10 12 -4 8 12 -3 14 11 9 1 -6 2 -7 2 0 -9 4 7 -15 6 -10 10 5 -8 1 6 11 7 0 -5 9 -2 -3 3 -5 0 1 6 4 5 3 4 -1 -4 2 6 4 3 0 0 5 15 5 15 -12 6 8 11 -5 9 5 9 4 5 3 4 -5 6 2 -1 -1 4 -2 -1 -5 -1 -8 0 5 0 -9 -2 4 -9 -2 -8 -5 -2 5 -1 -1 5 4 -4 -4 7 1 -7 4 7 3 -9 1 -12 5 -6 4 10 13 1 3 9 -2 5 -5 0 6 1 -2 -1 -2 
9 4 4 -3 6 -2 4 11 6 4 1 -3 0 5 -2 1 -12 -11 -10 4 7 13 -9 17 -4 0 8 1 9 -9 -9 12 10 -1 7 8 10 0 9 3 -7 8 -18 16 0 4 -1 3 -3 -2 10 2 5 -6 1 4 0 -2 8 2 12 7 -3 2 1 2 4 12 4 -4 9 0 10 4 -4 3 2 3 14 -5 7 -4 -2 1 4 -3 10 -1 7 5 14 -1 -1 18 7 0 6 5 12 5 17 8 12 -2 4 -11 -3 -7 -1 6 0 -5 4 -2 6 -4 -5 2 -5 -3 4 10 -1 0 -2 4 -2 -1 -1 4 10 -4 -12 7 -4 -2 3 4 8 -1 -2 6 -5 7 -6 -4 -13 -10 -6 -10 2 -1 0 -5 -7 -8 -8 -1 10 -14 -1 2 -1 73 79 151 191 167 173 183 186 192 183 169 171 176 159 157 165 162 164 149 146 158 148 136 139 130 125 130 118 114 120 111 77 62 50 33 24 1 2 -4 0 -9 80 70 144 180 179 186 193 187 192 179 191 183 139 86 100 -1 72 71 166 190 175 184 197 193 185 181 195 190 187 176 180 200 186 193 193 190 182 184 194 183 186 184 190 179 181 188 203 199 184 190 189 187 180 195 180 186 184 179 192 179 178 189 174 186 175 184 189 182 192 187 177 194 187 178 194 180 204 184 183 180 187 179 193 173 183 184 180 181 187 181 188 182 184 182 184 180 183 187 183 185 176 180 167 185 188 171 172 178 181 182 172 187 184 170 189 180 183 179 183 170 165 182 182 176 182 179 177 185 171 168 175 168 183 168 172 166 166 188 173 165 177 157 175 170 168 160 167 174 174 162 165 167 173 157 163 164 181 174 168 168 162 163 166 160 168 173 158 164 155 166 160 159 162 155 165 158 156 155 147 153 153 156 133 135 104 93 66 35 18 8 9 11 6 35 79 68 143 153 152 161 172 152 163 154 156 165 146 119 62 71 10 -3 1 5 7 -2 10 18 4 3 -4 -3 7 -2 2 3 -8 -9 0 1 -3 6 1 0 0 -7 -6 -19 -4 1 -3 -2 0 -2 -4 -18 2 -4 -6 4 -7 -5 -12 -3 5 3 -1 -4 -7 -5 0 4 -2 12 13 -7 4 11 -2 -2 4 -8 10 7 8 1 10 12 -7 16 10 1 11 3 17 -2 4 3 6 23 2 7 1 12 7 0 15 10 14 -1 6 6 6 1 5 -9 4 1 13 -3 6 5 7 -2 12 2 5 6 10 0 -4 14 2 20 2 21 -6 3 -3 2 8 -2 10 2 -8 1 -11 -2 -11 1 2 5 14 1 -4 0 3 5 1 -1 -3 4 -1 12 6 5 -9 0 6 12 17 5 2 -3 3 -5 -1 6 3 0 7 -2 3 11 10 3 6 0 8 -5 1 1 11 -8 17 6 13 -5 -4 12 4 5 -10 -7 5 1 2 0 -5 2 10 -8 8 -2 -7 1 2 -1 9 6 1 0 -2 -8 -8 -3 1 11 -3 2 17 0 -1 0 0 6 -4 3 4 3 -5 -2 -1 -8 6 -7 
-2 6 4 2 5 8 5 3 6 -1 5 6 2 12 -6 2 -7 1 -8 -1 0 5 3 -5 -1 7 14 7 4 1 10 -2 -5 -5 0 4 6 -2 7 4 5 -6 -4 -4 -2 6 6 -1 6 5 4 -2 -10 17 -6 -3 -8 13 -5 7 9 1 -7 6 -2 4 10 -8 -3 8 12 -1 6 8 6 5 10 -1 4 5 -1 9 2 3 0 4 -4 -11 2 1 7 -3 5 -5 8 3 5 4 2 16 -2 4 5 8 -6 7 -2 8 -3 -2 6 -3 -4 5 0 15 -7 11 7 -4 4 -3 3 0 -7 4 11 -3 -1 -1 -4 3 -4 4 6 -9 11 -3 1 2 7 -9 -2 2 4 -8 -10 -18 -1 -13 1 -6 0 -1 -6 3 -12 -3 3 0 3 4 -10 67 67 148 166 190 178 174 183 186 177 179 170 174 168 161 174 156 154 148 158 172 162 148 139 141 153 125 136 127 117 102 88 82 64 43 35 9 7 -4 10 36 101 90 175 178 183 192 196 185 188 181 181 190 170 93 100 68 66 63 134 191 179 196 203 188 208 189 197 190 188 185 193 188 195 188 177 195 205 183 201 178 202 180 185 194 187 187 182 187 191 194 189 193 190 189 194 184 191 186 187 190 194 180 188 187 188 190 178 193 181 195 180 171 190 184 191 192 176 184 165 185 183 189 182 179 187 175 186 186 186 175 187 184 189 183 179 180 182 194 191 182 192 185 182 172 173 186 190 178 179 179 171 183 184 177 173 164 184 179 173 178 180 172 188 176 177 173 182 170 180 177 178 179 187 178 166 179 166 167 173 176 173 169 174 169 177 173 176 172 174 170 178 163 161 163 169 165 166 168 168 171 164 174 172 168 171 173 149 169 165 163 165 160 151 167 158 160 164 153 159 153 157 144 130 117 105 78 67 28 16 16 3 13 31 95 58 123 151 165 161 158 160 158 165 150 168 161 161 153 78 88 19 15 4 1 3 10 -8 19 3 10 11 -3 5 4 0 2 11 5 6 -2 19 9 -19 1 -5 1 -7 -3 -15 -2 2 -4 3 -4 -2 -17 -11 8 -2 -1 -8 11 9 -6 -10 -1 8 -2 -3 5 -7 -2 -2 1 14 27 -6 5 4 -1 -4 -2 4 2 -1 1 0 -4 -1 -8 9 12 4 5 0 17 -1 3 3 10 8 -11 18 11 3 8 15 5 2 7 11 -2 2 -5 20 4 4 10 7 -5 4 -2 1 -2 11 0 4 7 4 7 -5 14 -12 -4 2 -2 7 -9 5 -10 7 1 5 -8 0 -5 10 -1 6 3 -3 -6 8 4 9 -4 5 -1 -10 1 1 0 13 -11 6 2 -14 -2 3 7 0 7 -3 0 2 -2 3 1 -3 6 -1 -2 -4 0 3 -1 9 1 -2 -5 8 4 -1 13 -2 6 -7 -3 -5 -9 0 1 -8 8 4 2 -3 10 -2 5 -4 4 0 -9 -6 -2 6 0 -4 -2 3 -1 4 -9 9 3 -17 -9 -7 0 -5 -4 3 -3 15 -2 -6 1 -9 -14 7 -3 -1 7 4 -8 
8 -1 3 -5 3 13 5 0 -1 4 9 -1 -4 1 2 -3 11 -4 -4 0 6 -6 3 8 1 5 0 5 14 10 -4 -2 5 6 4 7 2 -3 0 -12 1 -3 0 12 -2 2 -2 10 11 -8 9 1 -2 13 8 -4 -12 -3 1 -5 8 -8 19 0 9 -5 6 0 6 3 7 7 3 12 7 14 0 10 9 4 9 2 5 11 7 -2 10 9 9 0 9 9 9 4 10 6 9 0 1 14 0 14 13 3 8 2 6 -6 1 -2 1 -11 0 0 4 -10 16 -8 3 7 5 6 16 -9 -3 -7 3 0 3 -1 0 4 11 -3 -3 -13 -4 6 -7 -5 -14 -4 -3 -5 -11 -4 -8 -17 -5 3 -9 1 -10 -4 6 -8 -8 2 1 -12 8 2 4 39 86 123 177 166 180 174 179 180 188 164 171 179 175 171 168 163 157 156 147 179 156 143 125 137 138 132 129 122 116 104 105 99 74 50 27 37 9 5 -2 87 85 141 184 186 175 184 192 195 186 178 193 188 180 144 94 109 83 79 113 184 191 191 182 191 193 184 180 193 184 192 183 186 186 191 196 197 190 187 188 196 178 192 179 176 179 194 205 178 192 189 179 185 193 187 186 176 196 191 185 188 190 189 180 185 187 187 177 194 183 173 188 185 200 176 191 179 186 185 185 176 185 183 194 161 191 185 187 180 179 180 189 183 190 185 182 187 193 196 182 188 187 179 179 188 186 182 184 174 183 178 180 172 178 176 183 178 177 183 176 177 168 184 166 171 195 177 176 175 164 170 167 171 173 165 169 186 171 174 183 177 181 171 176 168 163 169 182 174 173 170 161 173 172 155 173 173 160 162 170 171 171 159 164 164 161 161 164 166 166 171 166 171 159 161 169 151 168 155 161 154 154 132 124 111 84 69 53 37 17 14 0 32 73 69 101 150 160 157 167 152 171 150 158 167 174 166 154 149 110 74 65 6 -5 -3 5 -5 11 14 8 3 2 16 11 -8 -7 5 10 -10 6 -6 8 7 13 5 7 10 -5 -12 -4 -2 1 -8 -3 -14 0 -10 0 -6 -1 -4 6 -3 -6 13 0 1 -2 -5 2 1 8 -6 -2 0 6 0 14 7 0 10 -3 3 -9 2 11 2 -2 -6 6 13 1 22 1 4 -1 17 -9 12 21 -4 9 -7 10 3 7 3 9 15 8 9 2 -2 9 8 6 12 -2 12 10 -9 5 -10 0 4 9 14 5 4 9 -9 5 8 -1 -2 4 -2 -2 4 12 3 8 3 -2 2 -4 2 -9 -3 10 -1 9 -18 6 3 7 0 1 -8 -5 -6 -12 -11 6 8 -12 4 5 1 6 4 6 -7 8 8 -3 -4 -3 10 2 -1 -9 10 5 10 -1 -2 -4 6 -13 -12 -3 4 -5 -7 14 -5 16 0 13 -12 3 -6 3 9 0 10 4 -19 -4 11 -3 -1 -6 4 0 -6 1 -10 2 -3 0 -12 9 -1 -1 -19 -12 2 -2 3 -1 9 -6 8 12 -10 -6 -10 7 10 -14 -2 -2 -3 5 3 
-1 6 1 3 11 -5 16 3 6 8 2 6 -3 -5 6 -1 -6 0 11 -7 -5 9 -3 0 15 -5 6 6 5 12 -5 7 4 8 -3 -8 1 3 -1 11 -10 -1 8 -1 6 11 5 0 -2 4 9 11 0 0 1 15 11 2 3 -4 2 -2 5 3 -4 3 6 3 1 5 -5 15 -5 6 1 -6 4 14 1 -1 -10 7 3 -8 -6 -1 0 -4 9 6 9 0 16 5 3 2 13 5 9 6 7 9 7 1 7 6 2 -4 9 -5 -1 3 -1 -6 0 13 9 2 -3 1 -8 3 -18 2 2 -12 0 2 -8 -7 -8 5 -13 -3 10 9 0 -3 -5 -10 -7 0 -7 -3 -14 -12 -14 -13 -3 -4 -3 2 -2 -3 -4 1 -4 -28 0 -7 8 9 5 27 85 108 161 165 184 178 181 182 183 172 180 177 174 167 163 159 171 160 153 168 152 150 138 145 133 147 121 145 123 135 111 101 85 78 40 33 44 6 25 106 102 151 178 182 179 199 190 180 189 200 192 173 184 178 127 81 135 138 71 150 195 189 183 200 183 197 197 193 192 187 185 184 196 194 185 197 182 199 180 181 194 176 180 185 180 199 195 192 190 191 194 192 183 176 178 188 182 194 184 192 178 184 181 180 188 193 178 193 188 194 190 188 190 179 181 189 196 185 191 189 187 182 190 190 183 193 190 186 184 185 183 193 193 187 170 197 177 179 182 192 175 183 184 187 183 168 169 188 182 164 178 175 174 190 178 185 177 175 175 180 188 180 189 178 184 181 182 171 165 185 176 179 178 179 175 165 171 172 179 177 183 162 168 172 182 166 169 159 165 167 169 169 161 158 171 160 154 172 183 171 178 167 164 156 161 171 163 169 165 156 148 164 154 161 150 161 156 159 161 155 134 133 119 92 80 57 34 26 8 -6 15 85 95 77 148 164 165 159 171 167 172 151 169 164 158 162 158 154 148 82 73 19 7 -2 12 10 -10 -1 -5 8 0 0 18 1 15 3 -2 8 -8 0 10 -15 8 2 8 3 15 8 -8 2 12 9 1 -7 -10 -13 -1 -6 19 -5 5 -17 9 -5 9 -4 0 4 -5 2 9 4 22 2 4 7 -3 13 14 5 18 4 -3 14 0 0 13 9 12 -7 18 20 2 9 13 -1 0 14 17 11 -6 4 4 7 5 4 8 20 9 14 13 0 4 6 10 15 -1 7 10 -4 18 5 5 6 12 3 11 -5 10 4 6 -6 -1 2 -1 -6 12 2 -2 1 -4 -2 2 -2 -3 -12 2 -4 -2 2 3 9 -3 -3 0 -3 -4 -4 -9 6 -2 2 4 -1 -1 8 -9 3 -6 1 -3 2 -3 4 6 -1 -10 9 4 1 8 -3 10 7 6 -1 -5 2 4 -10 -3 8 3 6 -6 -1 9 3 -14 19 -8 -7 6 -1 19 -5 2 2 0 -6 -1 3 -13 -3 3 1 8 5 2 -6 2 4 -5 -2 11 -5 7 10 -7 -2 14 8 1 -7 -2 -12 5 -1 11 5 -3 5 8 3 4 -4 
-3 7 0 5 11 14 -1 5 18 3 -11 5 15 0 11 9 -1 2 -13 5 -6 3 1 -4 19 -1 -3 5 14 -7 11 -5 0 -10 12 8 9 -2 1 2 5 13 0 8 9 3 3 7 -7 8 0 10 9 1 0 10 -5 -3 6 7 7 -12 3 5 1 6 -2 2 0 11 4 -3 3 -10 0 3 5 7 -1 0 1 3 8 8 8 2 -2 10 10 15 -3 22 -13 2 6 -1 -1 -5 2 -1 5 13 4 28 3 -12 22 9 -4 1 2 -3 -3 0 8 8 -8 -3 3 -4 9 5 -3 -3 -11 6 -2 -4 8 -8 3 -5 5 -13 -5 -9 5 0 1 -12 -6 -13 -9 1 3 -3 7 -5 -4 1 -9 1 -8 2 -10 -6 -3 -9 10 9 -2 13 -12 11 75 73 163 168 169 183 190 174 196 183 183 179 177 175 158 158 150 155 162 159 158 148 137 148 143 140 138 131 127 128 100 106 109 89 66 53 35 39 96 69 132 180 192 183 183 192 191 210 190 203 189 187 186 190 176 131 77 158 152 105 181 188 193 192 192 200 198 195 192 200 191 184 191 199 188 200 191 198 191 187 181 190 177 186 193 185 190 192 193 185 192 189 186 203 192 188 183 189 193 181 189 182 192 196 180 182 185 169 183 190 179 192 191 186 190 185 187 179 184 177 189 179 181 188 191 188 179 185 191 184 192 185 175 183 184 179 189 186 177 188 178 188 180 174 177 180 173 178 164 178 184 179 178 182 169 191 177 185 176 180 181 179 178 184 173 172 168 179 177 181 174 177 174 170 179 181 177 184 179 183 174 167 177 164 174 169 161 178 170 188 172 176 169 172 159 171 160 155 159 180 166 167 166 167 162 169 151 166 161 171 162 155 154 164 153 168 162 151 148 144 126 105 98 75 70 45 24 18 -7 22 88 64 86 141 173 158 165 172 169 163 174 172 165 161 165 167 166 169 155 124 70 51 23 4 1 -11 9 7 9 4 7 1 10 7 2 -3 -7 -21 -9 4 0 22 0 6 -14 -5 -3 0 -1 13 0 4 17 5 -5 2 -6 -4 -7 -8 -10 8 1 9 4 -1 -5 2 -1 -4 -2 8 12 3 1 -1 9 8 2 6 -6 11 0 1 13 0 -7 3 0 13 16 12 6 0 20 3 -6 2 2 1 0 5 16 4 -2 12 4 0 -1 26 0 12 13 13 2 -5 14 12 9 2 2 4 0 13 0 3 2 7 7 7 9 3 7 3 2 2 10 -14 4 -12 17 -3 -8 3 -1 1 -4 3 -3 6 1 -7 2 3 -1 -2 -1 -12 2 -9 0 -2 -4 5 0 -3 4 -7 -1 -2 0 -8 -7 -1 -2 4 5 -4 13 -14 6 3 0 -13 2 -2 4 8 2 12 6 -5 6 4 -2 4 -6 6 1 -2 7 5 16 9 4 8 4 -11 3 -13 6 -11 8 -4 -10 -5 -6 -2 1 -24 -5 -4 -13 -1 1 -1 -1 8 2 -2 -2 1 2 6 -6 0 7 -12 -4 3 -2 6 15 10 14 -4 
10 -1 8 2 1 -1 4 1 -2 5 10 0 -10 3 2 3 0 -6 5 4 7 -7 1 1 -5 -3 -4 6 3 0 1 5 -2 4 -6 5 -1 12 13 12 -3 9 1 7 -10 15 2 0 5 -7 3 4 11 8 1 -1 6 3 -1 -14 11 12 9 -12 0 2 3 7 1 6 0 2 5 5 -8 0 -2 2 2 -5 14 -9 2 -5 1 4 4 -3 -1 5 5 -2 16 -1 5 1 7 2 -5 -7 11 -1 2 15 2 12 1 12 9 5 8 3 6 -1 -2 0 4 -1 0 -1 -3 5 -10 7 -6 12 -13 -10 7 -1 -1 -10 -4 -4 5 -12 7 -2 6 -9 -7 -13 4 -11 -5 -1 2 -9 -11 -3 -6 -1 -2 -5 -3 -13 -13 8 -5 3 5 -1 5 -8 77 77 158 160 181 175 184 181 183 182 171 169 172 174 165 158 177 151 153 163 156 160 157 149 143 140 137 119 132 129 127 109 112 101 81 78 59 52 126 87 162 182 179 179 182 198 178 192 196 196 189 191 194 183 186 185 125 99 206 114 136 181 199 180 202 201 194 188 174 199 196 196 193 197 193 192 187 193 183 202 191 181 198 182 197 197 199 194 201 197 193 187 196 174 185 182 197 179 194 189 198 186 185 181 184 188 183 193 189 188 186 185 177 185 188 185 194 188 191 195 189 187 190 174 181 186 178 188 180 192 178 185 189 177 186 194 178 182 174 184 186 181 175 179 177 182 180 180 169 179 177 191 186 178 181 173 180 166 183 178 186 175 178 180 185 175 165 179 175 178 172 181 178 190 172 188 182 161 173 175 175 181 180 179 166 171 170 170 167 163 171 165 169 164 162 158 154 161 164 175 161 180 167 153 175 157 158 161 166 163 167 168 162 164 159 153 159 158 149 125 123 105 83 85 69 37 23 3 32 89 66 94 149 179 166 168 178 171 165 165 171 167 156 170 165 161 169 163 140 149 69 87 6 19 1 8 14 -2 9 -6 0 -8 9 14 -3 9 6 -8 1 12 9 -2 -4 15 3 9 -15 9 -12 5 10 -5 3 8 7 0 12 15 3 -2 2 1 -7 10 6 7 6 -7 15 -5 8 -3 9 20 6 9 0 -1 11 6 11 4 7 15 0 3 -2 0 2 6 11 13 4 12 16 -4 0 12 9 -1 8 3 11 -10 -5 13 24 5 15 12 7 7 -2 2 11 8 20 8 3 15 2 6 8 11 5 15 4 2 1 -3 2 0 3 -4 -3 1 -15 -2 9 -1 -11 1 2 8 0 3 -8 -6 -18 0 -5 15 -2 3 -9 -8 -3 0 8 -4 -10 -6 2 -5 1 -3 -1 -8 -3 -3 2 -4 -5 6 0 -9 7 4 1 5 4 9 1 -2 -2 -6 7 6 0 -3 -1 1 -1 0 5 2 5 0 -10 2 4 -1 6 4 2 3 -4 -1 -6 6 -6 -1 -4 -3 3 -2 -8 -9 1 -1 3 -13 4 -5 8 11 10 1 -1 3 -3 -2 -2 -8 2 3 3 -5 -1 4 -5 -4 6 5 4 -8 
-2 11 8 -2 3 -2 5 0 1 15 0 3 13 5 -5 12 -9 5 6 9 20 -6 8 9 3 8 15 11 8 1 -7 -2 7 -7 8 2 4 3 3 3 9 0 -8 11 -2 9 -4 17 12 8 3 12 -6 14 2 -11 2 -1 5 2 -2 -4 2 5 -4 -3 7 -7 1 0 -1 5 -5 8 2 2 -1 -2 -6 0 6 5 12 0 13 0 9 9 0 11 4 -8 7 7 0 7 2 -8 21 -8 -2 13 3 4 7 3 -9 3 20 -9 4 -9 -4 7 16 -6 9 1 0 3 6 -3 11 -12 -13 1 6 -4 -3 -13 -7 -2 2 3 -10 1 -3 -3 -4 -6 -3 1 -5 -6 -16 -16 -2 -4 -10 5 -1 0 -3 1 -1 -7 1 -1 0 -5 -14 11 -7 -6 62 77 138 172 175 173 175 172 198 191 181 181 173 159 173 161 168 171 153 166 153 142 149 148 143 153 149 133 130 118 126 135 113 122 99 99 78 97 130 130 178 185 189 186 187 193 196 188 191 202 194 195 187 209 190 199 185 118 124 218 124 158 186 203 199 190 196 187 190 193 201 188 188 184 179 201 195 186 187 189 181 190 181 192 184 189 199 189 193 196 197 184 184 186 191 183 187 194 188 179 186 184 186 190 191 186 186 193 176 192 173 198 183 183 188 191 192 180 179 188 179 185 181 183 180 168 182 182 175 181 173 187 182 186 173 184 179 186 179 186 171 178 179 183 177 180 180 182 187 184 177 181 174 181 180 180 177 182 175 181 173 178 176 179 172 187 173 186 174 175 166 173 169 173 170 176 184 176 179 176 185 174 181 174 172 179 166 175 165 173 161 164 177 167 166 162 158 168 157 164 171 169 165 173 161 168 164 165 170 160 172 156 158 149 160 150 153 132 129 121 98 83 74 66 26 26 28 41 81 57 106 158 167 169 162 170 171 161 167 170 171 173 175 167 167 180 165 156 168 141 120 66 77 -11 23 1 10 5 4 -6 0 -16 3 6 7 6 1 -1 1 10 -8 -7 3 2 -2 -7 -10 14 12 1 8 6 5 9 1 -6 6 9 -4 2 2 5 -6 7 -8 -3 -8 8 1 -12 3 12 10 -4 3 9 6 11 -11 -3 13 6 5 -1 10 -14 5 0 1 11 2 3 6 16 -4 5 10 12 3 -2 -6 10 13 -2 4 2 -4 8 12 10 2 17 4 1 4 13 5 2 3 -6 12 -6 13 2 5 5 7 8 -10 5 -3 -7 -3 6 0 0 17 -4 -1 3 12 -6 12 3 -8 3 -16 -1 -1 16 -1 -3 -1 -1 -7 8 10 5 -3 -12 1 -2 1 -1 0 -3 9 -2 -8 -1 -12 1 -8 -1 5 7 0 11 4 -7 18 0 2 2 -3 3 9 9 -2 -7 9 7 -4 3 1 -2 -9 3 -3 5 6 -4 2 3 -1 -8 4 -10 1 -4 2 -9 5 3 7 -2 1 7 3 -3 4 7 0 3 2 9 3 -6 15 3 10 -4 6 -1 0 7 8 -12 4 -1 -2 14 0 10 -8 5 
-1 -7 -9 6 14 9 10 -3 7 8 0 -3 2 9 -3 1 0 15 1 7 8 -9 4 -5 11 4 -3 -2 7 8 8 -2 4 2 -3 -8 9 0 -1 2 1 4 -6 1 3 -2 2 -3 8 -6 6 2 8 -4 1 8 5 5 -4 9 15 2 -4 -8 1 2 1 14 -5 -8 4 3 1 17 -6 -7 10 5 12 6 0 10 5 2 -9 -4 5 11 4 7 3 -1 -12 5 -3 8 13 3 -9 5 6 1 10 17 8 -6 3 -3 0 1 11 1 6 -2 -2 9 -12 0 3 -4 6 4 -6 5 11 -13 -5 2 4 -6 -3 2 -20 -10 1 -3 8 1 -10 -11 -11 -3 -21 3 -13 4 -7 4 -9 -18 3 -5 -4 -2 -8 -6 -1 18 -9 2 16 -8 8 -2 48 77 126 165 165 171 178 191 191 168 177 170 174 164 174 164 158 165 145 162 171 158 140 160 157 156 140 148 148 132 136 126 136 127 116 112 86 135 116 163 183 197 193 185 190 187 183 177 197 190 186 188 208 205 186 198 200 173 129 163 224 156 164 203 190 189 207 191 202 195 190 200 196 197 195 195 189 178 189 187 195 191 194 182 187 204 186 198 196 193 191 199 185 191 180 191 186 186 185 185 187 188 192 198 183 184 188 183 200 186 202 191 194 193 172 188 186 181 192 184 191 178 179 182 188 184 187 181 185 178 177 194 185 185 185 190 181 194 174 178 181 176 180 178 183 183 183 180 181 180 187 177 178 181 180 187 182 181 175 170 184 181 188 165 185 172 172 174 188 185 175 169 174 189 188 179 168 174 168 179 175 182 175 168 176 170 172 166 174 171 173 182 166 174 181 171 173 166 164 158 176 167 163 168 158 166 155 166 163 153 177 167 150 164 160 148 145 136 113 103 90 78 66 41 47 22 57 89 81 123 157 173 169 159 175 168 164 167 164 170 169 175 174 161 179 171 170 169 158 167 124 82 69 27 7 13 4 -1 5 -5 9 2 -17 5 0 -2 -4 2 0 5 9 -2 0 3 -2 -3 1 -2 0 3 9 4 9 -1 -3 1 -3 19 0 -5 0 -6 11 -1 8 -4 13 -3 3 0 -11 5 7 1 2 13 13 17 2 12 0 1 -5 9 -5 10 4 13 26 -2 7 2 -8 13 5 0 12 -1 7 14 3 4 0 -5 15 9 4 17 12 10 -4 1 4 0 2 0 6 -2 3 7 8 9 12 -1 3 14 5 -4 -8 -1 -9 1 19 -5 2 4 -5 8 9 3 -5 7 -13 -11 9 1 -8 -4 2 -18 9 -3 -12 0 5 -7 -12 4 -10 5 -9 1 -15 -3 -10 3 -9 3 3 4 -7 1 -1 -5 -3 7 11 -4 7 9 -5 -6 17 14 -7 -7 5 14 -2 -7 -12 -7 -3 -2 -10 -7 -7 5 2 -12 9 3 1 -6 6 12 -8 4 -10 -7 10 -2 8 -2 3 -1 2 -1 -3 -5 1 -2 11 -5 -5 9 -2 5 3 2 -7 7 4 4 -3 -2 6 -3 2 -5 3 11 1 18 -2 0 
11 -7 1 -3 1 -4 4 -3 9 7 2 4 6 -2 5 0 -2 11 8 5 13 8 12 6 -6 8 7 12 3 2 6 2 8 4 5 2 8 3 10 8 7 -5 5 -2 3 1 5 -4 5 5 -1 -2 2 12 -12 1 -3 10 13 6 -1 8 -3 -1 1 -15 5 3 6 17 4 -12 4 -11 3 1 3 -3 3 3 6 6 -1 1 1 5 7 -4 -9 4 -3 9 4 16 9 2 7 4 15 6 9 2 2 16 -4 2 -7 1 6 -5 8 -1 4 5 -2 -1 -3 9 0 6 1 3 -7 -8 3 -2 -6 -2 -5 8 -10 -7 -2 -7 3 -1 -1 -9 12 0 -11 2 -8 -8 -16 -2 -11 -13 -4 -8 -2 -19 -9 3 -12 1 9 0 -6 2 -5 0 18 -6 17 72 97 160 168 174 191 188 189 185 174 165 180 164 158 167 165 162 166 167 162 171 159 151 151 162 153 142 152 131 144 139 136 141 140 122 125 146 144 185 191 189 184 184 198 199 202 179 194 203 195 192 197 213 195 190 202 196 180 147 150 207 176 171 190 199 186 186 191 192 189 205 193 183 195 181 198 195 192 194 184 186 199 191 183 187 193 187 208 191 196 202 181 184 180 180 188 190 190 194 184 190 197 189 190 200 187 186 188 189 196 182 186 183 187 180 186 189 185 186 182 189 187 182 184 174 182 174 188 181 193 185 172 179 180 187 180 174 183 169 177 178 170 179 185 173 179 176 176 170 179 181 180 183 180 193 187 186 175 176 172 176 176 185 191 167 188 183 176 166 169 160 176 178 180 173 185 185 179 181 170 180 180 179 178 173 182 174 175 162 175 168 166 156 172 174 170 164 168 173 173 187 160 163 177 168 169 160 154 170 158 163 160 156 150 123 118 108 107 104 85 76 30 38 63 88 91 81 125 164 160 173 166 171 171 177 175 178 170 167 168 174 168 169 174 166 163 155 164 164 163 89 91 41 20 -4 11 4 -2 2 5 9 14 11 2 8 -2 10 3 5 4 6 -3 10 -7 15 7 -1 11 3 5 18 6 3 3 3 10 14 -8 -1 -13 -2 0 1 -3 -5 13 2 12 -2 7 2 0 -6 10 -2 8 -3 10 -7 7 8 7 2 10 -16 5 -11 21 -8 1 15 5 4 -7 1 4 10 13 11 0 8 9 -10 3 12 -3 0 2 3 1 6 0 21 -3 15 -1 -7 10 8 -3 5 -1 8 -2 2 11 -1 18 15 -1 -5 1 -4 2 -2 -7 0 13 5 -3 -4 -2 16 -11 -5 -1 -10 9 4 2 5 3 -5 -21 13 -3 -4 4 -10 5 -15 1 -9 -11 0 4 8 -3 13 -1 -2 6 1 -8 21 -3 -3 11 9 3 6 5 -4 -4 7 -7 -2 -12 -4 -1 -2 -6 -2 -9 9 11 3 -1 -9 7 5 -3 10 -2 -4 -11 -14 -4 5 -5 12 -2 10 8 1 0 6 -2 12 -1 13 7 4 5 -2 4 -8 9 5 -1 4 -1 3 4 -7 7 -16 10 2 0 8 15 -4 -6 -5 
0 11 -3 2 4 5 2 -6 3 -3 12 -1 1 3 1 -2 3 15 -2 -4 -3 11 14 1 12 -7 14 1 9 5 16 9 7 -5 8 9 2 13 -8 15 18 8 -2 8 0 -1 -1 1 6 10 5 -3 7 -4 13 14 -7 17 -1 11 0 13 11 -8 3 1 3 3 -3 0 -13 -2 3 -5 15 5 -1 9 2 10 -2 -11 13 8 -11 12 -5 10 12 -10 13 2 -1 9 12 -2 8 7 -1 7 -4 11 7 11 1 14 -6 -3 13 4 -2 9 5 -2 2 -3 -8 -10 8 3 -4 11 -2 1 -7 -4 -2 5 -3 -4 3 -9 -3 6 -6 -5 3 2 2 -16 1 -5 -3 -12 -5 5 -5 8 0 -14 -14 -4 1 3 -7 1 2 -11 3 -9 -1 -5 -2 3 13 77 97 185 184 169 175 177 173 175 158 161 165 184 169 176 170 178 150 161 164 168 147 156 165 150 144 148 150 149 143 131 140 149 141 132 146 143 161 197 177 190 196 189 180 197 188 199 204 193 189 196 200 202 195 191 198 199 199 184 176 176 213 188 173 192 202 194 179 191 205 199 198 201 209 199 203 193 190 186 186 205 192 188 173 194 186 186 186 200 187 188 186 169 186 188 183 184 189 191 185 191 183 186 183 198 182 190 192 193 177 187 200 193 186 191 184 189 183 182 189 189 173 192 179 185 176 192 181 194 183 177 180 190 180 184 185 190 178 168 188 185 175 186 189 173 176 177 177 180 174 174 175 188 174 185 167 189 181 183 177 179 173 177 172 179 177 179 173 176 174 176 171 164 183 173 178 174 178 162 174 175 173 171 175 179 174 176 176 165 174 172 180 188 171 171 178 166 161 170 172 174 172 166 164 173 164 170 165 162 155 142 152 129 135 118 103 111 95 79 65 38 58 93 90 82 93 141 169 169 162 168 169 178 173 169 171 174 165 175 173 172 172 174 164 162 168 172 165 164 159 130 86 78 29 9 7 -1 -14 5 5 5 -7 3 -2 -2 9 0 15 9 -4 5 12 -2 3 -4 0 8 6 11 0 2 4 23 -7 -2 25 8 -3 2 -6 -4 -1 7 8 11 -4 5 9 11 0 -4 -19 -7 3 8 -5 -2 7 7 -6 -7 11 -7 -14 13 -12 7 -5 12 -3 4 -4 7 19 -5 6 6 5 9 18 14 3 -9 -2 1 5 12 3 5 1 2 0 -3 12 9 -2 12 -2 3 -7 10 4 19 9 14 8 6 7 0 8 4 2 -1 -1 11 4 -5 2 6 -5 0 -6 -1 -3 1 0 -9 4 -4 5 -10 -11 -8 -5 1 -12 5 4 7 -3 0 4 2 -5 -3 3 7 9 -13 8 0 4 -6 5 9 -11 3 -4 -3 7 -5 4 -8 -2 -1 -2 -3 9 -14 4 -2 4 0 -7 5 -5 8 -9 10 3 3 -2 5 2 -1 -12 12 0 -4 -1 -3 8 -1 1 8 4 -3 9 1 8 -4 0 14 9 -7 9 4 5 -5 -16 2 4 -13 2 10 3 9 -18 1 -14 8 -4 3 15 -9 
8 -1 3 7 -2 8 -7 3 9 -1 -8 -7 1 20 -4 3 -6 -9 3 13 11 9 2 9 0 -8 8 -2 7 2 5 9 9 -9 8 8 2 11 11 -17 -4 5 13 -1 8 8 6 4 1 -6 0 7 7 6 6 12 -2 -6 -2 8 8 2 -1 -8 18 3 -11 -8 -2 -5 15 -6 -21 -4 -5 3 -8 5 -2 12 8 4 -8 6 5 1 5 1 6 -3 4 4 9 9 -2 -1 17 10 7 -4 -9 7 4 3 1 -14 8 -6 -5 -2 -1 2 7 16 -10 -5 -10 3 8 -2 -4 -5 7 -5 -7 5 -3 -2 -16 -3 -8 -10 -7 -2 12 -4 -2 -6 0 -3 -2 -2 -10 -3 -19 -3 -11 -3 -14 -14 -22 -3 9 -1 16 -4 -21 -1 -7 -1 -9 6 9 -3 6 73 79 157 169 177 171 184 187 185 187 176 181 177 180 167 185 168 163 168 167 172 160 150 153 165 159 158 154 164 150 155 145 163 142 142 161 153 182 180 192 184 202 185 184 189 193 193 182 189 186 199 204 206 198 192 187 200 190 203 201 184 184 195 177 185 193 199 186 193 198 205 194 183 177 194 190 194 193 192 197 199 192 207 191 196 188 195 191 203 188 191 193 189 190 194 185 191 181 199 189 192 188 197 190 191 188 187 194 188 184 178 188 174 181 186 177 183 191 184 187 191 180 189 177 193 184 174 190 172 187 186 173 183 174 181 180 180 174 184 184 175 178 176 178 181 179 178 185 177 174 171 174 172 186 179 180 187 171 185 177 179 179 179 177 165 181 183 177 185 176 176 182 178 183 176 181 180 172 183 177 176 180 181 179 173 178 166 177 179 176 169 173 171 177 156 156 168 172 173 157 173 166 163 171 174 167 158 173 171 149 139 130 131 125 103 90 112 92 68 60 80 116 89 85 124 147 170 173 164 176 167 171 169 174 181 163 175 169 180 178 184 177 167 181 179 158 158 158 150 155 154 95 65 39 6 0 7 12 -5 7 10 2 3 6 -9 -9 -1 10 8 -7 12 -7 8 -7 3 11 17 2 3 2 6 3 8 6 15 11 -6 -7 3 -10 -2 2 4 6 10 -2 3 8 -3 23 2 1 8 -3 1 4 -5 0 -1 4 -7 1 12 -4 -13 4 -9 3 -20 5 7 -9 4 3 8 -11 5 16 17 4 12 -3 8 13 12 4 2 1 3 -10 14 12 3 14 13 8 2 4 15 10 0 10 8 6 14 6 11 3 12 0 1 -5 4 3 4 8 -7 3 -4 -8 -1 -3 -3 11 -4 2 0 -9 -2 1 7 11 -7 10 -7 2 0 8 -8 14 -7 2 7 -5 4 -2 3 6 -2 -4 3 4 -3 5 5 -1 7 12 0 5 -4 8 4 -2 -3 -11 0 -2 0 3 -3 -3 -15 2 6 4 -4 7 7 10 5 0 0 3 0 15 -12 12 0 1 -1 2 -3 -6 1 -6 -3 1 -5 10 1 8 -1 4 1 1 -7 -9 -2 -2 -4 10 6 -6 19 4 4 2 -1 14 -7 9 1 4 6 
11 -4 3 11 13 -6 10 -4 10 -5 2 5 16 -7 5 10 0 12 7 8 4 8 -14 4 10 9 10 0 12 8 0 5 14 6 13 7 12 10 5 16 7 -10 4 9 -3 -1 1 10 -2 3 -2 -6 6 -5 3 3 10 0 13 5 10 7 0 3 1 -11 3 2 -11 1 9 4 10 -5 -3 4 8 -5 4 4 2 1 4 3 3 2 -6 2 -15 -5 13 5 5 8 1 18 3 2 7 -8 1 -7 10 7 2 3 -1 7 0 1 -14 -2 -2 0 -1 -17 19 -5 -13 -12 8 -12 2 8 6 -10 -1 -7 -4 -8 -8 -2 1 -11 -13 -6 -8 -7 -3 -10 -3 -18 -9 -7 0 -3 -15 -4 -12 -10 6 19 -1 -3 4 -15 -6 -10 -2 -10 -4 8 2 -7 -8 74 85 154 169 174 174 182 171 186 175 160 181 175 175 179 162 164 169 165 171 170 168 162 166 163 149 157 161 153 163 151 147 138 155 147 178 168 190 188 194 180 192 192 191 191 196 211 195 200 187 206 190 192 203 207 193 197 200 205 197 196 186 195 189 188 191 187 185 189 196 185 196 194 197 187 194 185 191 183 196 189 197 204 184 190 196 182 184 181 197 188 182 187 187 188 190 189 196 183 188 197 191 194 187 196 198 199 183 187 196 186 195 185 186 190 188 181 186 187 196 181 192 180 186 187 189 186 181 186 184 184 177 185 196 184 176 190 188 189 172 178 172 173 170 188 175 180 174 184 174 187 176 173 174 189 185 186 194 188 174 177 182 188 183 174 173 173 179 177 173 167 175 175 169 181 171 178 166 172 178 176 177 178 181 164 181 182 178 178 168 165 169 179 166 169 185 171 179 178 184 179 163 178 166 160 157 178 137 165 140 126 129 114 116 99 91 90 60 64 108 111 85 116 155 163 160 169 167 164 175 175 162 178 174 181 167 180 164 182 169 180 157 177 161 168 170 167 164 170 157 155 134 61 77 8 5 0 -3 5 1 21 4 7 4 6 3 -1 -1 5 9 -10 11 10 -9 6 7 10 6 2 0 19 3 -2 17 4 16 14 8 2 7 6 -3 -2 -8 -6 7 0 1 -2 1 4 2 9 3 3 -6 0 -11 -1 5 1 -5 6 1 8 6 -5 -12 5 -4 2 6 0 1 1 -2 0 9 15 8 11 10 -2 11 2 12 1 2 4 11 6 8 -2 7 0 3 10 8 0 6 20 13 15 -3 -2 6 1 0 -8 7 10 3 -4 6 3 1 13 5 0 -11 7 -11 -6 0 12 3 -4 -2 0 -5 5 -12 -4 -2 6 -3 -9 7 -4 0 3 12 -9 5 -1 -3 10 -1 3 -3 -13 1 -1 0 -1 -9 -3 -8 8 -10 11 -1 1 -3 -5 9 -11 0 -6 -12 -6 -4 1 3 3 3 18 10 4 4 -1 5 2 5 -5 -16 -18 -6 9 -1 2 -2 -4 7 13 -1 10 2 -1 1 4 12 9 5 2 -9 -4 12 4 4 16 4 -6 -4 3 5 6 6 -1 8 5 1 13 -8 3 
-4 -4 15 -4 0 2 -6 -6 6 -1 -1 7 -12 6 6 13 -5 0 11 2 17 9 12 5 24 2 9 12 4 -1 16 7 16 4 15 1 7 -4 12 0 11 -1 3 5 -5 7 12 -1 0 9 -6 7 10 6 -3 0 11 2 4 5 -2 1 0 7 -1 0 9 0 8 -4 -7 8 2 4 -1 -7 5 4 3 -14 8 0 0 8 6 -1 -6 5 0 4 -10 -5 2 19 -3 -1 -2 0 7 -4 -7 -3 4 2 8 1 -2 0 -4 4 2 0 -6 1 -6 8 -4 -9 7 1 9 4 13 8 8 -7 -6 -9 -4 -6 4 0 1 6 6 -2 -9 -6 1 -4 -1 -6 -9 -5 -6 -14 -1 -2 -5 -4 6 -4 -1 -2 -6 2 -10 7 -9 -12 -3 0 1 -1 -4 69 79 147 174 174 174 188 175 171 181 176 174 179 177 180 171 167 163 174 183 150 158 174 169 162 173 170 157 154 153 159 165 162 149 171 177 170 174 190 189 192 188 187 196 199 192 196 197 205 197 201 205 199 182 193 203 205 200 179 196 202 180 192 194 186 194 200 189 189 185 191 195 189 192 186 188 193 186 186 198 198 191 195 202 189 189 188 200 206 190 177 195 178 191 203 178 197 190 184 185 198 196 187 193 200 192 187 189 198 186 187 190 186 196 189 189 183 193 184 188 191 200 183 197 180 189 175 195 174 184 171 192 174 190 180 183 177 183 177 176 184 165 177 175 177 177 180 186 174 178 176 170 183 176 184 180 171 181 176 173 172 181 176 174 178 178 173 173 189 183 179 175 173 178 189 175 175 174 167 165 186 185 183 177 175 173 168 178 182 178 174 161 173 154 171 169 181 165 175 175 167 176 158 171 167 147 155 150 135 120 118 114 104 105 85 72 72 110 123 96 108 159 153 171 168 165 167 161 179 174 172 161 170 173 170 176 174 175 172 174 184 178 165 165 164 170 160 159 162 156 144 148 86 78 23 -1 -1 8 13 -2 11 10 -1 3 4 -2 -5 -6 13 -1 13 3 5 9 7 13 5 8 -1 0 0 3 3 9 9 14 1 15 17 0 7 -1 -4 5 10 -2 -5 20 -2 8 1 9 5 -7 10 -3 5 -3 -6 -3 3 12 -12 -7 -5 -19 8 -15 -12 2 6 4 9 -1 2 6 15 -1 -2 6 0 22 -11 19 -13 4 15 10 19 -6 11 -1 1 6 17 3 10 12 -15 -8 3 -4 15 12 10 -3 15 11 1 6 4 0 5 -4 10 -4 6 1 2 -19 4 -10 -1 4 5 -8 -13 4 -3 -1 11 -1 14 1 12 -5 -13 -6 -2 -5 5 -11 1 -8 -1 -2 -6 -5 3 2 -8 -3 2 4 2 3 1 -4 0 -1 15 -10 8 8 8 -1 3 3 -9 -1 -1 4 -5 2 6 -4 6 6 5 -3 -3 9 -1 2 1 -3 7 -2 5 11 3 7 8 -1 -8 10 1 -9 -6 10 -2 -3 6 -9 0 11 -11 -1 -2 -1 -2 1 11 7 -3 1 -1 11 -7 0 -7 2 2 1 6 
10 -2 -2 -2 -6 8 0 6 16 10 -18 12 6 15 7 4 10 3 0 -4 3 6 -1 14 11 11 7 11 5 14 5 -3 -1 8 5 4 10 0 1 12 7 3 11 5 15 13 2 18 -3 -1 7 -1 -1 -1 12 5 9 -9 10 5 9 -11 1 -1 -6 -4 -5 1 6 -1 -7 0 3 5 4 8 2 -11 1 2 -2 7 4 1 -9 3 -6 10 -7 2 -3 2 -4 0 1 -1 3 13 -1 -1 -8 16 -3 -1 12 0 1 -13 -9 12 -14 4 3 5 0 0 -8 13 -8 6 -13 5 -2 -11 -3 -15 3 -2 -5 -4 7 -5 -11 4 -20 6 -7 -2 -2 -1 0 -8 -4 1 -7 0 -6 -7 -1 -2 -5 0 0 -5 -10 0 -4 10 -10 -8 -2 -1 -2 6 2 61 74 117 170 166 173 166 168 177 182 180 175 171 179 170 181 188 160 169 177 178 158 157 168 170 163 160 163 165 159 164 156 149 150 180 167 200 183 194 197 195 173 184 192 198 202 191 205 196 197 196 209 196 200 203 197 203 189 189 188 183 194 201 190 183 189 186 200 199 188 188 189 179 201 191 191 196 182 201 194 183 189 189 192 184 202 201 179 196 193 192 187 191 190 198 193 179 198 201 196 193 186 198 184 185 188 183 196 190 195 191 205 203 196 192 181 176 186 176 190 199 186 191 184 185 190 191 184 181 185 183 179 195 171 189 185 182 195 179 179 190 177 173 182 180 166 179 183 173 179 175 181 181 189 179 171 181 184 179 178 179 172 177 181 176 178 180 184 173 177 171 181 168 185 175 170 175 176 177 179 184 168 180 178 181 181 167 176 167 176 179 169 177 161 174 171 171 161 171 170 167 173 162 147 147 158 133 139 125 117 117 109 109 86 78 125 138 102 109 136 174 159 171 179 159 171 169 173 182 172 169 161 164 170 177 166 162 179 161 185 179 175 181 171 167 157 169 178 174 159 160 160 113 74 66 10 7 9 -1 10 11 5 9 16 0 13 11 5 7 1 -6 6 3 2 6 16 6 11 1 20 -1 7 -2 -5 -3 10 9 4 23 15 1 0 -9 -2 1 -3 -8 1 20 8 -9 8 2 -1 2 9 1 0 11 9 -9 -12 9 0 -3 -3 -6 -11 -6 -1 -6 3 5 1 -6 -4 7 13 8 10 4 2 -3 2 5 -9 -3 8 9 4 16 -1 12 0 9 14 10 9 -6 14 5 4 6 3 -1 7 14 2 -8 6 4 -7 1 3 5 5 4 -7 11 -6 -1 -8 5 0 -10 1 9 2 -6 1 0 0 -5 7 -10 5 2 -4 17 -8 -9 14 -7 -4 -7 2 8 -4 -1 -9 5 0 -4 3 -11 -1 -1 1 -13 -1 4 -6 2 8 -9 0 0 -10 -8 -22 9 1 0 -5 9 -1 12 3 5 13 -7 0 5 6 -7 -7 -5 5 -3 9 -5 -8 2 5 2 3 10 1 -2 1 0 5 2 -7 -2 9 4 0 -5 4 -2 5 -7 13 8 3 8 3 -9 2 -2 4 4 8 -2 
0 3 -6 5 3 -3 1 13 5 2 8 1 7 -3 -3 -3 9 14 8 3 4 11 16 16 -2 7 12 5 9 -7 10 2 12 7 17 14 5 -1 17 1 7 6 8 -3 -2 9 5 11 10 -1 8 12 4 -13 -2 0 3 9 4 6 -3 8 -6 10 -7 3 5 -2 -9 1 -1 1 6 -6 10 7 -1 13 2 8 -3 8 -3 4 -12 0 2 6 9 -2 9 7 4 -3 -3 12 -8 5 0 5 -1 -7 1 0 -8 10 -5 -5 2 5 0 -4 5 1 -3 5 0 1 -1 5 -2 11 7 -18 8 8 -7 0 1 13 3 -5 -6 8 -2 -4 -7 -5 -5 0 0 -5 0 5 6 7 3 -10 -6 0 6 -7 -4 -17 8 -4 5 -4 -4 -8 -10 -6 6 2 9 33 82 127 156 171 168 166 175 171 180 183 178 175 184 163 175 171 171 166 177 176 176 173 156 163 152 160 161 168 162 169 153 158 165 172 197 190 186 194 183 198 198 189 195 193 193 201 191 205 203 182 190 191 196 195 194 189 200 188 197 206 181 185 188 191 178 191 181 183 197 202 193 189 192 194 197 187 187 195 201 199 197 180 200 191 202 193 202 195 185 194 184 201 191 184 204 195 184 188 191 187 187 187 197 199 202 189 198 180 195 187 200 199 186 189 176 191 183 184 178 186 190 185 192 184 171 184 197 183 184 181 179 191 188 185 183 186 170 188 187 182 183 181 172 180 172 174 172 180 181 176 181 174 179 171 186 176 187 176 175 175 188 181 174 173 186 170 177 177 169 187 171 187 179 172 181 172 174 190 178 171 183 189 181 186 187 173 179 172 177 184 173 167 176 173 182 181 174 165 157 158 155 148 144 135 137 135 134 126 108 106 90 114 113 128 125 114 135 161 168 165 172 166 180 169 179 169 173 186 170 174 173 164 177 174 172 170 163 175 167 171 165 162 165 171 175 162 177 165 168 161 145 147 70 81 18 3 11 7 2 9 8 9 7 20 0 4 14 6 5 10 -4 -5 7 1 8 9 16 13 22 13 4 4 10 18 7 -1 -3 1 10 9 1 13 -3 -11 -4 4 -9 16 -11 2 11 11 9 -3 13 -5 7 5 -1 3 7 0 1 13 -12 3 -11 4 -23 -1 2 14 8 1 -8 6 -3 6 7 0 -2 8 6 19 -5 11 11 3 -7 3 -6 9 12 2 -11 2 11 7 9 -3 2 14 10 -4 12 14 -5 3 9 -5 6 9 9 -6 2 5 -3 -1 1 -6 -8 -14 4 -9 1 2 -2 5 -10 2 -4 7 4 5 0 4 -1 -9 -4 0 6 -10 0 -2 14 -11 -8 -6 -3 -6 -1 4 6 0 9 -2 13 -3 4 1 -10 -3 10 4 3 4 3 11 -10 0 -4 6 1 10 4 8 15 -6 -7 13 10 -2 -10 3 10 0 -3 -1 -1 11 -6 6 9 -2 19 1 -9 -1 2 3 14 3 1 7 6 -2 12 1 -3 15 3 -2 -8 -8 14 7 1 3 -5 -6 5 -21 10 -9 
14 -7 -2 4 9 2 2 -9 18 0 -4 -4 -3 8 1 -9 -8 2 1 13 11 12 -4 6 12 18 1 4 7 -7 9 8 3 -1 12 16 5 0 1 9 -6 9 2 18 5 -1 8 11 -3 11 15 -10 -6 8 15 2 -9 0 1 -9 2 0 -6 10 -3 -10 10 -10 4 4 6 -7 -2 6 1 5 11 0 3 7 3 -6 1 -3 -1 -1 1 3 -1 -2 -4 0 11 -9 -1 8 -8 -7 -1 -3 0 3 -2 1 -3 2 -1 -18 -4 -3 8 -1 -5 11 -1 5 -9 0 3 -2 -6 1 1 4 -4 4 -2 -11 1 -16 5 -10 -2 -6 -1 -8 -4 -10 0 -18 -8 7 -17 4 1 -9 7 -9 8 5 -4 -13 -14 4 -3 6 -1 -7 -10 2 13 0 4 7 -5 17 78 89 162 168 164 173 177 176 189 180 169 165 178 160 170 180 156 182 164 178 177 173 172 173 154 168 177 174 166 158 163 165 178 183 162 179 193 196 185 195 185 195 188 193 206 203 193 192 199 195 196 188 200 208 200 197 187 199 192 192 197 183 203 197 199 188 184 197 196 192 191 176 189 196 188 191 195 196 207 202 196 199 195 198 198 195 192 196 190 194 191 189 194 193 198 187 200 199 207 186 188 186 192 193 206 196 189 189 199 188 180 195 190 197 188 185 192 182 180 186 180 192 179 191 186 193 191 177 191 190 194 178 180 186 178 198 188 193 185 185 182 192 190 183 179 183 181 180 189 168 182 192 177 188 176 194 177 192 185 175 176 176 180 182 171 185 177 178 177 170 180 177 177 178 169 179 162 176 168 186 178 184 185 179 181 178 166 175 184 176 181 173 166 172 166 167 153 153 151 144 141 138 136 128 122 135 118 106 109 114 139 135 123 134 136 155 185 168 167 177 172 179 169 175 177 178 175 163 172 179 175 173 178 172 170 184 164 178 185 171 183 168 165 163 168 180 161 171 170 163 157 154 115 88 57 10 -4 11 6 14 3 15 15 7 10 7 3 2 9 5 4 -3 9 5 22 -2 7 13 12 9 11 -2 8 -3 11 1 5 6 10 -6 12 -12 6 4 -10 7 -1 13 11 -7 12 0 -12 2 2 -1 -11 -5 -4 -1 11 -12 -1 3 -2 -4 -1 0 5 -4 7 -11 2 2 2 8 -3 7 8 8 3 3 14 -9 -10 1 7 16 7 4 6 3 4 5 8 -17 23 4 0 -1 8 0 15 15 2 6 -9 -2 7 6 1 -3 5 2 -3 -4 5 -6 1 2 3 -3 -12 -6 6 12 -2 8 -1 -6 -5 16 -2 9 5 -4 7 0 -9 -13 -5 -16 -5 -2 -8 -3 7 -7 -3 -18 2 -10 -2 -3 -4 -6 -6 -3 -7 4 2 14 6 5 1 1 -5 -3 -5 -2 3 2 -8 8 -9 12 -2 -5 0 8 -3 9 1 6 -2 2 6 3 -3 6 16 -3 14 -9 7 12 14 1 8 5 0 4 -8 1 8 7 -6 7 -1 -9 8 -3 -5 7 7 5 4 2 0 -4 2 10 6 -3 
1 -3 9 -2 4 7 0 7 4 -1 -2 12 3 -1 6 2 11 11 6 17 2 18 -1 5 -4 1 5 -7 11 10 12 2 0 10 -1 4 13 -5 12 7 2 8 11 1 -6 5 11 13 6 18 -1 -4 8 2 0 2 5 -2 23 1 -4 0 -4 4 9 8 1 3 5 -5 -2 3 3 -8 -1 -4 6 -8 -3 -7 -12 0 1 -2 1 4 -5 -9 -1 7 -4 -1 -4 3 7 5 -7 10 -5 6 -7 6 1 0 -7 -3 10 4 -10 -1 11 -3 1 -5 1 8 1 7 -3 -2 6 8 -1 -9 -10 -7 -10 -4 -4 -4 9 1 -1 -4 4 3 -6 2 0 -10 4 -3 0 1 -3 4 -8 -3 -3 -4 -6 0 -11 -6 -9 -3 -6 -5 -8 -24 10 -3 -5 -5 6 19 82 81 160 156 167 166 188 181 185 175 182 175 166 167 179 177 182 166 184 184 176 178 161 170 163 170 168 172 170 162 153 168 175 167 194 188 203 189 192 200 193 200 192 192 190 196 194 202 189 200 204 206 184 192 188 193 202 199 183 206 191 194 197 193 196 197 191 199 198 175 191 190 203 202 194 183 183 181 198 197 207 194 200 187 195 202 188 195 188 192 184 184 203 191 186 191 194 199 192 199 188 194 192 196 199 200 188 197 186 198 189 192 182 185 183 200 182 181 192 192 185 188 178 181 194 187 195 179 187 184 178 187 188 177 185 191 191 195 174 179 185 180 174 192 172 184 167 177 168 179 179 189 177 180 181 183 176 188 178 181 170 194 182 175 178 173 191 176 174 180 173 176 178 172 183 165 191 179 184 174 184 172 186 184 185 173 167 175 172 173 160 160 155 162 163 157 153 158 142 139 134 129 121 134 130 112 115 153 135 134 141 144 166 173 185 171 173 178 177 182 178 178 171 185 180 178 193 171 181 181 170 185 186 172 171 177 172 172 161 166 172 173 168 174 167 169 161 169 162 174 162 154 145 74 78 19 4 11 14 5 7 12 -9 14 7 3 -1 17 -8 6 14 9 8 4 -1 5 13 6 11 7 8 10 1 18 3 8 -9 15 1 9 -3 19 -13 4 -6 0 6 0 2 6 9 4 6 12 -7 8 -16 0 -2 0 0 11 -5 14 5 0 -5 -7 -1 -4 -2 -8 15 1 6 12 4 1 4 -18 -10 4 2 3 9 -7 10 3 1 0 -3 1 8 9 11 9 -9 12 9 4 -3 4 14 -9 10 7 -7 3 -7 8 3 8 6 5 7 2 0 1 12 -1 -13 1 2 -2 -8 0 -3 2 -5 -3 -7 0 0 5 -2 3 2 -8 6 2 -4 -7 -6 5 -1 3 12 -13 4 -8 1 -4 -3 0 5 9 -4 0 0 -1 8 -11 8 2 -10 7 0 4 -8 17 4 -16 -7 2 2 4 3 -10 2 9 -7 -2 11 -7 12 1 6 6 -3 13 11 1 6 0 20 -6 0 0 8 -2 14 8 5 2 5 2 -2 1 -5 6 2 4 -2 -7 5 -5 3 3 4 6 4 6 9 14 
5 -10 -2 0 2 0 14 6 19 1 0 -2 0 1 7 5 -4 8 -6 5 5 11 2 2 12 0 10 14 -6 6 7 9 12 -7 4 4 -4 -8 10 16 9 7 12 4 -4 -4 11 17 11 0 -1 9 3 1 14 13 4 11 -2 -1 5 7 7 -6 18 -11 -3 -3 6 -9 -5 -11 6 0 2 13 0 11 -5 8 8 0 9 8 5 -3 -5 11 -3 -6 6 0 -5 4 9 -2 6 -1 5 0 7 8 4 -4 -12 12 2 1 -4 3 -6 6 3 0 0 1 7 -1 0 2 1 -14 -8 -2 6 -6 -1 1 2 0 -6 9 -3 0 0 -7 -4 -6 7 -5 -5 -3 -8 0 -12 14 -9 0 15 5 -2 -15 -20 -4 5 -6 -2 1 2 -6 0 -7 -6 3 5 -16 76 76 147 176 156 168 172 181 184 172 175 163 185 175 167 189 170 178 167 181 180 171 171 165 179 157 164 175 174 173 166 184 191 187 191 188 178 191 191 185 186 191 195 187 199 187 187 191 201 198 202 203 202 205 201 195 191 194 191 187 185 192 193 204 180 189 191 196 189 196 195 186 194 195 195 193 190 189 190 196 190 196 207 204 203 193 194 189 197 194 210 191 192 199 199 191 196 201 191 190 199 204 193 187 186 180 186 189 191 188 185 192 181 186 188 191 186 197 185 181 199 181 183 192 191 179 196 192 182 190 184 180 182 182 192 187 182 186 169 182 173 173 176 176 178 179 187 184 179 176 180 170 172 190 182 181 189 176 172 188 174 185 179 180 180 170 177 174 180 187 171 173 181 181 175 175 178 177 182 172 176 180 188 182 162 174 178 171 176 159 154 145 160 155 154 152 145 143 136 135 132 129 124 125 143 155 144 133 135 149 166 175 176 168 175 180 183 180 187 179 168 181 164 172 175 178 173 170 181 185 184 181 166 179 165 176 176 164 172 176 180 173 175 179 168 162 168 162 155 165 156 145 152 83 75 42 16 12 14 17 8 12 -7 -4 12 16 11 9 0 9 1 10 9 -1 0 -7 5 -5 21 12 10 17 14 5 15 6 4 13 5 4 13 -4 8 -5 4 -7 0 9 -5 6 -2 7 1 8 1 4 0 5 8 3 -2 5 2 7 7 1 -4 -2 -1 0 -2 8 -10 2 9 -3 15 -6 10 -12 -5 -3 6 -5 9 7 3 3 -3 -5 0 9 -2 -4 10 7 13 -10 8 -2 3 -2 -1 3 4 7 0 5 1 -5 -2 -1 14 7 2 7 0 6 1 3 9 -3 -15 -1 -5 -2 2 -6 7 -17 11 -10 8 -1 12 11 -5 7 3 -13 -14 5 -3 -8 -3 0 -6 -7 -2 -1 -2 -4 1 6 -5 2 -6 6 -1 -8 -1 5 2 -12 16 -6 -8 1 6 -3 7 -8 18 6 -5 15 15 14 1 3 3 -12 2 12 -1 3 3 8 -7 12 -9 4 -6 -5 -7 3 8 14 7 5 6 2 5 -3 13 6 1 8 1 -8 10 4 -1 -7 -6 -10 -13 2 2 12 7 4 3 -4 
-3 4 -1 10 0 4 11 8 -1 8 -3 8 5 0 0 -1 8 4 10 1 9 4 1 11 2 13 23 11 11 13 3 9 14 3 1 18 2 17 -3 -3 16 8 0 7 7 11 1 5 14 14 4 7 7 6 -1 -3 13 18 1 11 10 -8 1 -9 -4 -4 -2 -8 -1 5 2 -3 4 -20 -5 9 -5 -7 -5 3 -4 12 -3 10 12 3 2 -7 3 6 -1 -2 -2 -2 -11 6 0 0 11 -2 9 -6 -9 5 1 -5 -3 6 2 -7 2 3 0 6 8 0 5 -10 -1 8 0 2 -14 -13 2 -2 -5 3 3 1 2 6 3 8 0 -12 -11 -4 9 2 3 -7 -1 4 2 -5 -10 -2 8 2 -16 -5 -8 -3 13 -3 -18 -19 -7 2 -11 -7 -9 -1 -8 -2 62 68 127 167 160 175 174 180 179 174 184 175 183 177 174 165 173 172 178 181 179 191 178 180 172 166 176 173 174 161 173 183 181 168 199 180 185 194 191 194 197 196 196 198 191 210 199 192 200 199 194 195 193 194 186 195 204 208 189 193 203 197 206 182 191 184 202 202 196 201 191 192 195 183 179 188 194 188 198 197 201 186 190 193 205 190 186 199 198 196 186 200 198 183 200 205 185 194 173 197 184 200 196 194 182 200 196 194 182 189 187 187 190 186 192 198 182 185 194 182 178 199 192 187 189 182 187 197 178 185 189 192 188 188 188 181 186 188 176 191 185 182 194 183 190 184 182 177 184 187 188 196 181 182 175 183 177 190 175 178 176 182 174 180 176 181 180 166 172 172 179 172 175 168 176 171 188 176 180 181 176 187 169 171 176 174 161 164 163 151 152 156 152 148 141 141 146 140 116 130 130 137 157 153 149 144 158 171 177 176 187 189 176 188 183 193 184 180 177 180 171 180 173 178 186 178 173 187 170 180 187 171 173 177 169 166 181 183 175 176 184 173 171 179 164 165 163 169 168 172 172 152 159 128 84 79 18 6 -1 5 -3 -1 1 11 7 8 6 6 -1 9 -2 6 4 10 2 15 -4 10 -1 5 4 3 4 9 6 6 -4 3 6 2 -1 7 -4 9 -6 4 1 -8 -3 7 10 11 3 4 2 7 -7 -2 -4 -10 3 -5 13 0 8 12 -6 0 -9 6 -6 -13 11 -2 18 10 10 -1 6 -5 7 -5 6 -3 7 -5 0 7 2 -4 -10 4 3 14 11 7 12 6 0 -10 6 3 -1 11 3 -6 7 -3 4 13 8 7 1 6 9 -2 10 7 8 -4 1 -14 0 -9 2 -4 -11 -12 -3 5 11 0 1 -4 1 8 -9 -9 7 -4 0 -1 -4 7 -12 -15 11 -1 -8 -7 4 -1 -1 -9 -5 8 -1 0 6 -8 -3 3 -4 3 -7 -5 5 5 3 -5 -8 -3 8 -4 -4 11 0 -8 -10 4 10 11 -6 10 -8 11 7 8 6 11 5 -2 11 3 -7 1 8 5 0 0 4 12 -1 11 11 7 -2 5 -2 0 0 -3 -1 7 -3 0 -4 1 -2 6 -1 8 -4 11 
-7 1 2 1 20 -4 1 8 19 -2 -1 -2 8 0 11 4 11 6 -1 17 17 7 14 4 1 8 3 -1 -5 5 11 -2 6 -2 -5 6 -1 -5 6 -1 4 8 4 11 -3 -6 13 8 5 -1 -9 2 4 1 -8 6 12 6 -9 -1 -1 -1 7 -9 -4 4 -1 -2 -5 -3 3 2 -1 9 -1 5 9 -9 6 -5 2 2 -4 6 -6 -2 0 3 -2 -1 -8 -9 -4 -7 5 -4 7 -12 -7 4 1 10 8 2 4 4 4 -1 -3 3 -6 1 0 18 6 1 -9 -7 3 -5 -3 -5 1 4 4 -5 6 8 10 -9 -4 11 -11 1 -19 -1 4 3 0 -2 -8 6 -6 8 -9 -1 4 -5 -2 -11 -7 5 -1 5 -11 5 -8 -6 3 1 -8 -8 -8 2 1 -11 31 79 117 164 172 173 176 179 178 178 170 201 170 177 173 177 185 168 177 176 173 170 172 181 173 180 180 177 170 168 174 187 191 188 194 190 197 186 201 203 193 192 196 189 197 186 201 207 192 195 193 190 199 213 194 190 187 193 191 196 208 190 195 190 204 195 192 197 201 181 203 197 185 187 198 211 204 187 196 194 209 195 201 193 189 197 187 190 187 185 202 177 192 209 199 193 188 190 200 194 190 189 196 204 190 196 202 191 191 196 180 202 191 196 202 206 190 193 176 188 201 201 178 192 192 190 191 187 190 190 189 187 183 190 186 186 172 192 193 173 183 176 191 170 184 192 167 185 188 182 177 177 183 190 182 189 182 178 188 182 188 186 171 190 181 175 183 182 178 172 184 197 177 178 182 188 174 181 178 169 170 163 170 163 164 152 158 158 143 155 142 145 138 142 139 149 132 154 148 144 159 144 157 155 158 167 176 177 175 175 184 172 184 179 193 176 184 175 172 185 187 180 164 181 178 173 177 189 177 176 190 186 190 185 184 182 179 179 185 168 172 172 178 176 170 179 170 170 155 167 157 159 144 153 80 75 38 0 6 8 4 -2 19 8 2 26 -5 6 3 12 2 9 17 1 10 15 0 8 0 3 0 5 9 10 -6 -7 12 18 4 17 -3 12 -4 -3 11 -8 23 -3 -1 6 -10 6 -3 0 7 -10 -1 5 0 -6 0 -9 4 -9 -1 -5 1 -3 4 -8 2 5 7 9 8 8 6 6 -3 2 4 0 -9 -7 -9 7 2 0 -6 1 4 -4 0 3 2 8 8 6 -1 -2 3 -7 10 4 -1 10 3 8 1 0 0 14 9 19 3 -7 9 0 6 -6 8 4 -8 -4 -4 1 -10 -4 3 -3 2 0 1 -4 11 5 -2 -4 4 -12 -1 0 -9 -5 -7 -9 -7 -2 -2 -12 -10 15 -5 3 -1 -4 11 -4 -1 -2 -4 9 1 4 6 -8 13 3 2 2 -6 0 -1 4 9 23 4 -5 9 9 -14 1 14 0 -1 6 1 -3 1 12 11 14 -5 5 0 12 2 2 -5 10 16 1 2 2 9 3 3 13 1 -4 0 -1 13 -16 8 3 5 6 -11 5 7 5 7 -4 
-2 9 0 7 -1 0 5 9 5 5 -1 -2 0 9 6 9 -2 21 6 11 10 15 11 4 2 3 9 6 10 6 -2 11 3 14 10 0 -3 9 9 -7 6 1 6 6 13 12 7 -2 -5 5 2 7 6 8 17 0 -3 -4 13 10 -2 5 -2 -6 -6 -7 -2 -7 11 -4 11 -1 -13 10 2 3 8 -9 11 -5 -1 0 -1 3 16 -3 5 -11 -2 0 4 5 -6 6 -1 -2 4 -3 2 4 -2 1 -1 0 -6 -2 -2 -1 -11 13 -6 -11 0 8 2 5 14 7 -13 5 -2 6 -3 -3 -3 -3 1 -7 1 12 -8 2 0 -3 -12 -1 6 -9 7 5 12 1 -15 5 0 6 -5 -13 -17 -25 -3 -6 6 -14 -6 -1 -5 -4 8 -7 -17 -8 -8 -6 -9 3 19 75 92 168 160 158 172 180 172 181 175 192 192 165 187 175 173 174 182 168 177 168 183 182 180 171 186 180 172 167 185 182 197 190 182 182 191 190 182 202 201 196 194 209 201 200 195 188 195 200 200 197 185 194 206 197 196 191 194 197 185 187 196 189 203 179 203 179 191 189 198 195 190 188 187 197 191 193 193 191 188 197 188 189 197 206 195 183 196 197 196 190 192 198 197 194 195 191 193 176 184 190 194 195 197 196 197 195 195 193 202 187 187 194 196 191 182 189 183 185 189 192 196 195 184 192 192 191 188 192 194 182 194 186 188 179 193 178 191 184 191 188 167 181 172 191 195 188 189 186 188 189 185 192 187 178 179 189 177 183 176 172 188 180 188 179 178 179 185 176 167 181 171 157 168 176 176 173 159 171 175 171 161 148 144 152 150 149 141 143 143 136 156 148 153 156 159 158 156 160 162 164 170 180 193 184 193 192 175 186 190 164 179 175 185 184 193 179 180 186 177 171 177 176 186 176 179 182 177 170 176 173 178 183 179 175 178 175 182 187 183 183 170 176 166 182 170 175 170 168 161 162 155 165 123 81 62 2 -2 7 -6 4 12 2 -1 -7 10 8 9 9 -1 3 1 0 0 14 1 7 -1 -8 -5 5 3 7 13 5 2 4 -9 9 4 6 5 -1 3 4 -8 6 6 -1 -5 14 2 11 5 -7 8 -9 -2 -16 13 -3 -2 5 -5 8 3 3 -1 4 1 10 3 -3 -2 8 6 1 2 -7 1 2 2 1 -7 11 -4 -7 2 -3 5 2 -2 -3 9 -1 -2 -7 -1 -7 0 -3 7 -11 1 -2 -11 -8 -4 4 18 13 5 15 -1 5 4 2 -5 7 -1 2 -2 -3 5 13 0 -3 5 -5 -3 6 -1 5 2 8 0 0 -2 6 0 0 -4 2 -3 1 16 -13 -18 -3 3 -9 3 -12 0 5 -5 -11 2 -5 1 5 -14 1 -2 -5 -8 9 1 1 1 1 1 8 2 16 14 5 -4 13 11 1 -3 -4 6 -2 -4 -3 6 0 0 10 4 10 -1 3 -9 8 12 8 -9 16 3 5 1 8 -3 12 1 1 -12 2 -4 4 8 6 13 -2 2 5 1 14 7 9 
4 4 6 6 8 2 0 -6 -2 -3 17 5 14 -10 -2 6 12 12 7 13 7 2 11 4 -2 -7 9 2 6 -11 7 11 5 11 3 -2 -6 11 -5 10 -11 -7 -9 13 -2 20 8 4 4 -8 18 -10 -11 3 6 1 0 1 8 -1 -1 4 -8 -4 7 -6 5 2 0 -5 14 -14 0 7 -5 2 -1 1 -3 -2 10 7 -2 -5 9 -9 4 2 3 7 -4 3 -9 4 3 -1 2 12 -1 3 4 11 -8 -2 -6 4 3 -3 -6 -3 0 -3 3 4 5 -4 5 -9 1 -2 2 -4 -3 12 -14 -1 0 -1 6 0 -6 -4 -5 6 0 4 11 -5 0 -3 1 -11 2 5 -13 -6 2 2 -5 -10 -7 0 -1 -1 -1 -4 3 5 1 -2 -7 8 -8 -13 -5 12 -1 75 74 139 164 171 173 182 179 182 179 181 171 180 167 175 185 176 176 172 181 184 180 173 174 175 183 162 177 179 183 184 193 182 184 191 196 193 198 200 194 196 200 185 196 211 194 195 202 193 193 188 206 208 201 197 199 192 201 194 193 189 203 175 204 207 204 187 193 186 194 188 185 192 188 208 198 202 195 198 198 199 204 196 189 197 196 196 198 182 197 187 193 191 193 195 180 183 195 203 189 188 199 196 185 201 201 188 190 193 196 191 196 188 195 192 191 206 193 191 202 191 203 191 190 180 189 184 190 186 186 185 182 182 188 185 182 188 196 194 180 176 191 197 195 174 182 170 182 183 187 180 178 185 187 180 183 177 192 172 176 179 180 167 176 177 176 164 182 180 161 169 181 168 178 161 168 159 165 153 150 158 159 156 155 143 144 136 152 149 152 151 159 161 160 156 164 168 177 182 169 180 184 175 199 183 185 183 192 184 181 197 181 184 178 186 175 184 173 176 185 177 180 169 184 173 186 172 180 195 174 175 173 182 172 181 180 172 170 167 186 167 179 177 176 183 181 175 165 177 162 149 157 152 129 97 82 23 8 8 7 2 8 19 22 0 2 -4 9 13 1 11 6 13 3 5 -10 5 -8 10 -6 5 13 5 14 4 3 3 5 21 2 10 6 1 13 7 10 5 4 5 6 -9 -5 8 -3 -2 -1 -1 4 5 4 1 -7 14 1 8 -5 -10 13 0 6 14 15 3 13 1 6 -8 3 -1 4 7 3 -4 -2 2 2 -9 3 2 2 -3 5 -2 6 6 8 7 6 0 -16 3 -4 1 -1 -8 -1 18 5 7 -8 -6 8 0 1 -2 0 0 12 0 -8 11 1 14 -11 -3 -5 6 -3 11 -3 16 9 -4 7 5 5 3 0 13 -10 -8 -5 0 -2 -4 -7 0 -22 -2 -5 -1 -2 -5 -2 -19 7 -9 -2 -4 -11 1 -7 -1 -5 -9 -6 6 -2 -7 -3 7 -1 12 -1 2 13 4 5 2 15 1 3 10 4 7 4 7 6 3 9 -4 0 10 13 -8 1 -2 -4 21 -8 -16 16 3 -6 14 -7 3 12 -17 13 2 -7 2 2 4 1 -8 -2 -1 6 0 -6 -3 
3 -4 -3 -11 17 -1 7 13 -4 9 0 6 -1 2 2 10 4 4 12 -2 1 12 11 2 1 9 11 4 5 14 6 4 7 0 6 20 -2 6 7 0 11 8 0 9 -4 9 4 -1 8 3 4 -11 8 8 4 8 -3 20 -2 3 10 -2 2 11 -8 -2 -7 3 -8 5 -6 -1 1 3 10 -3 -14 2 2 12 1 -2 -10 3 0 5 3 -1 -1 -11 -2 8 2 -12 -11 2 -8 -3 -2 6 0 -10 7 16 -6 4 -2 -6 -3 0 -20 11 3 0 8 3 9 -12 -8 -10 0 2 3 -5 -9 -10 -5 2 4 10 6 3 8 -10 7 -10 -10 4 -1 3 2 5 -10 5 -13 -9 -9 2 -5 -1 -3 -5 -10 -5 -2 4 -12 0 -6 2 -12 -13 -3 -16 -5 -11 -13 76 61 137 169 163 181 170 178 187 181 172 176 180 181 179 173 180 180 165 186 177 181 176 174 187 177 178 188 182 194 186 190 192 193 191 191 195 203 193 206 199 190 200 202 202 191 191 192 197 201 203 201 193 193 204 183 199 196 206 199 210 196 194 201 199 194 210 195 197 202 191 186 195 190 207 192 198 199 203 199 191 198 189 189 195 199 194 195 198 199 199 187 197 189 200 192 191 173 180 192 200 188 194 196 189 191 201 188 188 195 194 193 185 174 189 188 179 194 179 187 188 182 180 183 193 184 190 190 188 174 190 199 183 193 187 191 185 198 186 179 179 190 177 192 185 199 193 179 178 180 180 179 174 183 174 174 177 171 178 167 177 164 172 164 178 186 169 170 169 173 168 160 159 169 168 163 162 154 159 155 145 147 155 148 159 159 164 166 167 168 154 166 154 189 178 193 175 176 182 172 192 193 174 165 184 188 188 180 190 188 190 181 199 196 187 177 178 180 188 170 178 182 170 190 187 172 170 185 170 175 180 185 174 166 169 166 179 171 158 178 171 188 178 167 174 182 171 161 168 167 165 155 148 147 116 70 44 10 4 8 11 -1 2 8 -5 11 -6 -2 2 7 6 14 6 6 6 13 -1 15 10 4 8 -3 11 3 12 9 0 -14 10 16 1 0 14 10 5 1 4 1 10 13 5 3 -1 16 -3 7 -6 -3 -2 4 -7 5 -3 -3 2 -7 12 10 -8 -8 -3 7 5 13 -5 8 15 3 -3 5 1 6 -6 1 -4 -6 9 7 -1 -2 -6 -10 6 0 11 3 13 -3 3 -4 11 -2 1 -4 -7 18 -4 -1 -7 10 9 1 5 -1 -3 12 -1 9 3 1 4 -2 0 -2 5 14 1 -1 -4 2 -13 -1 -1 5 -1 -1 -13 -1 4 -9 6 -7 0 6 9 -16 -3 0 -1 -4 -5 3 -11 -7 1 6 6 -6 -2 -16 9 -8 7 -10 9 -10 12 11 5 -4 11 10 7 19 3 3 8 5 16 -1 18 9 1 4 3 -12 4 2 4 8 7 -4 6 2 10 -3 -1 -4 9 10 8 7 -1 7 11 -1 6 -5 1 0 -3 -3 -6 -3 7 7 3 -3 9 1 -2 17 -1 
-2 1 2 16 -7 3 5 5 4 1 -6 13 -4 9 0 8 9 11 11 4 4 13 -1 6 9 -5 1 -5 8 8 -1 5 -10 0 1 6 -2 -5 7 -2 1 8 -1 -2 -4 1 6 7 -7 0 -5 6 2 -14 -7 1 6 4 4 -3 9 2 3 6 -7 -4 2 -5 -13 -1 -2 6 -8 1 1 5 2 -4 7 -4 3 -7 6 -4 9 -13 -8 0 -8 -4 -3 -9 -11 -10 -7 -4 -2 9 -2 0 5 -4 8 -10 9 -2 -16 1 -8 -14 6 6 -2 1 -8 11 -2 -10 15 2 1 0 0 3 -6 4 -1 0 -6 -6 11 10 3 -6 -5 13 0 12 -3 -2 6 5 9 -2 -6 -4 -8 0 2 -13 -1 -5 0 -13 -3 6 1 -3 -8 4 -6 -10 -2 12 4 1 -8 42 64 119 166 173 165 186 187 171 183 170 179 174 172 183 184 186 179 195 188 177 169 183 184 183 181 180 171 184 190 188 182 199 200 195 196 207 188 191 196 207 200 195 201 191 199 204 201 198 197 184 200 196 208 192 200 192 200 195 197 208 189 192 205 198 196 187 183 200 196 182 192 199 192 202 202 201 199 201 203 208 211 202 196 204 189 189 191 203 195 198 197 184 185 194 185 199 194 191 186 190 190 194 185 178 182 173 187 197 178 186 202 193 194 196 184 196 192 184 191 188 188 198 187 184 180 190 182 186 187 182 194 190 184 189 189 192 188 185 193 188 195 183 191 169 172 175 180 182 181 187 181 183 173 185 184 178 167 169 165 175 170 171 171 167 172 166 167 156 165 164 156 159 159 164 152 153 147 159 162 156 169 171 165 163 169 152 166 160 174 172 179 188 179 186 193 197 188 186 185 186 185 185 185 189 196 179 181 190 171 198 177 186 190 181 170 182 182 179 188 182 176 174 177 184 176 170 172 171 181 185 166 188 178 172 178 170 169 177 180 172 178 191 183 166 159 173 156 166 170 166 163 156 143 134 84 87 20 11 -3 -10 1 18 11 4 5 12 -5 6 10 1 -5 5 2 -1 3 -3 2 5 -5 -1 -1 19 -3 -1 -1 -3 2 13 9 15 -8 4 7 14 -3 2 -1 7 2 19 6 11 1 1 8 -6 1 -3 -2 9 0 -1 1 14 5 4 0 -1 6 -7 9 12 0 10 2 6 -3 5 -5 -2 -6 9 -1 -1 -7 -7 3 -13 5 0 -5 -3 -5 -1 -4 -4 8 8 0 3 -9 -2 -7 7 9 -1 12 1 1 2 5 12 -1 13 17 5 7 6 3 9 4 6 -9 3 3 9 4 7 8 -2 12 -1 -3 3 3 14 2 5 -9 8 -6 6 3 -10 -5 -4 -3 -5 6 1 -15 -4 -4 -12 -2 -4 3 -13 2 2 -5 -4 7 2 3 -4 11 -5 11 5 6 -8 10 5 3 -1 -2 10 8 2 0 10 3 3 5 9 5 -3 -1 0 14 1 2 18 6 -2 6 2 4 11 -3 0 17 1 -2 4 2 10 -1 0 5 1 11 14 -1 15 9 -7 -3 2 6 1 
0 6 3 -1 8 -1 8 6 8 13 8 4 2 9 3 10 -5 7 10 2 0 -2 3 -9 -5 -1 12 0 2 11 1 5 6 6 4 -3 7 4 18 5 1 8 -1 3 13 1 5 5 -8 -1 -1 7 10 4 4 8 12 5 -2 9 8 2 0 10 -11 -3 -5 4 11 -3 -5 -9 -3 -2 -1 11 4 -1 3 11 -3 11 -2 -4 -8 -11 -2 0 -7 -6 1 -5 1 -4 -2 -9 4 -6 -9 2 4 -12 14 5 9 -2 -9 -2 -12 -8 -1 11 5 1 2 -3 -4 -4 -8 11 8 -6 -1 -2 -13 -1 -5 17 7 -5 7 2 8 2 -6 0 8 -1 -7 -6 5 2 6 -12 1 -10 2 -7 -6 8 10 0 -10 -6 -2 3 0 -8 -5 -3 -7 5 1 10 -8 3 -9 24 87 99 167 174 170 184 185 180 182 175 172 186 183 179 177 169 188 185 188 182 193 189 172 194 176 182 187 183 192 185 188 192 202 184 189 211 209 201 193 199 201 195 201 197 198 206 191 197 205 201 192 193 196 197 199 190 200 198 188 207 206 206 198 184 197 193 195 200 193 211 191 202 190 198 206 198 210 193 196 202 211 198 195 190 208 197 207 205 200 194 210 177 193 199 205 193 202 200 196 193 200 200 195 186 195 191 178 169 188 190 189 193 184 184 181 193 181 183 191 179 190 188 182 187 195 180 186 188 177 179 186 188 191 182 190 185 185 186 182 175 186 177 193 175 179 183 176 185 189 169 160 170 183 170 171 157 168 166 165 154 159 164 163 159 158 167 139 163 163 165 159 157 150 174 162 158 172 172 158 156 165 171 170 180 174 178 174 185 188 177 190 184 189 193 178 187 182 181 187 188 185 181 187 190 187 170 177 189 175 186 188 188 179 180 179 178 191 178 172 188 184 181 177 178 186 180 173 185 162 182 172 182 172 170 175 167 175 163 160 169 161 145 131 149 109 137 131 147 134 151 150 159 151 150 98 86 47 10 9 14 5 -1 4 6 9 1 -2 11 -4 14 4 3 12 -1 -1 14 1 -3 4 13 7 -2 -6 -2 8 -4 -3 20 4 22 0 1 2 4 8 -1 24 -5 5 -8 1 3 -1 4 5 0 9 16 4 5 7 -2 6 6 5 -5 4 6 9 -2 -4 9 -6 3 3 12 -5 -3 -4 -4 3 3 0 -7 1 -1 -3 1 4 -6 -8 -7 2 -19 4 3 4 1 5 2 -2 -2 0 4 -5 6 5 9 2 1 10 5 -2 -12 7 5 3 2 3 -11 -2 -2 3 2 -1 -11 2 4 -4 -2 10 -2 -6 4 4 0 -5 -6 -6 3 1 5 -19 -2 14 0 1 -3 -6 6 2 -5 -16 -25 3 -7 -3 -13 -8 7 7 1 -3 -6 -5 17 1 -7 -3 0 4 11 13 0 4 -4 14 5 -2 11 -3 3 5 15 9 -6 7 1 3 7 -3 3 15 1 -6 -1 13 6 3 9 14 12 7 13 4 0 8 4 13 -5 -13 3 -1 -2 10 10 2 -4 7 3 12 14 
4 -7 3 3 4 6 2 2 -1 11 0 2 5 1 1 3 5 11 8 -6 7 -5 -6 2 1 5 -11 -3 10 0 -4 0 0 -1 6 -11 -3 -3 9 9 -3 8 0 -4 -3 0 7 -9 -8 7 -4 15 7 6 9 0 1 10 9 7 -4 8 1 -2 -3 7 11 -9 18 7 1 12 2 -10 8 5 6 2 8 3 6 -2 -7 -1 0 -3 -4 -13 3 0 -1 -1 3 -21 2 -12 0 2 -2 -1 -2 6 -6 -11 -3 -7 -4 -5 -11 -3 6 -5 9 1 9 -5 -13 7 4 -3 1 -4 6 4 -1 7 -7 0 6 0 -2 -13 5 8 10 2 -3 6 -3 8 6 -1 2 -6 -13 -1 -6 -6 4 -2 1 -6 2 -3 -9 -7 -4 -4 -2 -8 8 2 3 -13 1 9 -2 5 80 84 145 167 170 178 190 193 186 178 187 180 182 189 171 178 179 174 176 183 175 183 174 185 170 179 189 193 191 177 203 186 187 198 175 190 196 198 192 191 199 185 199 189 187 204 190 202 191 205 183 205 194 196 200 196 208 204 192 193 195 193 191 192 193 190 200 200 188 198 199 196 201 199 208 208 210 194 197 204 183 193 186 194 194 194 195 190 203 196 193 182 198 185 192 183 195 196 179 194 197 191 190 193 180 191 190 190 185 186 188 197 185 191 186 183 186 180 192 181 184 178 189 187 174 173 193 169 187 192 178 177 167 181 189 178 174 177 190 169 175 176 177 168 172 170 175 185 172 172 170 174 162 176 162 170 166 171 164 170 157 171 163 158 173 159 169 171 171 166 169 170 168 171 178 165 169 161 167 169 192 186 177 187 188 183 183 180 178 180 185 186 186 186 183 194 196 183 186 178 194 182 190 187 185 168 182 187 187 173 178 187 186 186 191 185 178 179 175 174 178 180 175 176 188 180 181 177 181 186 171 188 182 178 157 135 109 122 129 136 154 130 118 120 126 117 108 118 124 139 138 145 161 157 131 76 87 10 15 6 15 12 10 -5 10 -4 5 9 1 7 -6 10 -5 18 -6 2 1 10 3 2 4 7 4 3 -5 -2 1 6 5 6 18 13 15 10 5 10 4 0 5 -1 15 -1 -2 4 14 9 5 16 7 11 -2 -5 -2 2 5 9 6 7 -9 2 13 3 10 2 7 5 -8 1 2 1 -3 4 -9 -9 -7 -1 9 7 4 -5 0 0 -2 4 7 3 -1 11 -11 -3 -11 2 5 -4 0 3 0 -7 14 7 -1 -2 2 1 21 1 8 3 20 9 0 2 -4 3 16 7 16 -4 3 8 -2 5 -1 -5 4 -8 5 -1 -4 3 -17 -2 4 3 -12 -7 13 -5 4 -11 2 -5 6 -12 2 4 -4 -2 10 -14 -3 2 3 -13 10 6 5 -7 4 10 15 -1 5 6 -4 4 7 2 -5 16 -9 3 -3 5 4 2 -1 3 11 5 18 1 -7 3 7 3 -1 5 11 3 -7 5 10 7 -8 -3 1 -2 12 -1 3 10 -2 4 3 13 11 2 -2 20 -2 10 
13 1 -6 9 11 7 4 6 7 12 10 1 6 2 -1 4 5 6 5 18 8 7 14 5 11 -9 6 6 -6 -2 -14 17 -3 -3 8 0 0 0 9 2 7 1 5 4 -13 1 1 7 7 0 -5 6 9 20 -2 10 4 -1 9 -6 6 8 8 10 3 10 2 7 -3 2 -6 -1 11 -10 -2 -1 -10 16 0 4 -9 -7 -2 -1 1 7 -19 -11 -12 -5 1 -8 -3 4 -7 -6 -10 -2 -3 2 -1 -4 -18 -7 -10 -8 -5 0 12 -17 -3 -4 -1 -9 -3 4 -5 -7 5 -3 -5 2 -3 7 0 -1 -1 5 2 -2 2 1 6 4 3 1 -1 1 8 1 1 2 2 -1 0 -8 -7 9 -6 -1 -18 13 -1 1 0 6 9 3 0 -10 0 -9 -12 -7 5 3 -6 6 78 76 143 164 179 161 188 168 180 181 172 188 174 174 165 187 183 192 181 181 178 176 176 180 169 181 196 191 195 191 178 185 188 188 184 194 185 188 196 196 185 197 187 194 188 194 197 199 198 190 201 188 190 190 184 212 192 196 201 206 203 211 192 201 198 194 199 208 201 185 204 204 204 203 193 204 196 207 201 184 188 195 185 204 178 188 196 184 197 186 187 195 186 201 202 192 187 193 198 186 200 189 192 193 185 202 185 181 190 195 184 192 197 195 180 191 182 187 186 179 180 177 188 185 189 178 184 176 174 175 174 175 186 185 175 183 181 178 179 183 175 181 171 174 178 167 173 170 163 187 162 179 181 177 168 168 179 179 170 175 176 157 180 176 169 164 171 174 170 172 170 162 169 172 178 182 175 185 178 183 189 168 178 177 181 180 194 171 178 188 176 182 191 188 189 179 188 181 194 188 174 184 192 180 186 199 183 179 177 178 177 174 175 179 180 184 176 174 168 183 175 176 184 176 182 176 184 185 176 176 180 187 181 162 115 147 169 162 160 144 125 143 136 133 136 129 111 116 101 104 110 132 148 153 156 87 97 44 5 0 2 4 12 9 5 5 7 5 14 8 7 3 2 3 11 8 13 11 -3 10 6 -3 -7 4 15 10 0 7 -1 5 9 2 8 6 3 2 -5 11 -1 -1 0 -7 3 -6 -18 21 -5 0 2 -11 10 11 6 2 6 4 13 8 3 11 -7 -5 2 7 5 -5 -5 0 8 -10 -4 -10 -1 -4 6 -5 -8 -11 8 -6 6 -4 1 -7 9 9 -1 -1 4 2 -1 2 -7 3 -5 -2 18 3 3 8 2 3 7 6 3 4 6 2 -1 -13 1 -1 -4 6 -2 -10 8 13 6 0 7 -10 5 7 14 -5 4 3 14 5 3 -4 -3 -6 -7 4 -7 1 2 4 6 -5 1 -1 -4 -2 1 2 -6 4 -1 -14 2 -7 22 7 5 6 -5 12 -3 0 7 5 0 22 8 10 -3 1 -3 -1 14 6 4 20 -5 9 -2 3 6 4 -1 1 -2 -6 -2 -4 12 12 -8 8 7 3 0 12 10 12 12 4 5 -5 0 0 10 4 -14 1 -2 -4 2 14 
-6 9 3 23 -12 3 5 4 9 2 11 2 9 -1 9 8 -4 12 14 1 9 3 0 5 -5 -1 3 -6 3 3 4 4 5 2 5 6 1 3 6 7 2 10 2 0 9 -1 11 8 4 3 10 2 6 6 1 9 7 -1 -5 10 5 -14 0 -5 4 -4 1 10 12 2 4 4 1 9 -7 -5 2 -1 4 -7 -3 -3 -7 6 -18 -2 -6 -14 1 -11 1 3 -9 1 -6 -7 -13 -1 -4 -7 -9 -7 0 -10 0 -5 9 0 -6 -11 -3 1 3 -7 11 4 4 4 -9 5 5 4 18 7 -13 -2 -1 12 6 -1 4 5 -6 1 2 9 1 -1 -12 16 -8 3 -5 1 -4 -3 9 7 -5 9 -8 4 -7 -5 -8 5 3 8 7 -10 -11 -1 11 -9 -9 1 5 -21 58 73 134 184 162 176 194 183 182 176 170 180 180 183 172 180 183 181 176 184 178 170 185 173 177 190 177 193 187 181 196 187 184 189 196 189 189 190 188 194 193 196 201 191 211 188 207 190 193 196 192 201 217 198 198 209 206 188 191 203 216 203 205 196 208 190 196 183 194 196 186 199 198 200 206 196 189 204 194 202 202 188 179 200 197 189 200 202 207 191 189 191 186 187 191 198 197 197 187 190 205 193 183 202 190 196 198 201 204 207 192 189 190 192 193 192 176 188 188 189 197 195 181 180 184 193 189 185 185 174 187 182 190 185 188 185 185 185 181 173 186 175 167 185 180 176 181 180 182 169 177 160 179 175 177 181 171 171 183 173 181 173 175 176 173 180 181 178 183 180 179 189 197 179 181 178 182 188 193 181 184 184 182 183 191 187 182 187 185 187 190 186 181 199 189 195 190 185 187 180 183 178 189 181 174 183 184 193 184 177 192 178 181 181 182 176 177 182 186 193 187 186 185 182 174 174 192 177 176 179 189 171 152 127 155 138 115 94 104 114 124 123 131 113 113 105 109 116 107 107 127 123 114 139 159 123 77 68 23 12 8 10 9 7 -9 -4 12 -2 16 8 -3 8 1 19 7 19 7 -6 8 13 -8 1 4 11 -3 4 0 -3 -1 -4 17 -2 16 8 12 14 2 -1 1 15 4 8 16 -2 7 9 3 5 10 1 7 8 -6 0 -3 11 -4 8 -4 6 3 0 13 0 9 -2 2 2 -1 0 -2 -11 -8 0 -3 -8 -7 -2 -13 1 14 -8 -9 1 -10 1 7 9 -5 -9 -8 -4 4 4 2 -2 9 8 -3 12 0 -3 8 1 -7 -3 -3 9 2 10 5 1 0 -1 -7 7 8 -3 4 6 7 1 3 6 10 1 -4 4 5 -3 -2 -13 -6 -7 -1 -1 -8 6 -1 8 -12 7 2 -8 -4 -3 -11 -2 3 -9 -2 10 8 -4 12 -6 -9 3 11 7 10 0 -4 -1 6 -1 -9 0 2 19 -4 0 -11 17 2 1 8 6 7 -9 9 7 10 -8 16 0 6 4 -1 10 7 2 2 12 5 13 -3 5 -13 -2 10 -7 4 4 3 7 5 -3 3 -4 2 -3 
2 0 -7 5 3 9 7 3 11 4 1 1 4 0 -4 0 8 -3 -7 3 9 -1 4 4 11 -3 -2 1 3 -1 8 3 -5 5 3 -7 7 -1 -8 10 14 4 -2 -4 9 -3 -3 14 -10 6 6 2 2 14 14 -6 3 5 8 6 -3 15 7 0 1 0 -7 2 6 -2 5 5 -6 -3 -6 0 -15 4 -10 -3 -9 -1 -2 1 -7 5 -10 -11 -6 -3 8 -13 -8 8 4 -12 -10 -1 -4 -16 -2 -10 2 -10 -10 -2 -25 -13 8 -1 -8 -14 -8 -3 0 12 -4 4 2 -13 -7 -2 1 0 10 10 0 12 5 5 10 6 0 10 4 -8 -5 8 -8 8 -12 -3 -4 -2 2 3 4 -7 4 3 -13 -5 10 -6 0 2 5 -2 1 -14 -8 4 -12 0 0 10 -4 -7 48 82 115 155 172 169 178 181 178 190 177 188 182 197 184 193 205 179 174 174 180 176 184 185 185 187 190 176 188 178 195 179 194 189 192 192 189 192 199 211 208 192 187 200 195 185 206 195 212 187 197 198 203 197 185 203 200 198 198 196 200 192 203 188 194 187 203 196 197 204 204 193 189 198 193 194 197 193 199 194 203 195 187 193 207 202 191 198 195 200 194 190 197 190 193 189 196 202 198 190 197 190 184 180 181 180 193 192 195 192 196 193 185 201 195 187 187 194 180 190 188 187 183 184 189 187 179 173 183 190 187 186 191 187 184 184 173 194 184 191 196 187 171 172 183 171 179 167 189 168 175 173 184 184 187 176 185 182 181 186 175 175 186 192 186 175 179 185 181 184 179 189 184 186 188 198 180 195 183 184 192 183 192 190 184 180 180 189 186 183 190 179 187 189 187 192 193 179 187 190 181 190 187 194 192 186 193 170 197 187 186 177 192 185 180 191 190 177 186 174 187 185 183 178 182 187 173 181 188 178 172 130 143 164 138 125 123 142 152 172 159 160 157 147 145 137 128 116 111 106 108 131 141 136 139 119 59 91 22 2 6 -1 -2 2 17 13 2 4 10 3 12 10 -1 11 2 1 6 5 -2 17 1 -5 7 5 11 12 -9 -4 4 4 -5 13 8 14 9 0 10 -5 16 -1 12 0 11 2 3 -5 7 8 10 -3 -6 2 3 2 4 5 1 11 1 2 -2 -15 6 10 -2 0 -6 15 -9 0 1 -7 5 11 -4 -4 6 2 -3 -12 1 -7 -1 -12 15 8 4 4 3 9 -5 8 7 2 5 4 0 8 6 17 8 13 9 -8 -1 3 -13 -1 6 7 -9 0 0 1 -2 10 1 6 -5 5 -3 -5 -5 3 6 2 10 5 0 -13 -7 4 2 -4 -7 -11 5 4 4 0 10 9 16 -17 -3 2 -7 -9 -4 15 2 -1 3 -2 9 8 -1 -5 -9 2 -1 3 14 -2 -5 17 4 0 -3 5 -5 3 9 10 3 0 8 1 11 6 7 -5 11 5 -11 5 -2 0 3 15 -3 4 2 10 0 4 16 5 -2 4 4 -13 4 -5 -4 10 -1 0 9 2 4 -2 
4 6 -2 -1 2 4 3 5 1 -1 -6 -1 4 3 2 9 -4 -2 5 2 3 -2 4 0 9 -6 -8 -7 0 8 -7 3 2 -11 12 2 7 9 -10 1 6 -7 9 4 10 12 -5 4 -3 1 -4 13 -3 22 1 4 12 3 5 5 -2 10 -4 -1 0 2 0 -5 -5 -2 7 -13 2 -11 -8 -3 -3 2 0 3 5 -15 4 -12 0 0 -14 2 -8 1 -14 3 6 -8 -10 -5 0 -7 -3 0 -18 6 -9 -5 2 -2 3 -2 -3 -7 -10 -1 2 1 2 1 -1 10 4 13 -2 -3 3 -6 7 -1 2 -6 22 -5 1 -2 -1 3 11 -1 -4 -5 -3 4 -1 -8 2 -2 11 -5 5 -10 -11 -1 4 6 3 -11 -8 0 3 -5 -3 8 -4 6 -3 -5 0 8 8 2 20 77 83 155 168 147 175 170 179 181 178 172 180 172 184 184 184 187 191 169 187 173 167 184 177 191 185 180 190 195 194 197 200 186 196 190 201 199 186 183 185 197 202 192 209 199 201 191 193 194 199 199 196 198 196 202 203 205 195 195 191 225 188 200 203 197 200 191 190 211 185 191 199 199 208 195 191 193 193 200 190 191 197 207 200 200 197 205 189 193 193 181 194 198 195 194 195 192 185 187 190 197 190 191 193 191 182 200 190 189 196 194 192 183 193 193 195 197 181 207 192 190 187 185 190 194 186 197 184 182 192 193 201 189 195 201 194 186 188 181 186 186 182 180 183 185 176 172 185 183 186 182 182 186 192 183 200 188 188 186 191 186 187 175 191 191 191 191 176 187 183 180 190 182 192 186 189 184 190 191 190 178 189 171 197 185 191 179 191 193 188 186 200 183 202 183 187 186 180 170 187 194 172 172 189 185 187 180 188 172 181 186 190 185 188 169 182 188 193 173 178 188 185 197 174 182 189 178 188 154 145 157 169 132 121 139 157 177 168 162 164 169 160 157 158 154 148 147 147 141 134 106 134 149 142 154 91 80 68 43 10 10 -14 3 7 10 14 0 1 10 8 15 -9 3 18 17 1 10 18 6 -2 -8 3 -2 3 5 8 -1 -2 -3 14 10 12 6 8 4 8 10 3 1 12 3 13 9 11 4 18 -4 12 4 19 -10 4 16 -1 0 -6 6 11 -4 -1 5 -5 -7 -1 -8 11 -1 -5 -3 -3 4 -4 8 -11 -4 -17 -6 0 -5 -18 -3 1 -14 -2 -9 2 9 -1 0 0 9 -5 14 11 -1 2 9 -5 -1 3 14 -5 -2 -6 -4 10 -6 4 -12 0 0 -2 2 3 2 -1 2 7 0 0 4 5 14 -2 1 12 -3 -2 12 4 -3 -6 10 -6 -9 5 8 4 -3 13 1 8 -3 -2 1 -3 3 9 -1 -8 5 4 13 9 -3 -2 -6 13 2 6 14 7 4 7 10 28 -6 6 -7 13 -1 9 5 1 15 -7 -1 9 0 6 -4 4 10 -4 6 5 4 16 -2 9 3 2 1 -1 5 1 9 4 8 -2 12 4 -10 5 -2 -2 5 -1 5 8 9 
-10 8 -12 3 14 9 6 2 17 7 7 1 11 1 0 3 -9 13 2 2 0 -1 1 -7 5 -3 9 -10 5 -10 4 -5 11 18 -3 -3 2 0 6 9 -1 8 5 5 1 9 23 4 -1 7 3 4 3 1 4 7 -1 5 5 -15 2 1 -4 5 2 -2 -4 1 -9 6 -8 -6 -5 5 -7 7 -8 -5 -1 -17 -4 -13 5 -12 -13 4 -8 -15 -1 -11 -19 12 5 1 1 -4 -7 -8 -22 -9 0 -15 3 -12 2 -15 -3 -5 0 -13 -9 1 11 0 -4 -3 0 8 -6 -3 4 -7 1 -4 3 6 -3 2 5 9 -9 -1 8 3 12 -5 -2 -12 -2 -3 5 6 -7 6 -12 -6 -11 0 1 2 1 4 0 3 8 -7 -3 2 2 -9 -8 2 3 -4 9 -7 1 -7 13 70 67 125 160 170 166 186 173 187 179 181 184 196 183 188 179 178 174 173 167 181 185 169 178 175 181 196 195 188 188 194 189 199 190 194 183 202 195 198 195 196 211 191 212 200 187 204 192 196 200 195 192 198 195 194 200 193 196 197 196 182 197 191 197 191 181 196 201 186 207 185 201 191 204 192 200 188 195 193 188 191 198 185 194 188 192 196 193 201 199 195 193 197 201 183 197 194 200 199 189 195 196 194 186 200 184 192 195 198 198 189 189 200 198 195 191 169 201 187 183 192 192 174 192 192 199 192 191 191 198 186 179 198 193 203 188 202 181 185 200 177 200 189 192 199 187 194 189 185 187 184 182 190 186 185 191 185 192 194 187 182 174 192 185 187 182 183 189 178 193 185 187 174 192 189 178 186 182 177 183 185 187 181 191 184 194 191 189 191 183 195 183 190 192 184 197 175 192 206 184 178 194 181 191 184 196 190 193 183 183 183 196 180 179 179 185 181 183 186 194 197 177 180 181 182 186 185 164 149 158 159 131 147 155 158 176 167 176 157 174 166 184 176 181 169 163 157 158 173 156 151 143 131 137 150 129 107 78 79 76 70 51 28 15 11 5 2 -4 -9 10 2 13 16 8 19 12 -3 5 4 9 -2 11 7 1 5 5 3 12 1 6 15 12 -3 3 2 11 5 8 5 -1 -2 7 -5 7 5 3 3 9 0 3 -5 -5 4 3 10 2 -2 -6 3 5 7 -4 14 2 -2 -3 13 -3 2 -4 2 -4 7 -2 -2 -13 0 2 -9 2 0 7 -4 2 0 -9 10 9 5 3 -3 -6 3 7 12 -2 -7 0 -9 11 -5 1 -2 1 0 15 1 24 3 6 -5 11 -4 12 16 -4 15 10 0 8 9 -2 5 7 -13 -2 13 0 1 5 0 -4 4 -12 -8 -12 10 5 -4 2 2 10 -7 2 -8 1 3 -5 -5 2 7 1 -6 4 4 -6 6 -10 4 6 -1 -2 -20 11 1 1 -6 -8 7 -2 8 -2 10 3 -1 7 5 6 15 0 2 1 1 1 -3 -13 4 7 -4 -3 18 2 -1 -2 -3 -5 14 2 6 3 -4 3 6 10 -4 13 9 11 6 4 14 
0 -4 16 13 1 -6 8 0 0 8 -1 0 -6 -6 5 2 -7 -13 -6 0 11 -9 -3 12 2 7 -2 -14 12 6 -2 19 -3 9 -10 14 7 1 -3 3 -3 9 -2 6 8 9 6 -11 3 -3 0 10 1 -5 -6 -2 3 -2 18 7 4 10 14 5 -6 5 -5 3 -11 -2 -1 0 -8 -2 4 4 11 -13 -3 0 -6 -8 4 0 7 -7 -8 4 -13 -2 -8 -6 3 -5 -1 -4 -21 0 -13 -3 -9 -3 1 5 -14 -5 3 -5 -9 -6 6 -4 3 -4 2 7 3 12 -5 0 8 -2 2 7 10 2 7 -7 -7 2 0 4 11 -1 4 -3 5 -13 3 -1 1 7 -11 -10 -12 0 -5 -5 7 1 5 1 -4 7 3 12 -7 9 -1 7 2 -5 9 -6 -2 -7 8 0 -6 53 75 118 162 170 177 183 183 178 186 179 187 170 189 166 173 172 187 186 182 193 177 187 187 195 184 188 183 188 201 201 190 191 197 183 206 194 186 200 195 192 200 193 201 195 201 192 201 211 192 198 188 190 197 198 194 205 189 188 205 199 198 193 194 198 191 188 209 196 181 199 191 196 188 191 196 189 200 194 190 184 196 189 209 191 190 192 190 189 196 196 205 205 192 189 189 185 192 198 195 199 186 189 192 188 204 180 186 192 190 191 188 203 189 187 201 206 190 186 204 183 193 186 193 190 187 193 197 197 193 193 191 199 187 195 175 191 189 183 193 188 202 182 185 203 177 192 194 177 182 190 191 173 187 190 178 204 179 194 185 186 183 185 186 184 199 184 193 187 191 193 183 184 184 184 184 186 191 184 195 191 184 184 194 180 181 188 174 193 183 194 190 189 198 186 183 191 184 190 179 187 187 184 181 198 182 186 183 175 175 191 179 177 200 192 182 183 184 182 179 194 187 184 177 193 198 173 160 151 174 146 152 157 173 160 183 171 173 168 171 169 166 160 175 171 161 158 159 167 157 162 162 144 167 152 142 121 104 107 76 70 69 71 64 69 56 30 2 -19 -15 1 1 9 5 13 2 4 6 4 -6 -4 14 7 3 10 5 8 7 10 9 1 7 4 13 2 4 -2 6 4 4 5 4 5 5 7 10 7 -8 1 3 5 -8 -10 9 -1 -2 3 5 2 -10 -1 2 -10 -3 4 0 -3 0 4 -3 11 -5 -8 -4 -10 -1 5 -7 -4 -3 8 -6 9 -1 -8 3 8 0 5 -7 -1 -1 9 -2 8 -3 4 2 1 -3 9 12 7 3 -9 5 -9 6 11 5 17 -5 5 3 13 -6 -6 -7 -4 8 13 -8 5 -5 -1 9 -16 -9 6 -3 16 0 6 2 9 8 5 -5 11 -7 6 1 -8 -8 1 3 1 6 13 2 4 5 3 -1 3 8 2 5 2 20 11 -12 3 8 3 17 -5 2 8 -6 -6 10 -4 4 3 13 -7 -2 4 -4 3 -9 -1 1 2 5 -8 1 6 1 -1 14 13 -1 7 8 0 5 1 -6 8 1 4 14 11 4 -5 9 8 4 16 
4 6 1 -5 8 7 -1 6 6 6 -2 20 -2 -3 1 9 -1 1 -4 16 3 -3 -3 -10 11 0 -6 5 -1 3 -4 1 3 10 0 -4 3 -12 3 -6 -12 -2 -6 -1 16 9 5 11 10 -13 11 1 0 10 6 9 15 -3 7 -4 13 2 -2 -1 -6 7 1 8 9 -15 -9 -5 5 -10 8 3 -1 -4 -4 -5 -3 -5 -10 4 -7 1 1 -19 -10 -20 -4 0 -3 7 -9 -9 -2 -15 -5 -7 -7 -9 2 -7 -1 -13 -4 -12 0 -1 -6 -1 7 -10 2 -9 -2 11 -16 11 -1 -4 3 -1 -7 5 -8 0 13 -6 7 -1 3 4 -5 5 3 -4 -6 11 -19 -16 4 -7 -4 2 4 -9 -6 10 -1 3 -4 -9 8 6 -6 9 2 -4 -3 3 9 1 -17 4 -2 13 0 16 72 86 147 165 177 174 176 182 176 189 175 177 173 172 187 194 183 191 194 179 181 193 195 188 183 190 195 183 193 193 182 201 193 206 183 198 196 187 196 194 210 193 190 196 201 192 204 203 192 197 193 191 196 195 192 201 196 192 205 199 197 198 201 192 201 201 201 192 184 195 192 191 201 185 206 203 194 185 190 187 183 196 195 193 197 192 192 190 203 198 189 190 185 190 192 189 192 189 185 193 187 199 190 198 189 195 194 199 195 198 190 192 193 193 197 198 206 182 196 194 186 195 189 195 196 184 177 192 185 201 197 189 185 193 196 191 189 192 184 183 194 196 190 182 187 187 197 175 196 176 187 188 188 187 200 190 192 187 188 180 195 182 194 184 203 178 187 181 191 176 172 183 189 188 192 183 192 181 183 180 191 187 180 183 181 181 179 187 186 181 200 179 194 185 195 179 191 182 188 185 192 175 176 181 189 186 188 185 179 193 192 182 190 177 176 188 180 176 180 194 186 182 178 182 179 167 152 177 145 154 158 176 180 185 178 174 174 184 177 179 174 175 176 183 158 178 172 165 164 158 154 167 165 157 150 158 142 153 141 126 115 90 97 76 73 68 62 57 33 24 0 8 -3 9 14 10 13 11 16 9 11 7 7 17 12 2 5 4 7 14 10 -1 0 7 -12 7 5 -8 -3 -4 7 10 7 -1 17 4 -2 -1 4 19 2 0 2 -6 0 2 -9 -2 -6 2 3 -9 -9 -1 4 -11 -2 5 9 -10 8 -3 -3 -12 -4 -7 -10 5 -2 -8 5 -16 -10 -9 -11 12 -5 10 -5 14 5 -7 2 3 17 15 -5 2 -3 4 13 1 -9 3 4 1 1 -6 4 2 0 -5 1 7 5 4 -5 1 -9 2 9 9 2 6 2 -1 9 0 -1 5 8 -11 5 -14 -7 -3 8 4 9 6 -5 9 -2 -2 10 16 1 8 2 0 5 -5 16 -9 2 1 0 6 2 2 6 -5 -1 6 12 0 5 6 3 19 -4 8 12 6 0 4 17 -3 0 -2 7 6 -11 3 0 -2 7 -1 5 19 -5 -6 8 -4 10 11 10 -2 6 13 7 10 5 7 -6 6 14 5 3 -2 
13 -8 2 -2 -3 2 -3 -3 3 -3 1 11 -4 0 7 3 2 4 0 2 4 4 -8 -2 -9 2 5 -7 11 -1 -5 1 -11 -3 -7 4 2 5 -4 14 5 4 -5 1 3 1 6 13 2 7 2 4 8 9 5 11 5 0 5 17 4 -1 4 -2 7 7 9 0 3 13 9 -11 -7 3 2 -8 4 -2 -4 2 1 -13 5 -2 -12 -6 -16 1 -22 -11 1 -2 -19 -5 1 -5 -8 -8 -15 -3 4 -8 -3 -2 2 0 -4 1 14 -2 6 8 1 -5 10 -1 -2 -3 2 -11 -4 -8 1 -1 -4 -3 -4 -5 -12 2 7 -4 14 9 15 -8 5 7 6 2 -2 -15 -1 9 -7 0 2 -12 0 8 0 7 -8 14 7 -2 8 1 19 3 11 2 -5 4 -1 -1 -3 5 3 10 68 79 140 172 183 177 169 174 196 190 181 184 183 186 187 186 191 187 187 183 190 180 188 187 188 193 185 189 196 197 196 204 191 196 194 189 188 191 203 200 187 209 191 198 195 189 212 194 186 196 188 197 207 194 208 196 205 201 186 188 202 204 200 178 201 188 199 205 202 189 196 191 193 200 207 188 196 194 194 202 197 180 203 190 184 200 190 189 195 196 195 194 193 199 192 196 202 193 179 182 180 190 206 188 197 197 191 182 183 200 190 202 200 202 193 197 184 191 194 177 190 186 199 201 190 205 201 203 197 195 191 188 196 202 196 189 190 189 193 192 200 184 186 184 186 178 191 186 187 177 188 184 195 178 198 199 192 188 187 185 193 183 184 188 188 192 188 176 180 185 193 190 191 191 183 186 183 183 199 182 188 192 186 184 191 182 201 188 175 184 187 203 181 184 190 180 188 185 193 178 191 197 185 177 191 187 185 192 187 182 177 186 181 182 180 188 181 182 190 188 187 187 186 190 188 169 169 163 157 163 182 175 192 172 183 188 178 181 167 168 172 170 172 171 174 178 164 181 161 172 161 174 159 167 163 146 164 160 153 159 155 152 133 118 111 87 72 65 73 65 60 46 28 14 6 9 12 -4 6 20 -2 18 17 -1 5 4 5 11 6 12 27 -1 3 6 -2 3 9 -1 8 18 8 0 -8 11 1 -6 2 -10 0 -10 -5 3 -2 0 1 -7 -1 0 -4 -3 1 3 1 -2 -5 -3 2 -4 -7 -12 -8 1 4 9 -8 1 -10 -9 -4 -1 1 -12 2 -6 -14 -11 -6 -10 -4 5 11 -3 -7 -1 -6 14 -7 6 -1 -1 4 5 -4 -2 2 -5 3 3 -10 7 -5 -1 3 14 2 7 1 9 -3 -4 13 1 -9 4 -9 12 2 -2 2 5 2 9 3 3 2 7 7 8 -2 -11 10 12 -12 0 4 9 2 14 2 2 9 7 -8 0 0 1 -1 2 8 9 -20 2 2 6 1 -7 6 7 -1 8 -21 -10 -1 -8 6 5 10 10 -1 7 3 -1 7 8 -9 6 9 8 6 14 5 11 10 7 6 1 10 -3 -6 14 8 5 10 1 1 0 9 5 8 4 
3 9 7 7 -2 11 7 2 -2 13 11 8 -7 11 4 5 4 4 5 -8 6 0 -10 10 6 1 2 4 -1 -5 11 -10 0 -1 -1 -13 5 -9 -2 7 -1 9 10 4 -7 2 0 -6 17 2 3 -8 3 1 6 9 8 3 3 1 -2 -2 0 0 -7 5 -4 4 -1 3 -3 0 -8 9 -9 1 -7 5 4 -2 -4 -4 6 -2 4 -21 4 -2 0 -13 -3 -1 -2 -12 -3 8 -5 -14 -6 -12 8 3 4 -21 -8 8 3 -13 3 -7 6 -8 4 -4 -5 1 12 -2 -3 -14 -14 -2 -5 -3 1 -1 2 7 -1 6 -4 5 22 3 4 0 1 9 -10 -4 -11 11 3 -2 9 3 0 1 4 -6 6 8 6 10 1 5 -2 8 -2 12 10 -1 -5 3 1 -7 9 9 2 -8 36 91 114 170 164 173 166 173 179 176 174 190 187 183 185 180 180 175 190 184 168 178 172 181 175 193 197 188 192 191 185 191 195 196 189 192 192 208 199 199 194 184 199 186 211 193 203 194 195 200 205 203 198 203 197 202 194 197 194 186 201 188 188 184 195 191 202 205 194 203 200 186 198 192 193 197 196 193 178 190 195 183 188 193 192 195 185 193 186 188 192 182 198 194 182 174 193 195 192 192 194 181 194 197 177 191 179 198 183 184 194 184 190 194 204 184 200 191 196 187 183 202 185 194 185 190 195 192 192 185 196 194 195 187 194 189 184 197 180 188 193 195 184 204 194 184 189 185 185 193 192 189 180 190 187 191 186 184 178 196 193 184 185 193 174 189 189 190 187 193 187 205 183 192 190 177 196 182 189 191 201 183 191 184 188 174 192 191 185 185 183 179 185 187 182 194 177 181 188 186 183 192 182 198 174 189 185 187 187 202 183 178 183 188 176 185 187 191 190 173 180 187 176 180 186 165 190 167 176 185 175 176 189 185 188 191 183 187 180 176 178 174 164 184 181 170 166 176 176 175 168 167 157 157 161 176 164 173 158 156 153 152 152 138 141 141 122 103 108 77 69 68 65 56 52 36 17 -3 1 7 7 10 12 10 4 13 16 15 -11 18 4 4 10 2 1 3 8 -4 -3 1 4 -2 16 14 11 10 1 0 -2 -3 4 12 5 -1 7 -21 7 0 -6 9 -12 -16 5 -9 -6 -1 -7 2 8 -1 -6 -12 2 1 2 -12 -6 -3 -15 0 -5 -3 -4 2 -9 2 -1 -6 1 -5 2 -5 6 3 3 5 17 9 6 5 -10 0 -18 -2 4 8 11 -1 10 5 0 -8 12 3 -5 2 -6 0 -3 -2 -7 -1 -1 1 3 -8 4 12 9 1 6 5 0 0 -2 9 4 6 -3 3 -6 0 -3 -5 3 13 1 4 -2 2 -1 -2 10 0 -7 -7 7 -6 14 -2 6 -8 5 6 8 2 2 5 0 5 -1 14 8 7 4 7 -6 5 14 18 -6 0 -3 6 16 3 11 -4 2 1 -5 18 1 4 4 12 -5 11 -1 -16 19 8 7 5 -2 2 17 6 2 12 
8 5 -1 14 -2 -5 6 5 6 -7 3 12 -8 -5 0 -12 1 1 -11 2 -5 0 -16 0 -9 2 5 -7 5 10 -2 8 -1 2 -17 2 1 -8 6 0 -4 -6 5 2 -3 -3 7 5 1 2 13 6 -1 2 2 4 0 9 9 6 6 0 8 -2 6 -8 10 0 -4 9 -10 -2 3 -3 1 5 -7 8 0 0 -12 -4 5 -9 0 1 3 -4 0 -2 0 -5 -7 0 -7 -4 -7 1 0 2 13 -13 2 -6 1 -13 8 3 -7 4 -8 1 6 3 4 5 -17 -5 13 -1 -7 -12 2 -8 2 -4 -1 7 -5 1 0 -2 0 6 18 -4 -1 3 0 -6 9 -6 -11 4 6 -7 -7 5 1 2 -9 3 3 2 18 -4 0 8 2 17 5 10 6 7 3 13 -2 -6 12 -6 17 102 88 146 187 167 176 185 185 183 183 178 180 184 186 177 179 185 178 182 184 181 172 180 188 185 179 195 189 192 191 191 197 193 204 203 198 195 188 193 197 194 185 206 196 198 195 198 205 190 197 201 200 192 199 196 209 190 191 190 200 187 193 187 205 191 199 197 202 184 197 194 202 202 199 204 194 176 182 196 187 191 185 189 202 188 184 185 191 184 195 186 197 193 204 197 180 194 198 186 192 190 198 204 197 192 182 185 202 195 193 184 204 190 193 193 182 190 186 188 183 191 181 192 180 192 193 196 192 195 196 190 202 198 188 198 193 198 187 190 190 188 191 183 191 191 183 182 192 184 189 186 188 187 197 189 178 199 188 192 180 196 185 194 176 190 173 169 191 186 189 186 188 189 197 185 194 184 200 183 188 190 173 183 193 176 185 198 187 199 189 186 185 199 179 189 186 189 198 192 192 184 180 191 186 193 189 180 179 182 186 198 181 185 180 188 186 191 190 189 180 170 189 189 177 178 186 167 158 182 176 197 175 196 183 187 186 192 180 181 182 167 184 169 185 174 179 164 177 163 165 164 166 169 157 161 169 159 168 160 159 146 154 145 160 150 152 143 145 137 126 119 87 83 81 73 59 66 46 33 16 8 15 1 13 17 3 15 12 -5 7 22 1 1 0 5 7 15 5 6 2 -5 10 5 6 3 0 20 2 10 4 -5 -4 2 2 -2 6 -5 3 1 -8 3 -4 -3 -1 -3 2 -12 14 -11 1 -6 13 -16 1 -5 -2 2 0 -10 -13 7 -1 -8 3 -1 2 -1 -3 6 -7 2 -9 1 4 3 -1 3 4 15 -4 -1 -10 1 -6 3 -13 0 4 7 -6 7 4 -2 6 8 9 -11 -3 7 4 -9 2 2 -6 19 -2 5 -1 -3 4 -5 1 15 0 2 3 4 17 6 8 10 -6 9 2 4 6 -4 14 1 -4 9 5 1 12 3 -13 3 -3 -7 -8 -12 6 14 -5 6 10 -2 -6 0 6 0 1 -5 2 9 0 -5 11 -1 9 0 1 3 -3 -4 14 0 11 5 16 14 -3 7 9 1 13 16 5 10 12 1 4 6 14 9 -1 9 21 4 
4 5 7 0 4 -5 -2 4 1 9 -2 3 1 -5 -2 7 3 -13 -9 15 -2 -3 -2 -1 -8 8 -4 3 -3 1 3 9 1 0 1 3 -7 -6 -5 5 7 -6 -1 4 -2 13 -5 3 2 1 0 2 4 18 -7 2 7 -4 4 -8 0 11 9 20 -5 1 -6 6 13 -4 -17 -10 -8 2 -5 0 11 -7 -16 3 -4 4 16 -9 -9 -6 -3 -5 -15 8 0 -4 -7 -15 1 -5 -8 0 -5 -8 -1 -1 -3 7 -1 -11 -3 7 1 2 11 9 0 2 -6 -10 -1 2 15 -20 -15 -5 -16 -9 0 -2 12 1 1 10 -8 11 -5 5 -3 7 -11 6 -9 4 -1 5 6 2 3 10 4 2 8 -4 10 8 6 -3 1 8 10 12 9 10 9 -2 -2 12 6 20 8 5 -6 8 1 81 78 123 169 168 171 183 180 185 173 184 184 175 179 181 189 175 189 172 180 174 174 194 182 186 202 195 194 194 191 191 202 190 186 192 196 194 177 188 180 190 194 196 202 201 196 204 196 212 187 200 184 214 190 195 209 184 200 201 198 200 195 191 194 190 193 199 196 200 183 190 198 188 198 199 191 198 188 187 190 185 176 191 189 185 191 203 193 184 180 188 192 192 183 192 185 186 182 186 190 190 186 200 188 187 198 190 197 194 185 194 193 190 186 189 192 197 200 188 185 184 199 197 192 185 184 200 184 198 203 191 193 185 196 186 191 184 185 209 198 196 189 195 191 201 194 181 188 182 191 196 185 185 186 181 195 197 191 195 191 194 184 192 182 187 190 188 191 177 180 194 188 181 192 192 182 195 182 191 195 182 192 178 190 191 191 196 182 189 175 189 185 185 184 190 180 195 195 183 185 188 184 182 191 199 179 192 186 188 192 181 182 188 192 185 184 182 183 184 191 190 175 175 178 179 171 177 192 200 205 187 184 194 202 189 193 184 189 192 182 181 179 185 184 185 190 185 169 169 177 165 163 167 179 166 156 167 171 165 160 162 163 158 151 158 146 166 143 147 156 145 145 124 122 104 81 70 80 67 61 53 20 8 -1 -4 2 3 9 9 8 4 0 -3 -2 16 6 -3 5 8 9 1 -8 3 12 8 20 8 2 -12 7 4 0 -3 14 -7 4 -13 4 5 0 -6 -3 0 0 -7 -2 -17 -6 -9 -6 -7 -2 -3 5 -9 -7 -6 0 -11 2 7 -11 -5 -5 -8 -5 5 -9 -6 1 3 3 3 12 6 8 -4 14 -2 9 -2 -4 -5 -4 2 3 4 8 -4 1 5 1 2 -9 3 -2 2 18 -2 -8 -5 5 11 0 3 4 7 19 -7 -9 2 7 -3 6 5 2 7 7 7 0 -1 -5 -1 9 16 5 1 0 -1 2 13 2 5 -5 2 1 9 9 -3 16 -7 14 -4 3 -6 2 3 12 4 0 3 1 -1 12 2 4 13 0 11 -4 4 9 5 3 -7 -3 -6 13 10 5 3 8 -2 0 2 5 6 4 2 -3 4 9 12 2 6 -2 -1 -4 4 
5 11 4 4 -2 8 4 7 6 4 6 1 -3 -6 2 8 8 8 0 7 1 -3 -9 0 7 -5 -10 5 3 0 0 -4 -1 -12 8 3 4 -5 -3 7 2 -7 16 2 1 -4 -4 1 -3 2 6 10 4 5 -4 -5 9 -4 13 2 3 -13 5 4 3 3 -4 4 -1 -3 8 2 -8 8 7 -11 2 10 4 0 -4 4 4 0 12 -4 -3 7 6 0 -2 -10 5 -6 -6 -4 -4 -9 4 1 0 -4 -16 1 -8 5 -10 2 -6 4 -3 -16 1 5 -4 6 -2 -19 -14 -1 -11 9 -7 2 1 -13 -6 10 -4 -1 1 6 -6 1 -3 -12 2 -4 -3 1 3 5 1 12 0 10 3 -3 9 4 4 -1 8 3 2 5 7 8 6 9 0 6 -1 11 6 12 11 8 14 6 6 35 98 94 157 168 172 170 162 179 185 177 180 174 175 179 181 188 178 178 171 183 188 185 189 191 182 200 190 191 204 180 190 192 199 190 187 191 194 193 198 200 190 203 194 192 201 185 195 203 211 196 196 190 203 186 202 203 196 197 194 189 192 204 196 207 188 196 192 194 196 197 203 199 205 190 192 190 190 190 179 183 185 190 198 187 177 201 188 184 187 189 202 207 184 205 191 199 186 186 192 186 184 194 193 188 190 189 192 190 204 193 193 195 186 199 187 190 189 180 190 195 187 185 192 190 191 188 194 196 197 188 188 188 193 187 186 194 182 195 172 184 184 196 195 179 183 195 189 194 179 185 176 183 183 190 201 185 186 183 191 183 194 181 190 192 190 175 178 181 185 187 190 189 190 189 194 190 178 191 189 181 187 186 196 186 193 183 181 190 203 184 189 187 190 184 180 179 192 197 182 187 184 186 181 183 183 181 180 187 184 180 192 179 188 178 187 178 185 180 186 181 187 195 155 174 178 177 193 191 197 198 180 186 193 187 197 192 189 184 184 181 173 177 190 181 170 174 181 183 171 183 177 167 170 164 169 159 177 160 148 159 169 152 165 156 167 165 160 154 167 149 160 157 164 149 148 137 112 82 75 67 64 63 60 37 6 12 12 0 7 -6 -3 -2 14 0 2 4 -5 5 7 -4 14 13 -4 14 -1 1 3 3 5 5 -8 3 -8 6 -10 -11 5 3 -5 -6 -8 -12 -8 -7 -9 2 1 1 -1 -1 -5 15 2 -13 -9 -4 5 -3 -2 4 0 -2 -10 0 -2 -2 -5 2 4 -5 14 -3 4 4 0 -10 7 12 -4 1 5 7 -8 -1 -4 4 -4 4 7 1 -7 6 12 9 5 8 -3 2 -1 6 3 -4 0 5 9 -3 6 -3 2 10 0 -8 4 -3 2 4 3 14 0 6 0 -13 5 4 4 5 14 11 7 -8 -5 8 0 3 -9 -8 8 1 -6 17 -2 -1 -5 -3 8 4 -3 6 9 -6 10 7 0 7 4 -3 6 7 11 -3 5 9 9 9 2 13 -8 2 7 12 7 1 8 -4 15 -1 10 5 0 -6 18 7 7 3 7 11 1 9 
-2 2 6 1 3 5 -6 0 -2 6 1 4 -12 -3 2 -4 3 -2 -1 -9 7 -13 -11 -11 -6 6 2 -6 11 -1 4 -3 6 16 -4 0 3 0 1 -2 1 13 -5 17 3 5 -2 0 -1 4 -6 3 -6 13 7 -2 0 -2 -2 0 10 1 9 11 3 8 0 -5 10 -2 -8 -11 9 -4 1 5 14 -9 2 -1 10 4 0 16 -1 -1 5 -15 -6 -5 1 7 -2 -3 -10 12 -4 -6 -15 -5 7 2 3 0 -7 -9 -2 9 -1 -6 4 11 7 4 -4 -6 3 -1 -7 3 -6 9 -9 3 -2 -6 0 7 2 7 -4 6 1 7 12 -5 4 4 -7 -2 12 7 13 3 7 12 6 -3 -4 -2 3 7 13 5 -3 -5 -1 -11 8 7 3 9 8 10 13 11 0 13 11 6 10 22 82 77 134 162 163 166 172 177 180 177 186 174 186 179 173 184 193 191 180 177 176 183 171 192 188 193 204 187 182 190 190 193 200 203 193 189 203 204 196 203 192 181 206 194 185 196 192 182 211 203 203 202 196 194 189 203 194 195 194 192 183 183 186 190 189 197 187 202 182 189 200 186 201 184 185 196 195 185 193 196 193 201 190 180 205 198 190 194 188 193 190 194 192 191 187 187 186 191 178 180 188 185 197 189 192 191 183 195 200 193 191 194 180 188 186 186 197 185 199 191 188 196 197 187 186 189 186 188 196 201 190 184 188 195 192 192 195 183 188 197 181 194 189 194 198 198 186 189 182 185 186 191 197 192 209 186 185 196 194 206 188 185 199 180 193 192 184 188 183 201 193 193 189 180 194 199 191 198 196 173 176 192 191 178 199 187 186 188 182 176 181 179 184 185 188 189 181 186 188 208 183 178 201 187 177 186 186 183 176 191 186 186 187 187 185 190 189 186 186 188 191 185 173 171 167 163 186 197 198 191 189 185 187 187 193 180 190 197 192 192 191 187 179 185 182 172 189 178 183 185 164 183 187 169 176 164 169 174 168 167 160 155 166 166 162 154 160 163 170 162 162 169 156 133 148 155 150 140 144 119 98 77 69 73 79 50 18 18 -1 -8 12 6 7 6 -1 7 3 14 8 10 0 12 -12 6 -5 6 1 9 8 6 2 -4 14 15 -3 -1 5 -4 -5 9 -5 -6 0 -7 -7 -13 2 4 9 9 -6 -1 2 -5 6 -10 7 -12 -14 -11 -3 3 1 -9 -3 1 -7 4 -10 -3 7 -3 1 -2 3 4 -6 -2 1 -7 0 4 -12 12 -1 -6 6 -2 -6 -7 1 -1 5 -9 5 4 24 6 6 -11 6 3 11 -6 6 -1 7 2 9 7 12 1 9 -7 8 -6 11 15 5 6 9 -3 -6 6 4 -1 -7 7 6 -1 -5 4 8 2 4 12 -3 1 8 -8 7 14 1 11 2 5 8 -1 2 1 10 -2 8 -6 4 12 -2 4 -2 20 -6 7 -4 13 -8 -1 14 0 11 3 9 -1 18 3 -1 12 10 8 -3 9 1 5 1 4 -3 6 4 10 
-2 13 5 -7 4 -7 -3 1 18 4 -4 -6 4 4 -1 6 3 -1 8 -6 -4 8 -6 -3 3 -6 5 -7 10 5 -2 0 -2 -7 -1 4 -3 -7 -10 5 13 -7 -1 -4 -2 -2 -9 -17 0 11 -7 4 13 -6 4 6 -1 4 5 4 0 -10 -3 1 -2 5 -3 -4 -3 4 13 -1 -12 1 13 1 5 -2 3 3 8 -2 12 5 1 -5 -5 -8 1 0 3 -17 -4 -7 2 -5 -4 -3 -2 -5 9 4 -4 -8 6 -2 4 -8 4 5 0 -7 1 -13 -5 0 5 -3 5 -8 -1 -13 -7 0 -12 11 18 5 10 -10 6 -13 3 6 1 -3 7 -2 -11 -2 -3 -2 -2 4 20 11 0 17 8 -6 3 -5 -2 10 8 10 0 -5 4 8 5 14 -3 14 16 5 3 1 1 7 5 0 64 77 112 163 151 165 169 161 178 158 181 170 183 187 182 174 182 190 188 169 178 193 189 180 196 194 193 190 197 198 182 205 189 190 197 197 201 201 208 204 203 199 190 204 194 195 201 192 188 195 195 199 203 194 193 200 191 196 193 203 198 190 183 204 184 201 191 200 195 188 193 198 180 191 196 185 189 190 186 196 196 182 191 189 190 194 191 201 193 196 198 190 188 185 200 191 183 182 189 193 187 192 201 180 203 195 189 191 191 179 192 185 183 187 192 194 192 181 179 186 194 194 182 196 189 179 192 197 189 187 189 198 182 188 195 192 190 200 190 193 188 188 186 185 179 193 197 196 184 191 191 190 192 195 200 201 198 189 193 183 194 189 196 182 196 185 194 175 188 186 191 194 184 188 195 174 192 183 187 190 187 189 188 193 182 185 180 175 179 191 185 177 198 177 175 191 180 190 177 188 180 184 187 196 181 188 192 182 188 190 187 189 194 181 192 191 194 182 189 186 182 190 192 168 177 170 197 187 183 204 196 180 188 190 196 181 197 173 189 200 176 191 181 193 183 190 181 185 183 175 180 181 179 179 171 168 181 177 179 165 166 174 180 170 171 174 174 172 163 168 162 170 149 152 172 149 150 149 155 144 146 137 123 90 75 69 67 57 41 41 10 -7 5 5 7 2 -2 7 7 2 8 5 0 13 7 6 12 -2 -5 4 -3 5 -1 -4 7 2 11 -11 1 -7 -9 4 -11 17 -15 -10 -7 -5 -1 -5 -1 -2 -5 0 -5 5 1 -8 -2 -6 10 -11 -6 5 -8 0 -2 2 2 2 -1 -1 -4 15 -6 0 16 -6 -3 -8 7 1 10 0 4 -6 -7 4 1 -7 -4 -3 8 -2 -7 8 -11 -1 5 3 -12 9 2 7 4 1 -3 6 14 8 -1 4 -7 3 1 8 4 4 5 25 1 15 -1 9 12 3 3 6 7 4 9 -6 1 9 0 8 -4 -2 2 -1 4 -7 1 2 0 0 1 3 4 6 -3 -4 15 -5 -13 2 8 5 7 12 13 3 4 7 -1 14 7 10 -5 1 1 6 5 3 1 5 19 -4 0 -13 5 6 0 9 2 6 -4 8 
12 -4 -5 -6 12 -9 4 -7 5 -5 9 -3 4 -2 -2 6 -1 -6 -8 -5 -14 2 -18 -8 -4 11 1 -6 -5 6 -1 -5 -2 7 3 11 8 0 2 -1 -2 9 -3 2 2 1 2 -6 5 4 3 1 -12 0 3 9 -1 4 -4 2 0 4 3 -12 3 -7 -8 9 -4 -1 -6 -7 13 -2 4 0 2 1 2 -2 -3 1 -7 9 3 -6 -1 -8 7 3 -4 -2 3 -1 -1 -3 -11 -2 0 -7 6 5 -9 5 6 -5 12 6 4 -6 12 3 7 -7 -6 -16 4 -2 2 -4 0 4 -14 -7 6 1 8 -1 8 6 -4 -3 14 8 0 -8 -1 5 -2 2 9 -3 -2 4 5 12 5 14 6 -4 1 3 1 1 14 -1 17 6 -5 5 8 6 14 10 13 3 9 -4 10 8 5 9 40 81 78 151 165 174 164 156 174 173 178 184 184 187 173 178 191 185 186 182 180 177 193 179 175 192 195 190 201 182 196 194 189 196 184 210 198 187 193 191 195 182 199 185 195 197 189 202 192 198 181 194 201 189 208 199 183 194 194 184 197 189 201 183 192 199 191 192 196 193 190 197 180 187 178 186 204 188 190 183 189 194 201 201 186 185 183 189 187 180 196 190 200 181 182 200 184 193 183 196 189 185 199 189 200 192 194 195 196 187 190 184 192 204 186 190 192 193 192 190 196 180 196 185 196 191 190 195 183 189 198 182 202 189 196 198 193 190 193 193 186 190 195 190 192 199 194 186 198 192 201 191 196 199 194 188 187 195 195 183 185 194 190 193 194 174 189 194 189 179 185 175 187 198 178 187 187 196 186 188 183 182 188 192 202 188 186 188 185 193 169 186 181 189 185 180 179 197 187 187 194 182 191 193 190 189 186 185 181 180 184 188 183 172 190 187 184 203 173 188 190 191 178 168 200 168 174 188 195 178 192 184 188 193 191 189 195 194 179 190 184 180 179 187 196 170 178 191 181 185 192 174 186 169 171 170 171 191 173 173 171 185 179 168 181 167 172 160 170 160 172 165 171 157 163 169 165 172 158 161 155 157 152 148 131 118 103 75 63 62 83 50 16 5 -5 3 1 -2 -8 7 -1 -3 -10 0 2 6 3 7 8 5 -4 -7 -6 2 13 9 -3 -10 4 3 6 0 0 9 6 -3 -2 5 -3 5 9 -4 -5 -7 -5 -4 -9 5 -7 -7 2 -4 5 -21 -8 7 -8 10 -3 -1 7 -1 13 -3 10 8 -3 -1 1 -1 -5 -3 -14 4 1 0 6 2 -3 -1 1 2 1 1 19 11 -1 12 2 -3 11 6 -9 -9 12 14 0 7 4 -4 5 1 5 4 -8 3 2 3 5 25 7 -6 9 5 8 -2 1 3 -11 -10 7 17 -3 -1 5 4 3 4 -2 5 9 7 13 5 2 -5 9 7 12 2 14 4 7 2 1 3 5 -5 -10 -5 14 0 6 11 0 1 17 -8 -7 5 -7 7 5 1 -1 1 6 -4 4 7 12 6 8 1 -1 7 9 2 
3 6 1 -2 5 2 -10 0 -6 1 9 7 -9 2 -7 -3 -17 10 -1 -13 -1 -17 11 -13 1 0 -14 -13 4 5 10 -7 4 -15 9 -6 4 0 -4 -11 6 -6 14 -9 -10 11 0 0 5 -11 3 2 -6 8 3 -1 10 4 -1 3 -3 -5 0 4 3 -2 3 5 -1 5 -7 3 -7 5 1 1 4 6 2 16 4 4 12 -9 -7 5 -1 -4 -4 18 3 -15 -2 4 -5 10 -7 0 4 3 1 1 1 -10 0 -7 1 3 -1 -8 11 -2 -3 3 -1 2 -7 -7 -4 7 -3 -2 3 6 -6 4 1 1 3 4 -4 7 -3 -2 -8 0 -5 9 -11 -7 2 -3 1 12 9 4 3 -1 2 6 1 9 -1 1 14 -6 10 10 13 1 7 -6 10 2 11 6 5 4 -5 6 3 5 17 78 60 127 155 157 169 163 173 188 182 169 184 165 176 181 175 185 178 180 192 185 184 192 184 205 195 198 199 178 185 185 191 194 179 190 185 192 200 199 200 201 200 198 206 198 197 204 194 192 200 185 194 194 193 200 185 201 202 198 192 194 176 195 188 197 207 194 184 204 175 198 194 190 202 186 193 176 183 184 204 193 190 192 184 194 186 198 194 197 194 200 188 197 196 188 189 182 191 180 197 181 193 187 185 190 195 202 189 193 193 207 183 184 190 193 181 189 188 191 193 192 187 187 188 193 185 197 189 187 180 187 182 190 194 200 188 200 189 190 202 180 183 193 191 193 186 195 205 197 187 192 194 207 191 197 191 197 183 197 188 193 186 191 193 186 187 180 182 188 189 192 188 186 186 192 189 180 186 190 176 196 195 182 191 181 183 178 185 180 176 185 178 198 190 183 170 189 182 189 185 181 196 188 193 178 193 193 175 179 190 193 202 190 182 184 183 195 186 190 185 184 187 180 184 179 163 184 169 188 192 195 188 178 197 196 184 189 195 191 193 183 193 194 182 187 196 196 181 177 185 190 184 159 185 188 180 179 191 184 187 176 168 163 162 168 173 171 170 171 173 159 162 168 160 162 166 164 162 167 161 169 149 159 149 158 136 148 127 104 73 68 76 54 18 -2 1 10 -7 2 14 2 8 2 12 -11 7 10 2 -10 6 13 5 8 6 4 -17 -11 -2 1 -5 -1 -3 -6 -7 -2 13 3 2 -12 2 9 -1 0 5 15 0 5 -5 -3 -6 9 -15 -4 -5 -12 -11 -1 -11 4 -2 0 -3 13 0 3 -3 5 -8 5 4 -9 1 -3 1 -5 0 1 11 20 8 0 0 7 1 2 8 0 -2 16 0 -2 9 7 -3 -2 1 -1 17 3 3 4 -5 7 -2 2 4 4 3 -2 -1 7 0 -6 9 3 6 8 12 -2 12 6 9 9 6 13 -6 -4 6 12 9 -1 8 2 4 1 11 -2 1 0 -4 1 0 -10 10 -7 15 5 0 -1 8 4 3 8 5 4 4 6 13 -7 3 18 -2 -3 0 6 13 0 5 14 4 11 6 -4 -8 10 -8 11 
2 4 7 2 4 -7 5 7 -7 13 6 -4 -5 8 -1 -3 13 -2 4 -3 -5 0 4 -1 0 10 6 -4 5 2 2 -9 2 10 2 9 7 -3 -1 -7 -7 -6 2 2 10 5 3 9 4 8 -2 -11 9 -12 -5 0 1 -13 -5 8 0 2 1 5 -3 4 -8 -1 0 1 -5 3 4 2 6 -4 4 10 3 -9 8 10 -1 -3 11 1 3 -12 11 7 -1 2 -5 -3 -4 4 -2 8 7 -5 -4 -2 7 -9 7 -4 4 1 -1 1 2 -6 -3 -1 -4 -8 1 11 -3 10 -3 -4 5 1 8 3 -2 -9 -11 4 2 9 17 10 -3 11 -10 0 0 10 -5 0 5 6 9 4 6 -1 -2 17 -3 5 6 4 5 -1 20 8 8 -1 17 0 8 -3 -4 -4 5 0 -3 6 6 5 -3 48 78 82 150 164 166 171 171 183 187 172 178 177 178 171 179 187 174 182 181 186 181 180 187 190 183 195 199 194 182 205 186 183 180 202 191 190 204 203 185 199 196 204 195 193 198 191 179 192 189 200 184 196 187 187 195 196 194 197 193 187 184 188 193 191 192 197 189 197 200 190 185 187 189 190 189 195 181 186 180 192 193 188 188 205 198 194 189 200 195 185 190 193 190 187 189 190 186 195 189 196 185 198 209 188 194 190 180 191 191 195 189 191 175 192 190 186 188 186 196 195 188 195 175 195 193 188 194 193 188 192 203 188 182 203 176 185 186 194 192 173 197 191 198 191 198 195 195 196 180 203 188 191 181 198 192 198 183 190 182 192 182 201 194 201 191 192 186 190 186 186 183 183 192 192 186 200 185 193 184 182 192 182 187 189 180 190 186 177 189 172 190 193 196 175 188 193 183 192 176 189 182 201 195 175 189 188 186 193 187 195 177 193 182 191 189 175 187 196 188 191 185 178 155 182 164 170 170 180 181 188 184 189 173 181 178 199 183 187 181 181 181 188 185 190 188 186 186 187 194 183 181 192 192 178 183 183 179 179 171 171 180 173 175 179 169 177 161 181 176 169 183 176 168 166 160 161 171 180 162 159 172 156 164 153 160 162 163 140 131 105 64 79 62 61 42 6 -9 8 -1 10 12 0 2 16 -7 2 10 -6 6 -1 2 1 13 3 14 7 -12 2 8 -3 -8 9 -7 4 -13 -8 13 9 -9 -8 2 3 3 7 4 -7 2 -6 7 -1 2 -10 -7 0 4 -5 4 6 -3 -11 2 10 8 -14 -1 11 2 -9 2 -12 -5 4 0 2 -8 1 7 7 18 -1 7 7 -4 18 -9 15 8 -8 4 -8 15 -11 17 7 13 8 5 3 -3 5 -1 -6 6 5 12 9 11 2 10 3 -2 0 7 9 7 1 -3 10 -2 3 10 1 6 8 -7 -8 1 -5 2 -3 1 5 2 15 1 3 13 1 4 -9 0 14 -10 3 6 3 -4 6 1 -2 15 5 9 3 -3 3 3 0 14 3 7 -3 11 4 5 14 -2 5 10 3 5 3 -7 1 -3 -2 
1 6 0 6 -9 17 1 10 -8 -4 0 -5 19 14 -5 -8 -3 -4 4 -9 -2 -10 -11 4 -5 -8 -1 10 5 -6 -4 3 -7 -3 -1 -3 1 5 -7 -2 3 -1 6 4 0 0 0 4 -3 4 -8 2 -2 -10 7 -13 4 -4 -2 3 1 -4 -7 0 -2 -8 5 -2 -7 -1 -3 -8 0 -2 -6 9 7 11 13 -3 3 -9 -5 -5 -1 5 -6 3 -1 13 11 2 12 -5 2 -3 -5 -7 5 -3 6 -5 -2 7 -2 11 8 2 16 12 -1 10 -4 -3 3 -9 1 -2 -6 -11 -11 -1 6 13 6 2 -2 -10 -11 -6 -9 4 -9 3 3 4 -3 12 12 10 -3 -5 -6 16 9 3 13 -16 22 1 4 6 12 10 12 7 3 4 6 3 -4 5 4 14 4 2 -5 -14 7 14 -5 13 12 17 79 76 111 151 156 171 182 176 171 181 180 177 173 174 175 184 178 174 190 186 193 199 194 184 185 213 186 199 191 194 184 193 187 188 190 193 197 193 197 189 192 194 194 189 190 188 196 193 195 192 195 186 201 191 192 193 191 192 194 194 192 196 197 193 193 188 191 200 188 190 198 190 190 194 191 185 196 189 193 204 182 189 199 193 193 193 188 190 195 198 190 190 198 189 190 190 194 189 192 183 193 194 206 188 189 195 191 182 194 189 183 195 182 186 192 181 194 185 187 185 188 194 199 192 186 180 181 188 192 190 184 192 198 196 191 189 196 197 189 188 176 193 191 188 199 193 188 185 199 188 185 196 189 201 193 185 185 192 196 186 198 190 194 191 175 195 198 183 187 180 188 191 186 193 204 178 177 187 189 185 191 186 183 182 181 186 183 194 199 187 193 195 186 183 186 192 187 188 193 183 196 183 205 184 182 195 195 185 198 186 190 181 186 182 195 182 188 178 187 181 194 188 167 165 187 157 151 164 167 171 178 175 179 186 194 188 180 183 177 181 180 188 183 185 171 168 169 194 180 185 179 184 189 168 183 176 185 186 175 168 178 172 173 173 161 181 182 163 161 164 175 177 164 164 166 162 167 180 166 169 167 167 171 161 162 152 161 166 156 163 134 124 90 77 66 63 57 19 9 1 8 10 4 14 15 -1 -14 -1 -8 12 8 1 -2 -4 2 -4 -4 3 3 5 -6 -3 -10 9 11 0 0 5 3 8 -1 2 2 5 -8 -12 1 -5 6 -3 2 -12 -5 -7 2 9 -14 -9 2 14 -4 3 2 6 2 4 2 5 3 -8 3 -12 7 4 1 1 -2 -1 7 4 -1 -5 3 8 11 -1 4 -2 2 -2 17 6 0 0 4 -7 2 4 3 1 8 9 15 2 11 13 -5 12 8 0 5 7 16 1 -2 7 -3 4 7 -1 1 0 17 15 10 -11 4 5 -3 6 9 -1 5 0 15 9 1 8 1 6 -3 8 10 4 12 4 12 -4 3 -17 14 10 -4 -1 -6 -1 -2 2 9 1 -13 6 -5 3 7 5 5 0 -4 0 1 -7 -17 5 -1 9 
2 -1 3 4 -10 -6 10 0 -8 20 -2 2 15 7 10 2 -10 10 4 -3 -1 4 1 -9 1 8 -8 -7 -12 -4 2 0 0 -1 1 11 -4 5 -1 -9 0 4 -5 9 -1 5 0 5 -2 5 -2 7 -1 5 0 -16 -3 2 -4 -4 11 -8 -8 9 10 -2 -5 2 -9 -13 -7 16 -6 -3 -2 -2 0 3 18 6 1 7 -11 -2 4 4 -13 1 13 11 0 3 5 7 -10 -14 -4 -2 6 -7 -7 -9 -6 7 -12 4 3 -6 -5 -7 -1 2 3 -2 4 4 -15 -5 -3 -8 -1 2 10 4 3 0 -6 1 -14 6 8 -5 4 1 -3 7 -4 1 -1 -5 11 -1 13 0 10 -7 17 4 2 5 14 13 5 -2 8 6 9 3 -6 6 -16 8 1 -5 6 3 -1 1 1 -1 -1 4 0 5 39 90 77 134 165 162 161 174 175 180 174 186 172 172 175 171 196 190 189 181 188 180 194 194 196 182 187 192 197 188 201 198 191 186 195 193 200 185 193 201 193 191 183 189 194 192 186 190 191 194 189 208 187 193 199 198 205 184 185 191 182 193 195 192 195 186 212 196 206 190 185 173 184 190 184 183 184 197 188 185 206 191 196 202 194 185 188 186 190 196 189 188 191 195 184 185 182 187 185 179 191 190 195 189 192 179 198 193 184 188 194 174 198 188 198 180 185 190 185 185 199 177 184 181 179 191 190 193 202 196 204 191 186 197 196 184 203 197 194 185 188 193 193 200 198 189 196 193 196 179 190 202 197 196 191 197 191 183 190 192 196 191 201 189 192 189 194 201 181 185 179 194 204 182 186 188 183 193 180 184 188 183 191 195 195 180 182 181 189 185 187 196 188 197 193 174 178 181 187 183 188 195 194 195 184 177 197 183 192 185 186 188 180 196 192 182 196 187 184 188 185 186 182 178 166 186 199 164 165 162 159 163 162 169 170 177 181 182 173 175 192 178 191 186 191 182 184 190 181 182 182 183 194 175 193 184 191 183 185 182 181 176 189 175 189 166 179 170 176 180 171 179 171 172 175 163 160 179 171 167 166 169 163 172 167 158 160 150 152 150 159 144 155 122 108 83 65 59 59 28 18 -4 -5 3 13 9 8 -4 16 4 1 9 7 0 -2 0 -9 -3 -10 1 4 -6 3 -7 7 -5 4 -4 -4 -3 -3 3 7 3 4 -4 -1 -5 3 5 2 -4 -4 -9 7 -9 -5 13 2 0 -7 0 1 -2 8 0 -2 6 13 -10 -5 7 0 -6 5 -3 6 7 7 -9 8 9 4 6 0 7 5 0 16 9 4 -7 11 2 7 9 2 2 4 17 6 6 6 7 3 4 10 14 3 8 10 -10 12 -4 6 7 -5 8 3 11 12 4 10 3 7 -7 -3 4 18 11 8 6 4 -10 -5 10 10 2 -7 2 -2 14 4 2 -4 12 -7 -10 7 15 0 -6 7 -5 5 -9 11 -7 -2 5 -4 -4 6 16 -5 2 8 -1 5 9 6 -11 1 15 10 -7 
-9 10 -14 5 3 11 7 4 8 7 12 8 2 9 4 -12 -2 5 3 1 -10 -4 7 -2 -11 -5 -1 2 -5 10 -9 2 3 3 6 -1 -2 5 -4 5 -7 -5 3 3 -4 -11 -6 -8 2 -11 -12 -3 -16 4 -17 2 4 -6 -3 -4 7 -8 -5 2 1 -7 -11 4 -5 -5 11 -5 11 -2 7 -6 0 3 13 2 9 10 7 3 0 3 -4 -11 17 -4 7 4 -12 -2 8 2 13 -2 -4 7 7 4 4 7 3 8 -6 -7 2 -4 1 0 1 2 6 -5 6 0 -8 0 -2 11 -5 -4 -2 -7 -8 8 0 -9 -2 1 -7 -6 -2 8 2 5 0 11 1 5 11 -1 12 2 3 15 9 2 6 5 3 2 4 7 6 -8 9 2 1 11 -2 4 -4 12 5 -9 13 7 18 -4 2 7 9 56 68 99 151 154 162 168 166 184 165 171 184 179 173 183 194 182 186 194 194 194 197 191 197 185 187 189 188 186 195 189 195 194 186 192 187 187 184 189 188 194 178 197 194 198 187 196 184 202 199 182 194 193 196 195 189 186 185 195 194 184 194 199 193 195 187 202 198 186 190 194 175 182 188 179 198 193 196 196 182 193 196 190 192 179 180 189 188 192 201 200 195 192 196 190 201 193 189 191 186 193 200 198 203 190 191 190 191 193 188 178 188 185 180 185 187 182 191 187 197 194 186 187 194 192 196 196 201 192 207 192 191 180 192 185 196 184 189 198 196 193 195 182 192 191 200 190 197 197 196 191 194 194 187 192 196 197 195 202 195 199 198 190 193 197 184 186 183 196 193 183 182 184 196 190 193 188 188 186 194 183 192 195 187 188 188 190 185 187 184 181 183 191 180 180 195 192 191 187 187 188 197 190 179 194 184 186 185 198 186 192 191 192 199 188 185 187 182 184 173 178 185 185 174 162 153 173 167 183 180 162 161 160 164 158 159 159 192 178 174 171 176 179 187 196 186 194 191 193 182 183 188 178 180 193 186 176 188 172 186 168 177 172 178 184 179 173 180 174 178 182 177 176 175 171 175 167 175 171 169 173 157 175 175 161 163 170 156 164 165 150 143 160 142 142 110 82 70 72 61 20 14 -10 3 0 7 -3 11 6 8 9 -5 8 7 -14 -8 -10 7 6 0 -3 8 -3 2 1 10 -3 -3 -4 13 1 3 9 -7 3 1 7 3 -3 11 1 -10 -5 16 0 -1 6 -6 -3 12 -2 1 -1 -9 10 -8 -3 -10 -3 17 6 -1 1 -4 9 -4 9 4 -2 10 0 -4 -8 -3 8 6 4 13 7 0 11 -3 6 -6 3 -1 3 2 20 20 -5 6 12 12 9 10 2 7 10 12 -8 10 6 -1 9 2 7 4 -1 -6 12 -1 4 4 -1 -3 -4 -1 -3 17 4 1 8 -5 -6 2 0 0 -10 8 -3 5 16 8 -1 11 7 -4 2 5 2 9 10 -2 -5 3 3 8 -6 7 5 4 -2 5 6 11 5 3 6 11 3 3 2 -4 -5 
-1 -18 7 -5 1 8 2 14 9 5 -1 5 -2 1 6 -14 -5 2 -1 3 -10 2 7 3 -1 2 8 -7 -9 -7 2 -13 2 -7 7 3 8 -3 -16 -17 -9 -3 -4 -2 7 4 4 -15 -4 -9 -2 8 1 0 -8 -6 3 -1 6 -8 1 6 -7 -4 -6 -2 -2 4 -6 -5 0 9 3 12 -7 -3 -1 20 11 7 7 -1 4 12 9 7 3 2 3 9 5 15 0 -10 14 15 -3 0 -7 -1 4 -7 -1 4 7 -9 3 -3 2 4 -8 -2 0 -4 3 -10 -2 -7 6 -5 2 8 1 7 -7 1 -4 3 2 -5 12 5 3 0 5 -2 11 -4 6 18 9 2 -5 6 8 0 8 6 9 17 4 -7 -12 8 6 -1 -8 -1 13 10 -1 -5 -8 -1 11 0 -5 -1 5 4 14 2 3 17 15 23 77 66 125 151 175 150 175 165 171 180 182 186 187 176 185 185 191 181 194 194 186 186 190 192 180 180 184 196 193 198 198 184 194 196 188 187 179 193 189 199 192 193 183 198 198 192 185 193 193 186 196 204 193 194 179 190 196 194 192 195 188 190 180 201 197 207 193 189 192 190 190 193 179 191 192 188 196 188 191 198 195 198 189 207 197 191 193 192 200 188 190 189 192 183 193 191 184 193 179 188 201 195 198 190 200 191 196 198 186 178 191 185 182 187 181 191 179 191 182 192 200 187 182 191 190 189 203 199 185 195 196 195 194 183 186 196 198 191 201 180 178 195 195 199 193 193 192 194 197 182 184 204 192 181 188 191 192 182 185 191 205 198 185 189 191 184 188 190 179 194 197 192 188 193 195 191 195 186 198 198 184 190 185 181 188 192 180 174 181 192 190 178 189 181 180 202 194 180 183 177 186 194 181 194 191 177 207 188 178 190 192 178 184 185 188 188 181 193 182 184 192 187 184 194 184 172 161 177 147 156 181 162 173 154 163 166 156 150 169 173 183 174 185 174 180 182 179 189 190 180 192 180 174 179 179 181 197 187 200 186 183 190 172 175 172 181 181 177 178 171 164 188 179 170 171 163 176 181 174 165 169 183 157 178 155 184 160 169 158 169 166 156 161 158 148 144 122 83 73 79 69 12 2 0 10 6 7 8 8 0 7 -4 4 -3 -2 10 -6 1 0 -4 5 5 10 0 13 4 -2 14 -13 5 3 8 3 3 4 -7 7 -2 -6 -11 5 -15 7 -2 -2 2 2 2 -6 6 4 -8 6 -7 -6 2 -4 4 0 5 6 3 -1 1 -2 -9 7 2 -8 10 14 9 -4 18 -7 -1 -3 6 -2 7 2 2 2 -3 17 17 0 4 -2 -2 2 -4 11 5 10 9 6 17 3 8 -2 6 16 -8 8 12 7 7 10 1 -2 6 -10 -3 10 10 2 8 8 10 1 11 8 5 3 2 0 0 5 -7 20 2 9 3 5 -4 14 -1 11 13 3 4 1 4 9 3 9 -4 -3 -7 2 -10 11 -8 2 13 1 2 5 7 3 12 14 0 
7 -1 -6 3 4 -3 -6 -1 4 -5 5 -3 9 5 -7 -6 5 -10 4 4 -6 2 -5 1 -9 -1 -4 -1 -6 2 5 5 1 -5 -4 7 -5 1 -11 5 -2 -6 4 -4 -3 -15 -15 4 -2 -3 -3 -6 -4 -10 -2 -11 -2 3 -5 3 -3 1 1 -5 17 -2 3 -5 13 -4 -2 8 0 -14 4 7 -1 6 0 15 -2 5 6 15 3 4 7 1 1 5 9 -4 1 -6 -3 6 3 7 8 3 6 3 4 2 3 11 5 14 -1 -8 -17 14 14 0 -10 6 7 -1 0 7 10 -2 -11 4 14 -9 -13 -4 4 14 6 -2 -2 5 5 6 4 -4 1 1 0 0 19 13 4 1 5 -4 1 9 4 14 0 4 -5 -1 10 7 0 -3 12 11 5 10 13 3 2 -3 21 -5 -1 11 16 13 19 6 44 68 90 143 152 165 163 169 169 178 190 186 176 189 194 192 183 189 195 197 182 208 187 182 184 192 194 183 193 182 185 185 188 193 201 199 197 191 193 185 183 190 204 179 189 186 197 178 197 189 197 189 193 196 185 179 197 188 199 183 179 193 192 194 213 205 188 200 190 192 183 179 195 191 187 195 194 192 199 197 202 200 189 191 184 186 183 188 192 186 198 189 198 180 190 197 197 194 191 189 189 197 179 191 195 181 190 176 196 195 186 187 191 185 183 183 192 188 194 187 198 191 194 193 196 192 186 191 195 189 191 185 187 194 196 180 197 190 201 192 199 191 199 198 193 205 196 199 199 195 198 179 201 185 203 193 197 192 197 192 198 185 191 185 188 197 190 185 191 184 184 188 172 189 188 186 184 200 190 180 186 190 181 191 185 183 197 189 175 180 188 188 186 186 195 182 191 186 175 185 184 193 176 182 185 191 183 181 193 192 187 180 194 190 172 193 183 186 179 174 178 184 183 190 183 185 185 189 198 188 173 158 140 158 172 175 164 159 150 148 145 163 171 169 181 183 172 182 189 168 189 181 180 178 187 189 179 178 172 186 179 167 182 189 177 186 182 177 179 180 173 171 170 175 172 184 178 176 179 166 181 174 181 158 181 174 169 158 171 167 168 152 168 154 168 157 155 144 129 94 64 86 58 28 1 2 -3 -3 12 3 1 1 1 14 15 6 0 0 0 11 2 0 2 -4 -10 6 -10 -5 -7 7 0 10 -3 1 -5 6 8 10 -3 4 -8 -5 -2 7 -4 2 8 -3 -11 -1 8 -4 7 -3 4 -7 1 7 -10 5 -3 -2 2 -3 10 11 10 12 -5 8 3 -9 1 3 2 3 12 -2 -5 5 -6 0 -1 8 13 9 7 8 -1 2 19 14 22 -4 3 11 12 12 6 0 -5 16 -2 -1 4 14 -3 13 2 15 12 1 -9 -7 4 3 9 -5 -1 4 7 8 -1 12 -7 2 -4 -4 1 -4 -2 13 -9 7 -4 12 4 2 5 12 13 14 -9 3 0 -4 7 6 11 8 6 -8 -3 7 -4 -3 15 -2 -1 -6 -4 7 2 5 
-2 3 2 -7 -1 10 3 4 -1 9 2 -2 0 3 -4 9 0 3 -15 5 -2 4 7 -2 0 4 9 5 -2 5 8 3 16 -13 -7 -2 -17 -4 -7 -15 1 -3 -8 -7 -9 -3 3 5 -7 -2 -2 -7 -6 2 -11 -6 -3 -4 3 5 1 -1 0 -1 -6 1 2 -3 6 5 9 9 7 13 -2 -1 -6 11 -3 8 -3 -3 -3 10 3 7 -1 -7 13 -2 11 -2 0 7 10 1 -6 1 11 13 7 13 -2 5 14 6 -8 12 -3 6 -5 4 1 -21 -4 -6 1 -4 -3 9 -12 -7 4 2 2 7 2 0 7 3 4 9 -5 9 10 -7 6 3 -7 6 5 13 8 9 12 -1 8 2 0 2 -4 14 5 16 -5 7 20 5 15 0 6 -3 -1 20 0 9 -1 -1 10 3 8 5 3 19 19 -8 7 70 80 99 150 163 167 174 178 179 179 177 177 194 179 183 183 194 187 193 194 186 187 184 190 198 194 187 193 188 190 189 197 187 186 191 194 190 179 182 190 190 200 192 197 183 181 184 185 183 180 193 206 193 186 189 180 189 188 198 198 202 184 186 193 195 193 201 188 189 203 199 183 184 181 185 198 195 193 200 207 189 192 195 188 192 191 184 197 190 188 184 194 194 185 189 186 192 191 195 188 195 195 190 192 188 180 188 190 197 179 189 194 184 192 195 191 194 186 194 183 194 191 189 191 197 192 192 182 197 193 193 177 188 200 191 192 206 187 192 196 202 184 189 202 191 201 196 195 198 187 195 187 185 194 197 184 185 191 178 180 200 188 188 190 191 180 188 179 185 192 194 182 192 194 193 180 200 184 189 194 185 192 196 195 183 199 189 197 173 193 180 183 197 186 175 188 191 183 181 188 187 190 189 173 192 178 181 193 185 185 194 191 188 173 186 179 194 188 181 184 189 182 188 187 174 189 187 179 177 184 187 174 166 160 153 152 164 165 134 125 118 144 159 151 173 170 169 179 180 189 190 189 179 176 176 180 183 178 181 184 184 194 177 192 182 194 183 176 185 183 170 183 178 180 177 178 176 190 178 185 178 178 160 172 164 179 165 163 166 171 173 161 169 170 153 158 167 145 137 115 77 70 68 49 10 5 7 -2 2 0 -4 0 -3 2 1 -7 5 4 -7 -1 4 -3 3 15 1 9 -8 0 4 2 5 9 1 -2 2 14 -3 -12 -10 3 5 -1 7 8 -6 3 6 0 0 7 -2 -2 4 -4 4 6 -10 0 4 -4 6 -10 9 0 0 -8 1 -5 -7 8 2 3 -9 4 9 12 24 9 9 4 2 7 2 8 3 3 9 -3 7 -3 10 -4 9 6 16 3 2 12 -2 15 10 -2 3 -7 11 3 1 -5 4 -3 3 -8 -15 12 0 3 -3 7 -2 8 6 8 -9 9 -4 -5 -3 14 2 3 0 -1 10 -11 3 -4 5 -5 1 2 7 9 -1 5 12 -1 9 -7 8 3 -3 -3 13 4 -3 -12 2 6 2 6 -4 5 11 
-5 2 0 5 4 -5 0 6 -3 0 4 -1 3 14 -9 -16 5 1 -7 -7 10 -3 -6 -9 -5 -4 -10 -11 2 4 -5 9 4 3 6 14 -6 -5 -5 -2 -18 -1 -12 -5 -12 -6 -4 -6 4 -6 -15 -3 2 -5 -11 0 10 -11 -5 -9 -2 3 3 3 5 3 5 2 -2 -4 16 -5 -11 -8 20 0 0 4 12 14 1 6 4 6 11 -1 13 15 4 -13 2 -3 6 1 -8 5 -7 10 -8 9 -2 8 -8 1 0 4 0 12 9 2 -6 -7 -12 0 4 -1 -2 3 6 -7 -8 -9 -4 2 0 2 10 4 -4 -6 0 8 9 3 -9 -4 -1 -5 5 -5 -6 6 6 -8 16 5 9 0 -5 7 0 5 0 7 -6 12 -5 13 -1 22 2 1 15 -1 -8 4 -10 4 17 -6 -8 11 7 11 -6 11 -1 27 82 80 130 156 169 173 166 170 186 181 188 193 191 184 188 184 188 189 190 197 198 192 190 188 191 196 199 187 200 187 195 195 198 186 197 189 187 184 188 191 187 193 190 203 185 189 182 174 188 183 187 190 182 192 189 181 192 188 183 191 189 197 193 205 179 184 191 187 194 179 196 190 197 200 196 199 207 196 190 199 197 196 192 198 196 187 193 188 194 196 197 190 195 186 190 192 177 192 183 203 187 187 198 186 191 191 191 179 190 200 183 198 179 191 171 178 196 187 191 192 180 192 188 192 201 183 185 197 188 195 196 193 190 190 200 193 192 187 189 193 187 192 182 185 198 192 203 194 194 188 193 199 183 199 187 192 194 188 196 195 191 202 190 183 185 187 176 192 203 185 181 188 190 191 192 191 184 190 188 191 190 195 188 182 189 182 174 184 184 186 195 195 189 199 189 194 183 174 185 179 183 188 176 192 190 195 194 183 181 184 187 188 183 187 180 183 187 188 195 187 185 192 192 193 173 187 183 197 186 174 175 176 174 175 159 145 131 132 138 91 86 97 125 126 145 153 157 179 175 165 176 173 180 173 172 187 174 183 180 189 178 183 186 185 175 169 180 178 177 182 175 190 184 180 172 167 183 182 171 165 182 188 166 193 183 164 186 173 174 165 180 172 175 164 160 177 165 161 155 130 102 80 77 79 36 -2 -3 8 6 2 6 12 12 18 10 1 1 -1 1 -7 2 -8 0 1 1 7 -4 1 3 -1 -12 -8 6 3 -7 5 -1 -5 9 -10 0 0 -1 -3 11 4 2 1 3 -12 3 3 3 -9 -5 -1 4 6 4 3 -3 -2 6 1 9 -1 16 13 3 7 1 11 2 14 6 8 -6 5 3 10 -3 -1 -4 9 11 -4 9 10 10 -1 11 6 3 12 -8 18 -6 13 -5 8 2 8 2 4 0 -3 3 -5 7 2 1 10 9 7 7 7 -5 6 -1 12 8 15 -11 -5 0 5 1 5 7 5 -1 -3 8 8 -2 2 -10 1 -2 11 0 -1 2 -1 -2 11 -6 3 -6 14 -3 3 14 10 -12 5 6 -2 1 -10 8 -8 
-10 -6 -1 -15 -11 7 10 14 6 0 -4 -5 10 11 9 -3 -8 5 2 -3 5 3 5 -5 1 0 -1 5 -2 -7 0 11 -9 7 -5 -9 2 -2 -4 -3 -11 14 -17 -6 -1 -12 -6 3 -7 -6 -1 -2 -1 1 1 0 -13 0 -1 7 4 4 -5 -5 -8 8 1 4 -8 5 -14 -9 3 12 4 -6 7 1 0 14 6 -4 8 4 12 5 -8 18 -5 24 3 -1 7 7 10 0 9 -2 -4 2 12 -9 18 1 -2 12 5 6 -5 1 -8 -6 6 -9 -7 -5 11 2 0 9 7 -1 -1 0 4 -6 -9 -14 10 14 5 1 1 10 0 5 14 6 0 15 0 -11 5 -6 13 10 5 7 6 9 6 -3 0 1 14 -3 0 15 -8 10 12 -6 -5 6 -2 -6 -2 15 -3 -3 1 3 5 9 22 15 1 1 47 87 89 157 158 154 172 172 186 175 193 182 196 183 187 203 198 187 191 195 186 192 188 191 187 181 186 192 198 196 186 203 174 189 187 193 202 177 172 178 171 183 181 191 185 189 185 192 184 198 191 192 193 175 195 177 200 194 198 201 198 190 203 196 189 190 181 194 189 189 187 179 190 194 182 190 207 192 193 195 197 197 178 199 193 198 202 190 195 182 207 188 180 200 188 189 178 193 199 196 197 183 200 191 188 202 190 192 191 199 192 183 191 183 190 195 193 194 179 199 179 190 192 190 189 192 183 189 198 185 183 189 187 181 183 188 191 190 194 191 198 197 185 183 199 192 202 194 200 207 182 194 189 189 203 187 192 197 188 187 183 184 193 183 186 193 193 181 186 184 179 191 183 193 181 177 191 201 180 197 192 185 187 191 179 195 191 193 187 190 189 184 191 181 183 186 183 202 186 189 189 184 185 194 184 175 183 187 182 186 181 176 183 184 187 184 181 190 173 182 186 184 179 185 190 186 186 191 168 174 187 183 184 173 179 172 156 109 105 80 92 68 85 85 88 110 116 127 149 155 151 164 170 181 173 179 177 178 187 172 169 178 181 187 175 185 187 181 187 185 185 194 188 184 168 193 173 181 176 176 180 179 173 161 183 172 173 175 182 173 174 172 174 166 170 174 160 171 161 157 142 141 104 71 79 55 17 3 2 5 2 9 13 8 2 1 2 12 2 5 -5 0 1 -3 -10 4 1 -6 0 14 -5 4 1 11 0 7 5 -8 -10 16 15 9 1 16 3 12 6 -3 4 7 -7 4 0 12 12 -6 6 6 6 -1 -12 -5 6 0 3 15 -5 10 -1 -9 3 6 2 13 11 16 -4 11 6 9 12 -7 4 14 1 14 6 7 -6 -4 5 11 19 12 1 5 17 16 9 6 11 9 -1 -2 9 8 10 9 13 -2 3 3 13 8 0 19 5 -2 -3 10 5 5 -3 -1 -12 -12 14 4 12 18 4 -3 1 0 -8 10 -9 -4 -9 1 12 6 2 -4 6 10 6 11 3 -2 -2 8 -9 -7 10 0 0 6 3 4 -2 -8 
2 1 7 5 4 -12 10 7 11 2 9 2 -1 11 5 6 3 5 4 -3 4 -11 0 -4 2 0 4 -6 8 2 -13 -4 6 -5 -4 -1 6 -12 5 -3 0 -17 3 -4 -16 -4 5 -15 -2 -7 -5 1 -11 15 -7 -4 -13 0 7 2 0 -1 -4 -2 -7 -4 -4 -1 -8 12 -9 2 0 -5 -4 15 3 0 15 12 6 3 7 2 2 5 19 -6 -9 3 -2 -6 18 2 2 -5 4 3 -8 12 8 10 5 14 11 3 3 14 8 12 12 6 2 0 4 -1 -3 1 -7 6 8 9 1 1 8 7 1 6 8 -16 17 -2 -7 3 6 8 0 0 3 1 4 -2 1 6 -6 -4 -3 2 -1 8 -4 12 1 14 -6 3 1 -5 -1 8 3 19 9 6 -1 -1 -3 5 -6 3 13 -1 10 5 10 4 5 1 19 87 76 115 149 149 170 183 176 183 194 183 198 191 200 191 182 187 193 185 189 181 184 178 194 189 195 183 193 195 194 194 198 195 187 197 193 189 187 187 190 195 179 177 182 181 188 186 194 180 198 192 191 184 189 188 175 184 194 188 183 200 202 194 179 187 173 183 193 188 189 183 200 198 179 193 199 195 187 190 190 207 182 202 179 183 181 197 194 192 194 190 182 190 194 191 187 189 204 195 187 195 188 191 186 189 178 190 191 183 191 182 201 187 185 200 192 184 195 189 192 184 190 173 199 179 196 207 190 186 196 194 193 186 187 189 193 176 190 191 191 198 181 190 194 189 204 188 192 178 191 196 187 195 207 187 190 190 187 198 192 196 184 200 191 179 196 179 194 180 199 188 182 192 187 198 193 170 195 190 196 194 182 184 180 176 181 188 188 206 185 180 189 186 181 195 177 179 185 189 186 190 181 193 191 190 182 186 189 189 192 188 186 185 178 187 183 183 186 179 187 185 187 188 178 184 186 195 198 173 180 181 165 181 174 172 164 126 102 72 63 25 34 50 68 70 74 82 84 120 126 142 157 172 162 164 167 176 171 175 174 181 183 179 179 183 176 171 180 187 190 180 176 179 182 191 184 181 164 171 184 178 177 171 184 183 179 183 183 180 171 170 186 171 181 171 173 177 168 163 171 157 150 119 78 84 68 30 2 11 6 -6 4 5 -6 -5 0 5 -14 9 -3 13 0 8 -6 13 3 8 -2 5 -1 1 1 1 -4 -3 -3 3 -1 -11 3 -2 20 -5 -3 6 13 -3 -7 2 4 7 -11 11 2 3 6 3 1 8 2 -5 -4 -3 -9 9 15 3 -3 6 0 9 16 9 10 6 15 3 20 6 -10 11 2 4 0 7 6 9 13 5 8 9 6 -4 1 -3 15 9 5 4 6 -2 3 10 4 16 5 6 -5 9 -4 0 18 3 6 -1 -7 9 13 14 -2 8 8 -3 -9 -2 11 -3 7 0 10 -4 4 5 -8 5 -8 -12 -5 -3 9 4 11 -1 -7 6 -1 -3 5 -1 -6 0 2 4 -10 1 8 -4 9 -11 7 -3 
-6 8 4 1 -8 3 5 1 1 -3 3 -6 4 3 -4 3 -5 -6 -3 7 1 -3 -2 5 -9 1 3 2 2 -6 3 -11 7 -4 -2 -10 -8 2 -2 -8 0 -4 -2 -4 -1 -9 -4 -1 -12 5 -8 -7 6 -10 -3 5 3 -8 7 13 -1 -4 4 -5 -1 9 -3 12 -4 -5 8 -10 16 5 -4 7 1 22 9 4 10 2 13 11 -1 -6 3 14 -3 6 4 4 1 -2 14 -1 -2 3 9 4 -4 5 6 7 -1 0 1 9 10 7 1 5 -12 -8 6 6 -2 3 -1 0 -10 9 6 2 8 -4 0 8 -11 -4 -5 2 9 14 10 14 7 11 7 -14 16 -3 9 7 -6 0 -5 -4 -3 9 3 10 5 -1 12 0 -3 -1 2 -3 -5 5 -11 9 0 -1 -16 9 0 -3 8 -1 -8 5 7 0 2 -6 4 39 74 67 124 158 173 175 180 188 188 196 187 196 185 175 187 175 190 187 189 172 202 197 184 189 184 188 196 196 200 200 182 194 183 190 183 185 177 181 190 190 174 188 182 185 180 191 185 202 192 189 193 191 180 187 186 180 199 180 194 191 187 198 187 182 193 196 191 186 189 192 188 189 194 194 194 200 193 192 204 192 185 190 199 201 206 179 188 183 195 191 187 194 187 191 195 188 182 194 193 193 194 183 190 188 187 186 176 192 191 198 191 186 195 184 198 201 182 198 187 188 194 194 192 193 200 194 187 198 196 185 195 190 195 198 190 192 181 193 182 193 205 188 190 188 191 191 207 191 196 187 198 185 188 200 195 186 192 192 196 190 195 182 193 186 189 188 191 189 198 190 203 198 180 191 201 190 180 199 200 191 197 180 171 184 189 173 189 176 180 183 190 197 174 190 187 189 187 199 185 191 185 183 181 185 178 194 175 166 181 186 183 177 198 183 195 194 187 188 191 183 191 192 181 191 186 194 169 185 187 183 172 173 167 178 179 154 124 86 55 36 10 15 11 19 43 62 78 78 81 83 107 128 169 152 162 161 174 167 171 171 176 177 180 186 178 182 172 195 189 187 186 169 185 193 180 183 177 186 171 190 180 179 174 185 185 170 173 177 192 181 192 171 170 176 181 175 168 167 170 175 176 175 134 83 68 91 31 -15 16 12 10 -7 19 3 8 -8 7 -12 9 -12 7 6 6 7 -2 -8 -7 1 -3 -1 3 -1 -4 6 -4 8 8 6 2 -1 18 -9 6 7 7 5 1 2 -2 3 12 -16 8 3 7 -3 1 -6 -6 -3 -14 11 15 2 6 9 5 3 11 0 -7 15 1 -3 -8 5 0 12 9 9 -10 7 1 4 11 -5 5 -6 17 14 7 15 15 11 10 6 -5 -3 9 -4 11 -4 -6 18 -2 6 -2 -10 3 -10 13 7 9 5 10 -1 8 -3 -1 8 1 -4 -2 7 -4 1 2 -6 3 0 10 -4 6 -3 2 5 1 6 6 1 -3 4 6 5 -1 -2 10 -2 -3 3 12 7 1 -1 -5 1 6 4 1 -16 
1 7 -8 2 -5 7 -4 2 -7 -2 0 -2 4 8 7 -7 2 -3 -2 -9 13 2 4 -6 -5 -5 -5 -1 -1 0 -2 1 -7 0 9 -3 -2 2 -9 13 -2 3 -3 2 5 0 6 -1 4 -8 -5 -12 16 7 3 -2 3 2 1 -14 -3 6 2 -2 -8 -3 11 -11 1 0 -5 -11 -12 0 15 3 6 14 8 0 13 5 9 10 4 6 5 6 7 10 -1 -3 4 3 -4 0 5 4 6 9 11 -2 5 15 1 -2 -2 12 11 1 -4 -3 6 9 -10 6 -8 10 -1 -1 5 7 9 -10 -1 9 0 6 -5 -1 4 -1 3 6 9 16 7 -2 1 -1 8 1 -3 -2 -2 9 -8 3 7 6 9 -1 -3 18 -7 0 3 6 -1 6 11 -8 16 5 -2 -8 -2 12 8 6 6 21 20 -4 -4 5 7 12 4 14 72 60 86 124 147 174 181 178 174 186 193 177 182 192 194 182 184 191 183 190 186 194 189 197 193 189 191 195 187 182 176 185 184 175 181 179 191 184 194 172 180 196 187 184 192 189 194 186 191 175 183 183 176 193 177 187 179 191 185 195 177 190 164 186 184 183 197 186 193 199 194 189 191 204 197 193 192 192 187 193 188 191 181 184 202 190 194 178 189 186 172 194 181 196 187 182 189 183 192 190 185 192 196 195 188 193 190 187 188 184 191 180 192 197 188 193 190 197 188 197 191 197 187 200 197 199 190 181 191 192 195 187 202 193 199 185 190 194 195 190 192 189 194 187 202 190 190 203 195 183 184 188 197 201 191 196 186 186 196 190 198 175 189 196 182 192 188 191 186 200 183 196 202 193 198 190 192 176 198 185 185 180 186 180 186 184 180 176 180 193 188 184 176 192 187 197 180 195 191 190 188 184 187 190 186 185 192 184 186 187 185 181 168 178 188 183 186 174 185 181 174 184 191 189 185 183 175 174 174 185 190 175 184 177 178 173 142 104 81 55 14 4 4 16 -8 14 8 31 62 71 95 117 142 144 113 121 149 157 170 178 166 177 171 178 172 174 181 195 169 181 178 188 173 179 196 190 182 174 184 179 164 179 186 186 181 184 190 185 177 200 180 184 176 179 187 181 180 179 179 177 179 180 152 144 94 74 94 55 3 -4 24 7 4 -3 2 -2 -3 -11 3 18 -1 11 -2 -5 -9 7 0 -4 6 4 11 -9 -5 -1 -8 3 15 3 6 14 2 5 15 4 4 3 -5 6 2 4 -4 5 12 7 16 -10 12 -11 -1 -8 -2 -4 5 3 8 -4 4 2 6 15 -6 9 0 -1 2 9 1 17 7 8 3 12 -2 6 3 4 6 14 8 12 5 -1 -4 5 3 12 5 -8 -1 4 14 5 0 -1 0 10 15 -7 9 2 10 5 11 13 5 2 3 -4 1 16 1 0 -5 8 5 16 7 7 -10 8 11 -1 1 -1 0 -8 2 -3 -7 -9 14 -8 -4 7 -4 -9 -7 1 -3 -2 4 -7 0 -1 -9 -3 2 8 1 3 
13 10 0 -4 -2 -4 14 9 -9 -3 5 6 1 -2 -4 -4 -3 2 -9 -9 17 5 -5 3 13 -1 -12 16 7 -8 -4 -12 4 -5 -4 8 -15 0 -17 -1 -18 -4 -6 -2 -3 -8 -2 -10 0 -4 -5 2 -9 1 5 -13 13 -5 -6 -1 -2 4 0 2 -8 -1 2 0 -3 4 7 -5 4 -3 -12 8 -3 -4 5 9 8 9 -7 0 7 -4 3 1 11 10 14 0 15 -4 -5 15 1 0 9 6 2 10 5 7 2 -11 -3 5 -2 11 9 7 -1 -1 14 13 9 -4 -6 1 9 16 3 12 0 13 1 2 8 12 3 13 -1 14 0 5 7 10 -7 10 15 0 3 0 7 -10 2 6 -15 1 11 4 7 -2 11 -2 2 0 1 -4 16 3 4 -11 6 -3 10 1 21 -2 13 1 -4 11 13 -1 5 16 20 -4 23 77 71 85 152 174 179 184 183 179 194 189 200 186 179 193 192 200 182 204 194 188 180 189 189 188 194 183 192 187 177 179 191 188 186 174 199 191 185 195 184 196 188 194 196 175 197 184 184 188 186 186 199 189 187 194 192 184 182 186 186 189 194 183 182 197 190 192 182 198 192 204 202 186 192 180 189 192 195 194 184 188 195 182 177 201 194 200 187 187 188 195 196 189 182 190 194 191 193 191 203 189 190 191 186 186 187 203 179 174 175 188 190 181 187 197 187 181 207 194 182 196 189 191 191 197 194 203 194 199 192 186 195 194 194 182 205 176 185 202 204 186 188 190 193 202 198 191 196 203 184 191 191 183 195 188 189 196 190 194 192 189 192 189 190 197 186 205 190 198 200 183 199 195 187 196 183 194 193 190 182 186 173 187 179 178 204 176 204 196 195 187 188 191 179 184 190 198 179 197 184 200 180 184 188 182 195 174 186 180 186 183 192 182 184 186 195 195 189 188 187 199 186 180 185 173 190 185 186 181 177 183 179 168 178 173 149 124 100 43 20 7 16 1 -4 0 6 2 2 20 59 63 86 133 107 67 95 112 121 154 146 156 148 177 160 180 176 183 178 179 179 181 182 174 182 190 187 184 184 184 179 185 175 179 191 178 179 185 187 173 183 174 180 182 176 192 176 170 179 169 181 183 166 181 156 124 71 91 71 8 8 6 15 5 8 -7 -6 2 -5 14 -12 14 6 -4 1 1 -6 6 -1 -7 -8 0 7 -5 8 0 8 7 -3 -10 9 -4 -5 7 7 -3 -1 8 -3 3 16 -2 -5 7 5 -8 0 -12 -7 2 1 5 -4 7 8 15 17 14 12 -1 1 -2 11 -4 -5 13 6 -13 -2 -2 -2 13 -11 1 10 -3 5 14 6 1 14 5 16 0 8 0 -6 12 3 4 8 4 -3 -4 -2 13 7 4 4 11 8 5 -6 5 3 -7 13 10 13 -1 6 5 -5 3 1 2 3 -7 5 8 12 -4 -1 13 1 6 -5 -1 2 14 -8 4 1 -1 -1 -3 -1 2 -5 -9 -4 -5 -1 -5 -1 7 9 3 -8 -3 
3 3 -6 1 11 -7 7 -4 3 0 1 4 0 16 -4 14 -11 -6 -1 9 2 -13 0 -3 0 -10 9 6 -10 9 11 9 -6 2 -2 -3 -14 13 0 -16 -14 2 -14 -2 -2 -13 3 -12 -6 3 -1 -7 -7 -2 0 -8 8 -4 -2 -16 -9 -1 9 0 -7 1 -2 -12 -1 4 -1 7 0 5 13 6 2 10 8 14 6 0 8 10 -1 6 12 4 -8 -1 6 2 1 16 6 0 3 -6 10 11 1 -4 8 3 15 3 8 -1 10 3 4 -3 7 1 -10 -1 -3 2 -6 1 1 5 4 16 -5 3 -14 3 -3 7 3 4 8 -1 3 8 4 -2 23 13 7 5 8 -7 -2 -5 3 -8 20 3 -3 4 6 -1 -4 -8 -7 8 6 5 9 -5 7 -4 1 -3 -1 15 -11 -8 20 10 5 5 24 14 8 14 21 8 3 16 69 81 130 172 169 182 173 177 186 186 192 189 186 182 195 187 185 186 202 185 184 206 188 187 179 195 188 189 181 200 188 191 187 175 188 187 191 192 189 197 182 190 190 184 184 186 191 190 185 183 190 190 192 175 182 190 182 190 201 185 173 188 197 181 179 186 196 188 189 191 187 192 199 194 183 190 197 188 204 185 189 197 198 185 185 191 194 183 191 187 191 189 193 179 181 191 184 187 188 192 194 187 192 192 198 183 191 195 192 188 182 186 187 187 197 204 197 201 187 187 186 190 198 187 194 191 180 191 202 207 198 192 197 195 181 206 194 194 190 200 192 202 195 198 196 197 187 188 184 193 190 200 195 190 196 197 186 185 192 195 179 193 203 186 199 186 190 191 172 186 208 183 203 188 192 186 186 174 194 186 192 180 199 187 188 196 183 183 189 185 186 192 190 184 186 177 177 179 178 177 173 182 198 177 195 177 180 185 183 183 183 170 187 181 189 169 189 183 187 184 180 181 182 169 190 187 179 171 177 179 176 179 168 176 174 146 106 75 34 20 15 9 11 8 12 8 5 -3 58 82 98 80 104 53 60 76 76 86 106 126 145 151 155 176 168 174 176 171 192 174 197 180 184 185 183 185 179 176 179 191 184 193 194 187 183 173 180 174 183 193 192 187 193 187 180 176 184 181 189 176 168 170 170 161 127 74 103 60 3 5 8 9 -4 2 -4 -3 0 4 11 -3 -2 6 -4 9 -7 16 -9 4 -6 10 6 0 -15 7 5 -4 8 6 9 7 4 6 9 10 16 3 12 -9 8 8 -7 1 10 0 0 -11 3 -2 -2 -5 5 7 -2 0 4 18 10 -9 7 3 4 8 10 -3 -4 12 1 3 -8 -7 9 1 3 -4 2 2 -7 5 6 7 1 8 0 5 -3 -4 9 14 7 12 4 1 5 3 10 -7 3 4 7 5 5 -2 -3 4 0 1 7 10 2 -7 8 2 -2 7 3 10 -2 6 10 2 5 5 -6 8 -1 2 -4 8 11 -1 2 22 -3 -1 2 5 -3 0 -2 2 -1 -4 2 -8 -4 13 9 -11 
-7 6 7 3 -9 10 -6 1 9 -1 5 9 7 2 14 -3 6 2 -8 -16 -1 5 -1 10 -7 16 -3 8 -7 5 -5 -3 7 -5 -5 -2 0 -8 3 -16 -9 -3 -15 -7 1 -12 0 4 -1 -3 5 -2 -3 6 1 8 1 -10 7 -15 1 -1 -13 -4 0 4 3 3 8 -2 1 2 -6 1 9 11 9 1 -7 -1 4 1 8 6 4 10 8 9 8 4 16 7 5 -5 0 14 -5 0 5 0 9 -1 1 -5 -4 7 -1 3 -1 5 5 5 5 5 18 2 0 -2 2 6 4 13 -5 2 3 13 -3 3 11 8 2 2 -6 -2 13 5 1 -4 -3 5 6 -2 3 -7 10 -3 -6 -11 10 -13 5 -11 -4 7 6 10 -13 6 9 2 2 -5 4 0 -4 -10 8 3 4 -2 -2 6 12 12 11 11 3 14 -7 5 11 -1 29 112 102 167 174 185 186 197 180 187 179 193 190 195 181 187 186 192 201 197 182 175 189 182 194 192 191 194 186 194 174 185 175 186 188 194 196 183 192 177 191 191 190 179 180 190 194 193 189 199 181 177 196 181 185 190 192 179 173 176 180 194 183 183 208 184 192 189 190 198 189 196 197 190 201 197 191 190 193 190 197 187 188 186 186 190 190 181 197 189 192 190 186 200 178 189 188 184 191 195 188 186 190 190 196 200 184 187 185 195 195 190 189 187 191 204 196 197 196 194 200 196 199 192 200 187 193 192 195 191 182 194 200 178 197 192 191 188 198 198 199 208 182 195 196 190 208 196 187 188 186 202 187 205 186 184 191 198 191 197 200 193 184 198 200 191 199 196 202 191 199 193 195 191 185 181 192 187 186 174 195 178 181 195 191 180 182 202 187 193 179 177 190 180 187 196 192 192 182 176 192 192 173 184 184 191 192 192 173 177 177 188 184 187 176 184 191 182 188 195 182 179 187 179 192 181 183 181 173 182 170 185 166 177 174 158 120 101 61 18 10 1 1 4 12 11 10 10 43 66 89 68 64 5 6 31 52 63 77 75 93 95 115 149 170 174 163 167 166 185 180 174 187 176 182 184 198 177 190 181 179 187 187 177 184 193 184 182 189 192 196 187 186 191 176 184 191 180 188 177 174 178 176 169 183 135 76 102 29 10 -16 3 4 3 -8 -4 -1 0 2 7 -5 2 -4 4 6 12 8 3 -18 14 10 6 5 -10 -3 2 11 5 -1 7 15 5 2 3 -8 -3 9 2 3 -11 -8 -4 -4 -13 -2 4 15 -10 -4 4 -6 4 8 -1 11 9 7 20 5 16 -3 -1 -2 3 2 4 -2 -3 1 -4 3 8 -8 2 -5 17 11 14 6 1 8 -7 3 0 2 12 -1 5 6 10 -1 3 2 11 5 0 2 13 3 0 4 7 6 2 14 -9 4 -13 -5 2 -1 7 8 -10 9 3 10 2 0 5 -8 4 -8 4 -6 10 -2 2 -5 9 -6 -2 -3 -2 -10 -1 -8 -8 3 -1 -8 2 -14 3 -9 -2 -4 -4 
-2 -2 2 -8 10 7 -4 10 6 0 13 -3 5 -3 1 3 -9 -5 -8 2 3 -7 -6 8 4 4 -1 2 9 3 -1 -5 5 -1 3 -3 -4 -8 -16 2 3 2 -13 -9 -6 -7 4 -5 -4 -5 7 -19 2 -10 3 7 10 -9 3 0 1 1 8 -9 2 2 5 0 3 -11 4 8 -4 7 -3 8 2 13 2 2 2 -4 11 1 5 -11 13 9 -11 -4 4 9 -3 3 6 -2 4 9 4 -5 18 7 2 4 8 3 10 8 0 -1 -4 15 5 -10 -1 4 -6 6 13 2 8 14 2 14 -7 -1 6 4 14 10 -2 5 13 8 4 -5 1 4 -11 -6 11 4 17 5 4 -1 -6 24 -4 10 -3 3 7 -5 1 1 5 9 -6 4 5 -6 0 -1 5 1 12 0 7 9 4 6 16 10 7 20 6 10 7 7 5 -17 29 102 114 178 173 173 196 182 195 195 186 187 186 190 207 191 190 178 180 187 191 184 189 205 191 197 197 184 190 191 203 191 187 203 192 193 182 189 174 185 182 185 188 188 183 182 188 189 186 180 184 191 173 181 197 186 191 193 191 192 199 196 196 177 182 188 192 197 197 188 206 192 183 189 189 185 189 191 185 177 193 186 180 196 196 187 191 189 190 191 186 187 192 198 197 192 202 189 195 190 194 178 200 186 193 187 191 200 197 188 192 200 199 196 185 194 193 184 185 185 185 187 194 192 197 198 195 189 199 200 182 193 185 190 199 183 205 199 196 196 197 193 203 191 192 204 193 183 192 192 192 182 195 197 190 188 192 204 193 196 179 181 192 185 194 191 186 200 185 195 184 183 188 175 197 191 193 183 192 179 195 184 189 180 183 183 179 187 183 185 184 190 192 181 181 188 191 187 175 182 178 181 183 182 195 192 178 188 182 189 172 179 169 191 188 182 173 185 171 196 184 176 185 182 185 181 184 191 168 195 178 177 171 184 180 159 132 91 63 30 9 13 5 -2 2 -2 3 -8 15 60 87 73 69 24 -2 9 0 12 29 61 65 70 81 92 114 136 143 155 161 174 173 159 186 182 177 189 177 173 175 180 192 174 185 192 183 183 180 188 192 187 201 192 200 195 180 198 182 176 169 191 175 184 166 160 179 157 122 67 101 31 -1 -10 2 10 -1 3 -2 -5 8 2 6 0 9 5 12 2 10 3 5 9 1 5 -4 5 9 22 3 6 12 -9 8 2 -3 -4 0 6 5 4 -6 7 1 10 1 3 12 -6 10 1 13 -4 1 7 0 1 -5 15 3 7 14 -5 -2 -1 -2 -2 9 -1 -4 0 0 1 0 0 11 1 7 3 3 8 7 1 8 -7 7 14 8 -15 9 -7 13 7 5 -4 9 9 12 -3 1 -3 19 3 15 -1 6 4 -1 -1 6 3 -11 4 -4 0 -8 -2 17 3 0 -5 -2 -7 -1 -4 -4 -8 -3 -2 1 8 -2 -3 11 -1 5 1 -3 1 -5 6 -4 6 1 -5 -8 -5 4 -6 2 -7 
9 -5 -5 -12 -5 14 13 14 1 -13 7 -5 -2 6 -1 -6 -1 4 3 -2 -3 1 -5 2 -13 -7 3 3 10 -3 3 -4 -1 5 0 0 -6 -8 3 -10 -6 -7 -3 -4 -9 5 2 9 6 4 2 1 -10 8 4 -2 -9 8 0 1 -7 5 -2 1 -4 14 1 -2 -4 -2 3 9 0 -3 12 4 11 6 8 11 10 6 2 0 12 8 10 0 -1 13 6 0 -5 2 -1 7 2 -2 11 2 -1 15 8 0 5 13 7 15 9 2 12 16 15 11 -3 -3 14 5 11 -5 8 10 22 8 17 1 -8 1 13 17 2 10 7 1 -18 -2 13 -3 -4 -11 -14 13 -2 10 -7 -7 6 -9 7 -2 11 0 -3 14 -8 4 1 3 6 -4 -2 -10 -12 9 -3 0 14 9 4 -1 -1 -1 10 4 4 3 -1 10 -1 0 15 5 34 92 114 178 165 181 179 187 181 191 189 190 179 191 175 188 178 191 182 181 195 181 183 186 193 192 183 193 192 183 189 179 183 177 187 189 180 188 181 195 192 188 191 186 174 192 198 184 174 187 191 179 187 187 190 184 190 195 177 184 187 184 198 194 184 192 193 185 187 200 193 190 198 191 185 188 193 189 196 177 181 195 190 197 187 189 187 195 186 183 188 188 190 183 192 193 192 191 192 198 189 184 197 186 190 190 188 179 192 196 194 186 185 191 187 201 192 198 191 199 193 198 202 188 185 197 187 186 196 194 193 193 180 196 180 191 194 199 191 191 187 186 190 191 199 186 187 188 200 191 199 195 196 192 197 198 204 195 192 190 206 193 201 185 186 197 192 200 193 202 186 201 187 206 186 183 185 185 179 191 183 180 177 188 183 192 191 182 183 181 188 184 188 183 182 180 189 182 180 177 181 183 189 176 183 187 190 182 181 182 187 191 179 183 184 178 186 185 186 193 194 191 197 180 172 193 173 187 191 179 175 179 192 180 180 168 157 127 63 45 24 4 -11 10 8 13 4 -9 13 61 82 101 63 48 -10 7 5 -5 0 -7 1 34 55 70 70 72 106 122 141 166 170 159 173 170 183 192 181 179 186 182 187 182 178 190 189 180 189 188 174 189 199 193 179 176 190 174 171 175 174 194 188 183 191 181 166 182 159 109 77 96 7 -1 9 2 -17 -2 6 5 2 9 9 7 4 1 0 8 6 -2 10 -6 3 -3 4 -1 5 6 10 7 8 8 8 -5 6 2 0 9 -5 15 11 -3 -7 -7 3 0 1 6 0 2 8 3 10 6 5 14 15 9 3 4 3 0 1 -6 6 -8 -3 3 -4 -3 7 -8 -5 -3 -6 4 -5 2 11 -2 3 10 12 12 6 1 14 3 1 -2 11 17 2 -5 3 8 4 6 1 -2 11 2 3 9 3 9 -5 4 1 12 0 7 11 5 12 -4 1 2 8 -5 5 -15 -4 -3 4 6 -5 1 -1 -10 -5 7 6 -7 4 -9 -13 5 9 5 4 0 -8 11 4 -17 -11 1 4 -5 
-8 6 26 0 8 -1 6 3 -3 8 1 4 0 -5 -2 7 -3 -9 -2 -7 -3 2 3 0 9 -2 2 0 4 1 0 7 -11 1 -1 -4 -5 -5 -11 6 -1 -9 0 -8 -5 6 -8 2 -2 -1 5 8 -3 11 1 7 0 -6 -5 5 0 2 -3 3 1 -6 -9 0 -10 -5 3 0 14 -1 4 21 3 12 6 3 -3 -4 -9 5 2 5 12 -1 5 4 -13 5 4 5 1 16 -6 10 1 18 11 -1 -6 -2 9 13 8 5 -2 4 -1 0 14 20 3 3 4 8 9 -1 8 10 8 4 3 -6 3 5 -9 9 3 -10 14 -10 4 6 -6 1 6 -2 -2 8 -1 -12 -10 10 1 3 7 6 8 1 -2 -2 -10 2 6 -7 -9 -3 0 -2 -3 -5 -19 -2 8 11 -2 7 0 -10 -5 6 12 9 12 16 6 18 15 11 61 87 147 195 186 179 189 176 189 194 179 197 184 176 188 185 196 179 183 190 178 189 173 194 193 186 181 197 184 179 186 180 196 186 185 184 190 181 186 185 191 189 190 175 178 192 184 201 175 179 186 184 192 179 195 182 198 192 192 188 187 188 191 190 185 186 195 191 191 197 190 197 187 197 194 189 190 197 183 192 187 191 187 192 176 185 190 189 198 187 196 183 194 191 191 189 186 194 193 204 193 197 191 188 194 191 200 196 197 195 197 191 186 187 189 189 195 192 207 186 200 203 188 186 204 194 191 189 186 201 195 189 187 204 186 208 199 192 193 184 200 205 190 192 201 178 192 195 194 192 195 201 181 191 182 203 193 195 189 192 204 193 198 198 201 194 188 196 205 188 196 193 186 197 190 184 193 188 191 177 186 190 179 190 198 196 185 195 197 181 185 193 193 184 179 175 185 180 188 186 194 180 177 181 198 165 184 202 180 183 179 178 195 189 185 179 187 193 178 193 181 179 184 194 179 183 175 181 179 179 181 185 180 180 187 183 153 133 87 59 26 18 -4 -6 5 2 -3 8 -6 52 79 111 69 59 -17 2 10 -3 8 2 -3 -1 7 13 38 61 72 86 90 108 131 153 166 173 157 169 171 176 168 193 180 190 196 184 199 200 186 192 177 199 203 195 202 182 194 180 193 179 190 187 189 179 175 180 177 163 174 156 75 102 63 12 0 3 13 6 -1 -8 15 0 6 4 12 10 15 2 1 1 2 11 15 1 9 -1 8 5 14 16 -11 6 9 1 2 -5 14 11 11 18 10 4 -2 -6 19 4 12 16 3 -11 -4 -3 -4 7 0 0 6 3 2 5 4 10 11 3 -3 1 2 -8 6 8 5 5 0 4 -2 -1 -5 4 2 8 2 2 1 2 4 7 -8 7 -6 8 10 -1 3 0 -11 2 24 5 -6 -2 11 3 4 6 -1 12 4 0 -4 18 -10 -6 0 -5 8 -7 -8 2 6 -2 2 -8 -4 -4 -25 -6 -2 4 -3 2 1 -5 0 -14 -3 -6 2 6 -4 -2 2 1 -16 -9 -11 5 -5 -3 2 -2 
9 -4 -5 3 -2 -11 10 -9 14 6 2 -2 7 1 11 -12 -1 6 1 -5 -6 3 -13 -2 -8 -1 1 11 14 1 -6 4 0 -9 -1 4 0 -2 -2 -4 -1 2 8 2 -1 -7 -2 0 -1 2 12 -7 2 13 1 8 4 -5 8 -3 -10 7 7 -3 5 5 0 -5 -6 -2 9 6 -6 -3 -7 -1 6 8 2 -11 8 -3 7 -2 -7 3 20 -1 -9 -3 1 7 0 7 8 10 3 11 11 -2 -1 -2 0 13 12 13 17 13 0 9 20 11 9 -1 -8 -4 0 11 0 12 -4 -8 10 14 6 8 12 10 18 -6 13 -3 2 -3 10 -9 0 3 6 2 -2 2 -3 4 4 3 -17 12 -12 10 1 -3 16 8 7 -6 -7 3 9 -7 5 -1 -9 -5 2 -6 1 -10 -17 -2 8 -9 0 1 6 -6 8 2 9 15 12 6 85 85 155 182 180 187 183 183 192 183 188 189 203 187 183 186 180 198 192 181 191 180 207 186 182 187 178 184 182 189 186 190 186 184 185 187 180 190 184 180 193 203 189 191 170 193 186 197 179 185 191 189 189 188 193 192 190 191 179 189 187 185 191 193 185 197 179 188 203 192 189 194 195 197 192 194 192 194 185 197 176 190 193 194 181 194 180 194 197 190 186 188 197 183 193 199 191 187 194 191 207 186 197 204 198 193 192 185 184 191 200 188 198 185 181 190 201 194 189 199 187 190 199 202 188 202 195 190 192 193 188 189 187 187 180 196 192 190 187 189 199 194 195 184 181 202 209 202 194 184 176 190 188 197 191 182 196 191 195 190 194 190 197 188 183 190 190 195 192 190 187 193 207 188 192 185 198 184 192 200 187 180 197 182 189 169 188 183 181 181 190 179 180 181 186 185 189 179 187 167 185 184 178 172 179 178 185 179 183 192 188 186 177 182 195 181 179 184 193 192 180 178 183 180 182 183 194 189 187 180 185 171 184 176 183 176 176 125 111 59 42 15 3 -3 -7 7 6 -3 2 44 73 106 67 74 1 -8 3 5 3 -5 -4 6 -3 -5 -5 27 35 39 73 78 82 97 122 145 161 173 158 167 177 172 192 190 187 181 190 206 195 190 195 196 190 197 189 190 193 190 187 193 187 189 179 183 184 196 182 175 176 163 154 77 109 27 8 6 9 6 5 8 -2 22 5 9 24 -1 0 -4 11 6 11 -5 6 3 -7 3 0 10 6 0 10 5 -3 -9 11 -6 6 9 18 5 -4 -5 -2 7 -8 9 14 6 9 11 10 4 0 10 17 1 4 6 5 14 8 6 1 -10 8 -7 -2 14 -2 4 -6 2 3 0 -9 7 5 13 -5 0 3 -1 10 7 -2 9 -4 1 -3 5 11 -5 10 12 0 5 0 -7 -6 18 18 3 2 4 0 5 4 -1 2 -11 6 -1 18 2 0 -8 -7 -1 -8 2 1 7 -7 0 3 -5 -1 0 -6 -2 -5 4 -6 9 -7 -10 -19 -4 6 6 2 -2 -5 3 10 4 -8 2 -2 -2 
-5 6 12 -4 3 2 20 12 -1 -7 -5 -1 -5 1 -5 -4 4 -6 -10 -4 8 -9 6 7 7 1 3 8 -6 14 -3 -7 11 1 14 0 -5 -2 -7 4 -10 -9 -9 11 -5 5 7 7 4 2 5 7 6 9 13 5 -7 2 7 -1 12 4 -8 -2 3 2 4 6 11 10 -8 -7 -10 5 6 1 13 -10 -1 12 -10 9 -5 -7 -3 12 13 5 4 -1 9 9 1 5 10 8 -2 13 10 8 7 13 15 11 9 12 15 11 6 7 12 11 6 1 -3 14 0 11 9 6 7 3 -8 -9 1 6 6 10 4 -4 14 0 -2 -2 -8 -4 -3 -8 -4 8 4 4 6 -11 -4 -18 12 -13 17 -20 2 -6 15 -13 10 -6 -2 18 7 15 -5 -4 -10 -6 -9 -10 7 1 -11 -4 10 5 -2 3 11 7 10 10 5 11 8 19 87 90 177 174 171 177 177 188 179 185 179 187 188 191 195 186 189 181 189 199 185 195 185 194 191 189 175 183 188 180 188 191 194 187 174 179 186 196 192 198 199 186 183 180 187 199 192 192 183 200 186 193 187 190 181 181 182 199 194 192 184 189 180 194 191 185 191 190 187 190 187 188 185 186 195 202 189 193 197 183 194 188 188 185 188 188 185 184 204 196 186 196 188 189 203 207 189 186 198 185 188 201 197 195 184 185 193 196 197 202 173 189 187 191 171 205 196 207 193 200 190 200 174 189 195 187 206 194 187 183 194 197 193 190 190 195 191 192 188 197 188 199 190 197 187 180 200 192 193 189 187 201 191 195 195 197 203 190 202 194 192 196 184 189 202 199 197 184 196 185 185 203 185 196 191 190 173 190 189 196 199 183 178 183 193 190 181 175 187 184 187 185 180 187 171 187 180 180 179 188 166 181 176 183 181 189 189 184 184 187 178 181 182 177 190 174 187 183 180 185 183 185 180 183 177 167 173 179 182 177 187 171 179 190 176 177 174 149 120 59 46 22 8 -3 3 4 -5 2 -13 34 93 93 81 71 16 -9 6 -5 -3 -5 4 -6 -3 0 -1 9 0 -6 28 39 56 73 72 94 134 152 179 169 161 170 174 176 189 186 199 181 193 195 194 190 190 194 197 194 199 183 194 187 187 198 197 175 185 185 188 179 165 183 172 129 73 85 9 -2 20 5 10 1 4 4 17 12 14 6 11 3 5 5 1 10 10 -6 -5 -8 13 5 1 5 8 5 13 12 3 4 3 18 7 3 -12 6 -2 -9 21 9 2 15 13 9 3 2 1 1 8 -2 14 9 0 -4 3 -4 0 1 -2 15 5 0 -3 10 1 2 6 -4 5 -1 10 -20 9 6 -2 5 5 1 3 -12 1 14 -5 7 6 5 6 -7 4 1 0 -3 -8 6 -6 2 -10 -6 9 2 -10 -4 1 0 -1 4 3 -2 1 4 -8 0 4 0 -4 -7 -2 6 -4 -14 -9 -17 10 -2 0 -11 -12 -1 -10 2 -2 -1 3 -1 6 0 -4 -11 -6 -4 13 4 5 2 
-1 7 6 3 6 3 5 1 6 -6 6 5 -4 -3 -8 2 2 2 2 -5 -3 11 -3 -5 12 11 -8 6 -6 7 -4 6 -9 -8 -1 -1 -11 -6 -3 8 -2 2 -1 -3 10 -5 -3 4 1 1 1 10 -5 -3 17 -5 0 7 -12 0 -2 2 -4 7 -5 -3 -3 3 0 -3 6 4 8 -6 1 4 -5 0 4 -6 -7 -4 -3 5 0 13 -8 1 11 2 6 1 2 1 6 1 22 5 16 -4 17 6 11 -6 13 6 22 1 9 8 1 11 8 4 9 -2 3 2 13 3 8 0 3 11 5 1 5 -1 7 14 3 3 2 -4 -3 -2 2 -16 -8 2 0 -3 -7 12 -4 -6 -3 2 3 -10 -12 -3 -19 7 -2 1 -1 3 3 3 -5 12 -13 -13 -12 -1 1 7 -7 11 6 -16 5 11 4 -5 -2 3 7 1 12 45 103 114 182 173 184 176 174 185 194 184 189 190 193 184 193 181 192 199 190 182 193 197 193 185 181 208 187 194 191 189 180 181 191 197 187 189 189 197 180 181 190 183 193 183 188 185 198 195 184 189 185 178 189 189 184 176 202 200 200 181 189 191 182 194 188 195 190 191 176 192 197 191 199 192 195 201 189 197 191 187 194 193 195 192 186 204 190 206 191 193 182 186 193 196 183 193 184 200 186 194 199 199 189 187 194 207 192 193 180 191 189 187 202 197 193 193 197 190 198 198 190 183 186 191 185 196 198 186 199 194 196 195 199 191 188 183 191 197 192 183 186 198 191 194 205 194 198 195 183 190 187 187 205 199 194 198 184 189 196 183 199 195 200 193 190 195 188 191 189 194 189 192 200 196 176 195 191 199 188 189 188 185 185 187 189 193 179 187 187 184 186 186 187 182 183 178 188 183 179 186 181 179 181 186 179 183 188 170 188 177 171 185 183 178 178 184 177 178 182 186 180 178 178 181 171 184 176 170 178 174 192 178 176 169 176 163 173 152 132 89 37 22 6 -8 -6 6 4 4 1 20 70 84 101 75 16 -7 -8 -2 -1 -4 -9 8 6 1 4 1 19 -5 -1 -1 14 42 73 67 79 110 130 151 162 178 168 173 171 190 193 193 196 200 198 192 192 197 187 204 193 196 199 184 200 175 201 186 185 184 189 183 194 167 192 170 89 94 33 4 15 2 0 -7 23 14 12 0 1 8 5 2 5 -11 10 -3 1 -5 17 6 8 13 8 -1 2 12 1 9 13 6 -1 8 12 12 5 -7 -4 13 1 -5 6 9 8 9 4 -1 6 8 10 9 10 -6 -2 3 6 11 -18 5 -15 4 4 5 10 6 -1 -2 5 11 -1 -3 11 -1 -1 8 7 2 -3 6 -5 13 2 5 2 6 16 17 1 0 9 4 3 -14 6 13 -5 -1 22 -5 6 3 -12 4 6 2 11 0 5 -2 1 -1 7 -3 1 4 3 -3 7 -3 -11 11 -19 8 -4 -6 6 -13 -2 -3 4 -5 -1 7 0 -6 2 -3 -4 -4 -2 4 -4 -4 -12 4 
9 -1 3 8 3 0 4 -7 -15 8 -8 3 1 1 1 -9 3 -10 2 5 2 7 9 -3 8 -9 9 3 7 6 10 3 2 5 -12 -2 -6 11 -20 1 3 -1 6 -3 7 -2 5 5 4 1 -4 3 7 -6 10 5 3 4 6 -12 -3 -3 -5 10 -7 -4 -1 -1 0 -1 1 4 12 4 7 -8 9 -2 -2 3 -1 7 -3 3 1 -1 -6 10 -5 -2 5 0 3 5 -2 8 13 13 8 11 5 5 6 4 6 3 6 11 2 13 -1 11 -3 0 12 11 4 -3 7 9 -2 9 -10 -3 3 2 11 12 0 10 -2 1 5 3 12 14 -3 -6 1 -1 2 -13 1 0 0 -9 -7 -4 -21 3 -11 -1 19 -7 4 -1 -1 -8 0 4 3 3 -8 -5 -5 -9 0 -13 -1 20 -3 10 8 10 1 1 11 10 14 8 -5 51 74 143 169 169 177 188 181 182 178 187 180 178 185 184 183 188 191 196 188 185 186 183 203 181 196 180 188 199 193 184 196 184 187 198 180 190 177 189 183 187 193 185 206 179 187 196 204 185 191 190 185 179 193 195 184 190 185 195 198 196 188 191 180 193 183 194 179 186 189 203 190 189 206 196 180 196 204 184 190 193 195 188 193 189 188 183 190 194 188 184 195 202 191 203 195 201 187 191 186 191 196 190 193 191 193 191 190 197 179 196 196 191 199 194 188 191 186 198 197 176 184 193 196 182 196 195 181 191 199 187 181 192 190 193 196 186 188 185 196 199 191 193 197 199 196 195 190 190 202 198 201 191 195 198 194 200 197 185 198 198 189 187 181 189 194 197 184 206 190 188 184 198 190 184 188 185 179 199 194 203 185 197 188 188 194 187 185 178 171 183 190 175 184 188 196 185 189 178 188 178 180 182 186 184 187 173 192 186 185 182 185 176 182 184 173 188 180 182 180 179 185 187 180 180 165 178 185 186 189 169 185 170 177 185 173 188 174 162 131 88 72 20 11 -8 -1 -4 8 8 -7 14 64 90 103 76 43 -8 9 1 -2 -8 -1 0 6 -4 2 -6 3 15 4 4 -2 -6 8 36 64 91 78 107 142 144 160 180 170 173 182 184 194 194 193 187 175 188 193 203 196 194 201 189 190 185 189 182 183 191 185 189 187 190 194 173 114 98 66 7 14 18 1 2 8 0 8 9 -2 4 19 4 -1 6 -5 12 11 7 10 -1 8 12 6 11 11 7 7 -2 5 -3 -4 15 14 4 11 8 -5 3 5 4 5 14 2 12 -6 10 -11 -5 -9 11 -4 7 -9 -2 1 21 1 13 3 7 -6 5 8 -14 0 5 -2 4 1 7 3 -5 6 4 22 -4 2 11 -3 0 8 7 1 -10 11 -18 6 8 0 3 8 2 -6 9 8 5 -3 10 -5 4 11 -3 0 -1 2 4 -9 2 0 12 -18 10 -4 -8 3 8 -1 0 -1 -12 -8 -10 -7 4 -6 -5 0 -12 1 -11 -6 7 13 6 -3 -6 -4 -3 6 -3 -1 5 2 -2 
-9 7 4 -7 1 3 0 2 -8 3 -12 -1 2 -5 -6 7 8 -4 -1 -7 -4 10 10 -2 5 6 11 -7 11 11 -8 -2 5 -3 2 -1 -1 -4 1 -5 0 3 2 11 9 0 2 16 -8 12 -3 19 9 10 3 6 8 -2 8 2 2 7 6 2 6 -5 3 7 1 -1 16 3 2 -4 -11 3 -5 -6 -9 9 1 2 14 6 9 4 1 -9 -5 -2 11 2 0 2 1 10 8 11 -2 8 19 9 21 4 14 8 6 5 21 2 19 3 9 5 10 3 -1 1 1 13 6 16 -9 0 5 0 5 1 9 4 3 -2 -7 1 10 -5 -14 0 -4 5 5 14 8 5 -11 -6 -6 3 5 -1 2 6 9 10 -1 -4 -16 -12 -5 -14 -10 -4 -4 -6 -2 18 10 -4 15 2 12 -1 -2 7 -6 -2 9 10 -2 8 -6 91 80 164 175 175 166 180 180 174 187 183 185 180 176 195 186 195 197 185 192 187 188 185 182 178 187 183 190 198 193 191 195 184 182 191 191 176 184 179 177 183 184 189 184 191 181 187 183 179 191 183 188 183 197 195 172 191 193 183 192 184 196 186 180 174 192 179 180 193 197 190 178 182 182 194 200 197 187 192 182 197 200 185 196 185 195 195 181 195 197 197 190 189 198 203 201 190 195 197 193 194 194 193 197 199 201 193 196 197 200 195 189 203 197 195 190 193 192 207 191 195 182 192 185 190 192 188 199 192 186 187 189 188 182 197 201 195 197 187 191 173 196 205 199 198 191 195 192 188 190 191 182 199 193 198 206 202 189 193 197 189 200 189 186 198 195 207 189 191 195 185 185 194 187 191 189 187 184 182 192 180 182 184 180 193 193 174 183 189 183 179 176 186 174 175 183 176 194 178 177 185 189 186 184 173 187 177 184 186 187 174 196 178 185 178 185 170 177 180 179 187 169 183 176 180 191 178 175 181 171 173 175 192 182 184 172 178 169 166 147 115 53 41 6 3 -11 5 -3 1 5 0 62 83 114 52 60 -6 -5 -1 -2 4 3 -14 -11 -2 0 -6 11 5 10 5 16 9 14 14 9 32 68 73 71 123 154 158 170 166 172 194 190 190 189 190 194 196 200 199 194 189 196 188 192 185 192 194 179 181 199 184 194 194 177 178 151 81 91 8 6 13 7 10 7 6 -6 -5 9 14 -1 12 8 -1 11 3 9 22 3 11 20 -6 5 11 -6 6 11 3 2 -3 15 10 10 1 0 16 -9 1 7 6 -9 7 -1 0 11 5 7 2 6 -4 -5 11 13 -13 -2 14 1 -14 5 0 1 13 1 -1 -5 3 -2 -6 -7 15 10 1 14 -2 -5 7 -2 -8 -8 6 1 -2 9 16 -15 15 6 7 6 8 0 1 9 10 -2 -9 -5 -3 -1 0 -5 -4 -3 6 0 -4 -4 -3 2 -4 -4 -4 0 -10 -3 1 -6 -5 1 8 -7 -4 3 0 0 3 0 -7 -5 -8 -5 4 0 -2 -10 4 -10 -2 7 -2 -4 -4 8 -3 
6 7 1 14 13 6 -1 -7 -5 -1 -8 6 7 -8 7 5 -2 9 -3 -1 -2 2 -1 1 7 -4 2 2 15 11 0 1 -7 -5 9 0 -9 11 -7 8 -3 1 3 6 -1 -2 -1 5 4 9 12 5 2 0 15 3 1 6 1 6 -4 -1 9 7 -9 4 -6 -4 -6 -1 3 0 1 4 6 -2 0 -6 5 4 -7 8 -4 -3 -7 -3 3 2 -3 6 1 -2 -1 7 4 6 -2 17 -3 9 15 20 3 3 16 5 9 20 -1 14 11 5 -6 1 3 0 14 -9 9 17 1 -10 5 2 10 3 9 -4 -15 -7 -6 19 2 10 3 -3 12 5 -7 2 -1 -2 2 -8 -9 -7 -1 -8 3 3 -13 -5 5 -4 5 -2 -3 0 -3 -11 -8 -5 -10 -6 -11 6 -1 -15 17 4 8 20 8 -2 -5 0 1 1 11 6 17 89 88 163 164 155 177 189 180 178 184 183 178 185 178 192 178 196 197 195 181 195 183 180 194 188 177 184 189 197 188 182 192 192 188 185 180 193 195 187 190 188 187 181 191 188 183 189 196 183 178 185 182 197 190 177 185 181 194 190 188 187 176 196 177 183 184 196 198 185 198 192 188 200 185 197 180 188 186 184 185 188 189 193 186 189 193 185 198 195 202 185 193 200 203 194 188 188 199 187 199 190 198 205 193 182 182 200 198 195 179 187 189 205 185 192 198 204 205 177 189 201 194 196 194 195 191 193 178 192 196 190 198 194 188 181 194 193 186 182 196 195 188 196 197 183 185 201 189 197 194 192 199 194 202 203 188 196 188 191 196 192 195 198 195 189 204 188 194 194 200 176 197 191 192 186 187 191 187 186 173 184 194 185 182 185 186 197 188 181 193 176 192 176 186 192 186 182 180 191 173 178 181 182 176 181 182 183 177 177 180 184 185 178 180 191 188 193 183 191 178 180 179 181 183 189 168 182 191 180 186 165 192 173 186 191 176 172 179 179 158 113 64 56 -2 1 1 -3 -2 13 -2 -3 58 76 116 79 64 4 -3 3 -14 2 -10 -4 6 10 10 -4 9 8 1 11 3 3 -5 -5 1 22 18 57 71 83 99 139 159 171 176 172 195 201 196 186 187 202 190 188 196 195 200 204 195 196 200 188 185 190 175 201 184 201 185 193 177 105 104 46 7 6 -2 1 1 3 3 14 8 3 4 5 1 15 0 10 7 11 0 12 11 10 20 18 12 3 0 16 -3 5 11 11 9 5 1 6 7 -6 9 -3 14 7 0 3 11 -1 -8 -8 -4 -6 11 -5 1 0 11 -3 -7 -14 -9 0 2 7 -9 -4 -3 -1 7 8 6 -2 3 10 3 7 -3 7 13 3 8 4 -1 10 -7 -8 6 4 -5 11 8 11 -5 -4 11 -1 3 7 3 16 -7 -5 4 2 5 2 -1 -10 4 -6 -5 -5 2 -4 -7 -3 5 -8 11 -8 -10 0 -14 7 -5 -12 -13 -6 -4 -9 5 -8 9 -1 2 2 2 -7 -13 -8 6 1 -2 -5 -3 2 
2 0 17 -7 -1 -4 7 -5 -9 12 3 9 8 6 3 7 -6 -2 -12 3 2 10 0 -3 7 -12 1 11 8 0 7 8 12 5 0 -5 -5 8 12 1 6 -7 15 8 3 14 6 1 -6 2 -4 15 2 7 2 13 4 0 6 1 -2 1 8 -3 7 -9 5 1 15 -1 6 3 3 -10 0 16 3 9 -7 3 6 2 8 8 5 5 7 -5 -3 2 -3 7 -6 0 -1 -5 -5 -1 14 13 21 15 5 16 3 3 0 13 8 19 -1 24 12 3 3 13 13 4 9 0 13 -5 -2 5 13 0 -1 -4 -4 1 4 0 -1 1 3 -12 -21 0 -4 -6 -12 4 -5 1 1 -7 -5 6 0 6 -2 13 -9 9 -3 -2 9 -1 5 -3 -5 3 8 -16 -1 -4 -21 1 -9 17 2 3 11 -12 -5 4 -6 -6 15 4 10 83 95 175 168 167 174 172 176 185 183 180 190 177 183 176 200 203 188 182 183 189 193 190 194 192 210 185 184 198 189 196 192 192 200 183 191 206 195 175 174 183 187 198 184 188 194 195 180 186 180 191 187 182 188 183 188 184 191 193 202 195 192 185 188 184 180 193 190 194 195 186 184 195 188 189 196 187 196 186 195 186 187 200 181 186 191 191 196 187 206 187 196 193 191 202 190 203 192 202 202 193 205 199 190 204 200 198 197 180 192 200 183 188 195 190 192 198 189 194 191 190 189 186 186 191 185 192 199 191 191 191 194 188 187 182 193 191 199 190 197 193 189 195 198 194 193 190 195 188 199 189 182 200 183 184 200 193 194 203 193 187 183 204 177 202 187 193 192 195 195 197 183 195 179 191 181 193 189 173 184 187 184 180 184 183 186 186 178 188 185 188 186 183 181 185 185 185 178 182 180 181 188 173 188 168 175 175 181 191 184 172 179 186 175 178 182 168 197 167 182 189 185 191 181 187 188 186 178 178 182 183 183 184 192 187 180 171 175 171 179 121 61 52 8 -2 4 2 7 -4 8 1 44 69 110 84 75 25 -3 2 -3 -6 -3 -2 2 10 9 2 10 -1 -3 4 -3 7 -4 16 -8 4 8 4 33 59 70 83 121 145 163 180 170 194 193 190 195 198 194 206 192 194 194 199 188 199 185 192 191 183 192 195 180 188 195 177 193 124 86 69 11 4 1 6 -2 -1 6 6 15 1 0 -4 2 10 -4 12 -4 8 13 4 10 6 -9 17 6 12 14 6 19 11 14 10 0 15 3 3 -7 5 3 4 3 12 13 2 9 8 -1 8 1 -1 1 -2 11 10 -7 8 -16 -5 -1 0 -12 3 -2 5 3 -8 -6 -10 7 -13 6 12 -8 -1 0 -5 -1 -9 5 5 -2 5 -11 0 0 8 9 -1 5 2 3 1 13 3 -7 1 7 -3 0 -4 -3 11 5 -7 9 10 -12 5 0 6 -6 -4 1 -3 3 -12 10 -2 2 -8 -5 3 -9 10 -2 -9 3 -10 1 -6 2 -3 2 -3 -6 10 -4 -2 0 2 6 -19 4 13 
1 3 -13 8 7 7 -6 -4 6 1 -5 4 -4 5 -5 4 5 2 -8 2 1 13 -7 -1 -1 16 8 1 2 1 9 -10 6 0 10 3 12 19 5 -1 9 15 -2 4 1 -4 -4 3 -4 20 3 5 0 6 5 1 2 -2 12 -8 -4 0 -3 1 4 6 -1 3 2 4 -5 10 -7 9 6 -1 -8 12 2 6 -2 12 -16 9 -1 -4 -12 7 0 5 7 8 -1 2 1 9 11 2 7 8 11 8 6 2 -4 0 0 10 1 -2 12 7 1 15 17 1 9 5 13 13 5 3 -2 10 10 9 5 -2 -6 -6 10 0 3 6 4 1 1 -9 -14 7 -1 -3 6 -6 -7 -3 -5 0 -1 7 4 -2 12 2 -3 -4 1 -15 -16 -16 4 7 -10 -7 -5 -5 -1 0 4 7 1 0 6 -20 6 -4 13 8 11 -1 24 78 108 175 170 172 171 178 198 182 182 187 183 172 185 173 186 193 191 191 182 188 184 184 188 189 189 192 190 179 182 191 190 194 186 195 188 192 189 189 176 174 194 190 187 194 195 186 191 187 184 183 192 181 188 191 180 188 181 192 188 185 186 187 185 187 191 187 195 204 187 186 191 188 186 196 188 200 195 189 185 186 187 191 198 192 197 190 177 206 177 201 197 190 199 196 184 209 204 200 196 194 200 198 201 193 192 182 194 187 190 188 185 189 198 198 189 203 186 191 196 200 188 185 178 186 190 189 187 198 185 187 189 185 183 190 186 181 196 194 195 199 195 199 179 191 192 201 196 189 184 187 196 200 204 197 191 187 193 184 182 174 196 189 198 188 183 206 194 193 188 186 188 193 183 190 187 187 187 182 176 191 178 193 182 191 187 185 183 192 179 189 194 178 192 189 183 187 186 176 176 185 182 187 182 191 169 183 188 180 182 186 189 184 183 177 183 194 178 176 197 193 179 176 176 177 181 174 178 172 167 180 178 184 176 178 181 171 176 182 185 124 78 57 17 -5 14 -9 -3 5 5 -1 30 76 94 104 82 44 -1 -4 -6 1 14 -6 -6 8 -5 7 -2 2 0 -1 -1 6 9 0 -1 4 5 7 -1 14 57 63 79 109 148 161 182 180 191 185 199 184 188 190 186 196 194 202 185 193 195 178 188 206 188 182 193 183 196 180 199 160 84 89 19 6 10 6 7 8 -4 3 18 7 7 22 5 -1 11 8 5 9 5 11 11 0 15 12 -1 9 3 16 5 -2 0 10 -3 6 6 6 2 15 1 8 9 -5 9 9 7 -5 -19 4 3 3 1 2 -13 12 -1 -11 0 -5 -3 13 -1 -7 10 -8 14 -1 -5 6 -6 15 0 -5 -2 2 -14 15 -6 -7 10 -3 1 2 0 -11 -1 13 -1 6 14 -6 4 -3 1 9 -6 4 -2 3 -1 -2 -2 9 0 2 -6 8 -4 -8 -3 -2 -3 5 -5 -6 -18 3 -8 2 -3 -2 2 -5 -4 -6 -2 7 0 0 0 15 5 5 -4 -3 0 2 3 -6 -4 3 -10 -5 -1 -8 
-11 6 2 2 -5 -5 -4 3 1 0 3 0 5 4 0 -11 6 -6 11 8 -12 11 7 -2 10 -16 9 -3 10 9 10 5 4 -2 6 2 -7 16 10 18 0 2 1 6 11 2 -1 7 2 8 4 9 20 5 -3 19 21 -2 0 4 15 0 13 -2 2 4 -15 3 5 8 -3 10 0 -1 -11 2 6 1 -4 14 -1 -4 13 0 -10 -18 11 -3 2 -7 8 -3 18 16 3 19 1 14 2 -2 17 12 7 12 4 13 7 6 2 -7 11 11 5 4 7 12 -2 6 4 14 20 -9 -9 5 13 2 -6 -1 -2 0 0 -6 5 -6 7 5 -5 -4 0 -8 -11 8 -6 -1 4 -19 -5 3 -1 2 0 8 -2 4 -13 0 6 -8 -2 2 -2 -5 -14 5 -1 0 -13 3 7 3 1 -4 -7 -10 -32 1 0 -14 16 -13 50 78 122 180 174 183 190 181 170 192 191 185 186 190 179 182 194 192 193 175 187 194 194 185 188 189 200 201 184 190 197 194 190 185 190 190 186 182 193 187 173 181 194 199 192 194 193 190 182 195 182 179 195 179 189 171 177 175 187 200 191 197 195 175 193 193 191 193 185 193 191 194 190 192 192 195 187 181 191 191 188 194 195 197 179 195 191 202 195 195 202 191 190 205 193 189 195 194 191 194 193 195 194 194 196 197 190 182 197 193 179 193 191 191 187 183 186 193 200 206 195 186 185 196 195 195 198 192 182 197 185 188 185 186 200 180 189 195 178 190 196 195 194 190 193 204 192 186 196 192 184 188 191 195 194 196 189 186 194 179 200 174 185 194 183 197 194 185 186 193 201 196 190 190 182 203 184 188 175 186 186 184 182 189 186 185 186 203 188 189 184 188 169 187 199 189 179 188 168 188 179 171 183 179 186 179 173 173 184 181 189 180 174 177 173 195 186 182 185 184 188 185 191 179 181 183 173 185 191 168 185 182 170 174 191 184 177 183 190 177 173 143 94 63 27 -5 -11 -3 0 -2 7 -4 20 59 87 101 68 47 -5 6 2 5 2 8 -9 6 2 12 5 -2 2 -2 7 11 9 -1 8 1 1 -2 -3 10 8 61 81 64 116 159 165 165 187 195 193 195 183 195 200 187 196 199 183 193 178 196 201 195 192 184 200 194 194 192 180 183 96 99 29 6 18 -4 14 0 -8 -1 12 10 16 14 4 -7 -1 2 14 -5 4 11 13 0 -1 0 24 7 13 5 12 -12 2 5 7 9 2 11 -8 -7 6 19 2 8 3 -4 0 2 -3 -4 5 -7 -11 2 -3 2 5 -8 -14 7 3 -5 5 -16 12 -10 4 -4 3 0 -7 0 5 1 -8 16 2 7 4 11 -3 1 7 -4 20 1 -9 10 -5 -10 7 -7 1 5 7 -5 -12 5 0 9 13 -1 -1 11 -6 -2 -3 0 11 -4 1 -2 -3 -3 4 -2 2 -4 -6 0 6 3 -1 -3 5 1 -1 -2 1 -2 -1 -8 13 -5 3 -5 8 5 7 -2 10 -6 0 -4 -5 0 
-13 2 -3 1 -4 2 -1 8 5 2 -6 0 3 5 1 6 -3 6 3 14 0 9 -3 -3 9 1 -4 17 -3 -1 12 2 -2 9 12 -1 19 11 10 6 7 3 7 7 9 -5 -1 7 4 -4 7 2 8 3 1 10 1 11 11 9 -6 2 -4 16 -9 6 9 13 -11 4 -1 -1 -9 6 -7 10 9 1 2 7 10 5 8 -11 1 10 1 8 8 14 6 -10 8 6 15 3 2 4 12 10 1 4 5 7 12 6 -4 -4 -9 3 9 14 8 -7 9 -8 12 2 18 17 -2 3 3 5 16 10 4 0 8 10 -7 -9 3 16 5 -2 5 -12 2 0 -11 1 -10 5 0 -11 6 2 -1 3 5 -6 -4 -9 -3 8 -1 -2 -10 -7 9 -18 -11 3 4 -12 -2 -2 -13 -4 -8 -13 -2 -20 9 -10 -7 -3 -2 -6 56 73 139 176 171 178 187 174 184 185 184 190 191 178 183 183 190 175 187 192 192 177 184 183 198 182 184 190 192 192 194 188 197 187 180 201 184 185 185 183 189 192 192 193 176 193 181 193 185 191 180 194 196 183 192 192 190 188 185 196 192 183 197 185 192 199 187 188 185 190 183 197 192 186 196 195 201 193 182 199 197 194 190 195 195 195 188 199 184 201 195 193 195 181 185 190 189 197 190 194 199 199 192 189 200 189 196 195 189 203 193 197 198 191 192 187 189 187 194 190 179 203 192 185 181 196 199 179 189 179 186 184 192 199 187 184 183 191 190 192 184 194 202 195 189 180 185 194 200 187 186 198 188 192 187 200 192 198 186 195 187 194 193 187 199 187 201 193 200 183 200 191 186 193 186 185 195 182 195 193 187 192 191 190 173 184 192 190 185 191 178 188 178 193 178 183 183 183 181 190 179 194 180 189 177 174 186 180 181 179 183 184 178 170 193 189 192 181 174 173 167 194 185 178 166 187 177 179 170 175 172 187 182 183 174 182 186 170 182 179 173 158 102 78 38 -6 1 6 8 -13 5 10 2 72 84 125 84 76 5 6 -4 4 11 3 -6 4 10 -2 8 5 -3 1 14 4 6 7 11 3 1 10 -4 9 -2 9 45 68 68 117 157 171 179 194 187 193 203 174 193 191 200 202 199 179 189 196 188 195 209 201 187 188 186 192 184 204 111 100 28 7 9 11 11 -2 6 -8 3 6 4 4 16 5 8 9 -11 22 4 0 9 9 11 6 14 7 5 10 9 0 17 -4 9 7 -6 17 6 -3 8 -5 -8 4 7 6 8 7 -3 6 -3 15 -1 -1 12 10 0 -5 1 1 15 -10 14 -12 4 4 1 -4 0 1 7 4 -6 9 10 -1 -1 -4 -8 2 1 -5 -8 -5 3 9 1 11 5 -12 -2 -3 -5 -10 -7 1 0 -4 1 -7 7 -5 3 4 9 -1 -3 -1 -4 -4 -10 15 -5 -1 7 3 -1 2 9 -1 -6 10 -4 0 0 2 11 -3 1 4 -3 4 -4 -11 -5 -7 7 -2 -3 2 2 2 2 3 2 -11 
4 -9 2 -11 19 -10 -9 -1 5 0 -2 3 -2 -3 2 -1 3 2 -5 0 0 3 1 1 4 1 5 1 10 -4 -6 5 7 -7 -3 9 -7 1 -6 6 12 9 -1 -1 13 -4 -2 3 5 7 0 6 -7 8 -1 11 2 7 -3 -7 -1 4 -4 7 17 -3 2 -3 -3 2 -6 15 9 -2 -13 10 -7 -7 4 8 0 4 -8 11 3 -6 -1 3 -13 -1 -2 2 2 -1 1 20 1 5 8 8 9 6 4 12 6 17 2 17 -3 6 -5 12 0 4 -4 1 11 -14 3 16 5 -5 11 -3 -2 7 0 5 1 -2 5 -2 2 -7 -2 6 -3 -6 4 -6 -8 -3 11 -6 7 5 -3 5 7 -3 1 -2 -1 -2 6 -4 -6 6 3 -6 0 6 -7 8 -2 -5 -17 9 12 -11 13 3 -3 -7 -2 -7 -8 9 -1 -1 81 78 148 181 165 167 168 173 186 181 183 187 182 171 179 175 191 191 191 189 189 195 185 183 195 187 197 183 193 197 192 191 184 194 202 206 198 188 195 186 178 189 202 203 194 203 195 182 184 187 184 194 206 176 198 183 185 180 196 198 181 188 188 191 185 194 181 177 192 184 191 193 196 193 196 187 184 200 186 192 195 198 196 195 187 189 191 198 196 188 194 205 190 193 192 195 199 196 198 194 207 190 192 201 197 179 195 181 194 184 183 195 198 203 189 189 196 188 193 203 194 191 198 191 185 201 200 182 198 190 187 205 189 194 196 185 201 195 179 196 185 184 195 185 186 193 201 182 200 172 194 186 188 206 189 189 202 190 192 186 189 190 188 180 191 187 198 196 194 187 196 189 198 196 194 185 181 200 180 192 198 183 193 184 181 185 192 180 190 184 177 192 191 178 177 190 191 180 197 193 169 182 185 168 174 176 173 177 173 184 179 189 185 186 167 186 189 191 166 196 184 184 187 179 176 191 178 188 182 182 171 169 186 172 187 186 184 180 177 175 171 153 120 52 38 2 -7 -6 -7 2 9 5 6 55 75 116 73 81 -3 5 -3 0 5 -1 -12 2 16 2 4 -9 -7 -7 -2 14 5 8 2 -2 0 -5 2 7 -7 4 6 54 76 73 127 144 183 174 182 187 191 186 192 201 202 192 198 179 191 202 205 192 206 205 201 195 200 181 189 192 113 97 35 0 10 13 9 14 -1 0 -2 0 8 -7 14 12 6 -11 0 4 -5 -7 12 10 2 5 15 12 -8 -3 13 11 7 6 3 10 3 9 -3 6 -11 14 -5 1 -1 1 8 8 -2 4 -1 -10 -5 4 -9 -5 3 8 2 15 1 -13 6 5 -10 0 0 -2 7 13 3 6 1 1 -2 -9 9 2 2 0 2 -5 1 -4 7 6 -11 0 3 2 6 1 -4 -9 5 3 -3 4 3 5 -2 -1 7 -9 0 -14 2 0 -2 2 -9 -5 7 2 -8 9 5 4 5 0 -4 13 -3 -3 6 -1 -6 -2 -3 8 11 1 3 -1 5 2 0 -14 6 -7 -4 2 -9 -5 3 3 
3 -2 -5 10 7 -1 -5 -2 15 6 -5 16 5 3 5 -3 -3 -10 -5 9 8 0 4 12 2 22 -1 3 -4 -4 7 -1 -2 -5 -4 3 7 -2 15 10 18 15 4 7 2 10 7 3 8 9 7 5 -4 5 22 11 10 0 7 9 2 3 -5 7 18 12 5 -3 6 4 2 1 5 -7 0 -3 -10 7 0 9 -2 -10 -3 0 3 1 3 9 9 3 6 8 5 7 6 5 8 4 6 3 1 -7 -5 -4 13 16 4 -3 -9 8 -3 10 2 -6 5 10 11 2 2 15 3 5 5 10 7 -1 3 -9 11 -11 3 7 3 -2 5 0 12 2 -10 -2 5 -3 0 -10 9 -8 -3 -8 2 -11 -4 8 -6 -2 -4 -5 -6 -12 0 -2 -9 -11 -13 -2 -1 -8 -16 -12 1 -13 6 0 2 -8 -5 -5 5 -1 -1 -4 82 80 168 166 158 171 178 173 177 180 191 187 184 172 178 181 189 197 187 185 186 187 180 188 187 187 183 192 185 188 186 191 183 193 178 189 193 195 194 192 188 188 210 194 190 189 196 195 170 190 182 198 192 184 180 185 195 194 191 197 183 195 186 186 194 192 182 192 192 185 194 186 188 211 190 197 193 196 191 204 180 202 195 191 193 193 188 190 190 192 202 194 192 186 191 186 184 202 190 198 205 193 189 199 203 189 182 209 197 202 200 185 204 191 190 189 191 195 188 191 188 188 194 183 191 191 184 192 189 188 182 184 178 178 191 200 194 179 187 188 197 199 193 188 191 183 190 185 195 174 185 190 182 182 192 194 199 197 185 195 187 183 182 199 195 193 195 190 189 197 198 193 186 190 190 180 184 187 183 186 180 192 185 189 191 191 188 182 192 186 208 186 180 188 197 179 195 198 188 179 188 173 186 184 190 178 179 181 196 189 172 183 178 184 185 197 185 184 191 182 170 183 191 179 173 174 184 180 167 178 184 171 175 187 181 177 184 180 181 180 191 166 136 95 43 18 -6 -13 3 -3 -9 8 -1 45 89 118 91 82 26 3 3 -2 -2 9 4 6 -3 9 5 18 6 1 2 15 -4 19 -2 4 0 11 -2 -3 -3 -5 3 6 47 75 85 145 172 167 182 188 185 197 194 197 181 202 196 181 195 191 192 205 212 200 208 205 207 187 192 187 117 104 38 20 4 14 7 15 4 10 8 8 5 19 2 5 -2 -1 0 0 13 3 10 -9 12 2 9 14 -9 2 -2 3 18 13 -1 13 -1 -3 14 4 -2 -6 -1 0 1 5 6 12 15 -7 8 -1 -9 -3 -3 -1 -5 8 -5 -4 0 -6 -2 0 -9 1 -7 3 1 -5 3 -11 10 4 7 4 -12 1 -1 -5 -3 0 -9 -3 9 -1 -7 -8 -4 2 2 -22 5 -1 1 -1 12 -11 12 -3 -12 1 8 1 -3 -12 -13 -4 -7 -3 2 3 1 -4 11 6 8 5 5 -3 -3 -7 2 -1 -5 2 -5 -12 11 5 -5 7 -1 -5 -5 -8 2 -7 -8 -9 -7 4 -6 -5 8 -3 
2 -2 -13 6 -5 -4 -9 -6 -2 -6 6 -7 6 -1 -9 -1 5 -2 -15 -11 10 2 7 4 2 -3 1 7 5 11 5 5 -1 -4 0 0 7 5 -3 5 9 0 11 8 3 4 7 5 -4 16 -1 12 3 0 18 -7 9 11 2 13 -7 -1 18 -16 6 5 0 8 -3 2 4 8 0 -2 6 2 9 -6 10 0 -2 -7 9 5 -3 11 9 -8 -5 4 -3 11 -13 15 9 -4 2 3 13 1 12 6 15 13 8 23 -6 2 7 -8 9 2 7 4 1 -4 0 8 4 10 2 -6 -15 12 -2 -7 7 -1 12 -7 1 0 1 12 6 4 -5 8 -3 -2 -4 -1 10 -8 1 -12 8 -14 4 -6 -4 3 13 5 0 5 -14 6 -14 -6 3 -21 1 -11 -11 -3 -13 2 12 -7 1 8 3 -4 5 -8 -13 14 0 9 95 85 170 180 169 194 169 172 180 180 183 178 175 188 186 190 185 197 179 191 194 192 188 188 184 189 196 193 181 188 185 187 194 193 191 192 199 173 202 196 188 179 196 195 192 198 189 193 183 182 176 198 191 189 196 189 185 185 190 189 184 174 196 182 186 192 198 192 188 191 196 194 188 192 196 192 195 206 191 192 195 197 192 196 192 181 189 200 186 201 193 189 190 187 197 195 193 194 190 175 194 185 199 203 181 202 190 186 191 199 199 191 185 183 187 197 190 193 201 195 194 194 187 194 187 192 198 182 186 181 181 188 192 198 191 188 183 201 201 180 188 196 181 190 195 195 187 192 185 202 195 183 189 181 193 187 191 196 179 191 193 189 185 183 181 186 191 192 186 199 190 186 176 185 188 185 174 182 189 198 191 195 181 182 186 193 178 189 191 186 188 186 192 194 183 186 195 180 179 190 180 178 189 184 175 177 182 181 183 186 177 186 186 178 176 191 186 183 182 183 176 186 185 176 173 172 170 183 184 183 176 175 187 171 186 181 177 177 168 161 191 156 136 87 35 -4 3 -4 7 3 1 13 6 48 77 118 103 74 22 13 4 -1 -10 4 -2 -9 6 -8 12 0 3 1 9 18 6 8 5 11 11 11 -4 6 9 2 15 4 7 68 67 100 162 168 178 185 194 187 196 192 200 194 201 197 192 201 205 205 188 186 203 184 203 177 196 190 113 95 28 4 6 10 -15 14 5 -12 8 16 7 11 12 5 1 6 -3 4 11 12 9 4 18 -2 14 6 11 -2 2 1 6 12 6 2 10 6 3 8 -3 -7 3 13 -1 0 4 0 1 4 6 -5 -3 -5 -6 -6 5 -3 8 -7 14 5 -21 -4 -3 10 -3 -3 7 -10 13 11 4 2 6 -7 2 -1 2 4 -4 4 6 2 -9 -2 -11 8 0 -4 11 -5 2 -9 -8 0 -2 0 -4 -2 0 -10 3 -9 -2 -1 10 4 9 -1 3 3 -7 1 -3 -5 3 0 0 -3 -3 12 -10 1 2 2 -13 5 2 -1 -7 -2 7 -4 8 8 9 10 -1 8 -5 -4 -10 12 2 4 
-6 -5 5 -4 -11 -6 7 11 5 6 1 1 5 -5 -3 -5 -3 5 3 -2 4 21 12 4 3 17 8 -3 3 4 -4 3 6 2 2 4 7 12 9 3 7 8 -7 9 13 4 5 6 10 13 6 3 3 8 19 2 6 -5 23 -5 0 -3 8 -6 6 0 13 10 2 3 9 1 3 11 4 3 2 3 14 2 -1 3 3 -11 4 -1 3 13 1 -5 -1 12 8 1 -4 18 9 -2 17 2 -1 -6 17 -3 1 18 -3 -14 9 -3 -2 13 6 -2 -3 15 10 13 1 -2 -8 -8 3 5 0 1 3 -5 2 -1 -11 1 -1 2 1 1 9 0 10 -13 -6 -16 10 0 -6 -6 1 1 8 0 11 -3 8 3 -4 2 0 -18 -16 0 -1 9 -9 -10 -5 -9 -10 8 12 -6 -12 12 -12 12 -9 -5 1 6 -13 1 78 104 171 162 175 175 169 186 179 169 185 178 173 177 190 183 197 187 193 184 188 191 195 180 186 200 178 191 195 192 187 196 187 185 184 202 197 191 184 178 179 188 196 195 200 197 197 192 187 189 181 193 196 189 200 182 189 189 192 183 199 183 183 198 195 183 186 185 196 190 176 197 197 191 191 183 196 183 181 189 188 184 201 199 197 179 187 178 190 199 195 187 194 188 204 205 194 193 203 201 209 192 188 189 203 186 183 199 193 176 200 192 181 194 189 201 186 195 197 190 193 186 200 208 183 192 183 188 190 187 195 184 192 183 187 196 194 191 180 184 183 185 192 187 196 197 206 191 181 187 184 201 199 196 184 185 186 180 181 190 203 185 192 183 193 179 186 178 190 187 194 181 201 191 185 190 180 188 187 187 186 181 186 189 183 188 189 196 183 190 195 191 195 188 190 196 190 190 187 186 191 184 184 188 178 187 183 191 182 190 186 177 172 173 184 176 177 185 187 187 175 184 181 186 180 173 191 182 177 181 182 176 184 182 187 178 176 183 174 173 177 177 129 79 59 5 -2 -9 9 2 19 0 1 46 81 118 125 71 45 6 10 0 0 -1 1 0 3 12 6 12 9 -8 1 4 0 -4 -6 1 6 -6 7 12 5 8 1 7 5 29 71 70 136 171 162 178 181 188 200 186 185 193 206 182 191 197 200 202 208 203 193 200 199 179 177 202 129 93 36 -1 5 14 -2 -2 1 -2 -7 6 21 12 0 -6 -4 7 3 5 7 12 16 -2 6 -3 14 -1 -3 12 9 6 6 -3 5 -4 0 -3 4 -3 6 -5 6 11 -6 7 1 -5 6 2 -6 11 5 -7 -4 1 -6 -2 1 1 7 -20 -2 -17 0 -5 4 -7 7 -12 -9 5 14 5 -7 -7 -8 0 8 8 3 -3 2 -2 -3 -1 -6 -6 0 4 0 -8 3 0 2 4 3 -5 -7 1 -7 -9 0 5 2 -14 -11 -2 -2 17 1 -8 -5 9 -6 6 -3 -4 2 -1 0 3 5 7 0 12 -14 3 0 -5 -2 -6 3 2 -2 5 1 6 -7 -11 -6 19 -6 5 -3 -11 
0 18 -7 -3 3 -1 13 -11 8 -2 -4 -9 3 -8 -8 13 -1 -6 -3 7 -6 -1 11 12 6 7 5 14 10 5 -12 14 5 4 5 4 -1 2 5 10 4 -5 -6 13 8 5 9 -3 3 3 2 16 -5 -3 -3 6 3 14 11 -3 -4 2 7 11 -12 4 -6 19 0 12 7 -15 16 6 1 2 12 5 -4 2 9 -6 -1 -9 -2 5 1 -7 -7 1 14 11 12 7 -9 8 7 0 5 -3 -1 -7 1 11 19 9 0 -2 -5 3 6 -4 11 6 0 10 9 6 9 11 3 -9 -1 2 -4 6 4 -2 0 -6 5 -1 15 -3 9 -9 -5 0 3 6 -1 2 6 2 6 -12 -1 6 4 4 -8 2 -1 -1 -3 0 -1 -2 -10 -10 7 -11 -5 11 13 -10 -8 14 -6 6 8 -6 -20 1 4 -1 0 9 -14 10 84 96 184 173 181 172 174 188 174 178 187 183 182 174 193 194 190 197 191 190 189 192 181 196 184 190 191 188 190 194 182 198 175 183 203 196 199 177 198 187 199 196 183 180 189 192 192 186 203 192 188 185 183 194 194 186 184 183 197 199 180 189 180 199 192 190 182 186 186 195 189 193 200 193 179 198 193 197 187 183 200 194 180 199 191 188 186 194 185 190 201 191 193 195 200 201 190 189 191 203 193 183 184 204 198 204 193 183 197 194 187 196 193 196 184 195 190 198 197 192 191 194 200 189 180 181 187 192 193 177 179 189 196 194 196 190 192 186 181 196 178 183 186 186 193 189 187 178 196 188 182 189 192 179 175 189 186 183 186 193 191 188 175 196 198 180 189 186 187 193 184 194 191 193 192 176 172 191 188 201 194 184 189 188 191 191 182 191 183 184 186 180 188 193 190 174 181 183 190 190 186 162 180 183 188 179 179 189 187 193 185 180 180 180 188 180 186 184 181 186 179 187 181 170 177 188 174 182 189 181 168 175 174 185 177 179 180 177 165 177 185 162 137 96 68 4 -2 5 4 5 2 12 12 29 86 104 137 67 52 -7 10 -4 15 5 21 8 10 11 20 12 -1 3 12 6 15 2 6 5 -3 10 -1 -5 4 14 -3 14 -4 14 55 73 119 160 160 172 187 181 193 191 191 186 211 197 200 202 199 198 194 189 191 206 195 193 180 201 132 91 50 15 17 8 -5 14 12 5 -3 9 13 4 16 -8 3 -2 -4 12 -4 4 -1 7 -4 0 -11 1 5 -1 -1 -2 15 2 4 6 -6 5 3 -4 9 11 4 3 5 -4 5 12 1 8 -10 4 0 0 4 4 7 -2 -5 -7 5 -6 -8 -3 -1 8 -3 -14 -6 3 15 0 2 -9 8 -2 -6 -3 -1 -1 -7 -10 -3 3 -4 -6 -5 -12 -5 5 -5 -7 -14 -7 -1 -5 -11 -3 -11 1 0 -5 -1 2 -6 4 4 3 -1 -1 -5 10 3 -5 1 -3 1 1 2 -8 -1 5 -3 7 -12 0 3 -5 5 6 3 -5 0 2 5 11 -3 0 9 -9 -7 7 -8 -9 -3 7 
2 -10 -3 5 -2 -8 -3 -11 10 9 -3 0 -2 8 -9 3 12 -6 3 -4 6 -7 11 -18 13 1 13 14 2 -7 10 0 5 20 4 10 19 8 1 10 2 7 -2 12 6 8 7 -4 14 11 -1 10 4 -9 7 9 -8 21 -2 5 10 -14 7 1 1 5 4 5 -3 15 -1 13 0 8 -4 -9 4 10 3 0 5 2 1 2 -2 9 -4 -5 -1 -7 -2 9 7 -4 3 -1 7 11 -1 1 0 13 12 3 14 -5 7 5 1 -4 0 7 -5 7 4 -10 4 9 -7 5 -4 -1 2 -2 10 5 11 3 -8 0 13 -2 8 11 7 -3 -3 4 -9 0 0 -4 1 -2 5 -1 6 -3 -12 -1 -9 9 -4 1 -7 -6 -5 -9 1 -6 -2 -9 -6 7 0 -10 -13 -3 15 -15 -4 0 -14 -8 0 -5 -11 10 -3 10 69 105 178 175 159 178 177 190 178 163 200 180 182 175 182 191 191 200 189 188 183 191 194 193 189 186 194 187 180 182 193 199 188 201 187 182 195 179 201 192 190 194 195 183 202 183 187 193 191 189 199 189 184 187 201 184 191 198 200 203 190 180 187 193 197 183 190 177 182 185 201 187 198 203 204 191 185 192 177 189 194 184 192 196 192 183 185 186 194 185 195 185 191 197 197 184 190 206 196 180 196 196 196 194 193 194 177 186 184 183 193 188 193 195 186 183 190 180 203 190 194 188 185 189 196 198 180 189 191 197 187 181 182 187 192 176 187 179 187 187 188 201 195 185 187 192 184 197 182 190 192 187 189 194 182 185 187 187 179 190 179 186 184 190 192 199 193 187 176 182 194 185 189 183 190 185 187 190 189 188 192 188 185 183 188 199 191 194 176 187 195 194 204 179 183 187 188 186 188 197 181 198 191 180 183 182 188 191 181 179 181 173 182 186 191 187 187 181 184 182 179 168 188 186 170 174 198 186 190 169 162 178 185 189 178 183 185 182 173 177 182 173 146 112 55 32 -2 13 11 1 7 7 7 16 80 89 119 74 63 8 13 6 8 12 -1 14 0 18 12 1 9 3 5 -7 10 8 -4 8 8 12 -1 8 -5 17 9 8 -1 12 34 91 97 176 166 171 174 179 181 198 191 197 202 186 193 190 190 196 200 190 197 200 196 191 185 201 136 84 40 -1 23 -7 4 5 2 -3 10 14 10 9 -9 3 2 7 11 5 2 -5 2 -3 -11 -3 25 8 14 -6 -3 -13 5 8 1 1 10 -13 3 12 -1 0 1 0 3 14 -3 3 -2 5 5 8 4 -4 -1 -1 5 4 9 5 -19 -9 0 -6 -3 -5 4 0 -11 -7 7 2 2 2 -2 -7 -2 -9 4 -5 1 1 -1 8 -1 0 5 8 -24 3 9 -6 -6 -16 11 3 -5 4 -9 -5 -3 -1 -6 8 -1 9 3 8 6 -5 1 13 -3 3 2 -2 8 6 1 11 2 7 7 8 3 0 0 6 3 -12 -4 4 -11 1 13 3 10 4 5 6 4 -6 -4 14 14 6 
1 -3 -1 3 6 -5 -1 1 9 -8 10 -4 0 10 3 5 -1 -4 2 -7 4 0 4 8 3 1 2 8 11 -8 -5 6 -1 9 5 7 10 -2 23 9 24 9 4 11 7 3 13 -4 -4 2 1 12 1 12 1 6 1 4 -6 13 4 1 -1 9 8 3 4 21 -7 -1 8 5 14 6 5 15 8 11 5 -5 -2 -6 3 5 6 1 -2 -5 0 12 -5 2 2 0 11 -1 -3 4 -8 6 -5 -10 -4 3 -2 1 3 -9 9 0 -3 5 -6 -3 12 -11 8 8 -1 7 -4 -13 -7 6 -1 -14 16 6 3 4 -9 10 7 7 -2 0 5 1 14 4 -1 -7 -6 0 4 -6 -4 4 -4 4 -1 8 -2 11 0 2 -4 13 2 -5 -3 -14 -3 4 -7 -8 5 12 -1 5 -1 -3 -14 -4 -18 -2 -15 -3 -5 23 81 115 162 158 177 182 178 181 186 184 178 187 183 188 183 184 189 182 182 201 190 194 184 200 194 198 184 178 190 200 192 187 178 191 196 183 188 178 188 195 190 187 196 181 193 194 184 169 185 181 179 187 190 184 179 194 180 201 193 189 186 184 195 189 192 187 195 196 181 197 189 187 179 191 196 193 189 193 187 189 195 193 189 197 187 186 199 184 204 190 192 194 191 198 192 195 189 201 196 199 195 192 192 192 199 193 193 187 197 192 187 194 197 195 184 198 197 190 176 196 194 196 200 187 185 192 188 197 191 181 195 174 189 192 198 187 186 192 188 192 182 187 181 182 193 191 183 181 190 195 180 183 183 181 185 193 172 179 177 199 190 176 186 189 189 190 170 194 176 187 196 187 185 178 188 190 177 191 199 204 178 186 191 194 189 192 190 191 192 184 176 194 189 191 185 178 176 184 177 188 188 173 178 184 185 188 192 181 178 195 191 183 184 173 187 187 179 186 184 190 179 193 184 172 180 193 177 184 201 189 183 178 178 178 177 186 184 176 191 182 179 185 146 125 63 35 -9 -5 17 14 -2 12 0 18 68 88 124 75 57 6 15 4 16 7 1 7 15 12 19 0 8 6 6 0 -10 13 -6 13 -4 2 16 14 3 6 7 1 5 1 19 89 81 145 155 167 189 188 191 196 185 189 199 194 193 189 212 195 201 199 197 187 210 192 186 186 128 100 36 5 16 10 0 7 14 18 0 9 -3 13 -14 3 -5 9 -5 9 -7 2 9 1 2 11 5 2 16 5 4 0 8 0 -8 -5 3 8 20 -3 6 2 1 -9 -3 2 1 7 2 -1 2 -1 8 -7 12 -6 -1 6 -4 -9 0 -8 2 -9 2 7 -11 0 -11 2 4 11 -4 0 2 -6 -5 4 -6 5 -9 -9 -13 -11 -1 -6 -13 -10 -8 -2 -6 9 -28 -18 4 -1 0 -7 -7 6 -11 -12 -11 5 6 -11 4 11 12 7 -7 3 -5 -5 5 0 8 8 -8 9 7 3 -2 16 -4 19 -3 -2 -4 5 2 7 -4 -5 -9 6 1 7 -9 -6 -8 12 8 1 2 6 
-5 18 -2 -2 4 -15 -2 4 -3 3 -3 8 -3 2 -1 9 3 2 -2 -2 1 -9 -2 7 -2 -6 8 4 9 10 -12 -2 11 26 -1 10 16 8 -2 11 8 9 13 8 2 0 13 7 5 7 -9 8 3 -3 2 3 20 7 14 3 16 12 -4 10 5 7 1 -1 12 8 0 8 -5 7 0 -1 17 3 -3 -3 2 10 9 21 -1 -4 10 12 -1 -9 14 -13 10 5 -3 1 5 3 -13 -9 11 11 14 8 4 5 8 5 -4 0 -3 4 -2 6 3 -1 -3 -3 -9 6 -2 3 2 -10 -1 -16 9 3 -12 5 3 5 -5 7 12 8 0 -4 6 0 5 1 1 -2 -4 -1 6 5 -1 10 -7 -11 -9 2 0 0 -3 0 5 4 -20 1 -8 -3 -5 -3 -5 -4 -13 10 -1 2 -6 -8 -12 9 5 -9 -25 36 81 127 163 166 165 189 163 183 191 189 188 165 182 183 187 189 184 193 188 186 194 195 187 196 193 194 193 188 191 177 192 189 184 196 204 199 185 187 187 206 191 194 185 187 194 201 192 180 190 190 190 185 190 183 191 189 181 179 195 207 179 195 182 190 192 190 186 184 187 195 190 193 187 191 194 199 182 189 188 189 199 191 196 188 191 196 191 202 196 185 203 188 177 189 185 198 188 183 198 188 198 196 197 196 196 190 186 181 185 196 188 196 199 177 176 190 185 196 196 199 189 185 185 187 184 195 193 190 190 197 182 185 187 195 190 187 196 201 184 186 184 201 179 183 189 188 186 197 180 191 192 175 188 191 199 183 184 187 187 191 184 179 185 188 193 189 182 185 194 185 188 183 186 177 182 179 189 186 188 186 196 194 190 183 182 194 193 194 181 187 185 186 189 183 188 202 175 181 197 193 173 183 193 186 183 183 190 184 192 177 176 185 177 185 183 176 182 192 181 183 178 173 182 185 177 186 175 195 183 181 184 174 179 185 192 172 182 192 174 188 166 184 160 125 100 22 4 -3 10 12 -2 -5 2 2 87 77 125 80 72 3 12 6 12 17 1 -3 16 -1 4 19 -1 7 14 6 5 4 -1 3 1 8 -3 7 8 7 11 3 5 -11 18 87 77 153 153 161 183 174 173 201 191 199 189 201 190 188 181 202 187 210 201 211 198 187 190 182 124 116 41 4 14 -7 6 -6 -3 5 1 1 -3 5 3 15 14 13 2 4 -6 -2 -1 4 15 3 7 -1 4 -2 0 -6 12 5 0 1 5 8 -7 -3 5 5 4 -2 -6 -14 6 3 11 6 17 1 9 -1 0 2 -8 -1 3 -2 -8 4 3 -9 -1 2 8 -5 -5 -6 6 -1 4 0 -6 4 2 1 -4 2 -6 0 -2 -1 -7 -11 -4 -5 -2 -10 3 -9 -3 -8 -2 -3 0 -14 1 -2 4 -1 -4 1 1 8 6 -4 -9 12 -3 9 18 3 -8 5 -2 -7 18 2 4 -1 -7 -3 1 8 1 -13 2 8 4 -4 -6 3 -4 6 1 3 6 -19 -2 3 -9 4 -7 8 
5 2 -10 -1 9 -15 -6 0 8 -1 10 2 10 -3 -1 2 -1 -4 6 -3 6 8 1 -3 2 7 10 2 16 1 11 1 -1 8 12 6 18 2 14 2 -10 9 14 -5 10 3 9 6 11 7 4 6 11 11 10 14 1 -1 3 11 1 -3 1 2 4 -3 1 -1 6 -3 1 16 8 6 -8 3 12 -1 -3 6 -8 11 13 2 5 -1 -4 9 -5 -9 -1 -5 -5 0 9 2 -6 -5 -6 -5 -2 8 5 0 4 6 -17 6 4 7 2 7 0 -5 10 4 3 11 11 1 8 -1 -5 -9 4 11 11 7 7 -2 3 -1 -2 3 -1 13 5 8 13 0 -7 9 12 2 -10 -2 3 2 5 -2 1 0 6 -12 -4 2 -5 -6 -1 -4 -7 -9 7 -19 0 -1 -5 2 -2 14 -10 -3 3 -7 -5 -7 -8 5 -24 50 78 125 173 175 166 177 182 183 172 174 174 182 169 191 185 200 186 193 190 186 185 193 191 199 185 208 202 182 194 196 197 187 184 183 190 190 190 184 175 198 196 197 181 194 210 197 198 181 193 190 192 190 194 189 192 176 193 182 200 187 198 194 181 193 191 194 190 196 189 194 197 189 183 198 185 190 189 187 194 180 184 183 191 193 186 189 188 192 195 198 198 188 189 179 194 199 183 196 199 187 202 194 185 194 199 194 184 190 192 191 180 197 182 191 200 188 199 197 191 190 186 185 183 185 183 197 188 185 196 185 193 177 197 186 177 198 184 189 190 189 192 191 185 189 186 193 184 186 175 190 178 181 181 196 191 194 185 179 183 182 186 182 181 180 191 178 185 185 181 190 188 177 191 183 193 192 173 201 189 195 192 185 189 189 189 199 184 184 194 185 198 188 190 193 187 187 185 175 174 183 186 178 180 186 180 193 176 188 192 195 186 180 175 182 179 177 186 185 173 179 182 192 182 173 191 175 190 186 179 182 176 193 189 176 173 178 178 192 181 178 179 175 174 121 90 29 9 6 11 1 22 16 9 12 63 83 129 77 81 9 13 1 -2 9 8 -4 9 16 14 7 9 4 6 8 -4 1 -2 4 10 -1 9 10 1 6 -3 0 7 6 -3 79 84 148 151 166 168 180 189 196 205 189 204 183 187 201 196 195 202 203 187 200 210 178 194 194 111 95 25 3 7 -1 6 2 6 -3 -3 14 -11 -3 13 -8 1 0 -6 -3 -7 8 6 7 4 -18 4 0 10 1 -5 0 9 24 -1 -2 -8 1 1 5 11 -5 4 -7 3 12 -5 -6 -2 0 5 7 0 1 -12 3 -4 -1 0 -8 10 -4 2 -10 -1 2 -10 -6 4 1 -11 5 -9 -1 -7 -7 9 3 -3 1 -7 4 -7 -8 -1 -2 8 8 -14 1 -2 6 -11 -3 -2 11 -5 4 3 8 -11 -1 -1 12 3 2 9 5 -4 2 1 5 -2 3 -2 9 -5 -6 -2 5 10 2 8 -3 -5 5 -8 4 5 9 -11 6 7 -10 4 3 7 -1 -4 14 -4 -4 4 -7 -9 18 
-4 -5 -2 9 6 0 2 5 -7 2 -8 7 -6 -4 -12 2 6 -2 1 5 13 -8 14 11 -5 2 9 13 -4 6 4 11 2 3 4 15 3 4 7 11 2 5 -5 1 3 6 3 -1 7 -6 10 6 -3 -4 2 0 -3 12 -4 5 2 2 -1 2 4 7 1 2 1 5 -1 0 3 -3 4 1 -4 -2 7 5 13 -4 12 -6 9 2 -6 11 13 -5 -2 -2 3 12 -9 3 5 3 -5 -8 -2 -3 8 8 6 -1 12 -7 -7 -8 1 5 4 5 2 6 -5 -3 2 9 9 0 -6 -5 -13 -1 -3 -1 3 0 -6 3 8 -5 5 -2 10 0 -2 3 2 -16 6 -3 3 -11 9 5 6 -4 3 -2 0 -5 -7 2 -9 4 5 6 -4 -10 -1 -17 -20 -1 -4 -11 12 0 -11 -2 5 -10 1 1 1 4 -24 58 66 132 170 173 184 175 184 176 167 188 177 182 191 177 189 193 189 192 196 189 191 185 184 190 192 192 183 196 191 192 186 182 185 175 192 204 190 175 179 199 187 192 187 179 204 187 181 188 192 194 203 191 192 189 192 177 187 203 188 200 195 184 185 194 193 198 188 202 193 191 188 197 193 203 192 193 192 185 193 186 191 183 190 181 192 192 179 195 185 198 198 193 184 195 192 192 192 193 192 192 191 188 193 191 191 186 189 188 192 187 189 190 194 199 190 198 182 183 197 186 196 195 195 191 183 189 191 189 185 191 190 192 177 196 178 184 199 190 195 190 188 195 198 190 183 186 177 192 187 190 187 177 188 186 176 187 184 181 184 185 182 184 187 187 191 185 186 190 185 181 182 178 179 178 188 186 186 194 183 181 196 194 182 176 193 189 189 185 190 200 189 177 185 185 188 190 190 183 179 200 177 181 187 183 190 186 185 179 190 184 187 169 184 177 184 194 184 184 184 186 189 182 180 186 181 181 190 183 190 182 174 178 166 184 184 180 179 177 190 175 182 183 168 137 96 49 0 -7 7 9 -7 4 9 11 58 80 136 79 84 4 2 8 23 -1 16 17 4 2 6 16 3 0 17 -6 15 -7 2 8 -4 6 -2 0 2 10 5 -8 14 4 -6 86 94 145 164 158 176 182 186 193 198 199 202 184 196 177 191 198 197 192 204 196 192 197 192 178 93 110 18 -2 2 6 0 11 -8 16 -3 0 -9 5 7 -4 -7 -8 -5 -2 9 3 5 2 -7 7 4 9 4 1 4 -7 18 -7 1 -3 6 -3 5 12 3 23 3 1 1 -13 -11 -3 6 6 5 1 -3 2 -7 7 5 -5 9 1 -4 -2 -4 -3 -4 -1 -4 14 -1 -8 -1 -3 9 -7 -3 10 -4 -5 -7 -10 -3 -2 -3 -6 -5 -3 -8 -5 -7 -2 0 1 -4 -2 2 5 17 2 0 14 1 -12 9 -1 0 -4 -9 8 0 -5 3 8 4 2 2 16 0 -1 0 6 6 12 14 -8 13 -2 3 7 5 2 -2 2 4 3 11 13 13 -5 0 -2 -9 6 -5 10 4 -2 
-2 0 11 -6 2 -7 0 1 1 11 0 13 4 3 5 7 4 11 -6 -2 2 5 7 1 4 8 2 3 10 5 -2 6 9 11 5 12 -2 4 4 -10 13 6 14 5 8 8 2 -3 3 16 6 6 8 -1 9 4 10 10 12 16 4 1 4 9 20 -9 -5 0 7 -6 8 7 7 8 7 2 13 6 -3 -2 6 9 -1 -5 4 3 9 -4 0 -11 5 1 1 8 -1 1 2 -12 -2 -3 -3 8 12 -2 9 -5 -11 10 -8 -6 2 -12 0 5 2 0 -2 4 3 4 7 -8 -6 -2 15 4 -5 6 -1 2 -1 -10 -1 12 8 4 -2 12 2 -8 2 8 4 0 13 -4 2 1 6 2 0 -11 5 -5 -13 8 -7 11 10 -8 -9 -1 7 -13 -10 -17 -4 -7 7 14 -1 -19 -10 -7 3 -2 4 1 -23 62 72 137 173 170 175 175 170 181 183 205 179 183 170 180 182 186 176 180 192 183 186 192 175 201 189 198 192 204 175 196 191 197 188 188 196 188 197 182 184 185 190 205 192 196 199 195 185 179 185 195 193 194 181 195 191 183 187 184 188 200 188 193 185 193 190 191 193 189 187 215 185 202 191 197 191 190 192 196 200 192 188 206 186 192 195 192 192 190 190 191 193 185 202 189 186 192 196 193 182 194 192 182 186 205 192 184 194 182 183 193 189 189 194 197 186 195 193 196 187 192 182 191 189 195 190 185 181 186 199 184 195 195 179 187 191 177 192 190 190 190 192 179 184 185 193 176 195 185 184 174 190 187 185 185 182 183 186 189 189 182 182 180 179 186 190 180 187 194 182 169 185 186 170 182 187 180 182 184 181 196 181 189 175 198 197 188 187 188 191 183 187 183 180 186 186 197 187 188 185 189 185 196 188 195 194 192 190 183 185 196 172 177 187 185 183 187 189 189 177 186 198 188 178 185 178 185 177 178 182 174 173 185 181 182 164 176 185 179 192 186 177 160 178 147 88 41 11 9 7 11 0 8 9 2 54 73 134 88 77 19 -15 9 11 0 5 19 4 0 6 6 9 -5 14 11 5 -1 -5 -10 5 3 9 1 0 12 3 -5 4 6 11 88 75 148 167 162 181 175 197 200 190 196 200 190 191 196 204 201 204 204 192 198 202 201 195 173 74 97 9 6 8 -1 1 8 -4 9 0 3 -4 5 -12 -8 -6 2 -3 -1 -5 4 -1 -2 9 13 0 -2 -5 0 -4 4 8 9 0 3 -5 5 17 9 -2 -6 0 13 4 -3 -10 -6 2 2 11 4 4 11 -2 -7 5 7 -8 -4 2 -8 -1 15 -8 1 -2 -9 7 -3 6 2 -10 -9 4 2 -2 0 8 6 -8 -11 -5 -9 2 -5 -1 1 7 -16 1 6 -16 -2 -13 1 7 11 1 -1 6 0 -9 2 -4 3 1 3 -5 6 7 -3 14 -1 0 12 -4 -3 2 -5 14 20 -17 3 3 4 9 0 -8 6 -4 19 3 1 9 2 0 1 -7 1 8 -6 -1 1 1 10 
-1 7 -6 5 2 -3 3 -11 -5 7 -3 -5 7 2 9 -5 5 5 1 12 3 9 8 4 6 -1 13 2 14 7 11 2 8 0 15 7 5 10 -4 -4 15 -1 4 8 1 -7 1 3 6 18 5 13 8 9 -9 2 9 6 6 -7 7 -10 -1 -1 10 2 7 10 -1 1 6 3 -7 5 15 -5 11 -3 9 13 11 -2 -7 2 -12 17 -5 6 1 -5 -7 8 1 2 12 -7 -2 0 -4 0 4 -1 3 7 0 -5 -4 -1 -14 -9 2 0 5 0 1 7 13 2 -6 12 -11 -9 3 1 3 2 3 -1 -9 -2 -11 -2 -8 1 -2 1 2 -1 3 3 10 -12 -1 -7 7 3 12 -2 5 -8 -2 1 -3 -6 -1 0 -8 -4 -9 -16 -10 13 -10 -17 -15 -12 -5 0 13 3 -12 -2 -9 0 0 -3 16 3 -4 58 89 133 176 163 166 181 184 177 181 179 181 182 177 180 178 173 196 183 183 200 191 185 189 188 172 200 191 181 191 186 187 200 193 194 195 190 186 188 192 188 184 189 184 195 194 200 184 182 185 214 182 193 192 191 186 191 194 186 192 192 190 190 200 183 193 185 190 199 186 188 194 196 196 184 195 183 212 180 186 184 195 186 197 191 183 182 193 194 181 196 197 189 198 189 189 188 186 194 188 193 191 182 188 184 179 181 177 192 197 186 182 192 189 186 193 185 209 192 185 189 190 192 194 196 181 193 193 192 179 185 192 194 186 187 179 186 202 190 188 190 189 191 185 182 182 188 185 184 181 180 181 185 169 187 198 184 185 185 179 192 188 195 188 187 180 191 191 184 189 185 188 183 191 192 188 186 191 181 180 179 193 197 194 198 189 188 186 190 190 183 184 196 186 190 195 180 179 184 194 188 194 183 190 183 199 187 184 180 181 176 194 176 191 169 187 180 189 184 190 189 188 171 200 184 172 179 190 173 191 182 180 168 196 182 173 178 191 181 171 176 165 182 174 141 94 50 9 1 2 -8 10 13 -2 -3 29 93 120 89 81 14 3 11 12 14 1 9 -5 3 -4 11 10 5 5 -1 3 13 9 4 2 -3 4 10 11 9 5 -5 15 5 30 86 92 153 162 166 176 171 183 179 198 189 191 194 192 185 191 195 199 204 203 196 189 197 200 168 82 75 2 -4 -5 -5 0 -5 8 -4 14 -9 5 -3 0 4 11 5 11 10 1 6 6 3 4 -8 0 1 -5 18 -2 -8 4 0 -6 -1 13 0 9 4 7 -3 4 2 4 5 3 6 -6 8 -1 -9 3 -14 8 3 -1 0 -4 18 -1 3 -11 9 6 -3 -16 -5 -1 -2 -14 -4 -8 9 -1 4 6 2 -11 5 -3 -6 -9 -6 -3 -7 -3 -5 2 0 -3 -5 4 -3 -4 13 -10 2 0 0 4 2 5 -3 6 -1 -1 0 -12 5 -2 4 -8 11 -2 3 14 11 12 1 3 3 0 11 -3 8 1 1 3 -7 9 -2 3 9 0 -1 7 -2 1 18 4 5 4 5 -2 10 
7 3 -3 11 -1 -3 6 -4 9 7 3 5 7 6 -12 2 1 7 -1 2 -8 9 3 1 11 7 9 -2 8 8 -2 -3 0 6 19 -4 5 6 12 -4 1 -2 5 4 4 4 3 -2 -4 -6 -4 2 -3 5 10 -2 14 10 4 9 -5 7 15 10 5 6 16 4 4 6 10 3 7 6 0 8 0 11 2 1 13 10 -2 3 -3 8 3 1 -3 -11 3 3 14 19 -5 0 -1 -1 6 4 -3 9 0 4 10 -6 -5 11 2 -1 -7 -14 -1 4 0 2 8 -3 0 -10 12 1 -8 10 21 1 -1 -9 -5 2 -3 7 -9 -6 10 -16 1 2 -3 -4 1 0 5 1 -10 -9 -7 12 -13 -4 4 -8 -6 -4 2 0 -5 1 -12 -4 5 -9 0 -1 0 -3 8 5 11 7 1 -11 -2 9 -4 1 9 1 -16 53 74 146 165 184 156 178 176 194 181 181 195 173 177 182 181 183 182 182 187 185 190 196 188 189 201 205 189 175 189 184 180 195 196 180 186 185 190 202 191 198 185 191 191 188 208 201 183 185 192 187 178 189 190 190 199 190 183 193 190 202 192 194 200 194 192 190 187 186 181 183 200 197 185 185 196 198 187 203 195 196 189 194 192 180 187 191 187 188 183 189 185 186 190 199 199 189 195 197 188 190 190 190 181 198 194 186 189 185 196 190 191 199 185 193 187 185 193 195 192 194 192 180 193 190 195 187 188 185 176 191 198 192 197 188 183 190 191 191 190 184 201 192 182 196 181 194 187 184 188 184 184 194 189 192 182 182 184 181 180 180 177 184 183 195 191 200 190 192 188 192 184 198 198 197 179 176 179 180 185 181 185 190 194 182 175 189 192 190 190 182 192 179 188 184 188 187 187 195 187 196 179 186 189 193 184 188 183 194 179 191 192 173 179 193 185 181 184 179 181 180 187 182 181 176 181 187 177 203 183 182 172 186 182 172 186 179 176 178 172 168 193 168 183 150 97 53 16 8 13 10 -2 1 12 12 33 86 117 84 89 3 -3 7 0 9 8 5 -8 0 12 4 -6 15 6 22 1 -4 -10 -4 17 -1 -6 1 14 9 8 3 15 2 45 98 121 167 161 169 159 184 187 198 190 205 196 191 190 204 197 200 188 204 198 198 180 178 195 138 77 55 0 5 -10 0 -7 1 0 6 -12 -2 -8 3 4 -4 -2 0 -8 -5 -3 -6 -13 1 -2 -1 7 -3 -2 -6 10 -3 -10 9 0 -7 7 -2 -13 5 -1 -9 2 1 9 -3 3 -6 2 2 18 -3 5 5 3 0 9 -5 -2 -4 10 3 -6 -17 -7 -1 0 15 6 5 -11 12 4 -13 3 -7 -4 -4 -4 0 -6 -4 -1 1 -4 -5 -6 3 -13 1 -7 -8 -7 0 -13 -11 -8 6 -8 3 0 1 12 -3 4 -2 -5 -12 2 3 5 -3 5 6 8 -1 -5 5 5 2 8 0 -14 -8 2 10 -4 2 -3 -10 -2 7 7 -4 4 7 -8 -2 5 14 12 2 11 1 12 -4 
6 10 -3 7 13 6 -1 -2 10 -14 6 1 8 4 -5 6 1 -4 13 0 11 -1 -9 4 -1 6 2 -4 13 2 11 1 4 19 8 8 12 11 2 12 3 -7 16 9 7 6 -5 4 13 7 3 12 9 8 7 5 8 -3 5 11 7 3 -2 -5 3 2 0 -11 2 5 -6 21 10 16 0 -2 -2 4 7 11 -5 0 9 10 10 -3 -2 11 -4 4 -4 4 -6 -5 4 8 -12 2 2 -4 -1 1 3 -4 0 -4 1 -13 -11 -4 1 4 -6 -6 5 6 0 -2 -1 -9 -5 -3 6 8 -3 6 12 -11 0 4 -1 -10 8 6 3 -2 -2 10 -6 -4 0 -7 1 -12 2 12 -6 5 5 -2 -4 -4 -2 1 7 -6 1 11 -6 -16 1 11 -4 0 -4 -6 -10 -12 18 16 -12 -3 -9 0 5 -1 -5 3 -18 62 79 148 182 156 181 181 182 178 169 170 192 177 179 156 183 187 183 191 194 191 192 197 189 189 187 178 193 192 191 186 195 195 196 187 193 188 197 181 197 186 175 186 185 190 194 192 190 176 184 198 184 197 184 180 188 187 180 193 203 185 197 197 197 200 189 189 194 184 194 191 180 181 184 201 196 189 199 196 190 198 179 191 188 193 198 190 197 190 191 188 200 184 185 186 176 188 196 199 187 190 181 192 177 202 188 178 188 192 184 196 198 194 193 200 200 200 184 195 187 195 200 194 196 182 192 193 182 183 190 190 191 183 185 196 195 200 187 184 183 193 186 191 185 173 170 181 178 182 185 189 179 186 180 178 176 183 188 181 189 178 186 191 182 187 185 185 195 186 187 177 179 183 180 190 193 192 175 189 172 183 195 181 187 174 195 194 186 180 180 182 181 186 185 197 188 174 183 177 177 189 191 180 191 175 184 188 189 190 189 182 185 191 200 181 187 188 182 174 187 188 193 177 191 188 181 187 199 190 181 182 183 175 179 185 163 171 177 180 186 175 182 184 178 151 107 70 12 11 2 10 -1 -1 -1 5 33 86 103 98 90 9 -12 12 13 9 3 0 4 -2 5 5 3 11 1 -1 10 -3 -2 9 5 14 8 -4 7 12 -1 8 17 -7 67 96 134 164 155 163 179 178 167 187 188 195 194 191 192 185 212 198 196 205 184 196 192 188 187 120 96 35 -1 15 -9 0 7 3 -4 3 -14 -1 -7 7 -14 -4 -6 -2 3 -2 -12 -6 7 4 7 -1 8 -2 1 -4 0 -9 -6 13 2 -2 6 7 2 15 -5 11 9 -13 14 19 17 -2 7 -12 -6 6 1 1 4 8 11 -13 -4 -8 -3 -8 -2 14 -7 -7 -3 -14 0 0 0 -7 3 -14 9 -1 2 5 3 -10 0 7 -9 -3 -4 -5 1 -7 -7 -14 7 -14 -5 -2 3 -13 0 -4 4 6 13 3 -7 -4 -2 0 8 -5 8 0 -8 5 1 11 3 15 4 5 10 -4 3 10 8 8 13 -8 1 7 7 13 -6 -3 -3 2 2 0 12 7 3 4 12 5 7 11 0 3 
-8 -9 9 -6 -1 5 1 -5 0 -3 6 -9 12 7 0 -4 26 1 3 8 -4 -1 4 3 3 9 -3 6 6 6 14 5 -5 8 -2 14 8 7 8 4 1 19 -7 10 -3 12 8 -5 -8 10 -3 3 1 8 -4 10 6 16 8 12 8 8 2 14 8 5 -2 3 9 4 10 -7 5 17 -1 -3 -4 8 -3 1 -8 2 9 -13 2 -6 -8 0 12 -6 6 7 3 5 -10 1 11 3 -9 -2 -7 -10 -9 4 -2 -9 8 -5 5 -10 -1 -5 -1 -5 -1 -10 2 -11 10 -7 9 14 -14 -5 2 0 -18 8 -8 -7 -4 7 -22 7 10 4 -10 10 12 -1 -2 -7 -1 1 -6 4 -9 9 -7 5 -2 -13 -4 -3 2 2 7 -6 -4 -6 1 4 -4 8 4 -10 -9 -3 9 6 2 -24 0 -1 -4 3 0 2 -22 63 76 155 174 160 192 175 183 179 184 194 177 185 171 181 178 179 183 180 192 198 185 193 183 199 187 199 192 176 184 180 184 192 186 200 186 181 189 192 190 188 197 195 194 186 189 200 184 182 193 191 195 200 182 175 187 184 195 190 201 210 187 195 200 193 189 187 199 190 192 190 184 196 174 195 185 187 192 192 182 181 182 193 190 193 196 183 189 185 183 194 189 189 185 183 186 194 201 193 187 202 194 184 196 190 178 188 186 172 194 200 195 187 194 195 196 186 176 194 179 192 192 199 187 191 194 180 188 175 181 193 182 194 191 186 197 198 191 190 185 195 184 185 186 174 185 183 191 186 185 184 191 185 186 176 185 180 172 194 180 180 186 185 189 197 194 184 180 183 179 186 178 197 182 180 189 186 191 186 170 182 180 194 181 182 183 187 183 185 181 190 203 194 190 194 194 179 184 184 184 195 186 194 200 188 186 187 189 187 182 178 188 183 183 191 185 186 181 180 175 187 196 173 190 192 182 191 179 188 181 187 174 178 177 180 182 186 183 185 186 185 183 180 177 154 105 71 5 2 0 3 -9 11 4 -2 35 85 108 83 94 18 -17 10 10 7 9 -3 9 6 -4 3 25 -7 1 10 0 -2 -1 7 4 8 7 -4 12 11 15 4 11 16 95 83 152 168 155 162 163 187 194 192 201 185 185 211 185 188 199 202 199 202 202 183 208 192 193 96 87 15 -3 2 1 -1 -9 13 -8 -9 -7 14 -4 4 -5 2 -1 -1 -9 -4 -1 -3 -4 -12 10 0 2 1 5 1 4 0 -4 9 4 -8 1 -2 -2 -5 13 5 0 11 20 14 4 -2 -1 -12 7 7 0 -8 10 4 14 0 -5 -7 0 -2 -6 -5 -1 10 -1 -12 4 2 -2 -2 -11 -2 -9 -9 -7 -1 -3 -5 3 6 1 4 7 -2 -9 -6 10 -2 5 3 -3 -4 -4 1 1 9 5 0 0 2 20 9 4 -8 -1 5 -18 4 -9 -1 0 -6 4 -4 13 4 -1 2 6 14 5 6 0 10 -3 15 -2 -4 12 -7 13 -3 14 7 -7 -2 3 5 3 11 4 0 4 11 
21 -2 7 -2 7 -2 0 5 7 8 25 10 8 11 8 10 3 14 10 -2 7 3 9 -5 11 4 9 -6 1 12 2 2 16 5 11 -2 18 -3 -12 1 10 -5 15 6 15 6 1 5 5 8 2 -2 10 5 11 1 17 6 11 8 1 17 2 5 6 1 5 4 -4 5 -11 1 1 -5 12 0 10 3 -16 7 5 4 -5 7 3 -4 1 12 2 10 -1 3 -7 -5 7 12 -13 -1 3 -2 -12 -3 -4 -12 7 1 -8 -4 -14 -11 -4 -12 11 2 4 -10 -6 -7 -9 -1 5 10 1 -8 6 5 5 -4 10 -1 5 0 -10 11 -10 8 10 6 -4 0 -4 -8 -1 2 5 9 -5 4 2 0 9 2 10 -8 11 -8 6 -6 9 -7 4 -6 0 8 -6 10 -2 -13 1 8 -7 -9 -3 8 -4 4 10 -13 -13 79 84 148 183 164 180 182 178 176 186 180 175 175 187 174 175 185 181 181 194 185 206 197 183 198 183 194 190 188 188 189 194 184 193 186 199 183 196 187 200 186 190 199 192 187 201 202 180 171 191 198 194 189 192 195 196 176 181 202 200 183 194 193 201 193 193 191 201 199 195 192 185 187 181 183 177 180 190 197 175 191 189 191 184 188 194 177 193 187 195 186 192 198 189 196 187 199 191 189 189 183 191 185 193 190 188 183 189 181 197 198 198 189 189 184 182 182 187 198 200 205 199 202 181 197 178 189 179 184 188 190 186 189 190 189 187 195 200 187 187 188 185 173 177 181 194 181 185 176 175 177 195 184 186 181 182 181 181 181 185 186 185 182 186 167 195 187 181 183 195 183 189 177 180 173 185 181 187 184 185 181 175 196 175 189 185 176 209 189 183 197 194 189 191 194 183 185 181 193 177 179 201 189 181 185 191 187 180 180 186 183 186 186 180 180 189 179 177 184 183 192 187 184 187 188 188 180 189 187 189 184 191 181 186 174 180 203 188 197 191 185 188 183 175 148 100 87 18 1 0 4 0 9 -1 11 39 80 114 91 78 5 -11 13 10 0 11 -9 2 -3 10 -2 5 -3 -2 5 8 8 12 -3 6 4 9 7 -7 6 9 20 5 40 99 114 169 173 162 162 169 202 178 193 196 188 199 195 197 187 199 194 194 201 192 190 201 193 175 91 94 -7 7 4 -6 7 1 -3 -1 -3 0 1 2 9 -10 2 -5 -6 2 -1 -4 -8 1 -9 -3 2 8 5 3 5 -2 1 10 0 -12 0 0 12 -7 -4 4 10 5 3 -10 5 -7 -7 6 -6 5 1 11 12 6 5 10 2 -1 -3 3 -10 -3 -14 -4 -4 1 8 -13 2 6 0 -16 -2 -10 -5 -1 -5 -9 -1 2 -5 2 0 3 1 -10 -3 -7 -13 6 -5 -5 3 -12 3 1 6 3 11 4 7 -1 0 -8 3 -16 2 -1 -9 -16 -3 5 2 10 -4 -1 -2 3 3 1 7 -4 5 -6 -3 12 0 15 -1 8 2 10 9 3 -8 1 0 0 3 4 -1 2 -8 9 -7 
2 9 2 0 0 4 -6 11 -1 -4 16 -2 7 8 -4 7 9 5 11 0 -1 -3 7 5 2 5 -5 -2 16 0 7 5 10 -2 11 5 3 -2 8 15 -4 14 8 7 1 9 -1 -2 -9 9 12 9 1 3 8 4 13 0 11 -1 7 -1 3 6 13 17 2 7 18 5 2 3 0 13 4 -3 -2 5 20 0 -1 8 1 3 -5 -2 -13 -2 -6 1 -7 4 3 -2 -4 0 -6 15 -4 -6 3 -3 -14 5 -13 4 -8 -11 -11 0 -10 8 2 0 3 2 -3 -6 -13 2 5 4 2 -7 -1 2 1 6 13 -9 5 -10 4 -5 6 -3 1 14 3 10 2 8 2 4 -9 -4 0 1 0 -13 0 -5 -6 -1 -8 0 -4 0 8 10 8 0 -11 4 0 4 -5 -8 9 8 2 -2 11 6 -2 7 9 -3 -9 59 74 140 185 172 181 181 179 179 178 189 175 185 177 193 187 179 195 176 176 181 185 185 190 179 192 181 180 201 180 184 188 177 181 184 189 202 189 190 185 179 187 197 195 183 198 199 192 179 197 182 189 195 192 193 185 202 183 195 195 203 190 194 186 190 194 183 201 194 196 191 194 195 189 193 188 183 185 185 186 192 194 188 186 193 202 187 193 178 194 186 195 190 186 189 182 189 178 189 196 197 190 175 198 176 192 182 184 182 188 190 199 191 187 187 189 190 191 180 189 199 186 174 185 182 194 198 187 198 176 183 192 178 195 183 202 184 208 184 192 188 186 175 187 183 177 182 168 183 190 177 179 183 185 181 185 192 176 183 173 189 187 181 182 187 184 178 185 178 187 189 186 195 184 179 192 185 185 183 186 177 175 167 177 193 188 187 198 186 182 195 190 181 189 182 192 181 180 196 199 191 193 192 179 184 174 178 186 188 184 187 190 194 176 176 186 192 186 195 184 182 186 194 177 185 183 190 193 190 183 193 191 183 183 196 190 179 184 187 183 183 190 181 174 166 116 75 36 8 14 15 4 -4 9 -2 33 84 105 90 82 11 -4 -3 15 1 -2 -4 -4 -11 8 -2 10 0 7 16 -9 0 -4 -6 12 -2 5 -6 6 8 6 5 15 78 77 131 169 169 161 176 178 186 187 186 191 189 202 194 198 204 197 202 195 193 193 194 193 188 151 80 69 -4 6 -7 -13 -9 -7 3 -3 8 -16 2 7 -3 4 5 -17 2 -10 1 4 -7 4 -4 2 -9 -6 -4 -9 7 -3 -5 2 15 -17 3 5 9 2 -1 4 -3 0 -1 -3 4 1 13 -10 4 10 9 1 -1 -4 3 7 -5 -3 -3 -4 5 1 -3 -6 -1 0 -4 2 2 6 1 1 -3 6 1 5 -14 -2 6 -2 -6 2 -7 13 11 -8 8 -3 -3 -2 -6 -6 8 4 -5 -6 5 1 1 3 -8 11 1 -4 4 6 -10 -11 -4 -5 0 -2 4 -1 13 0 3 9 4 5 8 5 6 4 -9 -6 -2 2 2 15 2 2 6 0 12 10 5 10 -4 -2 8 7 11 6 -1 
-5 0 -3 0 1 -2 15 -4 0 2 14 -2 -2 3 13 4 13 9 5 -6 6 3 -3 -1 -2 6 6 -3 -13 3 13 0 1 7 -2 -1 2 11 8 2 11 8 2 2 -4 4 -9 -5 4 -5 0 14 -2 -9 2 4 -9 8 10 -7 11 0 4 8 -1 6 21 6 0 8 13 -2 10 11 4 6 2 4 4 -3 -4 10 10 1 5 -2 12 -6 7 -7 -8 -4 -10 11 4 1 6 -2 3 -11 5 4 -2 -3 4 6 2 -1 -3 -7 7 -1 -6 10 8 0 1 -9 10 -1 6 3 -8 -11 16 5 4 2 -3 0 8 -18 -1 -1 2 15 2 -1 5 3 3 -26 7 4 -5 0 -6 2 8 7 -1 3 0 12 -1 -2 2 -10 1 3 -6 4 -14 6 -2 -6 -5 -12 -2 4 -6 -5 -7 -4 3 2 -5 5 -12 65 84 150 171 175 176 186 177 181 184 183 185 174 184 189 181 175 184 187 186 193 194 194 173 200 183 175 184 177 195 174 186 180 193 195 201 193 201 195 194 192 179 197 206 187 206 200 191 179 188 203 200 197 182 191 184 178 197 194 196 183 190 195 190 184 198 176 190 196 191 195 179 201 194 207 188 204 194 184 192 185 185 199 179 194 180 187 192 180 198 191 188 196 182 184 181 186 180 195 184 175 188 191 185 186 182 189 203 196 190 186 203 173 189 182 183 185 186 192 195 191 180 188 194 197 182 176 188 201 190 190 184 183 188 190 188 186 175 180 185 192 200 189 172 189 183 176 189 185 188 187 192 182 190 186 176 180 187 181 189 180 185 177 186 184 179 188 174 194 177 191 184 185 177 195 185 182 170 182 184 186 178 185 177 184 179 188 189 187 189 200 167 191 180 202 187 185 183 176 188 183 188 178 184 182 173 187 186 193 192 183 184 185 181 193 190 171 182 182 177 183 192 188 188 176 189 190 181 194 182 189 187 184 178 180 186 195 186 182 176 183 177 181 168 174 140 69 33 10 9 14 -6 11 10 -7 39 59 108 100 75 13 -2 7 -5 15 7 0 8 -3 -2 17 4 -3 2 0 -8 13 -2 5 15 9 11 -3 -1 7 9 11 30 101 85 149 173 172 163 166 179 201 190 190 203 194 190 202 194 205 190 197 187 190 209 194 195 186 117 93 35 -1 2 4 -6 -9 12 2 -5 -9 -15 18 7 -1 -3 -3 -13 17 -1 -6 9 0 1 -6 4 3 4 -2 5 6 -5 3 3 13 5 6 8 0 -3 0 2 0 3 -17 -4 5 6 4 -4 -5 7 7 -2 1 1 9 6 -8 11 5 8 0 15 -1 -3 -15 -10 8 -5 17 -8 -5 -7 6 -9 -5 3 -6 -2 3 5 3 -11 -2 7 0 2 -8 -3 1 4 -6 -8 -6 -6 4 -8 -4 -3 16 15 7 6 -2 10 4 -4 3 -2 -11 -1 -5 -7 -1 5 12 3 -11 5 -2 1 7 9 5 6 10 10 6 -2 1 -5 -7 2 5 -10 4 1 5 7 -6 16 -5 9 7 12 4 
4 -7 2 4 4 -1 -4 15 6 2 6 12 -1 -5 15 1 6 12 13 16 6 4 20 10 -1 -9 6 11 -6 12 0 3 -2 5 10 -2 5 3 4 10 -3 12 -4 9 9 7 7 -2 3 11 3 7 3 4 12 11 17 4 7 3 9 1 -1 7 16 7 8 9 6 4 -6 12 -9 -6 -2 2 -2 -5 14 -4 -8 -6 -3 -7 7 -1 5 10 -7 -6 -8 8 -7 -1 -5 -10 -1 -6 -4 -2 -6 -13 -13 -1 -9 2 -17 -12 -7 -2 -1 -9 9 1 1 2 0 13 0 -2 9 -9 10 -7 -2 -10 -5 11 17 -6 5 -6 8 1 2 8 7 1 2 -6 1 7 -2 -5 8 5 -2 5 -2 -9 8 0 10 0 -2 -3 6 -2 -2 11 -4 5 -2 10 -15 3 -10 -2 -11 7 16 -7 -6 1 5 7 15 5 -22 70 91 141 175 168 180 179 179 181 176 189 172 172 180 187 181 192 181 183 183 180 195 183 195 178 187 194 178 189 195 184 199 191 181 175 196 189 189 198 190 180 177 195 198 185 188 197 195 171 192 201 186 188 188 183 194 182 192 204 188 188 190 185 201 179 193 183 193 188 182 194 195 184 182 205 188 194 203 179 187 193 189 180 186 189 190 192 181 190 178 191 188 186 178 186 186 191 189 196 180 193 184 199 181 201 191 183 184 191 180 188 191 183 193 182 183 186 181 200 205 183 185 197 183 197 181 191 199 191 191 191 178 177 192 192 179 174 196 192 197 189 183 183 178 177 184 194 175 172 181 184 178 180 182 184 175 187 197 172 178 180 189 181 180 192 180 189 198 186 170 191 180 184 184 179 183 178 188 196 183 191 183 188 188 188 181 200 182 196 183 191 174 184 183 186 177 187 195 198 177 193 175 179 180 179 180 189 186 190 178 194 191 194 175 195 192 189 175 195 189 182 197 179 193 192 192 196 187 181 188 188 188 191 189 182 179 187 178 183 180 184 177 189 175 179 107 79 44 11 0 -4 10 3 1 -6 30 86 108 84 79 5 -1 4 7 5 6 -10 0 2 5 2 7 4 -4 6 10 5 -5 -1 5 0 10 -2 8 14 6 14 56 74 113 159 170 172 172 184 185 193 188 201 195 193 196 202 194 198 194 211 189 206 194 187 192 178 89 91 6 2 4 1 -6 4 -1 -2 7 3 -2 7 -7 -2 0 6 12 -7 9 -1 -7 -13 10 4 -2 -4 -3 -3 -10 -2 1 -10 0 -1 2 -6 -3 -9 -14 0 4 1 -6 2 -3 3 -13 -9 -2 -1 1 3 13 -8 8 -5 -5 3 -2 -7 -7 4 3 -2 10 -9 0 3 -5 -3 -1 1 -6 -6 1 -5 1 -3 0 -3 -3 -6 6 4 -2 -2 -3 2 -7 -1 8 -3 -6 -16 2 4 3 5 -5 12 7 2 8 3 -2 -2 -6 8 4 1 2 -5 6 3 -6 4 -4 2 6 -6 16 8 -1 11 5 -4 -7 -2 1 5 6 7 7 8 8 13 6 3 1 2 8 23 6 4 2 -1 
6 0 4 8 -1 14 12 11 7 16 0 14 6 -5 13 2 15 -4 0 4 -10 -3 7 -5 1 5 1 2 18 -6 0 13 -3 12 -5 2 6 -3 0 -1 -2 9 2 17 8 6 0 5 -10 5 6 10 -1 2 -8 -3 3 2 6 4 6 6 6 8 -2 9 6 4 9 -6 6 7 -4 24 -8 -7 5 15 7 -3 -3 -3 -2 -1 10 7 -4 -5 6 1 -4 -4 5 3 -2 -5 6 -6 -2 -3 -4 3 2 -3 -10 -12 -2 -3 1 -7 3 -12 -4 -3 -7 -5 2 -6 -12 -2 1 4 0 4 -10 -10 11 10 -1 -8 -4 -8 -7 0 1 -5 8 12 5 -4 -3 -1 -2 11 4 8 -1 -7 2 -6 -2 -6 6 -5 -11 2 -1 -2 -2 6 -1 7 -10 0 0 -9 -12 5 -5 15 -2 8 4 5 1 1 6 18 -7 59 78 157 170 166 178 171 170 188 174 178 183 170 179 187 180 181 175 192 188 180 190 184 186 184 178 187 184 177 197 193 186 196 185 181 190 187 195 196 201 201 193 176 181 195 196 196 195 174 188 199 203 192 198 187 188 204 192 191 197 200 188 192 194 200 185 189 175 194 188 193 195 192 191 205 184 183 194 193 196 198 179 192 184 194 178 199 193 182 190 192 192 184 168 172 183 183 184 184 200 182 186 193 192 191 204 190 189 185 189 181 190 185 195 190 191 181 200 188 187 183 188 201 182 195 190 186 186 181 202 172 192 192 186 180 181 187 195 183 190 182 179 184 184 183 177 179 182 178 180 175 183 185 182 179 193 189 181 180 180 189 187 185 191 175 184 177 183 186 187 189 181 188 200 192 181 187 182 173 186 179 183 194 176 177 183 183 190 200 181 188 177 181 176 185 189 183 185 193 196 195 183 187 183 182 185 186 184 192 201 190 183 191 179 185 183 187 195 182 195 185 191 202 189 188 193 202 207 194 195 190 187 189 182 186 178 199 185 182 189 177 198 179 190 172 136 87 39 -6 9 7 11 1 4 -2 42 62 115 89 81 12 -6 6 10 -9 13 10 -8 -14 3 18 4 -2 1 0 11 -1 4 9 10 1 -15 6 15 3 -3 25 109 73 155 158 176 161 173 172 175 183 189 180 195 192 200 204 188 190 197 200 183 195 191 188 189 152 78 76 3 -7 3 0 4 3 4 5 2 2 -11 -2 -7 -7 1 -11 -2 3 6 -1 -1 -8 -10 3 0 0 5 -9 -5 1 -2 0 0 2 -10 0 -5 -10 8 0 -8 -14 0 1 -3 6 4 -4 -1 -2 0 -6 11 -5 7 3 0 -15 -12 -2 3 7 -4 4 0 -8 3 4 0 -3 -7 -9 -4 -1 -7 2 -6 1 7 -4 1 -13 0 -7 2 -3 3 3 15 -7 2 -6 -17 2 3 -1 2 3 -2 7 6 -2 2 12 -7 2 7 2 1 -1 2 -5 0 10 12 9 1 4 -4 16 -2 15 -3 7 4 -5 6 4 8 12 2 -3 2 8 -2 4 13 19 12 7 -3 3 9 12 12 -6 
-2 6 -2 10 9 0 -1 2 7 4 6 6 10 4 2 14 8 10 2 12 9 5 -5 -2 2 6 7 5 -8 -7 17 -6 8 7 10 -7 2 9 5 0 8 12 -8 -8 7 3 5 0 -1 1 2 0 4 -13 7 9 -2 3 2 4 12 1 10 -4 18 7 2 6 3 -3 -2 7 2 6 8 7 6 5 13 -13 12 2 -4 7 -13 -6 9 1 -5 0 2 -5 -8 -3 4 -6 4 -15 -14 -8 -5 5 -3 -9 8 -8 -6 -13 9 2 2 -6 -4 -2 0 1 7 -12 5 7 -16 7 -5 -10 -4 6 6 7 -13 -6 6 -2 -6 -6 -2 10 15 -2 -1 -10 -4 -3 3 6 6 12 -6 6 -7 6 -10 -3 4 -3 5 1 1 3 -1 6 5 0 12 8 0 1 -5 3 2 -2 0 -2 -5 -2 18 -2 6 2 -12 59 80 143 172 175 164 166 170 183 191 178 185 172 173 205 191 194 182 184 175 182 189 190 190 183 197 182 177 180 171 194 187 188 182 189 190 177 179 195 186 198 192 187 180 192 203 184 187 189 195 195 190 191 193 198 191 183 191 200 205 201 198 187 190 190 186 194 186 204 180 196 187 191 195 189 187 184 191 196 190 191 191 195 196 185 194 187 194 179 184 178 182 176 185 183 185 187 182 197 196 187 197 191 184 187 177 195 184 199 190 195 191 177 191 175 189 191 188 178 184 182 192 190 198 187 188 184 193 184 184 200 185 188 181 176 190 178 182 182 186 195 183 175 187 189 193 191 189 188 182 180 188 184 174 190 188 180 177 187 184 185 182 174 182 189 181 183 197 183 188 175 185 179 177 183 180 190 187 186 182 179 187 188 192 190 182 184 190 192 186 191 187 177 189 179 187 176 182 191 181 190 185 187 199 191 192 186 191 185 186 196 196 194 187 178 194 187 189 188 184 190 188 186 198 198 183 193 198 195 191 173 194 186 182 182 188 191 172 182 183 182 182 178 195 180 116 80 39 0 14 10 3 2 17 1 32 87 109 76 70 -7 11 7 -3 0 -8 -7 0 5 4 6 2 -6 0 2 26 -5 11 5 7 7 3 7 -4 -3 17 65 87 105 164 168 170 161 176 182 181 183 192 202 196 191 195 201 188 181 200 187 196 185 201 184 173 100 104 34 -11 10 -1 -2 7 3 3 -2 0 3 -4 -4 -9 3 -8 10 14 5 3 7 -4 0 -5 -3 0 0 3 -5 -3 3 -8 -3 1 10 -2 -4 0 1 -5 -12 -5 -5 -2 8 1 5 2 -6 2 1 15 -4 4 -12 -2 1 11 -12 -3 9 -1 -3 3 6 -2 -4 9 -1 -9 9 -4 -3 4 -7 -8 5 -2 3 -2 1 2 4 3 -3 9 0 -2 0 -11 4 12 5 -10 0 5 -2 -2 10 5 -12 10 -5 11 -4 4 8 -2 3 7 1 3 -7 -5 -7 0 11 1 9 10 -2 2 -1 -2 12 16 -2 1 -3 4 8 8 8 -8 -2 7 3 -1 2 14 1 11 5 3 4 3 7 
3 1 8 5 11 6 5 4 12 5 9 11 6 1 3 0 12 1 -4 1 8 0 7 6 -8 -1 9 -2 5 1 -3 2 -2 5 4 -2 11 -11 16 3 -3 8 5 -2 -1 -3 -11 2 14 3 6 7 5 -4 6 8 -7 11 8 5 9 6 15 3 -2 -2 -5 5 2 4 13 1 10 -4 9 -2 11 1 -2 -8 6 -2 1 9 -11 0 3 -2 -5 -3 5 0 4 2 -5 8 -5 4 -14 -5 5 -3 -2 0 -7 -9 11 -6 -4 -7 0 -7 10 -1 -6 -3 -1 17 -1 1 -8 -8 -5 0 -4 4 7 9 -2 -4 0 -1 -8 3 3 10 1 5 -8 -3 1 0 -5 8 3 3 3 9 0 5 4 5 0 -1 19 -3 3 8 18 4 6 13 4 9 -6 2 -7 -10 20 -8 -8 3 8 -1 14 4 17 13 3 52 90 146 169 175 174 189 181 180 180 178 192 171 172 176 183 198 176 175 185 178 190 181 181 182 185 196 181 180 185 181 180 177 183 201 186 191 183 175 187 192 200 189 184 194 198 186 198 185 198 203 199 181 198 193 192 187 193 196 204 194 193 203 185 192 197 178 193 195 179 202 180 191 187 173 191 186 194 191 179 194 184 199 185 194 184 190 185 184 182 182 188 175 178 182 177 181 189 188 180 195 179 195 183 181 193 191 184 200 191 196 189 187 178 195 189 183 191 189 189 192 200 194 201 190 189 171 180 194 180 182 189 188 189 180 171 179 171 179 181 181 174 174 186 171 187 188 174 177 189 179 188 183 182 185 184 183 182 179 198 188 182 186 170 174 183 182 188 170 198 193 182 177 193 196 188 180 188 179 177 182 179 182 184 173 181 183 198 193 179 184 180 186 187 182 185 191 186 187 189 186 194 198 192 182 191 176 194 188 183 203 184 182 190 191 202 196 197 178 183 186 190 200 193 189 192 203 188 183 172 190 190 189 187 178 179 188 192 179 177 190 172 181 176 174 133 86 37 9 4 5 -2 6 5 4 38 72 115 70 58 -3 4 9 -6 -8 10 -6 13 2 8 5 5 -8 12 12 -3 19 -1 5 -2 4 -5 -5 -2 1 23 97 81 138 166 166 170 167 167 171 180 180 183 192 193 189 209 190 188 188 198 201 182 203 184 192 165 76 102 15 3 6 -8 -16 -3 4 0 6 -13 -6 4 -3 2 -4 7 0 -4 -4 -3 8 0 -13 -8 -6 -6 1 -2 -6 -7 1 -3 -14 5 6 0 -16 -6 -4 -9 3 1 -8 4 -7 -7 9 6 7 -12 10 -4 -5 7 9 8 -12 -8 1 0 -7 2 5 11 9 1 9 -10 0 -8 15 3 -6 0 5 5 1 9 -5 2 2 -4 -6 -7 5 -1 -10 -6 -10 4 3 11 12 2 -1 -2 9 5 -2 4 4 12 9 14 2 2 -9 0 1 5 -1 9 0 8 -14 -1 6 5 6 -3 16 4 13 10 -3 -1 11 1 11 6 4 4 11 -2 13 13 5 9 0 7 10 22 -2 16 17 11 4 
-2 5 6 13 7 -6 3 10 1 13 14 -3 7 -3 10 11 15 8 -2 -6 5 4 -5 2 2 8 0 -6 5 -3 0 9 3 8 9 -11 16 -1 -5 -5 14 -5 1 0 -8 -6 13 8 -4 -4 4 1 8 -10 -1 10 6 -8 18 5 -6 7 -6 -1 -2 6 5 -9 5 8 -5 4 12 -5 -10 -7 3 13 2 0 5 7 9 0 -2 -1 5 -2 1 -6 -1 -10 -9 -1 0 -6 3 -8 -13 0 2 1 -8 -7 5 -7 3 6 -3 -8 -2 -12 -12 -5 8 11 -12 -2 -2 -5 -4 -1 7 -8 10 -18 -8 4 6 -4 -4 -1 7 3 13 14 -5 10 -10 12 -4 -4 -7 3 1 1 -4 6 10 -10 6 -9 -3 -13 -1 -2 2 0 8 8 2 2 2 -5 2 8 1 11 18 3 3 9 3 -11 4 -10 21 13 3 58 81 144 188 159 177 168 176 184 183 175 188 172 180 177 189 195 187 177 188 184 192 180 183 186 186 192 182 195 193 181 187 184 186 193 195 184 183 192 192 188 184 173 196 182 198 208 199 181 186 196 190 200 188 196 198 169 199 200 187 191 195 183 190 184 182 190 176 192 185 185 192 188 189 185 186 189 199 191 195 189 179 194 187 194 186 180 192 182 182 185 193 175 186 193 185 180 186 181 184 189 178 193 180 191 190 194 197 183 190 193 189 182 170 188 189 176 190 177 187 186 194 192 179 191 178 187 186 197 195 184 179 190 199 190 180 185 177 178 183 185 200 191 181 186 184 189 191 192 182 176 181 187 187 173 179 185 180 188 178 188 181 186 176 181 175 187 176 190 191 183 183 190 188 187 187 189 201 185 184 187 191 177 188 184 184 189 183 190 182 181 193 179 178 180 183 186 182 194 193 199 177 185 185 183 188 189 188 194 194 181 196 193 190 189 194 183 186 187 186 196 188 200 200 193 193 191 180 187 187 195 189 184 190 180 183 183 178 184 182 186 187 173 186 179 127 85 41 -6 10 6 -1 -5 3 -12 50 96 113 61 59 -24 26 -4 -5 8 -9 -22 3 -8 6 8 5 3 9 5 -5 4 -1 6 -4 -6 4 4 16 23 67 93 111 171 170 167 167 171 174 173 190 193 185 187 193 192 196 194 197 191 188 201 193 178 176 179 121 89 62 -3 11 3 4 -3 4 4 -5 4 -9 -3 6 -5 -1 -3 1 2 6 -1 8 5 -13 -12 1 4 -2 -8 -5 -11 4 -15 0 -2 2 4 24 -4 -13 -10 13 5 1 -8 1 -3 0 5 -3 -7 5 4 -2 13 7 6 1 5 0 -14 7 -6 15 -4 0 4 -4 11 5 -1 4 9 -15 3 -2 14 -14 -1 1 1 5 2 -3 -2 6 -3 16 13 -6 7 -5 9 -3 6 5 -4 -8 -5 -8 4 -3 13 3 4 1 2 -2 11 11 -7 1 -8 -8 4 -2 1 6 8 -1 4 12 14 7 -1 10 26 -2 6 4 6 -2 11 4 3 10 -5 -4 3 18 20 15 8 -7 13 11 1 8 13 
0 3 7 12 0 5 14 -5 7 -2 -1 13 6 -7 8 11 9 3 -6 -5 -4 5 1 1 1 -8 12 -3 -1 -8 10 2 2 11 0 1 9 8 12 -2 -7 -6 0 8 2 8 5 -5 13 7 6 6 3 -2 -8 3 3 1 8 4 5 -5 0 2 18 -9 -6 -2 11 7 15 -5 -2 4 5 -7 -2 -2 13 5 -1 3 9 1 -3 13 -8 -6 -2 -6 1 0 -5 8 -11 -10 4 4 4 -9 -1 9 2 -8 1 -11 0 -10 2 -4 -1 -4 4 3 -1 1 1 3 8 -2 -2 -12 -3 9 4 2 -4 5 3 -2 -8 -8 0 -8 -2 -4 1 -4 -9 -11 -16 0 -9 -3 -3 2 5 2 10 -3 -3 11 -3 -2 7 2 -4 -2 9 5 9 8 -8 -9 12 1 -1 4 11 10 4 3 13 27 1 8 10 4 1 57 85 137 178 169 176 185 180 181 183 177 178 174 181 184 170 193 189 181 187 180 182 196 183 180 186 187 187 189 183 178 180 174 176 171 197 184 198 180 196 193 195 187 173 185 187 195 189 187 180 199 186 201 182 185 181 189 194 185 201 193 186 189 194 189 193 195 192 187 184 175 195 184 192 184 185 187 194 183 196 185 197 194 177 184 167 186 177 189 193 180 186 178 178 180 188 179 178 178 186 194 184 190 183 195 190 185 193 193 188 188 190 183 205 184 189 181 187 189 188 190 189 186 181 186 192 190 189 173 182 189 182 190 189 181 177 177 181 192 183 186 179 177 190 189 174 175 189 181 189 183 188 186 190 190 179 192 182 187 187 185 199 176 193 180 190 186 190 186 180 187 181 185 195 192 193 186 195 184 193 177 185 192 189 185 188 196 182 188 187 179 186 192 176 193 190 178 184 182 192 181 178 190 183 188 184 194 174 192 193 187 198 193 183 190 185 189 186 186 195 198 196 189 195 183 196 201 187 188 192 183 182 193 185 184 189 176 190 184 190 187 167 188 180 176 132 83 33 6 5 -7 5 5 -6 -8 51 82 100 72 45 -3 11 -10 4 -2 11 8 -10 -6 7 -2 10 8 17 -6 10 -8 -2 -2 7 0 17 -1 8 38 100 75 148 164 171 159 174 176 172 177 170 184 177 196 186 192 193 206 188 187 207 191 193 183 182 168 77 99 15 2 10 -3 -21 -4 10 -8 0 6 -3 7 4 -10 3 -7 0 -1 8 -2 4 -13 -13 -3 5 3 -1 4 -2 -2 8 -11 3 7 15 3 3 -6 -12 4 -11 -9 -5 -1 -8 -1 -7 -1 9 4 -12 3 -3 6 -6 8 -8 0 3 1 -11 -1 -8 7 7 2 6 0 -4 -4 9 2 3 3 2 2 0 16 2 3 -5 -2 15 -1 3 6 8 6 -3 7 -6 3 5 -13 3 8 7 4 14 15 4 16 11 3 9 13 4 -3 -9 0 7 2 5 -3 5 14 -12 5 -1 -12 4 -3 14 11 17 -2 7 3 1 9 9 5 0 0 -1 14 -2 5 3 6 10 11 9 5 8 -2 10 15 
-2 3 14 12 -5 5 -2 6 6 -3 5 -2 3 16 11 4 15 2 -5 3 -9 5 11 -10 -5 0 3 -1 -12 5 18 -1 5 11 9 1 4 9 2 2 4 5 0 12 -7 4 -2 5 4 -1 -7 6 6 0 -3 9 5 -10 9 10 12 1 6 10 13 18 -5 -1 7 4 -1 0 9 12 -3 0 -4 11 3 -4 1 4 1 -1 6 1 12 0 -6 -1 -13 2 -12 -18 -10 -2 0 -6 -6 1 -13 -5 5 4 -9 1 -12 18 -14 -8 -9 -4 5 -6 7 0 -11 -7 5 7 7 -12 -7 12 -2 11 -7 -6 0 16 0 -2 6 -7 7 -3 3 9 0 0 2 1 1 1 0 4 0 -1 9 8 15 3 10 4 -6 6 6 10 -3 4 8 0 7 -4 -1 -1 6 0 14 13 -16 4 3 5 -10 2 10 7 0 46 83 117 172 158 175 167 175 178 172 185 179 181 174 188 180 175 185 190 180 198 188 178 185 169 178 189 172 176 178 178 198 180 177 192 190 194 186 194 197 190 188 182 185 185 182 184 186 196 187 188 197 202 185 182 193 190 178 206 201 187 185 184 178 196 196 167 188 192 188 181 188 189 193 185 176 180 187 185 191 192 190 185 188 177 184 195 186 179 186 180 187 180 177 174 189 186 190 181 186 171 184 185 190 198 185 188 198 178 197 181 192 180 181 179 184 182 178 176 183 183 194 176 182 196 178 196 194 187 180 198 178 190 180 178 179 180 180 180 178 182 182 174 175 180 181 186 181 194 194 189 190 188 185 178 183 183 185 184 185 194 182 181 185 185 180 183 180 182 184 194 188 181 191 196 183 190 183 184 203 196 189 195 187 189 187 188 192 199 178 179 187 183 182 190 194 188 181 193 202 185 185 186 195 185 192 190 177 184 192 175 193 190 197 176 184 199 190 194 195 187 194 195 195 189 188 178 180 172 172 191 195 190 189 180 179 174 174 189 182 190 188 187 166 180 120 88 51 6 -2 1 1 8 -7 6 67 91 99 67 35 1 17 -4 -7 8 14 -19 -1 -7 16 4 11 -15 11 10 0 -7 4 0 1 0 15 -4 29 84 92 118 162 170 165 173 170 169 181 180 191 190 181 185 185 193 184 195 183 192 190 192 178 188 197 143 78 91 -3 4 4 -6 5 -10 3 10 5 -4 6 5 0 -2 -3 3 -11 -3 9 4 -1 -7 -9 6 6 -4 0 11 -15 -2 -5 -14 -2 -11 4 2 -2 -5 -21 3 -6 4 8 -2 7 7 1 -2 7 -4 -1 0 -7 12 0 1 2 7 -5 2 -9 -8 0 -9 -4 5 4 3 -4 -14 7 15 9 13 6 -1 5 7 3 -1 2 1 -2 2 -4 9 0 12 -1 -2 6 -7 3 -3 4 -2 -5 -1 7 3 11 7 10 1 3 4 3 -17 3 -12 -1 -9 1 6 8 10 7 7 1 4 6 5 -3 6 9 7 2 8 -9 8 3 0 8 5 2 6 -1 -1 -1 18 9 22 -4 6 7 3 9 12 
4 13 12 6 5 -2 5 4 11 -6 7 3 4 5 2 21 2 -1 1 -3 11 3 1 7 5 5 11 -9 -3 -5 0 0 0 6 4 12 -17 2 1 -5 -1 0 -1 -3 7 5 10 -4 -4 1 7 -3 4 9 12 2 1 -4 6 7 5 0 11 2 3 0 -12 11 -3 9 -2 7 6 3 -3 -10 -2 4 6 0 6 -6 2 2 7 3 2 -4 -10 4 -1 -1 -14 11 -6 -1 -1 8 -5 -4 9 -4 5 -6 -1 9 3 -6 -8 -5 -14 0 -7 -11 1 -2 -1 3 -1 1 5 2 -8 1 12 2 -2 3 1 4 10 6 -4 6 -3 -1 5 0 4 5 0 8 -9 -5 11 -11 14 -5 8 11 -7 15 -2 3 0 -8 -1 -7 15 3 0 8 7 8 6 11 0 16 12 20 -4 -10 7 -5 9 9 8 24 3 54 74 139 168 168 179 183 192 179 195 188 177 163 166 178 183 187 186 175 186 175 184 182 187 189 173 176 191 177 190 192 176 184 195 187 187 186 178 190 182 184 191 180 184 183 181 199 195 182 191 198 183 194 187 191 180 184 195 180 194 187 186 191 184 185 191 193 187 172 191 194 183 188 197 171 196 187 180 183 183 186 189 182 182 189 196 188 182 173 187 173 175 188 190 184 190 176 192 189 189 184 190 192 185 178 193 186 192 192 175 183 185 194 195 183 191 187 183 209 194 181 183 192 187 181 184 183 187 189 179 188 189 179 186 187 183 190 187 172 187 180 182 193 190 194 176 194 183 187 173 188 194 186 174 173 185 188 180 183 188 176 180 185 182 187 185 184 201 190 188 179 195 184 185 197 191 176 192 179 183 187 192 171 186 191 188 185 190 181 190 193 183 187 198 190 177 183 186 186 176 175 196 175 187 179 195 195 183 195 189 195 192 195 195 191 196 179 203 193 191 191 186 196 191 186 194 191 184 192 187 177 188 179 185 177 188 185 188 192 191 183 184 187 185 181 126 76 54 6 4 -5 3 13 2 3 61 82 99 67 23 1 3 -5 0 9 7 -3 -1 -1 6 -3 6 10 2 -2 -10 5 0 7 2 7 -8 12 64 89 87 162 159 161 168 167 172 165 182 171 185 193 191 184 193 193 186 191 182 209 188 187 185 187 148 83 104 42 -5 5 10 -12 -9 -7 -5 7 -15 -5 3 -2 0 -4 2 2 -8 6 -3 -5 3 -6 -3 -15 -8 -10 -19 1 2 -6 -1 -12 -1 -5 -3 -4 1 -6 8 3 3 -18 3 -3 3 2 -6 -11 -8 1 -7 1 6 4 -4 -10 4 7 10 1 13 -6 -7 0 7 8 -2 7 16 -3 -13 -4 12 -6 -13 6 4 7 18 7 13 15 3 7 7 -7 5 -5 1 8 4 -7 18 6 -9 -2 19 -6 -1 17 1 -1 13 -2 3 4 -4 -2 -4 1 3 5 5 14 6 -1 -5 1 4 -11 6 -5 1 10 1 15 13 6 15 10 2 18 3 20 6 13 7 2 4 5 13 -1 4 4 15 11 -2 2 
10 10 3 3 -2 8 1 2 5 13 5 14 -4 8 9 -2 8 -2 0 -3 7 4 16 3 6 16 -2 2 14 -3 -5 3 -2 -1 9 7 -6 5 -5 -1 -6 -1 -1 -2 7 3 0 5 10 4 -6 -4 -1 6 -6 15 12 11 5 9 2 6 5 1 1 5 5 -1 3 5 9 -1 12 -5 14 -5 13 -5 15 4 3 -12 10 -1 3 -11 0 0 5 -3 3 -5 6 6 1 10 3 -5 4 -7 19 -6 3 6 5 8 -7 -3 -3 0 -5 0 0 -3 -14 3 7 -2 -1 5 7 0 -1 2 -4 -6 11 1 2 4 5 4 5 -9 -7 -3 0 4 -7 -6 8 1 13 6 -3 -7 -8 6 10 -7 0 0 6 13 9 3 0 11 -2 3 2 0 9 8 14 3 5 12 8 5 1 0 -3 20 -1 7 -8 15 1 35 71 138 167 157 168 181 160 159 170 185 172 170 165 175 188 187 187 184 191 187 187 184 182 171 190 195 171 189 170 176 191 185 192 196 176 192 190 189 187 199 177 187 192 188 190 199 181 177 189 195 193 187 186 196 192 178 187 192 203 182 199 186 185 197 178 188 191 188 190 191 193 188 183 185 172 191 172 191 201 187 167 188 182 192 181 180 166 177 187 195 178 186 181 188 181 184 169 187 179 190 183 182 192 179 177 188 185 180 186 181 198 184 189 185 181 184 176 171 185 183 186 167 185 184 185 187 185 176 192 174 205 188 183 188 174 189 176 170 191 191 179 179 187 186 186 180 182 189 180 193 195 181 190 193 181 183 180 177 184 184 193 183 183 179 189 177 188 192 185 185 183 184 197 184 176 179 184 186 188 183 182 178 185 180 179 185 189 193 182 174 190 191 186 182 178 192 184 189 202 189 180 185 193 206 187 179 187 184 188 183 192 193 196 196 194 192 195 175 193 201 195 194 193 202 188 189 190 189 192 186 192 194 175 179 187 187 182 184 180 182 175 181 183 174 122 75 57 -2 12 22 -2 5 -4 8 88 90 76 76 29 -1 -2 5 -5 19 12 -5 -8 -14 0 2 -4 3 4 -1 4 -7 7 -3 -4 -8 7 54 96 72 134 162 167 170 172 165 173 158 171 183 195 187 189 177 188 193 189 184 195 202 194 183 185 176 104 96 76 3 -8 8 -7 -6 -8 10 -14 7 0 3 -1 -4 -20 -3 -9 -4 3 4 -4 -5 -5 -8 2 -7 -3 -9 -3 -6 -10 -2 3 0 -17 2 -6 -6 0 23 -12 0 -12 0 2 -3 -4 -5 -1 -3 18 1 -3 6 -9 -9 -2 -3 3 -1 3 5 -10 -10 3 -10 6 1 6 7 -13 -8 12 3 2 0 1 4 7 6 18 3 6 9 14 8 10 -6 7 5 -1 3 7 -1 -11 2 5 -3 11 -4 6 -5 12 8 4 2 -9 13 -5 -2 -6 3 4 6 -5 0 5 8 4 11 11 6 0 0 0 1 7 8 10 4 11 3 8 5 23 -4 -2 -4 4 -4 1 9 9 14 -2 0 11 -3 -3 -2 
10 10 0 5 4 4 12 3 10 9 1 -5 12 5 7 7 9 4 8 -2 -2 2 -3 -1 2 -5 1 -1 7 -6 16 -9 7 21 -2 5 16 -3 0 -4 -6 5 -9 15 -4 7 0 7 -3 5 -2 6 1 3 -5 -4 9 7 -6 8 -5 -11 1 -1 3 -6 8 -2 -5 0 3 1 14 11 -3 -7 3 8 -11 11 -1 -7 4 0 -1 -16 2 -9 -1 -7 -8 13 -9 -2 9 -1 1 0 -3 -9 4 -7 -4 2 -11 -6 -12 -9 0 -12 -5 -7 -4 2 5 -10 7 -5 -5 -8 6 -8 -7 11 -4 -9 -5 -6 -11 6 -6 -1 6 3 -5 8 -12 4 -4 -6 5 0 -4 12 -1 8 -6 -9 2 2 4 -6 14 -4 11 5 -5 -2 9 6 3 18 13 16 0 9 10 7 12 18 -7 -5 -10 8 10 9 11 6 27 31 79 108 178 157 172 174 185 183 168 182 184 178 177 179 190 175 185 161 191 194 193 181 183 177 175 175 176 190 181 188 186 175 174 178 185 179 181 185 179 176 182 189 186 182 191 191 199 174 183 191 191 188 200 193 187 179 197 183 185 184 189 187 169 186 176 190 189 190 189 177 171 181 183 188 172 184 182 184 188 177 195 200 179 197 178 184 186 195 186 177 193 179 187 185 186 173 187 182 200 184 190 190 187 183 187 178 191 181 178 189 189 175 178 204 194 189 183 190 191 185 195 177 180 187 178 184 189 199 192 182 188 187 190 182 188 188 182 196 170 178 185 177 179 190 179 182 189 188 181 186 192 189 186 181 175 192 187 185 184 193 175 181 184 191 194 176 190 190 197 184 183 184 196 184 178 186 189 185 191 179 178 172 180 181 174 175 192 184 193 189 199 192 178 188 180 177 192 190 182 192 176 192 182 195 195 181 197 191 198 181 183 186 193 197 189 188 185 195 183 181 188 186 184 189 192 198 196 184 184 200 187 198 177 184 191 186 190 191 182 184 196 183 185 170 119 72 51 4 -10 -1 12 3 -1 24 74 104 79 84 18 7 8 3 10 -6 -12 -3 -8 -4 4 8 -1 11 20 -4 6 -1 7 -1 -4 3 49 86 65 125 161 157 168 149 168 171 165 179 175 171 186 188 184 191 193 196 187 194 188 197 194 184 194 141 70 111 27 -2 0 -7 -4 -14 -7 0 14 3 -21 5 6 -1 2 -4 3 9 9 -6 8 -1 3 4 -6 0 15 5 3 -9 -8 -9 -15 -2 2 -3 6 -16 9 -8 8 3 -19 -1 -4 -1 3 -13 3 14 -2 -6 -7 10 -10 3 -1 3 -7 12 0 2 8 1 -2 -1 -2 -2 4 4 8 6 8 5 11 -3 -4 -2 1 9 -11 14 0 7 6 5 0 -2 10 4 -1 -7 0 0 -2 1 -11 8 -2 10 3 8 2 12 10 7 4 13 -1 -3 8 -4 12 -9 5 -5 3 -9 -5 4 0 -1 9 -1 7 -5 8 -1 12 6 7 2 12 13 10 13 10 9 10 15 7 13 12 -2 6 9 1 11 -1 13 
2 14 10 14 16 -3 0 2 -2 7 6 2 6 -9 0 3 -4 1 -19 5 -1 7 -3 1 -14 5 6 18 6 0 6 12 -11 -1 0 13 6 -8 10 0 0 -1 7 3 -5 -2 4 -4 -2 8 6 4 -5 10 16 6 -3 3 -3 2 6 -5 5 2 -7 -2 1 5 13 7 3 3 9 -6 3 -5 -7 5 6 6 5 -4 3 2 2 -5 -6 -1 -2 -3 9 -3 -2 0 7 -6 -6 3 7 4 4 -8 -7 7 -3 1 3 -5 -9 -2 -7 -3 3 -5 -4 0 -6 6 2 3 12 3 0 12 1 -7 -6 -1 0 -3 -2 9 -6 -2 6 -5 6 3 3 4 7 2 1 6 12 3 9 5 18 1 9 15 -4 19 7 18 -1 2 -8 10 12 11 14 4 18 -7 5 0 20 2 0 -1 -7 -1 4 -2 12 10 1 45 78 98 163 169 161 164 176 173 177 174 172 168 175 168 178 182 192 175 176 188 188 180 182 188 178 177 183 170 176 185 191 187 177 189 187 187 190 174 179 176 194 190 185 187 183 192 189 193 174 179 193 190 175 190 185 178 181 190 203 181 177 182 188 190 186 197 193 185 187 192 181 188 182 193 181 187 180 182 182 186 186 182 184 193 185 190 185 180 192 195 193 183 186 184 178 191 197 190 197 190 190 191 173 182 190 179 198 182 178 191 194 182 192 178 186 175 195 190 184 190 171 178 185 187 183 186 174 187 189 176 192 187 187 185 191 191 184 172 191 185 188 183 188 182 188 185 180 195 197 188 194 200 185 191 191 181 173 197 191 186 193 187 182 188 180 179 188 171 184 174 184 190 175 184 183 171 184 170 182 176 181 182 182 185 182 186 186 184 190 186 177 186 181 192 184 183 184 194 189 190 187 189 180 195 192 186 181 195 194 194 190 181 188 191 193 192 194 182 184 184 186 189 190 194 193 178 178 197 187 182 187 192 181 184 194 188 191 182 192 193 182 184 178 166 115 77 46 -5 4 16 14 1 -3 26 80 107 73 76 14 -4 2 2 5 -19 -13 -4 -9 4 5 11 9 0 0 -7 0 -2 -5 5 12 31 81 80 117 152 164 161 161 162 161 171 174 165 170 184 191 182 188 184 191 186 189 177 187 185 191 181 185 93 106 49 9 -3 -6 5 3 -6 -3 -5 -8 -3 -4 1 8 -6 6 4 -1 -6 -1 -9 -6 -2 3 -4 -11 -6 6 0 4 -10 -8 -12 0 1 -10 -6 -7 -6 7 13 -11 -5 -2 -2 -1 3 -11 5 -6 7 6 5 11 13 0 5 3 -3 -9 -11 7 15 0 -2 5 8 10 0 2 -2 2 5 2 18 6 4 11 -1 9 12 0 10 6 11 1 5 -9 -3 5 -6 12 5 -3 1 10 6 6 -1 -2 7 -3 7 4 18 2 9 9 6 -23 3 5 5 5 0 -5 2 1 9 6 13 9 -5 6 1 11 -4 2 14 2 0 4 5 4 16 20 0 3 12 -4 -1 6 9 10 14 -2 -4 4 6 8 0 
-1 6 5 5 6 10 0 6 -1 6 7 -5 7 -2 5 7 15 -2 -4 6 -6 -7 -3 -5 10 -10 -4 -1 -1 -1 -5 -1 -1 9 -5 0 3 -10 0 -6 10 -11 9 -11 -1 0 7 -8 2 5 -1 1 14 -3 7 3 5 1 10 -18 -6 10 16 -1 -2 0 4 5 2 -3 6 18 -5 -3 10 -2 0 7 -8 13 -11 -1 5 13 -9 -2 5 -10 11 4 3 6 6 3 5 9 2 -1 -5 -7 -10 13 3 -11 7 6 -3 2 2 2 2 -6 3 3 -5 7 1 7 4 7 -3 0 6 -1 -1 -1 -7 -3 4 -10 9 17 9 -3 15 7 -1 -5 -13 -1 -5 0 -1 -3 6 8 -5 2 -6 -2 2 11 -8 0 13 -4 -13 16 15 8 4 6 4 6 11 10 -2 13 22 0 13 9 10 1 -6 8 -2 18 7 3 83 61 151 164 165 168 174 183 165 172 181 163 171 183 189 179 175 170 186 189 172 179 191 193 182 183 174 180 172 184 183 196 188 176 197 191 184 176 175 175 183 183 187 182 179 187 180 179 179 187 194 187 187 179 185 185 177 185 188 184 185 188 182 169 177 172 193 168 201 183 183 177 192 184 196 185 190 172 192 184 191 186 174 178 188 190 186 195 179 177 180 174 185 180 180 189 177 187 183 203 179 184 182 185 190 177 186 193 190 183 181 193 170 166 191 170 178 187 185 189 189 194 185 183 193 185 180 179 186 198 177 188 181 176 180 194 189 184 186 180 191 178 190 181 184 182 189 196 181 183 195 179 188 193 185 194 178 195 187 197 170 198 183 193 187 194 189 185 189 188 181 190 195 189 189 187 195 177 188 187 182 182 169 175 183 183 174 186 190 184 199 184 199 184 188 187 191 199 180 193 188 183 194 190 186 193 194 177 197 175 193 200 168 188 191 187 194 190 190 200 193 202 191 186 193 199 193 194 189 202 182 186 194 178 200 192 190 189 186 190 188 181 180 158 101 98 23 7 8 3 5 7 -4 47 92 108 73 78 -7 -4 -3 0 4 -4 1 1 -14 -3 5 -3 13 11 11 5 -7 4 -2 -3 13 103 81 113 164 170 163 164 157 163 165 172 183 183 180 178 190 187 184 178 188 181 188 188 195 190 193 175 114 76 93 20 -5 3 -2 12 -10 -1 -8 4 -6 1 5 2 -12 1 2 -11 6 6 7 3 -7 13 -3 -12 -1 -3 -6 6 -10 10 0 -18 4 -6 -3 0 -8 -12 15 -4 2 -20 -6 -4 -7 -1 -6 -2 0 -4 -2 -10 6 0 -6 -5 -10 -1 6 3 11 8 -2 5 5 13 3 3 -3 23 -8 5 4 1 11 7 -5 9 1 -7 8 3 8 10 1 1 2 1 1 3 -9 -6 2 4 17 -5 -9 -5 16 -8 -1 0 6 6 15 0 7 2 -1 5 -2 4 -12 3 -5 4 -5 -6 4 4 -4 8 -3 3 -3 3 2 0 14 2 -3 17 12 1 3 13 2 17 6 9 -3 13 14 12 -8 7 11 6 -6 13 
9 1 1 5 5 4 -4 9 0 9 6 10 1 1 7 8 0 1 -5 -5 0 8 2 3 6 6 -5 9 1 12 6 -2 21 -2 -1 -5 -4 0 -7 -12 -3 9 10 -1 -4 -2 -1 -5 3 2 -4 8 7 7 3 2 -11 1 -4 7 -2 -10 0 -7 6 -4 14 4 4 2 12 -6 0 7 2 -5 -1 10 1 2 2 -2 4 2 10 7 -2 1 1 -8 6 1 5 -1 4 -3 5 -1 0 3 1 -7 13 1 14 -5 4 8 10 2 5 3 12 -5 -1 -3 -9 6 3 -16 0 -2 -2 1 2 0 -3 -4 -6 -12 2 5 0 -3 4 -4 6 -2 -4 4 -7 6 0 -4 4 8 -1 12 11 0 -3 -5 9 1 16 7 5 0 3 4 7 6 5 9 16 11 7 4 16 8 -8 -3 -2 -3 -5 7 -4 9 3 8 58 86 122 177 168 166 179 184 173 167 177 165 174 180 182 172 177 186 173 188 183 183 178 177 188 177 177 192 187 190 188 188 183 184 192 192 184 173 192 180 182 188 189 181 192 187 189 182 173 180 185 185 187 192 185 187 178 192 185 181 186 180 175 188 190 175 190 180 178 192 182 197 185 180 185 179 182 178 182 189 182 183 188 182 181 198 189 193 182 173 182 192 192 180 185 187 185 191 185 185 198 186 194 189 187 193 181 170 185 188 182 183 184 178 180 172 193 183 187 181 192 191 185 186 184 177 188 180 184 173 196 188 180 183 192 178 181 191 176 186 188 182 190 193 181 197 187 191 189 189 196 186 184 192 187 193 177 178 183 186 185 189 184 176 186 180 193 191 188 181 182 189 193 180 182 173 188 174 191 175 180 190 187 189 189 190 193 175 173 190 189 202 190 170 188 179 185 188 191 185 193 181 187 191 194 197 195 198 184 195 196 188 182 183 190 178 190 195 185 199 197 195 181 181 191 181 192 187 194 184 187 186 178 187 190 182 194 187 185 190 173 188 167 162 102 84 36 -2 5 -10 2 2 -13 57 91 84 69 61 -9 -5 4 -6 3 -6 1 1 -6 7 8 -1 -1 -11 2 3 1 8 8 20 88 83 89 151 166 169 154 162 171 162 163 174 167 179 171 177 182 180 190 182 188 192 192 187 181 173 184 144 87 110 27 9 5 4 11 -10 15 -15 -6 -5 -3 -5 -8 -3 -7 0 -1 6 10 -1 -8 -8 7 5 8 13 -15 1 -7 -2 -12 -2 -13 -8 -15 -10 -3 -4 -2 -4 -6 -4 -4 7 -1 -10 -7 -5 4 -4 -12 2 -5 7 -12 5 7 2 12 -6 6 -14 1 11 3 -1 -4 -1 2 -5 3 4 -4 3 10 1 -8 16 2 -9 6 0 9 3 -1 3 18 7 6 5 3 -5 5 -1 3 2 6 15 10 -3 10 -9 -1 -3 1 14 -4 14 2 6 3 -5 1 7 -5 6 5 9 10 8 -3 9 13 8 4 6 0 4 6 -3 -3 0 6 6 3 22 7 7 1 3 22 -3 5 3 -4 8 10 1 4 8 12 2 
7 5 0 -2 12 6 2 1 6 7 4 -1 2 -4 10 -1 21 1 -6 -11 4 10 -11 3 -6 10 -6 1 9 -5 9 6 -2 8 -3 7 6 4 -3 8 4 -7 4 -13 -7 -4 -1 -3 -7 -2 2 5 10 -1 9 5 16 8 8 -2 5 6 1 8 -3 21 5 -4 19 -9 8 0 3 -4 1 3 -8 5 1 -8 8 -3 5 -3 6 5 4 -4 6 -6 1 3 9 -10 -1 0 7 9 2 3 -5 12 0 2 -6 -9 9 13 17 -1 1 -5 4 -2 0 -10 14 5 -3 -5 -1 5 -13 8 -17 -1 -4 -5 -7 6 -6 -6 10 1 -8 9 13 -12 12 1 -4 8 -8 9 -6 -10 -5 3 -1 -2 9 6 9 7 -7 12 17 0 12 0 15 11 1 4 11 2 11 1 10 16 -5 3 1 7 -3 -14 5 22 11 0 49 67 133 143 161 161 169 170 160 182 167 169 167 179 177 173 183 175 173 175 178 175 176 191 180 176 177 179 173 180 189 195 187 197 175 188 184 187 190 190 186 183 172 181 174 185 189 196 179 179 183 177 184 179 194 189 177 190 187 193 178 185 185 178 180 193 181 186 186 190 183 186 185 184 187 192 194 180 179 182 192 185 185 192 191 192 188 175 183 202 193 173 196 181 178 180 186 186 182 186 187 190 183 200 182 192 191 191 184 183 189 181 177 187 176 183 173 176 186 184 189 179 188 176 190 185 177 189 188 181 186 177 176 181 174 195 182 181 185 174 191 197 181 182 186 193 206 189 197 186 194 180 193 192 196 194 188 195 179 190 189 187 181 190 185 195 183 192 181 181 191 177 185 171 191 181 175 178 188 187 185 168 181 188 187 197 181 193 188 191 185 186 186 187 187 195 186 193 192 186 185 191 194 197 186 174 187 181 186 185 197 185 187 191 190 194 186 189 188 191 190 199 201 180 179 183 184 200 183 192 182 187 187 187 188 188 197 186 172 191 188 184 178 176 125 77 43 2 19 4 -3 0 2 71 77 78 76 34 -16 -5 -6 -10 -8 4 -5 -3 2 -4 4 -1 5 0 -10 4 7 4 23 102 71 96 145 172 164 165 147 167 163 161 166 169 173 190 178 175 193 185 182 188 188 192 195 185 173 200 165 91 98 68 -2 7 2 -3 6 5 -1 -16 2 4 0 7 -15 -9 -10 1 -9 4 -2 3 4 0 -1 -10 -4 1 0 -10 -9 -3 0 -5 -9 -7 -3 1 -12 1 -7 -3 0 -9 -16 7 -8 7 -3 5 -4 0 -7 8 -6 7 -10 -3 1 -3 -1 2 1 4 1 11 8 -4 3 -2 8 10 -4 6 -4 4 4 4 3 5 1 -6 0 8 8 1 4 18 -2 8 0 4 -3 10 -1 -1 8 -7 6 -2 6 4 3 4 12 -4 9 -4 0 10 20 -10 8 -10 -3 6 3 13 0 4 6 8 -3 11 11 1 7 13 5 7 11 7 10 4 5 -5 19 -5 1 1 13 7 -5 8 12 -3 8 2 -7 -3 4 10 -11 7 
3 1 14 1 3 6 4 0 9 4 -1 -1 12 1 -2 7 12 -4 3 8 5 3 -2 -5 3 -1 -8 1 -6 4 8 4 -1 2 10 -4 7 -10 1 -2 -8 15 -9 8 -8 1 -12 6 -3 0 -9 12 -8 2 -8 -12 -6 -4 5 -15 -3 -4 -10 -14 -4 -1 -2 0 1 3 -1 -2 -5 8 -11 6 11 7 -2 5 -2 2 12 -6 -3 6 8 2 3 8 6 1 4 -1 14 -1 5 11 2 1 2 -1 -8 2 12 6 -4 8 6 3 3 -3 -5 2 4 7 -3 9 9 -16 -3 -6 -5 0 -9 -12 -7 -9 -13 -7 8 -2 9 11 -2 6 4 2 -1 -6 0 -3 1 9 -6 16 4 3 2 -4 0 -2 -3 15 -1 10 10 5 16 4 6 -7 4 -7 5 -2 10 1 4 6 7 5 -3 -2 8 -2 -1 0 0 -2 41 92 101 170 160 168 162 172 172 174 170 172 176 172 181 169 185 178 181 189 176 173 180 184 183 185 176 189 177 190 174 189 185 188 183 179 196 182 171 175 183 177 186 178 189 177 194 185 171 166 182 182 179 191 187 183 174 179 195 183 185 192 174 184 189 189 183 187 190 171 195 190 183 180 190 187 161 187 182 185 185 188 193 205 180 188 186 184 177 169 183 188 179 194 178 179 179 171 181 181 192 188 189 195 185 179 175 177 194 180 179 175 173 177 182 163 179 179 180 177 180 184 172 179 181 188 173 199 180 182 177 187 188 193 187 178 183 185 191 187 199 189 193 182 179 190 187 201 193 193 198 187 187 191 191 186 188 199 196 190 196 179 183 178 188 189 185 186 187 196 183 184 186 184 180 195 182 187 181 180 180 194 190 184 189 189 192 186 184 190 183 191 184 191 185 180 189 188 196 181 187 193 188 177 187 199 187 187 189 185 199 193 189 186 183 171 193 197 197 176 200 198 191 182 195 200 182 199 195 189 191 185 183 189 186 189 187 176 192 184 197 187 179 173 112 73 25 6 11 -3 3 -1 1 73 77 71 86 18 -8 -1 -1 -5 -4 7 9 -1 -7 -10 -2 4 -6 2 0 14 10 53 79 73 105 147 154 156 163 162 159 154 170 162 157 177 178 169 183 174 185 183 192 178 191 191 173 182 182 171 132 87 110 5 3 11 3 10 7 -4 -10 7 7 10 2 -12 10 6 -7 7 -3 9 -3 -1 1 -9 -9 -1 -3 -3 -1 -11 4 -10 -1 -15 -2 -4 -18 -9 -14 -9 0 -7 -20 6 0 -8 -4 -8 -5 -1 -2 -5 3 -10 8 -1 6 11 -4 -1 7 1 7 -3 5 6 5 -5 7 0 3 3 12 -4 13 1 -7 -4 14 -2 10 10 9 12 -2 22 -1 8 5 7 11 12 7 0 3 3 -5 9 12 9 1 10 2 18 -1 18 6 22 -4 -3 -1 -1 -9 -5 4 -7 -8 -7 10 -12 5 -6 16 5 9 6 -5 2 3 8 -4 2 4 1 4 3 11 2 -3 12 4 -1 16 14 8 -5 7 -11 11 -5 1 0 6 5 
1 -2 3 -7 10 -4 4 2 13 2 7 6 -6 11 11 -3 16 8 3 6 -1 -3 1 9 -10 -8 1 0 3 3 9 -10 -1 6 3 -3 0 -6 7 -7 -5 -10 7 0 2 9 5 4 2 10 0 1 -3 13 1 6 11 -1 -3 8 5 7 7 3 2 1 -4 -13 9 -1 3 -3 -3 -3 -7 -5 -2 7 4 1 3 2 3 4 -1 2 2 15 7 8 -2 4 12 -1 -13 -3 9 2 4 8 -2 2 6 -3 -1 -5 8 6 7 -2 -7 3 5 -1 2 0 -1 -6 0 -3 5 -13 -5 -5 7 4 -9 -3 1 0 1 -10 5 0 2 4 4 14 3 10 -2 3 3 1 3 -4 -1 -7 9 14 10 -3 0 -1 20 -1 9 17 12 5 7 9 0 2 4 4 -10 8 -3 -3 19 11 7 11 6 9 -1 -3 4 10 4 74 92 155 164 157 165 166 166 190 173 166 167 179 190 180 181 181 176 179 179 195 180 192 186 180 189 176 193 178 168 184 186 172 188 192 180 186 178 180 185 186 173 181 181 189 188 194 174 173 190 186 184 176 176 171 183 176 179 178 180 191 183 185 186 184 176 183 184 174 180 179 176 191 176 188 198 197 179 188 183 191 181 193 178 190 189 193 182 190 180 194 196 192 176 186 182 193 182 194 181 190 175 188 189 188 182 186 186 183 174 195 171 181 173 173 175 182 176 180 176 195 178 177 185 175 179 190 186 184 185 181 175 188 179 195 193 184 186 187 185 180 208 185 203 188 202 193 201 198 190 199 186 192 188 178 193 180 189 185 183 190 176 193 195 192 183 186 183 185 183 190 181 188 186 192 178 182 191 186 192 187 178 179 188 192 178 193 179 193 173 192 172 192 184 185 195 190 202 189 187 183 185 188 195 186 189 190 190 191 182 192 176 192 187 187 184 189 181 199 188 194 185 198 185 185 184 183 196 178 183 191 171 179 187 193 195 184 172 178 187 179 182 154 81 85 10 -13 8 1 -2 -18 11 98 70 79 75 -4 -12 2 -6 -2 -2 4 -1 5 -10 -1 -4 9 -1 5 -9 3 49 86 74 109 152 164 161 165 167 154 163 161 156 159 176 171 185 178 176 179 187 195 173 184 177 195 184 180 171 148 71 107 28 -12 4 3 -7 -9 3 7 3 -7 -4 -8 13 2 5 0 10 -2 -2 -1 -9 5 -8 -12 -2 -14 -1 -1 -2 11 -3 -7 -5 -10 1 -10 5 -4 2 -8 -9 1 2 1 2 -5 -1 4 -5 10 -15 9 -14 1 -3 6 -2 -3 5 1 -9 2 4 6 2 11 8 -3 -2 3 3 0 15 -13 15 5 5 4 2 2 2 -2 -1 -1 4 2 2 9 15 3 8 -2 10 2 8 0 7 3 2 14 -5 2 0 10 5 3 4 -9 8 5 2 14 -8 12 -4 6 4 2 4 -2 -1 5 0 -5 5 2 9 4 -3 8 12 -8 19 3 4 16 12 -5 7 -7 11 4 2 3 -2 7 4 -5 2 4 8 1 27 -4 
10 12 -5 12 9 -4 4 3 8 17 -5 4 2 11 -5 7 -6 1 1 -3 -10 6 -2 -5 3 4 8 -4 2 -6 3 -7 -2 -5 -4 18 5 8 0 -10 -5 6 -8 0 2 -1 -2 1 -17 -3 -1 2 -7 -3 -8 15 -10 -2 4 1 -4 0 11 1 -6 -6 -7 7 -7 5 -1 3 2 -4 -14 -6 2 6 6 13 -7 0 -5 -7 -8 22 -5 -10 1 -1 -3 -8 7 -6 -5 -1 -9 16 6 -2 6 -1 -1 -8 -3 14 4 -4 6 -1 -9 -3 0 4 9 -3 15 -12 -14 -10 1 -2 -14 3 0 10 2 4 5 -6 -17 -4 2 3 5 3 10 8 10 11 0 5 -4 7 1 2 18 2 3 8 10 9 4 -1 12 4 -2 23 11 8 14 15 9 8 6 3 -7 -1 3 18 9 -6 -1 13 6 4 4 3 5 6 15 66 90 149 161 161 172 170 167 182 180 173 165 178 185 186 169 177 177 180 183 178 178 198 182 187 183 185 170 188 179 183 166 191 180 172 187 187 179 187 181 185 188 178 176 180 190 194 181 179 180 171 182 185 189 177 170 178 178 177 172 174 176 172 185 189 199 180 189 174 185 189 183 178 179 184 194 180 187 185 181 179 173 192 170 175 180 174 189 180 177 183 184 171 175 179 189 189 182 178 180 174 190 179 194 172 185 175 175 184 184 178 176 181 179 176 181 172 189 183 185 184 180 177 175 180 200 172 185 186 175 179 186 190 174 181 200 181 182 192 192 188 189 187 205 179 194 189 195 190 199 189 184 191 200 183 193 185 188 188 186 188 181 181 179 191 187 187 188 177 181 185 192 179 190 181 186 192 182 191 183 185 193 182 182 200 186 179 183 193 188 189 194 188 191 185 197 188 184 178 192 188 179 195 193 185 188 183 197 196 189 186 176 189 187 192 186 194 194 184 190 184 187 183 182 203 188 193 183 186 193 199 176 181 199 192 186 195 189 172 175 161 186 144 85 69 16 4 -8 -11 5 -3 30 82 77 70 59 -15 2 -5 8 2 0 1 3 -9 -6 3 -4 16 1 -9 5 65 92 66 122 156 155 158 164 166 169 170 152 171 169 173 175 170 181 181 177 178 182 184 187 194 193 173 177 186 152 93 84 65 5 3 12 -2 4 8 10 2 0 4 2 7 9 0 12 6 -3 -5 -9 -4 20 6 -5 -9 -2 10 4 4 0 2 1 14 -5 -1 -12 -4 -1 1 -10 -1 -9 -6 -1 2 4 0 -3 1 -3 -5 -1 -9 -6 4 3 6 0 6 6 7 5 -5 0 -12 -3 -3 2 10 -1 5 -3 -2 -3 23 -2 10 -3 5 10 0 16 6 12 3 8 8 7 10 3 4 4 8 2 2 6 11 10 0 -2 -3 5 4 3 0 -6 14 6 6 2 8 11 2 3 -1 -2 2 -10 3 9 14 12 -3 8 8 1 10 -6 10 8 5 4 -1 8 8 5 15 1 6 -1 6 9 7 8 4 -6 1 -6 2 -7 -11 8 -4 3 0 
12 3 9 10 -10 -1 -2 0 1 3 10 9 -1 -7 16 1 15 2 12 -5 4 -3 1 4 -6 -3 4 -2 -3 8 -3 -3 8 1 3 6 -3 -1 8 -2 6 7 -11 -9 7 -11 2 -5 -2 -4 0 5 -10 -7 2 4 -2 9 -5 4 4 -3 -4 -3 12 0 -8 -7 7 -12 -3 5 -13 4 -3 -2 -13 17 -2 0 7 -1 1 2 2 -1 12 -1 11 9 -2 -7 -1 -2 19 2 10 12 10 -4 -4 -6 13 -8 -5 8 -7 8 -3 -5 -5 -9 4 8 -12 0 -5 -9 -1 -4 11 -2 -4 2 -11 0 12 -7 -2 5 -5 -6 -8 -4 11 -1 4 15 5 2 -2 2 -3 -4 13 4 -5 10 6 9 9 -2 -3 -7 3 12 -5 6 15 2 3 2 5 8 -1 13 -4 -1 1 11 7 19 -2 -3 1 7 16 2 4 11 6 46 80 117 160 155 167 164 167 169 179 155 163 165 174 181 167 187 176 175 169 185 176 188 184 181 196 186 184 172 187 185 190 191 182 176 185 174 182 177 177 184 174 177 177 169 179 191 179 163 171 191 184 183 179 180 183 175 183 176 175 187 173 178 184 184 182 188 175 181 170 179 174 182 177 177 178 180 186 195 198 199 189 183 188 188 190 178 177 186 181 174 186 190 187 192 183 177 183 183 168 176 182 186 175 181 183 175 166 182 179 175 179 183 181 187 187 183 187 187 190 174 183 191 188 186 183 185 191 185 188 187 176 189 180 188 181 191 187 189 188 189 194 189 191 201 183 188 190 198 198 184 177 188 189 206 195 190 195 184 186 184 167 182 192 191 187 192 181 196 195 189 182 185 185 192 188 184 195 188 189 183 178 186 186 177 184 186 182 193 186 187 185 171 191 184 193 188 184 192 199 189 186 193 184 184 181 192 187 181 192 183 184 188 179 187 189 196 185 190 188 188 198 184 197 186 181 198 190 198 192 191 184 186 176 202 187 181 181 192 177 182 178 146 71 55 16 7 10 13 9 -11 54 85 75 77 45 -9 7 5 0 -4 -1 -4 0 -10 -11 2 14 -11 -14 27 78 67 76 123 144 147 149 171 163 158 168 165 170 158 162 169 169 176 176 169 174 182 173 191 184 190 184 189 172 171 84 90 82 11 -9 -4 12 0 8 0 -2 9 1 6 9 -3 -5 1 -2 -2 -5 -5 -5 1 9 0 -4 0 -9 6 -4 4 12 5 -1 -4 -6 -12 7 -9 2 4 -14 -7 7 -11 -6 1 -6 -1 -9 6 -7 -4 -4 -4 -7 -7 -5 3 -2 2 3 10 -5 -2 -5 1 5 9 -2 5 12 19 -11 5 7 4 -1 8 7 11 0 -1 7 10 21 14 -3 9 4 2 18 10 -2 10 7 4 7 4 -7 0 1 8 -3 -1 0 15 10 4 -13 11 2 5 9 8 0 2 -2 1 -2 10 1 1 -1 2 3 1 -1 11 1 8 -9 2 6 5 -5 2 13 -4 7 -7 12 -1 0 -4 0 0 2 -7 11 10 -1 -2 0 11 11 0 
1 0 -3 -2 14 9 -4 -2 12 10 7 1 5 -8 1 1 0 2 -1 2 2 8 2 10 0 -3 -3 2 1 -8 -4 2 9 2 7 -7 4 3 -4 4 -1 6 -14 3 -3 0 5 -4 -11 4 -5 11 2 11 3 -1 -6 -3 -6 -7 3 -14 6 -12 -4 -1 -8 2 6 -9 14 -12 -11 -5 4 -12 5 3 4 5 6 0 5 15 5 1 2 0 -10 6 -2 1 -2 -1 1 -1 -2 9 7 2 2 -11 13 8 -3 -5 15 4 9 2 5 1 -4 0 6 -2 6 -4 9 -2 -3 4 5 -10 -2 -4 3 -8 4 7 -5 0 -9 5 -2 3 9 6 9 7 0 -7 6 4 3 -3 13 -10 -7 15 -2 -5 6 12 3 -9 23 11 12 9 -3 9 8 5 8 1 -6 6 1 -6 13 3 14 12 12 -5 -7 10 8 13 -3 25 88 89 158 158 157 161 167 167 172 173 173 184 181 179 187 179 177 186 175 183 190 181 178 188 186 173 173 177 184 186 172 181 180 173 170 168 184 167 167 176 180 182 172 168 176 178 196 182 180 178 185 178 184 180 175 177 172 198 171 186 178 174 167 185 187 189 188 185 183 195 188 171 183 175 175 189 194 190 175 176 187 190 193 172 176 183 177 192 185 188 178 182 190 182 172 198 172 189 179 183 163 187 191 185 181 193 177 184 184 180 182 181 174 170 190 181 181 187 178 182 185 193 184 189 184 191 183 182 189 183 175 194 178 188 189 184 191 186 185 185 196 197 194 203 187 194 197 189 196 187 188 178 189 187 187 179 182 181 190 186 179 186 184 196 196 180 182 183 195 182 174 186 179 189 189 192 188 173 180 201 189 190 186 192 193 184 190 177 182 186 174 182 165 185 196 200 195 187 181 172 176 179 189 181 184 203 192 183 177 194 197 197 191 187 187 172 202 178 187 186 193 185 207 193 191 194 185 185 194 173 181 178 163 181 181 177 185 184 186 182 168 141 85 65 -8 1 0 0 5 -5 80 71 69 97 28 1 -1 -4 4 -9 -3 -4 2 -10 -3 -3 -3 5 63 80 63 100 144 160 163 168 161 169 164 160 157 167 167 180 168 176 170 179 174 173 182 186 199 177 187 183 185 187 162 101 97 87 8 -9 6 -4 18 -3 9 4 10 1 3 -8 1 3 2 -2 -1 3 5 -5 -5 -6 -21 4 -3 -2 4 -4 15 6 2 8 -10 0 7 2 -11 -3 -6 4 -4 -12 -3 -10 1 -4 3 7 -16 5 -10 10 -1 -2 4 -4 5 -18 -11 4 2 -8 6 2 5 8 2 3 10 5 0 -1 13 3 2 2 -6 7 -5 -2 6 5 2 8 -2 12 6 15 3 4 13 4 25 -1 -1 7 9 2 8 1 2 9 -9 8 11 10 8 18 9 13 5 3 3 2 2 3 5 3 11 3 -10 9 2 7 5 6 -2 3 -7 -6 -9 6 9 3 12 8 7 5 5 14 8 0 12 -1 17 -4 5 0 -7 -3 0 -2 4 1 4 9 
10 -8 1 -6 -3 -6 -1 3 -1 -3 3 -2 -1 22 1 6 9 15 -8 -1 -3 -4 5 -3 7 8 -14 2 0 1 2 -13 -14 9 2 5 -1 -2 -1 -5 -4 3 -2 -15 -1 3 2 9 -6 -1 -11 17 7 -12 5 -8 -7 -1 -1 -3 -6 -4 29 -3 -12 7 8 3 0 3 -6 2 6 -4 6 3 7 4 18 9 4 8 6 5 -3 8 -10 -6 22 15 -3 14 -7 4 2 -5 5 6 4 -3 2 0 6 3 3 7 -2 -3 6 0 2 -5 -3 6 -12 0 2 -12 4 1 0 -1 3 -3 7 -4 9 -5 7 -10 13 1 6 -6 -3 -2 9 3 4 8 -3 3 -4 -9 13 11 7 6 4 9 6 2 4 6 -2 -5 -7 2 11 1 -1 3 4 10 5 12 1 -1 3 -6 24 4 12 -5 1 4 -4 3 0 1 12 -2 68 89 137 163 166 171 168 168 173 165 163 173 175 185 179 180 172 169 182 183 173 168 174 168 177 180 185 185 192 185 186 171 176 177 174 180 173 193 184 182 169 180 182 175 173 183 179 174 183 170 182 184 180 175 177 186 176 180 185 179 178 181 183 186 183 189 184 174 177 175 181 203 180 177 194 179 185 184 176 190 197 183 194 197 187 181 188 186 182 173 194 182 179 188 185 185 179 188 184 186 184 177 187 189 183 186 182 170 177 180 183 184 184 187 182 194 184 192 193 191 193 186 187 203 182 178 188 188 181 190 195 195 183 189 199 191 189 183 178 196 191 195 197 195 186 200 203 182 185 186 176 193 181 189 188 193 185 187 186 184 186 188 186 195 188 178 197 188 186 182 195 186 191 187 185 186 177 192 192 176 193 188 183 185 187 185 182 179 183 182 172 194 181 183 191 182 184 189 181 201 191 174 192 196 195 188 176 187 180 194 177 188 190 188 191 189 186 185 187 192 187 198 189 179 194 194 184 187 184 196 185 186 177 175 199 183 199 171 174 182 177 116 88 61 9 8 15 17 4 14 81 51 82 81 7 -2 -3 7 -2 -13 0 5 1 -7 -14 8 41 87 79 78 113 143 157 161 156 173 158 159 159 151 169 167 163 176 184 183 171 178 174 180 172 192 187 186 172 180 190 161 111 74 99 16 -5 1 5 -5 -10 -1 0 5 -6 11 -1 1 -6 -6 3 18 4 -1 -2 5 8 -2 18 2 7 -2 2 6 -4 0 0 5 -4 -7 -12 -6 -1 8 -7 0 -9 10 -5 -6 5 -17 -4 -6 4 -7 9 0 1 -16 3 7 -5 2 5 -5 5 0 7 -7 7 1 8 -4 -3 -1 -2 15 10 -6 5 -8 13 10 8 5 8 7 7 3 11 4 12 -11 6 -3 4 -1 1 1 9 7 10 8 -2 -2 -13 0 9 -4 -5 8 2 9 8 4 2 -2 17 7 4 3 -1 8 9 -3 21 12 -6 16 -1 6 1 0 8 -1 14 -12 1 3 0 12 -2 13 -1 5 7 -2 3 2 0 -2 4 3 -7 1 -1 3 12 -7 2 2 
4 3 6 7 3 8 7 8 7 6 3 0 7 -6 6 6 -4 -2 -2 -3 3 -8 1 12 5 0 4 7 9 9 8 2 14 0 12 -1 3 -10 9 4 -1 7 -1 -16 6 -8 3 5 -11 17 -5 -15 2 16 -14 7 3 6 12 -10 -2 0 -4 -8 -12 -4 -7 -8 -6 3 -13 -3 7 2 -1 -3 5 4 -1 19 6 8 6 -9 5 -10 11 7 10 -12 10 10 2 9 11 5 11 4 -1 7 7 -18 11 4 -1 -5 5 0 0 -9 -1 -1 -5 6 10 9 9 3 9 4 -3 15 -1 -4 -1 -6 -7 -5 1 0 -6 -1 -7 -3 -5 -6 -9 17 4 13 4 -1 5 1 9 -2 2 -4 5 7 1 15 17 -4 1 11 11 4 16 -14 17 5 -5 4 -3 -3 5 0 11 3 8 5 -1 2 -10 5 -2 4 1 3 10 -1 38 95 111 160 153 169 175 181 177 163 158 171 183 175 173 178 174 184 163 184 177 180 178 181 178 178 173 183 180 190 182 172 168 172 177 165 179 176 179 177 173 185 181 174 181 174 178 183 168 175 186 181 175 174 172 184 180 190 189 173 178 178 180 182 181 188 191 184 181 185 190 172 187 176 177 180 183 191 192 199 162 192 174 189 183 175 193 188 191 178 177 191 195 183 182 179 180 198 174 198 175 178 180 185 179 177 183 180 193 183 168 192 180 177 176 183 180 192 180 173 181 194 189 187 172 175 179 183 184 184 189 191 182 183 198 191 194 196 197 185 198 197 190 203 188 187 195 186 199 180 191 184 181 186 188 187 179 193 191 188 176 184 190 198 189 187 208 182 189 190 194 193 181 194 189 185 188 179 200 192 194 181 178 185 186 181 194 187 185 191 183 184 195 188 182 184 185 186 190 195 181 186 189 177 193 190 186 184 189 199 187 192 188 183 185 184 179 192 185 186 183 184 194 177 195 179 172 182 197 175 185 181 166 183 183 179 192 185 185 173 185 119 76 40 -3 9 6 4 -12 45 80 48 103 36 6 4 3 0 13 -6 7 2 1 20 47 65 72 68 107 130 153 170 157 155 168 154 166 144 163 161 166 152 176 177 170 168 176 183 171 193 187 187 181 169 187 178 169 114 77 110 30 7 3 7 4 5 4 9 -2 9 10 13 1 -10 -9 -3 -3 -8 -1 5 -6 -2 -2 0 0 0 13 3 -3 2 -3 0 0 19 6 0 9 0 0 -4 -3 -4 11 -2 -19 9 -2 -3 -1 -6 7 -3 7 0 2 0 -1 0 -1 8 -5 0 4 7 11 -4 8 -2 5 10 5 9 7 -7 0 10 -1 -8 1 -10 6 0 6 3 2 7 2 6 6 4 1 22 15 11 -2 5 4 7 0 15 -3 -16 0 2 0 -9 7 7 -10 18 3 -4 8 3 3 9 15 -5 15 0 11 6 3 -1 8 10 15 9 17 10 1 -2 -5 7 5 3 1 3 1 6 4 9 2 -2 5 9 -12 2 0 12 5 9 -11 8 -1 2 7 -1 
-12 5 -3 -6 0 6 4 -1 9 9 6 5 -10 7 12 4 18 4 8 5 15 0 15 -9 3 7 3 -1 3 12 -11 2 -7 8 -6 14 4 5 -5 2 6 -13 0 -1 -8 3 -11 -5 9 6 -3 -8 -11 4 7 6 -14 -1 -3 2 5 -2 -7 -6 12 -14 3 -2 3 -9 12 6 9 -6 -8 -4 18 -2 4 4 3 -7 3 9 -7 11 -6 2 14 -4 9 -11 -2 9 5 -1 5 10 -2 0 14 -6 11 5 7 12 7 -1 20 8 -6 2 2 3 -6 2 10 1 0 2 4 -14 -3 18 -1 8 0 1 3 5 2 3 4 2 -10 2 -1 2 1 7 -3 8 9 3 7 9 5 8 -2 7 -3 6 5 -5 13 8 8 5 1 19 -14 -5 9 4 5 -2 -4 -13 4 8 12 0 9 -2 -7 -2 -7 -2 0 17 8 7 26 89 97 143 175 168 175 171 177 173 158 184 184 183 174 183 176 177 174 179 170 170 184 177 170 163 193 176 191 182 180 193 173 178 174 172 178 167 170 171 177 174 171 191 168 176 172 175 167 185 170 168 177 176 183 181 197 179 182 165 182 191 190 188 196 185 177 181 189 175 186 181 185 180 190 179 183 185 183 178 198 192 202 188 179 183 185 190 164 174 187 189 186 186 189 175 199 176 188 185 183 174 189 177 185 174 181 184 175 180 175 182 183 179 189 187 171 173 185 189 191 185 181 189 195 189 176 189 184 194 185 175 199 190 188 175 192 190 202 186 189 195 202 192 191 194 186 192 184 189 192 178 184 191 190 176 188 187 191 188 194 199 194 190 182 186 189 198 191 192 182 191 180 187 196 183 176 188 171 192 190 195 185 192 181 193 186 181 203 171 186 180 182 187 190 180 197 189 181 187 184 180 190 181 184 199 188 191 186 178 180 167 182 179 198 186 176 185 195 192 178 181 184 195 192 188 192 187 180 191 184 179 186 180 180 182 181 185 192 175 175 117 96 38 -5 12 -10 1 11 61 36 54 78 16 -10 3 9 -2 3 7 -4 8 45 71 73 74 101 134 139 157 168 164 152 157 165 163 169 162 160 154 159 183 178 175 185 166 171 182 177 172 181 185 176 182 169 164 120 60 102 38 -4 -9 -5 -6 -1 -16 13 -1 6 -4 1 -3 0 -13 -2 -2 4 3 1 12 4 -3 -5 5 1 -9 -7 -4 5 -7 -4 -2 6 1 4 -15 0 -2 -3 6 5 2 6 -8 -1 1 4 12 -8 0 -11 9 8 -8 -4 -1 -6 3 -1 -12 12 -5 -5 2 1 -1 5 -2 8 2 17 7 11 7 -6 0 18 12 7 4 3 -13 11 2 -2 15 4 8 -5 12 10 -2 16 6 7 -3 20 4 5 6 0 3 9 9 2 -3 -2 7 7 -13 2 -1 -6 10 0 6 1 4 -5 3 15 -6 3 8 -1 9 2 12 6 12 2 -1 5 3 3 -7 0 2 -6 9 8 4 -1 1 -8 1 2 -3 1 5 -12 -8 -2 -3 -4 -6 8 -7 
9 3 1 -5 8 -7 -11 4 4 9 -6 -5 6 -1 5 0 1 9 -2 -13 0 10 -13 10 -1 1 -7 11 6 5 -20 3 -2 0 6 -8 9 14 2 -6 -8 -6 -3 -5 -1 -12 5 2 1 3 -7 -3 7 -5 -3 3 -11 4 -1 -8 -8 8 -2 -4 -8 -4 -9 -5 3 -2 13 0 5 3 -1 -13 5 4 -1 8 -4 -3 7 1 -6 5 6 0 13 -2 -4 4 -7 4 5 5 -4 3 5 0 2 5 2 2 12 0 2 4 -2 5 1 7 4 13 8 0 -8 4 -4 -5 7 0 -6 4 1 4 -6 13 3 10 1 -2 -5 5 2 -6 -2 -5 1 11 5 2 10 -2 7 7 12 5 -2 1 -4 -8 19 -1 -1 8 10 -3 3 1 16 -15 3 4 4 4 4 6 4 3 7 0 -3 0 5 6 11 4 -14 5 11 2 21 72 94 128 163 159 175 165 172 171 176 173 173 166 169 171 167 167 177 190 178 194 177 179 187 176 188 183 184 173 174 182 169 177 179 182 171 173 182 184 177 155 186 164 178 170 182 185 179 177 170 177 175 170 171 179 183 177 174 184 177 188 181 186 192 177 190 181 185 193 176 193 190 186 182 180 189 193 178 169 179 182 173 198 180 187 184 176 189 184 180 172 188 172 181 177 189 181 190 190 181 175 185 189 183 178 175 183 177 186 174 188 187 186 184 178 181 193 181 186 174 194 182 185 198 183 184 202 184 185 180 181 185 192 178 189 193 189 184 197 196 192 182 184 188 193 186 196 189 177 191 190 192 185 183 185 184 179 187 196 189 180 181 199 185 195 189 195 171 197 175 182 190 187 187 190 188 186 195 182 181 191 180 184 186 180 186 184 182 190 179 176 174 184 181 186 182 182 194 192 184 180 185 183 180 190 182 177 189 191 178 185 177 182 185 194 187 182 184 192 190 191 182 196 186 193 181 194 190 189 198 188 182 194 180 174 188 179 182 171 165 104 81 29 3 15 7 -1 8 80 18 74 37 12 15 14 12 -5 -5 24 43 77 67 76 104 130 153 147 159 164 163 164 170 151 160 167 172 149 159 160 166 168 168 164 169 180 163 173 172 177 180 181 169 191 170 122 68 96 64 3 -12 1 -7 1 3 5 2 1 7 11 0 -4 -1 -2 -13 16 10 -3 -4 -6 3 -10 -7 -12 -8 -15 7 9 -6 4 -2 -1 -6 -13 3 -2 11 -10 -7 5 -7 -9 -14 -5 3 -11 -4 -9 -4 5 2 3 3 7 -12 -5 2 -1 -7 2 10 -6 -5 3 -8 9 2 14 -6 18 4 -3 -9 0 11 10 0 1 -3 5 0 8 16 4 2 3 4 8 17 19 16 -1 11 9 6 10 4 -5 7 -6 12 2 -1 4 7 7 10 1 16 1 11 12 8 0 1 8 19 3 -5 18 2 5 2 5 7 -6 5 7 -7 10 -7 1 10 11 3 13 -5 3 12 0 -2 0 7 -8 3 -5 -14 12 -8 -6 12 4 -10 -7 -3 2 6 10 
7 4 -9 2 3 4 12 8 10 -1 -7 -2 2 -3 -8 3 4 10 -3 -3 0 3 4 2 2 12 9 14 -5 8 -10 5 -11 4 7 -6 -11 -9 10 -9 -2 4 -5 7 -8 7 0 4 -7 -8 -12 -4 5 3 -3 -6 -13 -3 2 0 7 3 -4 -2 6 -12 -2 13 1 -8 -9 -4 -10 2 -1 0 5 -10 7 5 -3 5 12 -1 3 0 2 -5 1 2 -1 15 6 5 13 -7 -3 0 1 5 6 4 3 16 11 1 14 5 0 0 7 3 2 2 7 -2 11 -1 -3 8 11 -6 -5 2 8 9 2 4 2 6 4 2 9 -4 0 -9 15 7 16 6 6 14 -6 17 2 7 16 4 5 0 1 -11 3 -3 -7 9 6 19 7 10 0 8 4 -11 7 -7 3 5 5 10 0 3 -7 8 4 -4 -6 8 1 0 -1 -1 4 43 69 105 152 173 155 161 185 178 158 166 174 174 163 183 168 183 186 171 187 176 185 178 189 170 182 165 173 174 178 181 175 182 177 175 184 174 166 193 163 203 159 185 178 177 174 192 184 190 183 181 176 167 171 169 185 195 175 176 194 185 193 191 186 187 173 177 188 174 188 182 179 178 193 179 193 186 192 179 172 187 179 178 182 189 192 178 181 169 185 176 184 183 188 182 177 193 175 178 179 178 181 172 182 174 181 173 181 180 195 182 175 178 179 177 183 179 183 184 197 182 187 187 178 177 191 183 197 189 196 185 197 189 181 191 189 190 192 182 186 182 198 195 180 195 193 184 194 177 185 180 184 175 201 182 187 194 190 188 180 197 192 178 186 198 196 176 185 185 184 188 178 183 193 184 191 184 184 195 193 181 192 188 192 188 176 184 188 198 186 187 199 183 191 186 195 196 186 196 187 180 185 185 170 180 185 191 174 192 182 186 184 195 183 181 189 208 199 190 194 181 194 186 194 191 197 191 194 184 194 185 194 176 199 170 195 178 181 192 156 97 61 18 0 12 1 -2 44 32 18 89 21 -10 13 -5 7 25 54 69 83 78 103 140 152 166 157 160 155 154 165 165 159 161 150 157 162 175 168 177 159 172 170 161 173 177 161 172 173 176 171 172 176 155 95 75 103 45 9 1 -3 6 -5 -11 -12 6 4 -11 1 14 -7 -13 1 3 1 -4 2 -4 13 -7 9 -8 -10 0 6 5 -6 11 0 6 5 -5 -1 3 -2 -6 -4 -7 2 0 -5 4 8 5 -10 -2 -11 10 5 -1 -9 3 3 0 0 4 3 -8 6 -12 0 -7 6 -2 14 5 -2 6 -2 23 -5 7 -5 1 15 -8 16 0 4 11 10 11 -3 4 -1 2 17 -1 12 12 11 6 -1 2 9 12 9 7 7 -1 -2 8 -11 3 3 2 8 2 1 10 12 0 3 0 8 6 -2 -6 6 13 12 5 8 2 12 9 -10 11 0 5 4 8 -6 11 17 -1 2 -1 8 -7 11 -3 7 9 5 -8 4 -3 0 -6 7 7 -7 -1 8 -5 -8 -7 
10 3 3 1 -2 8 -6 8 -1 4 9 8 -9 -3 13 -3 -2 -5 8 1 0 1 6 8 -17 8 4 -3 -3 2 7 8 5 7 -18 0 2 7 -9 0 -4 -5 -2 0 4 2 2 0 -6 -5 -12 -5 -13 -15 -1 1 9 12 1 5 10 -1 9 7 5 -8 -4 4 -8 0 -1 2 -7 -7 6 9 -6 9 -6 -4 3 6 -1 -7 -3 0 8 -1 9 -5 9 1 2 -3 4 -3 5 10 -1 10 6 9 8 -6 -5 0 1 -3 0 8 -10 -1 6 5 4 -3 5 1 2 11 -5 2 -2 4 -12 3 4 -1 8 1 -3 7 9 4 -13 -5 5 0 1 0 1 1 7 -3 0 11 4 4 5 -2 7 -2 8 -6 -8 -6 -1 9 -1 12 -4 1 12 -1 0 1 -8 -6 7 0 3 5 6 7 4 3 12 4 -9 2 10 5 3 13 93 73 145 154 154 180 173 179 169 169 175 167 174 177 161 164 176 180 183 176 186 164 173 184 179 186 180 178 160 176 173 168 170 177 176 180 174 168 196 152 188 171 174 173 183 173 178 176 188 174 184 172 174 178 186 186 179 176 185 181 182 183 181 168 177 188 189 182 181 187 184 186 191 193 167 183 185 181 184 170 184 180 179 179 181 184 174 186 171 184 184 184 182 182 185 190 188 189 184 184 182 184 180 174 178 184 181 185 189 189 181 173 175 197 183 177 182 177 179 184 184 189 191 192 184 192 178 184 185 185 183 192 183 189 191 190 182 183 186 184 188 194 194 182 194 190 190 182 197 185 182 196 186 197 186 180 189 185 196 192 182 180 184 182 179 190 191 175 192 183 193 190 191 194 197 183 180 185 184 190 188 199 177 189 180 183 191 188 184 181 185 200 185 189 185 192 191 185 180 180 185 181 179 191 186 179 175 185 183 192 187 197 198 191 193 187 191 186 191 175 197 196 185 174 191 202 180 184 177 201 183 198 173 191 170 180 190 176 137 80 51 21 16 8 21 9 62 7 34 64 3 -5 8 7 31 77 74 66 95 129 158 158 144 174 159 161 154 162 176 156 163 159 156 164 166 170 176 176 174 165 176 182 154 177 179 175 175 172 176 180 156 85 80 93 29 11 -1 5 -2 -10 -6 7 -10 6 0 11 4 -3 -3 -5 8 -7 -11 13 -4 -1 6 0 -1 -11 -9 3 -8 0 -2 1 -2 -1 3 -3 -4 -13 10 -3 6 -10 -8 3 3 6 -6 3 -2 -2 12 -2 3 1 0 3 8 -8 8 -2 8 -2 -6 1 -1 1 0 -1 2 10 10 7 10 0 0 7 -6 14 2 11 4 4 4 -1 4 0 0 7 2 -4 1 6 6 9 -3 10 4 4 2 1 8 4 12 7 13 14 4 12 1 3 -4 13 21 5 18 7 14 6 10 4 11 -6 11 -5 6 -4 5 0 -11 -5 19 4 0 6 -7 -7 5 6 1 10 6 0 9 10 -4 6 -2 2 8 1 -2 7 -7 -2 -1 -3 3 -1 4 -7 10 -4 
8 -7 1 -6 6 -6 7 1 -6 7 -6 0 1 8 1 9 2 -5 -5 2 5 -5 0 -4 -3 1 4 -9 -6 3 2 -7 -6 0 -5 -4 -11 -3 1 5 -7 5 1 -2 7 0 -6 5 1 5 -5 -13 2 -5 -6 3 -6 -4 0 -15 13 -2 5 -13 2 0 1 -12 -6 -2 -10 -10 5 11 -3 -5 10 -7 2 -5 -3 -2 15 14 -1 8 4 4 0 0 15 8 -10 8 2 7 4 7 7 -6 3 -8 -5 6 13 0 16 2 -4 6 -4 -1 -2 -10 -3 1 6 -4 10 7 13 5 3 0 16 6 1 10 -5 10 -5 -1 13 2 7 -5 -5 2 -8 3 9 -2 -1 -3 14 -1 9 5 -6 1 10 9 10 4 8 8 -1 4 -1 5 10 7 -15 25 4 -4 10 -11 6 -6 1 14 0 5 8 -10 18 14 13 12 8 8 -7 17 64 58 119 165 154 176 176 169 173 173 174 178 174 173 177 172 181 176 187 174 181 179 183 187 167 186 178 161 168 178 174 173 171 184 169 181 151 181 179 181 174 175 174 177 165 174 183 174 174 184 175 177 179 174 186 178 171 182 181 182 180 178 175 180 176 170 186 188 182 168 178 179 168 188 177 179 190 183 179 183 173 184 179 202 175 181 182 177 191 180 176 182 174 175 181 195 189 192 181 176 179 180 180 179 177 183 193 193 188 187 187 192 175 189 183 190 182 189 191 185 199 193 186 182 183 193 181 194 188 202 181 187 189 189 192 201 174 198 181 191 189 187 191 182 201 192 195 182 206 183 188 196 184 187 182 185 188 186 181 185 178 193 176 190 188 187 185 183 180 184 191 189 182 186 198 183 184 196 176 183 186 184 185 180 181 188 188 188 182 194 191 174 189 179 189 186 194 186 186 175 193 187 178 192 184 180 186 182 186 187 186 170 187 191 192 196 188 177 201 188 191 186 183 188 180 192 168 192 177 181 179 185 185 186 198 170 182 173 111 97 48 3 7 13 21 13 23 1 68 34 -7 7 24 67 57 72 104 132 168 152 147 163 166 167 162 160 157 167 154 161 153 166 160 155 175 173 162 152 163 168 170 166 173 168 174 171 169 170 174 138 73 85 87 28 -4 -6 -6 0 -4 -1 5 -11 2 7 8 -7 2 -2 -5 -13 1 6 -2 -4 -3 2 0 -12 -6 0 -2 -14 5 10 -7 -1 3 -8 -3 -7 2 -7 -1 -5 -3 5 5 14 -4 -2 2 -4 5 -6 11 0 -2 12 -15 1 -3 7 -3 0 0 -5 12 10 3 -13 -4 0 4 6 5 0 -3 4 0 11 6 -1 -2 7 6 -5 3 -6 1 8 -7 3 6 9 11 1 13 2 -6 10 11 1 23 4 12 11 17 3 9 15 6 8 -5 -1 12 9 19 5 10 10 9 2 7 10 16 -11 -6 4 9 7 -1 8 -5 -11 0 10 11 6 -5 2 -2 6 3 14 -8 7 5 4 -3 13 9 6 -11 8 12 8 11 5 4 4 -5 6 8 -8 2 -11 
0 5 1 2 9 4 10 0 10 5 3 9 -5 6 6 11 -5 -2 -2 -2 -3 7 0 0 4 1 -7 1 -6 5 2 6 19 0 -5 -5 4 6 -3 6 3 -5 -12 -16 -9 -1 -2 -8 -4 0 -7 -5 3 3 11 1 -2 3 1 2 -10 3 -1 0 -3 -7 0 -13 5 -4 -7 2 -14 0 1 8 -2 10 -3 6 -1 1 3 -3 -1 -1 2 -4 -2 -8 1 2 -6 1 2 2 1 5 8 9 -10 20 0 -11 3 10 5 8 -2 0 2 11 9 13 -3 0 13 16 1 3 4 2 23 6 2 -8 17 -5 5 7 2 2 4 12 3 8 -7 9 6 13 13 -6 0 0 1 4 -1 1 0 8 5 0 -12 -1 1 7 -3 5 12 7 11 8 5 -6 4 4 -5 3 -1 -4 2 -5 14 9 4 -4 9 4 18 7 6 10 9 -5 26 80 71 121 152 168 157 165 176 171 171 188 175 189 183 187 180 185 165 180 175 188 186 172 175 175 179 173 173 176 176 176 174 171 178 162 163 183 183 168 174 187 177 181 165 173 168 181 174 182 172 174 185 197 178 168 182 175 184 192 191 171 182 182 181 165 183 179 183 181 181 184 191 172 193 169 192 182 186 181 172 188 171 184 176 177 184 187 183 185 186 173 173 188 180 180 180 182 171 175 199 194 186 174 182 194 184 184 182 183 185 185 183 186 178 189 184 186 194 167 187 189 191 169 177 189 190 192 162 191 184 192 182 181 185 195 192 190 204 187 197 190 191 192 180 191 193 182 193 189 187 179 185 189 182 194 184 194 188 191 182 189 196 194 196 194 191 185 190 191 183 190 193 191 192 183 188 196 179 182 189 187 176 185 194 182 181 193 182 185 199 185 193 191 191 175 197 175 180 190 180 181 189 187 186 185 184 172 183 178 185 192 173 179 185 188 183 187 187 192 192 196 206 187 183 177 174 191 181 168 203 183 187 177 180 172 176 164 98 84 38 4 9 13 -7 8 9 22 27 5 16 37 86 75 80 125 144 150 151 153 147 167 165 158 158 155 154 152 166 164 169 170 163 172 171 172 167 167 165 158 163 169 169 168 172 176 182 155 102 77 97 67 10 -18 -1 9 1 -6 -5 0 2 4 -13 22 -12 2 -14 0 1 5 -8 -7 -13 5 -7 6 -6 -5 -2 -9 0 -6 4 -4 -9 6 1 0 -3 -3 -2 -5 -3 8 3 -3 -2 -4 -2 -1 7 10 -14 6 2 5 4 -10 5 -3 5 -3 13 -10 0 3 -3 -3 8 -8 14 -6 -7 7 -4 8 7 6 12 3 -2 2 2 7 9 -4 2 4 -7 -4 6 10 -5 3 -4 17 4 2 4 4 19 16 -8 8 2 9 5 4 14 -5 1 3 8 6 -5 13 -7 19 14 8 9 17 7 24 4 -7 1 6 4 0 6 -5 1 9 -2 13 5 -1 2 1 7 6 -5 -4 -5 5 -4 -4 2 -2 -1 -7 10 -5 -6 -8 0 -12 0 13 6 -2 3 11 5 0 
4 4 9 8 6 -6 -1 14 -3 -3 12 -5 1 7 -14 7 20 2 -3 -9 6 3 8 8 -2 -9 -1 13 2 0 1 -2 9 -5 7 4 -8 -3 0 5 0 8 -1 -7 -9 -6 -3 0 -2 1 -3 -9 1 -2 0 -2 8 -5 -2 -2 7 9 -8 6 -2 1 -11 0 -6 -7 -7 2 -14 4 -7 -5 2 -1 7 9 5 -5 7 1 3 -3 5 15 7 10 13 5 0 9 -5 6 3 16 -5 6 2 2 13 11 -2 3 17 6 13 -6 -2 0 12 9 13 13 10 4 7 5 8 6 -1 -5 -10 11 3 4 13 3 4 4 8 8 8 1 -6 5 -7 10 7 0 6 -15 8 4 6 6 2 13 4 5 -5 -4 13 -1 3 -3 7 -10 1 2 0 -1 -1 0 5 -8 -2 11 -1 9 14 -1 5 2 0 11 -14 3 3 7 15 -11 20 73 60 113 163 152 161 164 174 175 164 177 178 183 171 176 173 181 180 173 176 174 171 183 184 163 173 170 187 179 180 165 170 184 167 177 167 162 177 186 179 176 187 174 179 181 170 176 182 176 177 184 172 179 181 183 194 189 176 178 175 183 179 178 179 187 168 177 181 179 180 180 175 192 188 185 179 171 182 177 182 178 182 193 185 173 185 178 184 186 170 184 180 180 182 182 180 168 186 176 177 184 175 181 183 181 178 189 178 184 177 187 186 190 187 184 185 199 191 189 193 192 179 192 192 187 187 185 196 183 184 187 179 176 181 179 182 194 184 191 182 203 187 186 196 186 181 188 190 184 184 185 185 186 191 186 185 193 189 188 185 203 192 189 198 187 205 186 198 182 192 199 193 195 190 183 188 184 187 199 175 192 196 191 179 174 202 186 191 188 194 182 192 193 171 185 182 192 184 192 196 189 188 169 184 187 169 182 185 191 191 173 185 187 184 189 189 191 187 204 182 177 181 192 181 181 179 186 185 178 184 175 192 188 173 180 184 144 103 58 25 27 16 6 1 -2 9 15 11 10 55 70 91 95 148 158 165 161 165 155 168 168 160 166 163 150 167 162 173 174 170 164 161 170 153 171 165 163 159 164 175 182 164 167 156 158 160 100 68 91 50 2 2 6 11 -12 -3 -2 -3 0 4 2 2 -7 2 -5 6 -8 7 -8 7 2 -4 -2 -4 -4 -5 1 7 2 -2 1 0 4 1 3 -1 -3 2 10 0 10 -4 -7 8 3 -2 9 -2 0 0 -8 -5 -9 2 3 9 3 -4 -6 7 -5 0 0 -1 -5 7 17 -12 6 -11 5 -3 1 0 9 3 3 -2 6 -1 3 -4 0 0 5 2 -2 -1 4 0 4 1 4 -1 8 3 16 7 7 1 5 -3 11 9 4 -1 7 3 16 -10 10 24 3 3 1 12 4 11 5 3 11 7 25 -4 2 -1 0 12 13 -6 9 4 5 0 -3 -1 -4 9 -3 -4 -6 -2 2 14 -3 -5 -8 1 -2 10 -5 -10 0 18 -1 -1 0 3 -8 5 -1 -1 -2 4 6 
-4 8 0 8 -1 13 -9 7 -7 1 4 -4 -3 -4 4 4 -17 -4 -2 3 3 0 4 -9 -12 0 2 4 2 -1 -2 4 3 1 2 -13 7 -9 -1 15 11 -3 4 -4 -6 3 -1 -12 1 -19 -8 -4 0 4 9 -4 -1 -4 -2 -17 -9 8 -7 3 4 14 4 -9 0 -5 -3 -13 7 -8 -3 0 -11 3 2 6 7 15 -2 8 1 -13 -12 7 0 9 12 2 -3 5 10 0 -1 4 6 -5 0 17 10 -1 5 12 1 9 4 12 2 16 7 9 12 -1 8 15 10 9 13 0 22 15 16 6 15 0 6 9 16 -2 6 5 12 6 -1 17 7 -5 6 6 6 5 -7 -2 11 15 0 -13 11 17 -4 -7 -7 8 7 -4 6 11 -9 1 2 -8 -1 4 -3 7 -1 2 21 -9 -3 -9 -7 7 7 18 9 6 11 12 7 6 6 33 74 77 131 158 158 161 166 176 164 175 175 173 176 177 174 177 171 169 182 161 183 185 172 178 172 179 171 170 175 172 175 167 170 183 171 167 175 183 172 167 176 184 181 180 166 162 168 171 168 163 170 159 173 169 191 179 182 173 179 188 175 175 174 180 181 172 180 182 178 176 178 165 185 172 182 191 178 183 180 176 182 181 188 169 185 186 176 175 184 176 178 178 194 176 189 173 167 184 183 183 185 175 182 177 177 178 178 181 189 186 181 177 185 185 193 184 197 194 189 178 186 187 181 181 177 179 181 179 174 177 194 176 198 187 188 181 191 193 181 187 190 188 190 188 187 181 184 187 199 177 177 191 186 187 198 193 180 180 193 187 192 193 195 184 189 196 189 199 194 195 199 195 192 185 190 190 191 186 197 189 192 179 185 190 183 177 190 193 170 176 182 190 191 186 194 188 174 194 191 182 189 181 184 183 186 173 188 186 180 183 171 195 179 190 183 188 186 186 197 182 182 191 190 197 180 178 161 182 164 189 183 182 172 176 166 131 99 51 17 19 -6 2 -6 -1 0 -5 35 72 88 96 110 155 160 158 155 165 166 170 159 165 175 170 161 160 151 166 153 168 169 166 157 174 159 168 176 170 169 166 146 166 169 170 175 136 76 79 91 47 2 17 8 11 6 -1 -7 -8 3 3 -5 -5 -15 -4 -5 11 -7 0 -4 -5 -4 4 -6 -8 2 -6 -3 4 3 -8 -1 5 -20 1 4 -4 11 3 9 4 -2 2 4 7 5 -2 7 12 9 7 10 -2 4 -5 8 6 -13 -4 -1 16 -5 8 2 12 -5 5 13 7 0 -5 3 1 0 0 21 14 5 16 0 2 2 -3 5 9 12 -6 -1 2 -8 12 -3 3 13 -3 7 5 4 10 4 15 12 8 7 -2 12 2 9 -2 16 4 11 4 7 0 6 4 0 2 3 7 4 7 10 -6 18 5 -5 5 8 4 7 8 4 -3 10 0 2 7 0 5 11 15 -16 7 0 0 7 -7 15 6 -7 8 -3 6 -4 -2 7 7 -2 -2 -5 10 0 -8 -4 -3 
-1 0 3 -3 13 -7 4 -10 3 -11 -8 -8 -4 -2 -2 -2 9 14 3 -2 1 6 -3 -7 -5 4 -5 23 2 -5 -1 8 8 -4 -11 10 -6 -1 3 3 -5 -13 2 -3 1 2 -8 -6 -6 9 -7 3 11 0 -3 -6 2 2 -10 3 4 -5 1 0 -6 -15 -6 -11 -7 -12 -4 2 1 -2 8 11 7 -1 2 5 3 6 9 8 4 -5 4 4 -5 5 7 6 -7 7 -18 19 -2 -2 6 2 4 12 1 2 11 1 -1 9 -4 5 10 3 4 6 12 3 15 5 10 16 -2 9 2 -3 9 6 -1 17 -5 11 -4 11 -1 4 4 8 7 2 16 2 6 6 2 11 8 1 5 -7 12 4 1 8 -11 -14 1 -5 1 -17 7 5 6 -2 -5 0 3 9 18 -1 9 -1 -10 17 0 1 5 14 8 12 3 0 16 14 9 11 8 14 80 65 101 150 135 178 160 162 172 167 167 168 183 180 176 175 179 175 174 169 188 177 172 175 175 169 168 164 175 166 166 162 175 177 184 175 158 180 159 167 181 182 168 176 169 181 168 177 178 174 172 170 171 173 186 178 173 177 185 173 182 183 166 181 169 190 189 180 181 173 176 191 178 173 169 185 179 181 176 178 175 187 175 184 186 170 185 191 189 187 174 197 187 183 186 183 173 176 192 185 186 175 184 191 174 198 174 186 177 176 189 194 177 181 186 186 185 175 190 192 197 189 180 198 176 189 186 169 191 177 179 184 189 180 182 182 184 173 182 192 180 187 169 191 187 197 191 182 182 176 195 182 193 179 190 190 197 183 184 177 198 202 191 189 197 184 192 191 194 195 190 190 186 196 189 184 187 181 195 194 188 192 185 179 178 183 177 188 188 182 180 189 180 189 172 181 185 183 185 181 184 187 184 181 178 180 193 176 180 178 185 183 190 180 201 178 190 185 184 184 181 182 185 183 175 179 178 191 174 174 173 188 174 191 159 96 88 26 1 20 15 1 -1 -1 -1 40 57 72 88 132 150 156 156 152 174 170 154 164 150 168 162 157 159 163 166 190 172 170 168 160 167 186 166 165 170 161 171 159 159 164 181 162 108 75 97 74 30 9 1 12 -6 4 -9 -3 -1 -9 -13 4 -6 -4 2 -6 9 -4 5 -7 9 -8 -9 -10 -10 9 5 0 -1 -2 3 0 -1 6 5 1 5 -1 1 -6 5 1 1 12 -11 -1 -2 8 1 -2 4 4 2 14 -5 -2 6 -1 1 2 -3 12 -5 10 -9 -4 0 5 -6 12 3 9 11 -4 3 3 0 11 13 -2 7 8 2 -3 -3 13 -7 5 -3 -5 19 3 -1 -8 13 -2 0 5 11 3 1 8 4 6 4 1 6 17 11 4 -3 8 7 8 1 3 1 6 4 21 4 2 13 8 2 15 5 -1 -2 8 8 9 12 17 8 -3 -5 5 2 0 1 7 5 -5 -3 -7 1 2 2 5 -4 -15 -4 -5 4 -12 11 2 8 0 -8 2 -1 9 10 -10 -9 1 
0 9 -2 -4 11 -1 -11 0 -8 5 8 4 -8 6 2 0 -2 6 -6 13 1 -1 13 1 -12 4 1 5 -6 -4 9 0 5 0 -7 -2 -3 -3 -2 7 -16 -4 0 0 -7 -2 -20 7 4 -5 -1 -3 6 -9 -12 -2 -8 1 4 1 6 -1 7 6 -1 -5 14 8 7 -3 0 0 1 5 -11 6 12 3 5 9 9 1 9 -7 7 1 3 10 -4 -3 1 -6 5 3 5 1 1 14 -12 13 3 6 12 6 -4 4 4 7 -1 5 11 6 4 2 8 12 -5 8 7 6 6 4 0 11 7 11 12 7 3 3 0 8 1 3 8 -2 0 19 1 18 8 10 4 0 -2 4 14 4 6 3 6 5 7 3 8 -6 2 5 9 4 6 1 -1 0 -4 -10 2 -2 -6 4 7 -18 -10 2 16 -4 9 9 10 20 5 6 6 7 13 6 39 71 73 125 155 162 151 158 165 166 171 180 161 168 166 166 161 167 159 182 173 175 177 167 174 178 177 158 174 177 153 179 158 170 172 169 160 178 179 171 168 170 180 182 168 178 174 163 185 166 174 176 167 175 174 184 175 173 179 178 181 163 164 185 171 176 175 175 173 175 198 169 180 184 173 186 177 181 178 181 180 186 181 168 177 182 177 184 189 171 184 183 175 179 190 181 180 178 180 177 181 178 183 180 180 181 174 186 191 178 181 183 193 183 188 181 187 182 189 178 181 184 176 183 183 180 177 179 171 190 181 190 186 177 185 192 179 195 196 194 184 181 201 187 183 189 193 187 183 194 176 184 185 186 195 199 182 185 183 188 189 195 193 198 189 202 188 200 183 194 185 197 193 185 184 187 189 190 184 185 193 177 184 186 181 182 187 185 182 190 191 191 171 170 180 179 179 185 172 181 180 188 184 169 185 182 185 188 191 186 176 185 202 182 182 193 189 179 184 185 199 188 180 168 192 174 190 177 182 178 172 186 178 181 126 91 78 30 17 1 11 11 3 6 11 66 84 108 121 145 163 161 160 165 161 165 167 158 161 167 169 162 172 165 174 175 170 160 177 167 167 162 165 158 164 167 158 167 176 161 136 85 62 105 52 11 0 6 6 0 6 -12 -1 -3 -11 11 -8 -8 -7 -4 -9 -3 -1 10 7 12 1 -5 5 -5 1 -1 -4 -5 -2 -7 -12 3 1 2 2 3 7 -6 0 4 -1 -4 -6 9 3 3 10 12 -1 11 4 8 16 18 2 0 10 -5 5 9 2 -3 6 -9 2 -6 3 -2 5 4 11 7 3 7 -3 13 6 0 -1 0 13 3 -1 -5 6 7 -1 2 2 -10 -1 10 3 6 9 1 3 5 3 7 17 12 7 0 7 12 0 1 0 11 5 9 -8 11 -1 8 -10 11 -9 10 4 6 3 6 7 7 -2 8 3 7 -7 19 -3 -2 3 10 8 -6 -2 19 -3 4 2 5 0 5 -1 -8 11 6 3 6 -3 3 -15 7 -3 -9 7 2 4 -8 -2 -5 -2 -7 -7 -3 
-5 5 1 8 6 1 3 -5 -3 -2 -4 -2 -7 -2 -4 5 8 -1 -1 0 -2 -14 -4 3 4 -3 3 7 10 -9 5 6 -5 4 -1 4 13 -3 -2 -11 -2 4 7 -1 -4 1 -7 -6 4 4 7 10 -8 -1 2 -7 -1 4 -7 2 0 2 -3 2 -1 -4 6 3 -15 -6 5 0 5 -16 6 10 -9 2 -11 2 14 -1 -3 17 -4 -10 6 7 0 -7 5 -15 -1 -3 -1 8 2 9 -3 7 2 12 5 6 4 12 0 -6 1 8 -3 10 15 14 23 3 -1 12 26 6 -3 1 13 2 1 11 21 8 16 2 6 6 7 -9 -1 2 7 6 1 10 17 0 1 0 8 12 -10 7 -5 5 0 -2 1 -10 8 -13 2 -10 19 3 -7 2 -6 2 6 1 -6 -12 0 4 -7 9 -3 -2 -11 -1 12 7 10 -4 -8 1 7 13 10 2 11 56 62 90 140 143 143 155 155 164 178 170 174 179 185 161 161 175 170 186 169 182 165 176 166 169 182 174 176 184 168 175 164 167 170 168 170 164 179 168 174 167 181 183 168 166 171 180 182 182 159 171 186 182 182 181 184 177 176 181 183 180 184 170 178 178 175 173 179 182 176 180 180 180 186 179 189 181 180 177 184 186 187 183 189 189 172 174 190 187 184 182 185 186 190 179 184 190 175 185 175 180 173 192 189 191 181 190 174 192 186 194 186 186 182 193 184 180 181 182 185 183 180 191 186 178 167 172 178 176 173 188 189 188 186 195 190 191 175 193 193 189 190 188 175 186 189 182 193 185 186 188 191 192 193 178 199 189 183 186 188 199 197 197 187 196 188 186 200 186 190 187 192 191 185 183 184 190 184 185 189 189 171 192 193 187 199 186 179 179 184 185 189 191 171 179 176 188 178 183 166 184 190 179 190 177 183 190 192 190 194 181 177 184 173 192 181 191 187 179 187 173 179 191 185 169 178 186 176 158 179 181 183 190 101 95 46 -5 8 8 -1 10 2 7 51 77 102 123 147 156 161 157 160 165 173 159 158 155 172 160 166 165 173 172 164 170 170 157 167 175 174 179 167 180 162 164 170 155 135 99 79 84 81 20 2 2 7 8 -19 0 -6 1 -1 -10 4 1 2 -12 -4 -9 -19 0 1 4 -18 4 7 -6 -3 4 3 5 -5 -11 0 5 -4 -2 -12 -1 2 3 4 1 1 -1 11 -6 -5 -2 4 1 -2 0 10 5 1 -4 -11 0 -4 0 7 8 18 -6 10 -13 2 -6 11 1 0 -1 14 -1 3 2 5 1 -5 -4 0 -1 8 -5 -2 6 3 3 -7 7 -4 -9 11 11 -1 5 -13 -1 14 -7 8 13 -2 -9 14 10 10 12 -5 -4 4 9 -2 3 9 5 6 7 15 7 3 -2 1 14 11 4 7 13 2 4 4 2 8 -4 10 3 -1 5 8 1 -6 -5 5 11 4 -2 4 8 5 5 -5 9 -1 11 -5 2 0 -12 1 10 -4 -2 -8 4 3 -5 -1 3 7 8 -10 1 
-7 -5 -7 7 -2 -2 -14 -2 -1 4 1 1 4 -1 -2 1 15 -6 3 -12 13 -7 2 -3 4 -5 5 -1 2 -5 10 3 6 -7 1 2 -16 6 -6 -6 -5 -1 6 -13 -18 -3 -1 -7 10 10 8 6 -5 -4 1 -5 6 -6 0 3 -10 -3 2 -8 -6 1 -7 -2 -4 1 -1 -5 1 3 2 9 5 -3 6 -2 -4 15 0 -5 -4 5 4 8 -5 -7 1 0 -11 14 -2 3 2 6 -2 10 2 8 14 7 3 9 9 11 5 10 8 2 -2 -5 7 8 14 6 6 9 8 14 13 18 0 17 8 7 9 8 6 1 -6 4 6 4 -2 1 7 -5 4 5 0 -6 -6 8 -4 0 -2 8 5 6 -6 14 -1 2 3 1 7 11 -8 -10 2 0 -9 3 3 2 -12 1 -1 -1 6 5 -7 -1 4 4 2 -2 11 4 -2 0 21 -2 11 31 57 79 114 161 136 144 161 152 161 166 170 171 159 180 171 165 168 159 180 172 166 164 158 173 172 168 179 164 186 157 171 156 178 162 175 172 178 179 176 173 187 173 175 160 165 169 168 173 174 179 184 178 177 169 179 173 187 173 173 180 185 178 162 190 183 187 178 177 186 175 179 173 176 177 180 177 181 190 190 181 182 179 193 182 194 176 186 186 183 177 190 185 182 176 188 175 183 189 172 190 186 190 181 182 183 187 181 179 189 183 196 193 184 184 184 191 181 193 186 182 185 191 171 177 182 190 184 194 178 195 164 188 181 193 188 198 179 187 187 182 195 184 190 187 188 181 178 171 196 190 188 183 200 181 184 186 189 196 179 187 190 185 193 195 191 201 188 186 192 185 187 188 188 180 197 178 184 197 191 196 192 192 181 196 184 180 180 194 189 192 191 189 189 180 183 180 180 175 181 176 178 185 181 180 181 188 184 178 187 177 177 176 188 179 179 168 185 185 182 186 178 178 177 187 179 189 192 183 186 171 174 142 84 98 15 -1 15 10 5 18 29 49 80 100 120 154 155 167 164 166 171 176 157 161 160 160 168 165 174 167 173 185 168 168 178 163 174 168 165 166 163 147 169 167 155 129 83 87 86 36 -2 11 -1 17 10 4 -7 -5 4 3 -6 -12 -5 1 -19 -5 1 -15 5 -7 2 3 -4 -3 -9 -10 5 -2 -6 -2 5 6 14 0 1 -4 -2 7 -4 -7 5 6 10 9 6 6 3 7 -5 -2 -11 -12 5 2 9 -4 18 -2 -9 14 6 13 7 8 10 5 -10 4 -3 3 3 -1 -5 4 0 -15 -1 4 3 27 2 1 -3 12 15 5 10 9 -3 9 -3 4 -5 -12 -6 5 4 10 -8 4 5 2 6 6 3 12 10 -3 5 4 1 -7 -2 10 1 -1 16 8 -5 15 4 -1 7 0 3 10 8 -8 0 11 -5 5 2 15 6 3 23 2 0 8 7 -1 -11 4 -1 1 -16 4 3 -6 7 -2 -6 -2 5 5 -5 5 4 3 -4 -3 -3 -6 -3 -13 3 13 -8 -4 -3 -10 
-1 9 -8 -3 0 -2 -7 0 -6 -7 7 -3 5 -11 15 4 11 -17 6 5 -8 -1 7 -7 6 -2 12 8 -1 11 3 7 -6 9 -15 -1 -1 9 1 -6 5 7 2 -8 -3 -1 -4 -9 -10 13 -3 0 -4 1 4 -6 0 13 4 0 6 16 2 -2 -1 -1 -8 -3 -3 4 0 2 -4 11 6 0 8 -5 -1 8 -4 1 5 1 5 4 2 -7 -1 10 2 10 11 -6 9 8 7 6 1 3 9 1 8 -16 14 -13 -1 9 -3 5 20 4 10 10 16 9 3 11 14 8 -3 6 2 -7 18 -1 8 8 8 9 -4 6 6 -2 8 3 -3 3 6 9 -2 12 3 0 1 5 -5 7 13 3 1 -10 -4 -3 -7 -9 5 8 2 0 0 1 -3 -9 -4 -10 -6 -4 -2 -1 -13 4 3 -7 0 -3 0 8 -3 0 -4 8 -1 22 3 5 5 3 45 56 77 131 146 146 157 154 153 156 165 172 149 166 171 158 164 175 177 164 168 163 164 168 163 165 168 164 170 176 165 179 156 175 177 161 171 175 172 163 180 162 162 169 181 187 181 174 172 163 165 174 164 168 168 181 170 183 189 174 178 175 180 174 182 171 171 176 179 180 192 180 178 166 169 174 181 181 165 184 189 187 187 181 173 173 187 190 188 181 184 181 189 175 180 172 181 177 174 178 168 172 186 189 194 176 187 191 176 184 187 192 198 192 184 184 182 184 180 175 176 173 193 173 182 189 176 186 175 188 176 183 184 189 179 187 175 185 182 185 190 179 182 192 187 182 185 177 188 183 180 192 176 193 193 188 199 175 199 185 190 202 193 199 189 182 200 192 201 196 197 191 201 191 188 195 189 191 188 192 183 195 186 181 187 189 184 183 191 177 182 185 183 184 172 178 179 175 171 174 178 192 196 177 178 178 180 173 178 179 177 185 187 174 187 169 184 180 185 187 185 174 174 194 169 185 169 186 187 183 174 103 95 52 -2 17 15 8 11 24 42 60 103 119 144 156 164 145 168 159 154 154 168 172 176 158 168 173 172 176 176 179 169 165 169 169 164 156 175 165 161 176 170 137 81 57 88 47 8 3 14 16 -5 -1 -9 -3 0 -5 1 -6 -12 -8 -3 4 -8 -8 -4 4 -1 2 -4 -5 -2 5 -4 1 -4 12 -12 -2 6 -3 -6 4 0 -1 0 4 7 -1 14 1 15 13 2 8 -3 9 6 2 0 8 -5 6 2 16 4 -1 14 2 14 -6 12 6 8 -4 -5 3 2 -6 -8 10 3 10 -6 11 4 20 -5 2 9 -3 2 1 -6 13 3 -8 10 -5 6 -7 2 -5 -4 3 2 4 -2 6 5 11 13 5 -8 2 0 7 -4 9 14 8 7 -4 6 3 14 5 18 8 4 -5 -2 12 6 10 5 11 12 -5 8 2 -2 4 -6 11 -5 -2 4 -5 7 3 -11 -12 0 7 1 0 6 5 2 8 4 7 -3 4 -4 -1 18 4 0 -7 -3 4 2 -7 -9 -14 -7 6 -1 1 
4 -1 9 4 -10 1 -1 -11 -5 5 10 7 6 -4 4 -7 6 -2 0 2 -4 -7 -4 4 4 -2 0 -6 19 6 -7 -2 -10 2 2 -3 -9 -1 -7 0 -2 -1 -2 -8 -10 0 8 10 0 9 -8 2 12 8 -1 2 -11 -1 7 -4 -2 -7 -3 -4 -4 3 -2 -5 -6 0 -8 4 15 1 8 17 1 7 11 6 0 -6 10 3 0 -7 0 9 -8 -1 2 -1 -14 -9 -3 -6 9 -3 6 3 -5 13 13 3 2 5 8 -3 4 8 11 7 8 9 6 -5 18 0 -1 9 2 19 5 10 -1 5 5 10 6 8 21 15 -6 16 1 -5 5 3 -3 -3 -5 -2 -12 -5 12 -13 -4 -3 4 -2 3 -5 13 -10 4 -5 2 2 20 9 7 -4 -12 0 -5 -7 -6 3 11 -5 -11 -8 2 4 9 0 -4 1 3 3 10 -7 3 -3 10 3 2 -1 13 68 54 97 118 145 147 154 147 165 154 166 157 165 169 166 168 169 162 169 163 168 173 171 184 168 176 177 177 184 170 170 176 164 168 192 161 167 183 176 169 175 182 177 175 173 171 177 182 176 165 177 177 184 166 165 173 165 174 170 172 171 182 173 179 179 178 188 167 181 179 179 166 172 165 185 184 170 181 176 189 178 190 180 182 186 187 186 177 181 178 195 175 179 181 184 186 183 179 180 201 178 189 184 181 184 182 189 174 185 185 195 176 191 180 182 182 177 190 178 175 184 181 188 185 177 183 179 187 184 178 185 188 187 191 178 181 196 185 187 190 189 172 182 192 181 187 201 173 178 188 184 203 187 188 197 186 196 194 197 193 197 196 193 187 194 196 174 196 195 188 193 188 193 181 185 184 189 192 182 193 186 184 185 188 184 186 177 185 187 182 181 178 195 165 189 185 185 186 191 176 171 185 180 174 177 178 184 198 186 185 173 190 172 179 191 192 174 173 189 175 174 178 193 193 186 183 181 181 172 126 80 95 25 -9 11 -3 0 2 31 51 98 129 132 163 176 174 173 162 161 175 173 169 176 171 170 168 182 182 166 179 172 167 161 164 161 175 167 175 165 163 137 99 69 93 75 12 -3 -2 0 -2 1 8 -4 -2 -12 -5 4 -4 13 -14 -9 -10 -11 0 -12 7 -3 3 1 0 -11 11 -8 -1 4 -5 -8 0 8 0 10 -11 -4 -1 10 4 4 -15 -5 10 2 4 3 6 0 11 -3 -11 9 0 13 9 12 14 12 3 15 -6 6 11 -6 -1 1 11 -3 12 7 -6 3 0 -4 5 -11 4 3 -3 9 3 0 12 14 -10 0 2 4 5 -7 -1 5 6 -4 7 4 6 -4 3 3 6 11 -10 9 10 -8 13 0 3 2 14 5 12 -2 -3 19 4 4 1 6 7 18 11 -9 3 6 -4 1 9 0 1 8 4 -12 -3 0 2 3 7 -4 -3 6 -7 7 -8 -17 -5 -5 2 7 -4 4 -14 8 -5 3 3 13 -6 4 1 0 -8 1 -5 4 -1 -13 -8 -2 -4 -2 -3 7 
0 -5 0 5 2 -7 2 2 -4 -10 -7 -9 -1 1 1 -8 1 -6 -1 -1 5 -10 19 -1 7 0 -2 3 -5 -8 8 7 -5 0 4 2 7 0 15 -3 -1 -11 -15 6 6 1 -1 1 -1 1 -1 4 -2 7 5 7 10 -13 17 6 7 6 -1 10 0 8 -13 8 -3 12 -1 1 -15 -1 -3 10 2 4 -6 7 -3 15 0 -5 4 0 -11 2 -1 -5 0 -5 -4 -2 9 -1 5 7 2 -1 15 2 5 11 -1 8 0 12 8 7 8 15 13 5 7 4 8 8 7 6 2 1 5 -1 21 -3 0 3 -4 3 2 6 14 -4 -4 3 -5 -5 -3 -7 -9 4 1 0 8 11 -2 2 0 0 -3 5 0 -5 5 -6 6 -2 3 1 7 -3 -8 -10 1 -3 -2 0 -1 -15 -3 10 4 -12 9 -1 -2 -4 -1 4 -14 3 5 -2 7 -5 -1 13 -9 15 58 73 98 146 143 147 157 158 148 153 160 170 172 158 178 157 154 167 168 174 161 161 177 169 172 154 164 170 166 174 179 171 179 165 168 167 162 181 166 180 163 172 172 180 175 180 173 163 173 180 169 164 185 173 168 179 182 179 163 168 170 176 183 165 176 177 169 190 164 180 191 180 178 173 169 176 179 180 175 178 171 182 172 183 177 175 196 173 191 173 192 178 182 186 190 171 186 182 180 190 177 185 190 178 173 190 180 185 182 182 185 185 172 185 184 183 197 177 192 187 182 187 181 194 179 191 180 186 190 184 186 188 183 177 185 189 195 179 177 199 192 185 188 188 176 197 183 190 205 195 181 192 187 197 182 191 178 190 189 182 192 189 194 196 183 176 193 183 183 194 183 182 185 182 177 184 179 183 189 187 184 175 194 178 193 193 185 193 177 192 178 184 183 188 171 185 181 179 185 180 177 180 194 189 186 186 182 183 180 177 185 178 200 182 185 183 175 184 174 192 182 176 193 175 187 172 198 151 91 104 60 17 30 14 19 23 30 57 78 112 139 161 159 153 172 158 172 178 157 175 173 178 166 164 164 158 165 190 169 179 160 169 161 155 162 168 159 122 90 70 77 93 26 10 8 3 3 -3 -6 0 3 -2 -5 6 4 4 -9 2 -14 9 -9 -3 -5 -12 5 -1 -11 -4 1 2 7 -3 2 3 -7 7 11 0 -1 -2 1 1 -4 1 -5 -5 7 -1 9 9 14 11 5 1 6 -7 -3 -3 -7 13 9 2 1 3 9 9 -5 6 5 8 0 8 3 7 -8 2 -6 5 2 16 -2 0 3 15 4 5 5 -5 -1 9 5 3 0 6 7 2 -12 2 3 1 2 10 4 4 -6 -4 -11 4 14 15 5 6 12 15 -5 6 10 9 4 6 11 2 3 -13 7 7 0 4 4 -9 2 19 -2 11 -2 11 14 7 10 -2 7 7 4 5 4 -12 5 -3 3 0 6 -4 -2 -3 2 2 3 -10 11 2 -2 -7 -10 -12 -3 -4 -8 -18 10 -6 8 -4 -10 1 -10 -3 2 13 0 0 
3 -6 2 -3 -16 -5 14 -16 17 -8 -12 2 9 8 -3 4 -15 -14 -6 -4 -6 -5 -4 -8 1 -2 17 3 3 11 8 5 -23 4 4 3 -2 -1 -6 8 7 4 -11 -3 -7 6 6 6 3 0 2 11 -1 -8 -5 -11 3 4 -5 -9 -1 -2 -5 12 -7 2 12 -21 -2 7 4 -13 15 9 3 8 2 9 6 0 0 0 3 -1 20 3 -1 2 4 -16 13 -11 2 6 -4 7 0 5 8 -2 -3 7 8 9 -4 12 16 -4 2 13 15 1 5 13 2 12 2 -5 4 13 0 0 13 5 5 12 15 17 19 17 3 14 6 -5 12 -5 5 17 10 1 0 2 -12 9 -9 -3 15 -8 1 -2 6 -2 -2 5 3 -3 -3 -3 -4 -1 3 -2 4 -2 11 -7 2 -9 -8 -1 -5 6 -1 -1 6 -7 -2 -1 0 -7 12 -1 7 7 3 2 3 6 10 -1 28 76 82 118 135 146 154 149 145 163 155 158 155 168 164 161 160 168 165 167 185 153 167 176 173 166 179 162 186 176 156 179 166 169 160 170 160 176 175 169 171 170 166 171 168 161 187 174 158 169 176 167 173 178 173 181 176 176 180 180 186 168 169 169 181 179 177 178 170 173 175 176 176 173 178 176 173 174 184 173 175 180 176 191 178 180 183 195 178 187 183 188 179 181 185 190 187 188 185 191 192 175 201 186 182 188 180 190 182 193 172 192 191 183 190 188 188 172 191 174 183 186 191 182 172 173 178 190 176 185 185 178 189 195 190 185 190 187 193 185 188 194 181 195 185 186 185 174 187 187 192 186 190 202 177 179 194 184 182 197 184 191 185 184 196 184 192 190 198 198 185 187 184 188 182 191 187 184 187 169 180 183 182 185 179 205 189 187 191 167 183 177 186 176 182 174 185 190 185 173 177 193 187 190 170 189 179 172 192 194 189 196 191 184 187 182 175 179 180 181 184 181 188 179 177 182 172 120 104 86 35 22 30 17 24 25 53 79 110 130 166 162 151 170 163 168 160 162 162 174 162 160 170 171 165 183 169 179 169 161 163 163 160 161 152 128 96 74 88 69 32 -2 -7 1 12 5 0 -9 5 -21 12 3 9 0 -3 0 3 -6 -10 1 -13 -15 5 2 6 -2 -1 -7 -12 1 -1 -9 -2 0 -4 5 5 -1 4 0 16 -7 -3 -6 -5 1 -6 -7 1 8 11 4 14 6 22 -1 2 16 -7 5 3 9 9 8 1 7 21 1 6 4 4 0 11 -2 -2 5 -2 8 -11 6 -6 -4 10 5 8 10 3 -3 7 -2 -2 3 -10 -1 -1 14 2 9 -1 4 15 -11 -6 3 6 9 3 -2 3 4 0 -4 -1 0 1 7 -2 14 -6 2 5 -2 -2 6 -11 9 3 2 12 -5 12 -3 3 -2 -8 14 0 14 5 11 -1 5 5 -4 12 8 -4 -3 5 -3 8 -1 -1 1 12 -7 8 15 -4 -9 -5 -5 -15 6 -7 7 -4 -12 -1 3 0 -8 -4 -6 1 4 0 -5 -3 -7 
1 10 -6 -3 3 3 10 -5 -5 2 12 -7 7 4 1 5 11 -15 9 -5 0 9 3 -5 8 1 1 8 4 -5 -12 11 17 5 -2 -11 13 -1 8 2 -11 6 -2 7 4 6 4 -6 -3 11 3 1 9 7 7 -1 -4 3 2 8 2 10 6 6 8 9 -8 -1 7 -9 0 8 -6 3 5 -6 5 -3 13 -7 5 12 -3 -9 1 7 4 -1 -2 17 -9 -13 6 11 -3 6 8 4 11 11 13 11 -5 1 12 -13 2 1 7 6 6 19 15 3 8 15 -3 8 4 11 6 6 15 9 16 1 12 2 2 4 2 1 15 8 13 0 8 -4 -1 8 -8 14 -9 -7 6 15 14 14 -8 1 1 5 -4 3 -1 13 12 5 2 -3 7 6 -14 -11 5 -1 1 -5 -1 -6 -15 12 -6 3 -2 3 -3 -6 3 3 0 10 3 2 -5 11 -7 4 0 -8 -2 67 62 87 135 133 150 144 144 158 157 161 159 154 150 170 165 173 171 174 168 157 166 156 162 164 163 168 173 176 170 172 161 175 174 168 171 162 171 161 177 183 167 166 175 180 175 163 161 167 178 182 166 171 172 168 181 174 173 182 168 177 178 178 176 174 171 171 178 168 182 172 172 186 181 179 199 180 192 180 183 186 179 173 180 181 181 186 187 184 178 185 167 185 179 179 179 178 174 177 186 186 182 189 179 192 185 177 182 184 180 177 182 175 189 185 187 196 180 186 180 175 185 182 191 181 183 184 187 169 189 177 191 184 186 188 183 191 179 190 188 184 188 180 190 187 165 193 183 183 194 194 195 197 174 194 178 186 183 190 187 187 184 189 186 188 182 186 179 181 189 184 173 183 175 187 181 183 192 191 189 180 179 189 188 197 182 182 180 180 186 181 178 167 185 186 177 179 186 182 176 181 182 179 189 182 175 166 173 188 191 174 191 185 180 181 168 188 184 179 182 176 173 177 180 166 144 99 119 55 58 40 56 44 55 69 82 94 120 156 161 166 171 166 169 171 158 173 164 160 162 176 160 169 162 156 173 158 167 153 176 162 147 110 95 81 81 58 47 3 -4 -1 7 3 16 0 -1 -1 5 1 10 -5 -2 0 1 -2 1 -1 4 -3 -2 -1 -9 -6 -4 1 -11 0 -1 7 -3 2 -9 10 -4 -4 -1 0 -8 -3 -7 -3 7 6 8 -9 8 -9 11 -2 5 9 13 14 -3 4 -11 -1 7 7 4 11 -3 4 8 6 18 7 1 9 5 -5 13 5 5 0 11 -11 0 1 13 -10 10 -6 -2 11 8 12 4 8 -2 1 5 -1 -5 -7 -1 7 3 -2 4 10 4 8 -4 3 -4 7 1 3 13 0 3 9 -8 0 2 3 -1 8 8 -3 4 0 4 9 -5 14 -3 -8 3 12 12 9 2 0 2 10 8 7 -9 3 -12 -5 -4 8 9 -6 14 -1 4 -9 -1 -6 3 -9 -1 1 13 1 2 -15 -6 -11 -2 -7 -2 2 2 -4 6 1 -5 3 -7 4 5 1 6 -2 
7 -3 -22 5 -4 5 -1 -3 10 5 -2 -8 -10 -2 3 -13 1 -9 -1 8 0 -14 -7 -2 -4 0 -5 3 -9 11 5 5 2 -10 7 -1 -2 0 -10 8 13 3 1 -5 -7 7 7 1 -1 -15 5 -3 13 -11 -3 3 3 -1 10 -1 -9 -1 16 -2 -2 -5 3 8 -6 -8 0 -3 -4 -5 4 3 3 3 -6 2 -6 -4 8 0 -7 -2 0 8 -13 -7 4 -7 6 -8 1 1 -7 7 4 -3 9 -4 13 3 3 11 8 8 4 20 1 9 8 3 7 -2 -1 11 1 0 -6 16 7 10 5 6 4 7 5 8 1 9 -7 -1 -3 7 1 -1 4 0 10 -4 0 13 -2 -3 -4 1 2 1 -12 -5 -12 -7 -2 2 8 -13 -10 4 -6 0 3 6 6 7 2 -1 -7 3 -6 -3 4 -5 -1 -8 -5 -11 -8 -1 -2 9 2 -8 -8 -1 -13 -12 14 16 -7 15 71 60 100 140 140 146 156 148 166 164 168 171 154 154 170 171 162 163 162 160 176 167 163 159 183 157 158 176 172 145 184 163 168 169 164 171 184 176 171 168 173 165 183 164 169 168 160 154 167 172 179 177 172 176 167 169 164 182 183 182 189 174 177 179 184 181 172 183 172 185 178 178 181 184 187 173 184 193 178 187 188 168 180 175 173 195 180 185 182 188 185 169 186 183 179 185 190 177 196 187 179 197 187 185 192 185 182 188 173 177 194 188 189 193 184 188 177 188 180 179 186 184 180 188 169 181 190 174 187 170 180 190 184 175 193 192 196 187 181 181 189 181 178 184 196 192 190 185 196 188 177 173 182 185 183 190 192 180 190 197 188 188 184 188 177 185 198 184 183 185 192 169 200 181 192 188 192 179 192 181 185 185 187 187 184 176 190 189 182 171 190 176 177 180 176 178 192 182 180 182 175 175 178 180 183 190 182 182 191 187 187 166 187 185 185 187 186 170 179 172 179 170 170 159 111 143 91 63 75 69 62 89 81 94 102 117 155 153 168 175 185 170 173 148 154 164 156 165 168 169 162 161 164 160 162 157 153 155 130 104 80 80 95 64 22 8 -3 1 -3 0 8 4 -12 -8 5 -6 -6 -5 1 -3 -12 4 -4 -3 5 -3 4 -6 -4 -6 2 7 -2 -4 -4 -8 2 -2 -2 -12 0 0 -2 -1 0 -8 -1 1 -3 2 -4 7 -4 -2 7 2 -5 8 4 15 6 4 8 7 10 -1 8 -2 -6 -3 7 6 -2 2 4 -3 14 -3 -2 -2 11 4 6 -11 -9 -1 11 1 -5 7 -6 9 2 -8 12 4 6 -2 11 -3 2 10 0 0 8 -4 3 10 -1 1 4 -12 -1 -3 5 3 7 6 0 8 -5 3 3 6 13 -3 0 3 -1 1 -4 18 -12 3 12 11 -6 -5 8 7 11 0 4 3 -11 8 -3 1 6 5 4 9 -1 -7 5 3 -13 -9 -1 -8 4 -5 -1 -5 0 9 8 -3 -7 1 5 9 -3 6 6 -3 6 7 -13 -8 -11 8 -2 3 2 11 1 2 
-2 1 -1 -3 -6 -4 -8 4 5 -6 1 1 11 0 0 7 -10 7 -4 -3 -11 0 -4 5 -21 6 10 12 0 -1 6 6 13 2 6 6 -11 7 -3 4 -2 13 5 -10 5 6 -9 6 2 3 -1 -1 -3 -1 3 6 1 -1 8 -3 3 -1 8 2 1 4 -10 -3 -3 6 -4 8 2 -6 -9 -4 6 -2 2 -5 2 5 2 -10 -7 5 11 -4 -9 6 -12 0 2 0 -2 6 11 7 13 -1 8 4 6 15 6 6 -5 9 1 9 6 12 0 6 -8 -2 2 -6 -2 1 7 4 9 7 2 10 3 -8 2 15 11 4 8 5 -4 3 6 2 5 0 -1 -2 21 -4 4 8 7 7 5 -6 -4 -4 -12 4 2 1 11 3 13 10 -2 12 -2 -7 -7 6 -14 -3 -6 -2 1 -6 10 -1 16 -6 -11 0 -3 -17 2 6 -5 -10 -7 -2 -5 6 0 0 -2 -1 23 77 76 111 125 121 148 143 140 145 156 162 165 159 168 164 154 174 163 166 168 154 171 158 154 154 175 161 175 168 169 165 158 161 176 174 181 175 175 168 161 162 159 175 164 184 174 174 171 170 177 166 171 160 173 174 176 166 186 171 162 179 174 175 175 165 179 178 191 182 182 182 185 183 173 177 174 184 174 176 172 182 181 193 192 191 185 180 179 178 187 176 185 187 180 183 184 170 188 186 181 187 176 189 175 188 189 178 178 187 185 183 184 189 188 179 195 181 190 184 178 195 167 185 195 187 186 187 181 183 191 183 189 192 177 192 191 176 189 185 183 180 183 187 182 175 191 187 177 190 186 187 185 186 182 182 179 185 180 190 182 189 191 186 191 185 179 197 190 180 180 183 192 181 176 181 190 180 179 180 185 180 190 182 184 184 179 180 181 183 174 187 168 183 177 172 173 195 186 178 190 184 174 184 177 184 190 189 176 189 191 189 172 178 170 196 190 173 181 180 184 172 176 144 138 124 90 89 78 91 83 93 98 106 104 119 149 154 174 168 172 162 176 168 154 172 156 157 162 153 149 166 167 152 153 126 123 82 68 76 84 56 11 -3 -1 0 6 2 6 -5 6 -1 -7 1 13 -4 9 -3 1 -2 -13 -12 -2 -7 -17 7 -7 4 0 -7 -2 -5 -3 -7 -4 -1 -11 -9 0 -1 2 -3 8 -6 -5 1 8 -5 -4 -14 0 9 1 -10 -3 3 0 1 -5 -4 1 1 1 8 4 -1 -1 6 5 10 2 8 3 8 -1 6 12 -4 6 -10 1 -2 -3 -5 6 16 4 1 -4 -3 2 -6 1 8 3 -2 0 7 4 7 11 -6 12 2 17 -4 -7 4 1 2 -4 12 -1 1 -4 16 -6 13 -10 2 -2 0 4 -12 10 -8 -2 1 0 -3 1 -2 6 12 5 3 -12 7 4 13 -3 9 2 4 16 -6 4 3 12 5 -8 11 -7 2 -4 2 -6 4 1 10 6 -9 3 -2 9 2 8 0 -4 2 11 -3 -6 0 -8 2 10 -2 4 -5 0 5 -2 1 -10 2 -3 -3 
1 -7 2 -6 -8 -6 -5 3 -3 4 -8 5 -9 -7 3 -4 -5 2 -7 0 2 11 1 9 -12 2 -7 9 0 7 -2 0 -3 6 4 0 -11 0 -1 6 5 3 5 8 7 -14 7 3 10 -7 2 9 -1 4 2 -6 -3 6 -4 18 3 12 1 -7 -4 -6 -1 -8 -11 0 9 2 -5 9 6 6 3 3 3 -5 0 -3 -4 12 -1 10 -3 -12 -9 4 -4 -7 -6 -2 -2 -21 13 -9 -2 3 -2 6 9 4 12 5 13 5 8 12 1 18 3 4 6 3 10 -7 9 9 5 28 -7 7 12 3 -8 8 3 4 -7 10 0 3 9 7 -2 5 13 6 1 3 -6 -4 -7 -11 2 1 4 -1 10 -7 -8 11 7 -4 -2 8 -1 -2 -2 -9 0 -7 -5 2 -12 -7 0 -7 -4 -11 -7 -5 -3 1 -3 1 -3 -7 2 -3 0 -15 9 -9 -5 -2 6 3 -11 -8 -13 62 57 74 112 134 139 145 152 160 158 161 156 146 153 159 152 167 156 172 170 141 174 164 154 148 164 171 162 184 171 173 150 179 161 171 160 177 165 174 161 164 160 164 161 160 176 178 175 184 179 169 181 168 171 172 180 170 173 166 173 171 187 175 179 177 180 182 173 180 177 177 175 185 176 185 181 168 182 186 184 189 189 192 186 185 185 196 185 182 184 190 185 178 171 194 184 192 182 184 184 197 184 185 176 189 178 186 186 178 196 192 185 180 184 175 188 176 186 183 187 176 189 165 177 175 174 187 179 183 174 181 179 180 183 187 178 188 188 174 180 183 186 176 178 172 185 194 184 183 187 200 181 187 182 195 184 189 187 185 188 195 190 196 190 182 183 192 182 188 180 183 190 194 181 194 179 193 186 187 179 182 190 180 182 183 182 184 181 173 193 180 183 171 182 181 187 189 189 169 173 192 194 180 187 191 175 188 188 191 185 167 184 190 179 178 184 184 174 187 175 181 157 132 147 95 92 99 110 107 112 99 113 123 113 117 146 155 176 145 163 176 165 164 168 166 150 165 152 150 161 140 141 91 81 83 80 86 69 43 11 5 10 9 9 8 3 -7 -3 0 -11 2 0 9 -2 7 5 -4 -15 -10 -1 3 1 -2 1 -2 -3 3 -3 2 -7 -9 -7 -6 -7 0 -3 -9 -3 -8 -1 -3 -5 -1 2 -7 7 -8 5 3 4 11 2 25 4 -3 -5 -4 -3 -2 -1 14 -5 -5 1 -12 4 2 9 -10 17 5 1 5 6 9 7 9 10 8 3 12 2 6 3 -1 6 6 -2 -3 7 -3 6 1 -2 22 21 -5 8 1 8 0 -9 5 -3 2 -4 -11 10 3 3 2 -3 -2 5 6 13 4 11 9 2 10 3 -3 -3 0 2 5 10 -3 -1 4 -2 2 14 -4 5 -13 0 0 12 7 14 -1 -2 -5 14 3 3 -8 12 -4 -3 12 -2 -3 -3 10 4 -5 -1 7 -5 7 7 0 3 0 1 -6 0 13 15 -6 -9 6 1 -1 0 -3 7 0 8 4 -8 3 3 11 
7 -13 -6 6 0 0 6 -3 -6 3 5 -2 8 -2 0 -6 -14 -2 1 7 -5 -1 -8 0 10 -2 6 2 -1 -3 3 -3 -3 0 7 9 -5 8 2 11 -7 -1 -2 0 9 -6 2 0 10 2 3 -13 -2 5 -2 19 3 10 -3 4 13 -6 -2 3 4 -11 1 -4 3 -1 -7 1 -5 1 -7 6 11 0 -2 6 -2 2 -2 2 1 13 -2 -4 -7 -4 0 1 -8 6 -1 4 8 6 2 -5 -1 5 4 5 19 10 -4 1 6 14 -4 -6 1 2 2 2 3 1 13 4 5 -1 13 -3 0 5 8 10 -2 1 8 10 5 11 1 1 2 -10 -7 -6 -3 -10 -2 -3 -1 6 5 -1 4 5 10 7 1 7 -7 -3 -1 -9 2 4 -1 -5 6 -3 14 -7 -8 0 -9 -10 -2 1 -4 6 1 6 5 6 7 -4 1 -5 -13 6 -3 -7 -2 2 6 6 0 3 -9 6 66 55 63 116 119 138 146 137 155 158 149 166 169 160 162 154 165 143 149 163 166 158 164 164 165 163 168 162 176 166 185 173 178 167 178 176 166 160 179 160 167 174 170 175 173 166 175 171 178 179 153 170 179 175 177 165 176 171 175 170 165 179 167 182 166 183 186 164 174 163 177 169 179 169 168 185 178 181 179 176 187 184 184 184 199 192 178 179 188 178 190 184 171 193 178 175 182 187 180 179 176 184 190 186 189 196 184 184 179 185 174 184 178 189 197 185 188 184 188 182 172 175 183 182 186 170 186 180 182 194 188 180 201 175 187 174 178 188 190 188 188 180 197 185 170 187 181 186 182 182 177 196 175 187 190 184 190 186 190 175 190 178 188 180 191 176 183 187 182 181 184 172 183 189 187 169 195 192 175 192 179 175 182 183 173 181 173 183 179 162 185 172 181 187 184 200 181 180 178 187 182 189 185 179 194 167 184 175 196 172 185 183 168 178 177 165 174 179 173 170 158 152 132 108 127 113 106 105 115 126 112 118 126 165 144 155 138 164 157 164 150 157 159 168 152 148 136 118 102 78 82 92 77 59 49 8 2 -3 4 2 9 -1 2 1 0 9 9 -4 4 6 4 -2 -1 4 -4 -13 -2 -3 -2 -6 -4 1 -5 0 -8 -4 -2 -2 -4 -5 -19 3 5 -3 -5 3 10 5 -6 -1 2 -17 5 9 4 10 -6 -13 3 0 -3 1 -9 5 -1 6 2 5 -19 6 -6 5 -4 2 4 2 6 6 -8 16 -2 10 -1 18 15 -1 7 -1 -2 1 14 10 0 3 2 2 -1 8 2 -2 -5 10 2 3 -6 13 3 14 0 5 4 -11 4 4 -6 1 -7 -3 6 9 6 -2 9 5 11 13 -1 -2 -7 4 -3 11 5 3 3 -1 5 -2 1 -6 5 -4 -5 15 -7 4 -7 3 4 10 -13 12 -8 3 5 -4 5 -3 -6 -2 -12 -5 6 4 -2 -6 2 2 16 5 -1 0 4 -1 -3 15 -5 17 2 8 -3 10 -12 -13 0 1 7 0 -16 4 6 -1 3 9 5 4 
2 14 -8 -2 0 -2 2 5 9 1 -3 1 -6 -5 -7 -5 -5 -9 15 -1 -7 -8 -1 -2 -1 5 6 -5 -1 -3 0 10 -10 14 5 -8 -5 1 3 -1 -4 9 2 6 -3 0 -6 12 3 2 2 8 7 10 2 5 12 2 3 1 3 0 5 -8 -3 4 8 -12 8 7 5 -1 3 12 -1 16 -7 -2 10 -2 13 -11 12 9 6 -3 -6 -7 10 -5 6 14 0 -7 3 -11 6 2 -2 -2 5 14 -6 16 2 8 2 8 12 6 9 8 3 -1 1 4 -7 1 3 12 0 2 -1 -1 6 0 -9 5 14 1 18 11 -2 5 -2 -3 4 1 2 13 -3 -7 7 -18 14 -3 11 6 1 -2 -9 0 4 8 6 -9 0 -7 7 -7 -4 -3 14 -3 -7 -13 2 -13 -12 -14 -9 -2 -2 -8 1 1 -7 2 6 8 0 0 -3 -6 10 -2 7 2 6 8 -8 1 -11 -4 11 57 54 85 120 124 125 134 141 152 147 146 150 153 161 153 154 174 152 177 143 148 162 171 172 167 158 167 172 169 177 171 179 166 167 167 175 166 168 162 166 170 161 156 156 185 175 167 167 167 173 172 160 168 165 170 180 186 173 175 160 167 172 166 176 170 177 175 177 191 171 181 186 175 176 169 173 188 187 186 191 188 191 178 187 189 178 188 178 181 168 185 179 181 182 183 180 185 184 181 188 187 182 177 181 180 184 183 181 186 185 185 183 187 183 198 184 181 177 186 174 185 183 185 182 170 191 175 173 183 176 175 184 185 182 186 194 185 178 184 188 183 185 190 178 187 192 185 181 183 179 199 185 188 182 194 198 192 190 184 181 193 181 180 188 192 176 182 183 185 174 180 181 188 171 195 192 174 186 176 183 191 175 180 180 177 172 184 180 181 178 188 179 183 178 185 192 176 181 177 184 190 178 194 182 178 169 185 183 184 177 178 175 177 165 159 177 175 172 180 149 157 106 108 130 125 130 119 126 123 130 122 140 126 138 141 154 160 154 155 170 167 150 140 119 93 72 69 80 79 69 45 32 14 -2 9 3 1 -4 5 -1 11 0 3 -1 7 5 2 -2 -4 9 3 -7 -7 2 -6 -5 0 -4 -8 2 5 8 4 1 6 -5 -6 -3 -5 -8 -6 3 3 -2 3 -8 5 -5 2 2 -3 8 3 8 -3 10 -1 9 -1 4 -9 2 3 2 -5 -6 -11 9 9 4 12 1 4 8 -3 -10 11 -2 0 0 2 0 5 8 8 -11 -4 3 11 -3 5 10 10 11 4 5 9 6 -2 10 8 0 1 -4 4 4 5 7 -8 12 4 10 3 -9 0 -11 -5 -1 0 -4 4 4 1 5 -14 4 9 6 5 -13 6 2 2 -7 4 2 -3 -5 4 5 6 -2 5 -15 0 0 5 0 -1 8 -6 -4 -3 13 2 8 -7 -3 9 1 12 -5 10 0 -5 -3 15 -10 8 8 7 10 -16 11 7 11 -1 8 2 -5 10 -9 2 1 9 -7 2 -3 0 -4 -11 -2 -4 -9 8 
2 -16 -13 4 4 4 1 -4 -7 6 1 -4 7 -4 -2 -7 1 -5 -3 -1 2 -5 2 6 1 -2 11 1 6 1 -6 -2 -1 1 3 13 0 -10 -4 -5 2 4 -3 4 2 2 8 -5 -6 -4 10 8 0 -5 6 -2 6 12 1 12 13 2 3 3 -7 6 0 -6 -6 1 19 -7 -18 2 10 0 9 -5 3 5 -1 7 2 0 0 1 19 -11 -9 1 1 4 0 0 -7 -2 3 -11 10 3 -5 4 9 1 9 0 -4 24 -3 10 13 6 -1 -4 7 1 3 12 3 -4 -2 4 9 5 -6 0 6 8 12 11 -1 6 8 12 -1 16 0 -4 11 6 7 5 4 -8 3 -2 -9 -8 8 4 3 7 4 10 0 3 12 0 11 -4 -3 5 2 6 -4 -1 0 -12 0 1 -7 3 -4 -12 -4 -9 -3 -14 8 10 -2 -2 11 1 3 -5 -3 4 -1 5 0 -1 -8 1 0 28 51 62 97 118 128 130 129 141 148 145 162 143 146 152 154 154 164 156 160 161 156 160 168 157 162 159 162 186 159 196 176 184 166 176 167 155 164 177 159 161 164 163 160 167 171 159 174 179 174 172 167 169 180 168 172 182 175 178 169 176 183 171 174 173 171 177 174 180 170 171 178 180 175 177 173 183 187 169 193 177 192 182 192 195 182 187 185 187 191 185 183 179 186 191 187 175 181 188 185 188 188 195 180 184 175 184 183 191 179 184 180 184 183 184 177 182 183 186 196 180 192 179 179 191 186 188 184 186 176 178 186 193 183 179 193 175 176 184 174 181 188 180 181 182 179 184 188 188 183 187 181 192 184 177 191 181 188 196 176 181 176 177 175 182 174 188 172 169 171 176 180 195 192 192 185 175 189 193 186 183 191 186 175 185 192 188 195 186 197 184 184 192 185 189 179 180 201 188 187 191 175 195 183 178 172 172 182 174 185 186 178 170 176 173 182 164 171 158 152 132 128 135 126 123 126 132 128 145 122 143 135 142 146 142 152 149 154 143 118 99 85 74 66 70 79 57 27 22 6 8 -1 0 0 8 7 7 -1 8 8 6 8 4 11 5 -16 -7 -6 -7 9 1 -3 0 -6 5 4 -2 -1 -7 -2 3 6 -13 -12 4 -3 -6 -9 -9 -20 6 3 -8 3 2 0 -3 1 5 8 2 -6 1 -2 7 0 -5 7 2 -9 2 4 -1 2 8 -4 7 -3 -2 -6 3 -2 4 1 3 7 4 -3 20 8 0 0 15 -4 9 3 19 5 12 18 -4 17 5 7 12 8 -3 7 -1 7 -2 13 -4 16 11 7 3 5 0 13 -8 9 -1 6 2 8 17 -2 4 13 -4 2 10 -8 -4 18 -3 3 -1 -2 4 -7 -3 -3 0 -5 -6 -2 -3 1 2 2 12 -2 -6 -6 5 -7 12 -5 -5 4 -7 -10 8 -2 5 -12 -2 3 -7 -5 -2 -7 -4 3 1 2 2 0 5 1 5 12 9 10 6 2 19 1 -6 1 -13 10 -1 -9 -12 -8 -5 -4 2 -1 -2 -8 -8 
-11 8 5 -4 4 -2 -6 -1 10 5 -2 -8 2 -2 -17 -3 -3 -2 2 -4 10 -6 3 -4 3 -2 1 -1 -4 8 3 11 -9 15 -1 -7 -10 12 -3 1 9 -3 4 9 5 3 13 2 -9 -7 12 0 18 6 2 3 8 -2 3 1 1 20 -7 -5 0 -4 -4 10 15 -2 -8 -1 14 10 13 -5 8 12 10 -5 0 -2 7 5 0 0 0 -6 -12 12 -1 6 -4 11 -1 -5 10 6 3 -9 7 -12 0 0 2 16 4 2 -4 -5 2 -1 -2 12 -8 14 -4 2 5 -2 9 1 -2 3 13 9 3 11 6 13 -7 8 13 3 0 -1 6 2 -3 4 0 2 -4 12 5 -5 -3 10 -1 3 -9 -5 0 -2 -2 0 6 -1 -11 10 10 5 1 -15 -3 -11 0 -8 -18 2 -6 -5 4 -8 -9 0 -9 -12 15 -8 -4 -1 3 -9 -5 -7 1 11 -5 0 3 -1 1 2 -2 7 44 54 58 77 113 129 127 129 152 150 149 153 155 156 152 141 167 153 170 163 167 154 156 169 164 161 159 165 167 139 169 166 184 176 168 180 167 167 171 152 170 173 178 171 168 159 168 170 166 159 163 160 167 184 168 179 177 158 181 162 173 181 187 173 175 169 182 170 177 183 183 182 188 160 177 179 181 170 172 173 184 172 180 182 185 182 183 170 171 174 183 193 179 181 181 184 187 186 186 178 181 190 177 194 169 187 178 188 199 185 192 170 183 187 189 183 181 177 183 179 179 191 192 199 171 185 181 183 186 185 192 182 181 190 182 182 181 183 182 180 183 182 182 184 178 184 187 187 179 183 177 175 187 186 188 177 180 171 177 179 187 184 180 179 179 162 173 190 179 171 187 180 188 173 195 199 184 185 189 175 177 187 185 184 176 194 206 181 188 185 189 186 175 187 179 193 175 195 159 183 196 182 191 163 186 182 187 182 181 183 157 175 176 169 157 172 176 162 143 134 137 121 116 124 117 123 121 151 144 145 147 141 129 122 103 89 77 73 64 70 67 55 62 35 3 0 2 17 5 14 -1 15 5 -8 1 0 11 7 -2 5 1 11 -2 3 -3 2 -9 -6 5 -2 13 9 -4 3 4 -3 2 -3 -4 5 -8 8 -5 -1 7 -2 3 -4 3 -9 9 -2 3 2 0 13 -2 -6 -4 0 3 14 -4 8 -1 -2 3 4 2 -1 7 -6 5 0 2 -6 -1 4 -4 5 6 -2 13 -2 -1 0 0 10 4 1 -1 -3 4 -3 8 -3 1 -1 -2 3 4 6 14 -7 -2 18 9 16 0 -1 10 16 5 10 11 6 3 6 9 10 7 -7 -4 -4 4 2 -6 7 9 10 4 -4 5 5 2 8 12 -12 -8 1 7 2 -3 3 -7 10 2 0 -3 1 -7 -2 -8 -10 1 2 2 4 -2 6 -10 4 9 8 -12 1 7 -3 5 5 6 5 -1 -4 -11 8 21 -4 1 2 5 1 -2 1 -11 2 -8 -10 2 5 4 8 -13 -1 -10 -2 6 8 5 -1 -10 5 -8 6 
1 -3 -1 0 -6 5 1 -4 -9 -2 1 -5 2 -3 -6 -4 -10 0 -7 -16 -4 -10 -2 0 1 -5 6 -12 12 -12 5 6 4 3 2 -2 5 6 3 -8 7 2 12 5 5 3 9 4 0 2 1 3 -9 15 -3 10 8 6 -5 -16 -5 3 -1 0 1 -2 9 -4 -3 -1 3 -3 6 -7 1 -3 2 6 1 14 -3 8 -14 3 0 5 -7 -2 6 3 -1 1 3 -7 -1 12 9 11 -5 4 3 6 -7 -1 7 4 -1 0 10 13 -10 -1 -4 1 9 -1 6 6 -7 8 -5 12 3 -1 16 2 1 12 17 2 -7 9 6 10 5 -3 9 11 1 13 8 3 4 4 3 6 6 -1 3 -15 11 1 4 -3 -6 -11 3 5 -9 5 -6 -6 -7 8 11 -4 -1 -3 8 0 4 7 8 -8 -1 -10 -12 -8 7 4 -4 -15 -14 -15 -15 -7 -10 -8 8 10 3 12 6 2 -5 9 15 33 56 60 90 111 123 124 134 154 140 145 155 152 143 142 154 165 143 171 163 158 160 153 170 161 154 166 168 164 168 175 151 156 163 166 174 166 163 191 167 176 159 169 178 173 165 164 171 179 163 161 173 160 166 167 174 169 172 167 165 172 180 165 182 173 180 168 177 179 171 179 177 174 177 182 177 175 187 192 173 172 172 186 175 179 192 177 188 184 178 183 179 184 171 187 183 199 186 188 186 183 177 179 187 190 186 185 170 185 183 181 171 179 181 175 174 181 175 170 176 175 193 183 178 182 188 188 179 193 182 188 187 180 186 188 183 180 183 184 193 177 181 179 189 172 175 190 179 174 173 176 192 188 168 183 187 187 174 187 174 174 166 174 186 179 190 174 193 195 185 187 179 191 184 193 182 188 181 178 178 176 186 173 182 188 179 184 192 192 179 177 189 180 190 183 185 165 196 182 186 170 186 183 186 169 185 184 184 169 173 162 162 172 174 171 169 155 154 130 134 133 131 134 124 146 138 106 122 99 95 77 74 68 56 76 59 51 53 26 23 -4 -5 -8 7 21 -2 -7 17 8 9 1 1 -4 4 9 -5 8 -3 4 1 -6 -8 3 -10 -3 -6 -6 -3 9 3 2 6 4 4 9 12 5 14 -13 -3 3 13 -6 3 -5 2 -8 1 1 -6 10 -3 1 -1 4 -11 13 0 11 -1 9 6 3 16 3 1 1 16 10 6 10 -4 -3 9 4 5 6 7 -4 12 -3 5 7 14 5 11 7 -3 6 5 5 2 -3 -14 -8 8 3 -7 18 9 23 6 1 16 -2 10 5 8 6 0 8 3 18 -7 16 -7 5 2 1 -8 6 2 -5 8 4 9 0 4 3 7 9 0 14 6 1 -1 -8 -2 11 7 6 -6 -9 3 0 -6 14 3 -8 -2 -4 2 8 -8 -3 0 2 -9 -4 18 -7 12 14 1 1 -9 14 -6 2 10 -7 -3 2 5 3 5 7 -4 0 1 2 -9 -7 3 2 4 1 -2 3 8 6 -8 -3 -5 -2 7 0 3 -6 -11 7 5 -10 
-5 -2 -10 2 8 -1 5 2 -10 7 3 -7 -2 -9 -2 -1 7 -1 0 2 -3 3 10 -2 -2 10 2 -3 -1 5 -2 6 -9 6 -1 6 -11 -1 3 12 9 7 0 6 11 4 1 20 14 -5 1 2 13 1 7 4 -8 -3 -2 19 1 -2 2 0 -1 7 -3 4 1 -4 -5 -3 4 3 11 18 0 10 9 2 -1 3 -5 10 -5 0 -1 -1 -7 -1 -2 -3 2 6 11 -9 1 -1 -12 -2 -1 -7 -4 5 4 -7 -3 3 -7 5 9 -3 10 -2 4 -5 -10 9 2 18 19 4 15 9 2 7 -5 5 -13 17 9 13 7 4 11 13 11 0 10 -2 5 3 7 10 0 -8 5 -5 -7 -3 -1 -3 -2 1 12 3 1 1 6 -5 14 -5 -1 5 -6 -6 -13 -19 -3 -5 -4 9 -3 6 -1 -3 -1 3 -6 -7 -1 -6 1 -20 -8 -3 -11 -5 -15 -14 -19 5 -4 7 13 -1 10 11 35 62 53 82 112 120 135 112 118 140 138 144 155 153 157 151 160 147 156 152 157 164 157 164 163 165 163 167 162 170 171 147 166 164 154 156 162 169 176 177 174 181 180 175 172 178 161 177 177 166 168 174 172 171 164 175 167 164 169 170 164 169 167 171 169 171 175 180 178 169 185 179 176 176 176 185 185 182 176 189 176 181 182 184 161 178 183 186 178 178 180 172 186 183 174 177 193 181 170 181 176 179 186 183 186 189 173 179 176 198 181 162 191 177 175 177 191 169 180 173 178 182 181 186 186 181 183 181 189 179 179 185 187 187 179 177 175 188 177 177 185 188 162 188 171 192 179 159 196 184 179 191 174 180 184 175 177 175 184 186 180 182 167 180 178 180 180 187 178 178 187 181 186 182 187 190 168 180 178 177 188 175 186 182 190 188 181 176 191 183 184 183 185 191 181 180 196 176 182 187 185 179 182 183 170 175 182 170 165 161 169 184 167 176 160 150 132 138 122 116 108 86 98 87 78 75 56 65 62 67 80 54 36 16 9 -11 2 -11 -7 -7 14 11 -2 11 -1 6 10 0 9 8 9 -7 3 9 4 7 0 0 1 9 11 2 -5 7 -10 -5 -12 1 -4 5 -2 3 7 3 8 9 2 3 -2 -7 -4 -6 -1 -4 1 -14 -7 5 1 -4 12 1 -10 -2 7 -1 7 -7 -6 8 -2 1 2 12 2 10 -6 0 1 -3 4 -14 -5 7 14 4 10 0 8 14 9 6 5 -1 3 -2 8 2 -3 0 3 -8 3 -4 12 10 0 7 0 6 7 3 12 7 -1 3 4 3 8 19 7 -1 6 9 -1 -1 6 5 9 -2 -4 2 5 -15 12 4 -10 -3 -3 9 10 6 1 -4 3 -13 10 3 -9 4 -4 -7 -1 0 -1 3 3 -5 -2 -2 6 1 0 -10 11 0 11 -3 -2 4 8 12 -1 7 -3 -3 -7 5 0 11 7 4 4 0 -5 0 -4 -13 4 -3 17 2 5 -7 1 -1 13 3 -9 -6 -2 4 9 2 -5 -11 -3 -8 2 9 -7 6 
0 -7 -4 -5 -7 10 4 -7 2 -7 -5 -16 -11 1 5 -8 -8 -11 -8 1 -6 -4 -3 1 2 12 -7 1 -3 2 7 5 -11 3 14 -2 16 11 -6 -1 -2 6 -2 1 -1 11 8 -9 5 14 -11 13 -1 13 -4 10 5 1 8 12 -1 14 -3 -9 1 0 -8 0 5 0 1 -6 -5 10 -8 8 9 9 13 -4 18 4 3 -2 5 -2 12 2 5 7 -6 11 12 1 -1 -7 2 -2 -3 1 9 3 14 8 -6 3 10 -14 0 -6 -7 6 -3 -16 -2 5 6 5 -1 11 7 -6 -1 6 -5 4 1 9 -4 8 2 -3 5 9 -2 5 -4 13 3 3 14 -4 11 15 -12 -9 -2 4 -2 3 7 2 1 -3 7 -5 -7 -16 3 -4 -7 -2 -2 1 1 0 4 -1 3 -3 -3 2 -9 4 1 -5 -9 -6 0 1 8 -11 -13 -9 -3 -13 0 -20 -12 8 6 -3 5 -4 -12 2 5 1 0 22 46 63 77 108 110 126 120 135 132 135 151 136 149 147 151 164 151 158 168 150 157 159 168 156 162 167 175 162 160 165 149 160 160 152 168 142 163 150 162 160 167 173 168 159 163 166 166 182 168 173 174 169 177 162 177 165 177 156 167 176 169 168 163 164 168 161 169 172 167 177 169 179 188 171 181 171 180 178 170 178 169 188 183 185 169 178 183 195 177 180 174 176 187 178 176 184 185 181 183 182 181 183 175 174 180 177 183 169 176 180 179 176 189 185 178 182 174 186 182 192 187 182 183 164 184 172 182 186 177 197 180 176 183 183 177 186 183 184 185 174 179 188 184 179 176 169 190 182 175 170 187 174 178 178 173 188 177 186 169 186 174 170 177 177 194 187 185 185 198 194 180 184 189 186 188 187 178 173 190 190 192 178 180 170 186 179 191 196 180 186 187 178 183 185 175 188 166 179 181 174 173 180 179 180 168 178 171 177 179 170 181 177 162 153 157 107 99 64 60 77 62 76 62 46 67 45 30 28 8 -1 -9 6 -10 13 1 -8 3 14 -1 6 9 6 11 4 5 8 8 -8 -6 9 5 -3 5 5 6 0 -1 -3 5 1 -6 -6 -12 5 -11 -12 12 7 4 6 13 -3 8 10 1 4 -9 7 0 -4 -6 -4 -10 -5 13 -5 4 9 7 -10 3 -6 2 2 -2 9 0 3 12 11 11 0 2 4 -4 6 -2 0 4 -2 -2 -8 -2 5 7 2 -2 2 4 -1 11 5 11 8 2 1 3 -3 9 2 3 2 -1 -3 8 10 -1 2 -10 13 -9 13 2 4 0 13 8 6 8 17 8 4 12 4 13 1 8 3 -3 7 1 3 0 5 8 1 1 -3 6 8 1 1 5 -6 -12 2 -1 0 -4 -17 4 -5 2 -3 2 -7 -3 5 6 0 -3 -6 10 -4 -2 6 17 -9 11 5 6 -9 -3 -8 9 5 4 -7 -1 6 13 1 0 6 9 0 1 -3 -4 -7 6 -2 -1 8 -8 -10 7 0 11 -5 3 -5 -3 9 3 13 -1 -13 -13 -1 
-1 -11 -2 -26 -2 -3 -6 6 5 -3 -15 -2 3 -10 -8 -2 -11 -10 -3 0 -4 -2 -12 6 8 -13 1 -7 10 5 -2 -13 3 -1 7 11 11 3 4 12 3 2 3 16 3 2 -8 6 8 -2 -5 6 1 -5 -2 -5 3 -3 0 1 4 2 -1 4 2 2 0 3 -12 11 9 1 3 7 3 1 6 -4 -4 4 -3 -17 -1 1 -8 0 3 4 -3 1 3 -1 -11 -7 -2 -2 -1 0 9 -4 2 4 12 -6 -4 -3 -1 0 -6 1 -9 -2 -7 -6 3 0 -6 -3 3 2 5 8 -1 -10 6 -5 7 -2 11 8 -1 -7 -3 2 -1 3 2 4 -2 2 1 18 7 6 7 -4 3 3 -7 9 -6 -2 8 0 -1 2 -2 -2 -8 -5 8 -13 -19 2 -4 -13 -3 -4 -3 -6 1 21 -6 -7 -4 -15 -9 -14 -2 -6 -12 -1 5 -9 -26 -10 2 -8 -10 6 2 0 -4 2 -4 -11 -3 -9 -3 -9 19 29 54 76 84 121 114 129 134 136 140 143 152 142 137 143 155 154 163 159 148 161 172 158 152 166 155 159 176 153 176 153 161 171 170 160 169 161 171 156 159 163 164 171 178 169 171 165 177 159 194 164 184 173 179 170 168 172 173 167 168 175 168 174 182 162 178 168 171 183 173 171 180 170 178 189 184 200 174 171 184 182 167 188 179 183 171 179 179 182 188 178 174 179 179 179 189 187 178 178 170 183 187 188 182 183 176 184 190 179 180 187 178 179 184 178 190 190 186 184 184 189 193 191 186 185 189 182 188 186 172 181 175 182 178 185 174 178 176 176 184 178 188 174 195 175 172 185 182 186 187 181 176 184 177 171 183 185 178 185 187 160 193 184 185 186 187 190 177 183 181 200 186 189 189 182 193 187 190 188 170 187 182 189 185 185 195 180 194 198 188 190 177 169 181 182 177 173 178 176 179 163 183 165 168 173 177 173 171 174 171 155 159 139 94 43 87 64 48 34 30 23 5 9 14 -21 0 11 9 -6 2 -4 4 3 -7 13 5 4 -7 -2 -5 -3 9 1 10 4 6 2 11 2 3 -2 6 -10 6 9 4 -7 -2 -5 4 11 -3 0 5 0 -6 -10 -8 2 -2 3 -1 3 1 11 3 16 3 -6 -12 14 -7 8 -8 6 -8 6 7 5 1 1 7 9 -4 6 6 -3 10 15 -2 11 5 0 12 -6 6 1 -11 -7 7 -4 1 3 -3 -9 9 -5 7 2 5 1 3 6 8 4 11 5 0 0 5 10 5 7 8 2 9 4 3 4 15 11 5 7 14 -5 11 4 13 -4 2 4 5 1 -3 4 -3 8 10 11 -11 1 6 11 -3 -11 2 1 6 7 3 -4 -5 -7 -4 -9 13 1 2 -1 -7 -8 -8 0 -2 -8 -11 -6 8 11 0 1 -1 3 -6 3 3 10 -2 -7 6 4 -12 -2 -4 1 1 -5 16 17 -4 2 8 -11 6 -2 0 7 11 -3 -1 6 3 -5 0 15 -7 -5 -8 12 -9 -1 4 -11 2 6 2 -21 -2 0 
2 -2 -8 1 -4 -4 -7 8 -1 -6 -6 -6 11 -19 3 -8 -1 -6 -8 0 -13 7 2 1 -1 14 6 -7 -2 3 -4 8 0 7 10 3 9 9 0 11 -7 7 -5 -6 5 -1 9 -3 5 6 -7 -2 -2 -6 11 10 10 13 -3 1 10 7 -1 6 8 5 -7 12 2 -11 -10 -5 12 -2 -2 0 8 10 10 12 -8 6 -1 -2 3 9 11 1 -2 -7 3 7 10 12 5 7 4 9 2 8 6 8 6 -10 8 4 4 -3 7 -6 0 3 3 -3 12 -1 5 4 8 3 15 -8 16 -2 -10 4 9 -1 -11 6 0 -6 4 5 2 3 15 7 9 0 -2 7 6 3 -5 -6 -10 2 4 -1 -1 -21 11 -2 0 -6 7 -9 3 -4 -3 -9 0 7 9 -1 4 5 0 -13 6 -2 -5 0 -16 -5 -7 0 -14 -8 4 1 -12 -8 0 -15 3 5 3 -3 5 2 -4 -5 -1 -2 -1 -6 4 -3 4 13 43 58 65 89 112 125 117 129 134 145 144 130 155 134 152 149 143 166 152 145 161 152 164 158 161 163 160 160 153 168 151 164 180 161 171 150 168 165 167 163 162 173 161 159 161 173 159 176 177 175 176 170 168 184 175 179 179 180 178 179 180 184 177 174 170 177 165 173 175 193 171 175 163 168 179 168 178 171 173 176 184 180 180 178 176 195 185 168 184 170 177 174 162 177 171 179 186 178 177 185 188 184 183 187 172 185 178 174 198 169 193 182 189 174 180 179 176 189 172 189 183 176 178 189 176 181 185 185 185 179 171 171 180 194 176 178 176 185 179 184 179 185 176 172 187 180 174 191 183 191 181 184 179 191 181 178 191 185 179 192 169 186 181 175 185 187 186 185 187 178 189 186 186 190 180 183 196 181 176 182 173 182 176 199 178 193 178 195 188 183 174 188 176 185 177 172 179 185 191 182 169 184 178 180 178 160 180 162 164 161 160 108 60 80 47 7 -7 -18 -1 -22 10 -14 -3 -1 8 -2 -5 8 -2 0 4 0 8 1 -3 2 10 8 -5 4 11 13 9 2 4 3 1 1 2 -1 -5 8 12 4 1 6 9 -10 1 1 2 -3 3 8 0 2 -8 11 3 15 10 6 1 6 1 6 7 0 -1 -3 8 -3 9 -4 -11 5 0 3 5 0 0 8 -15 -6 -12 -1 -3 -1 10 0 5 5 -1 4 -5 -10 3 -7 -2 2 0 2 11 0 -1 6 -1 -1 5 -3 -7 -7 -5 -2 -4 -6 9 -4 8 6 -1 4 5 16 -9 18 1 12 10 1 8 25 3 7 2 -3 14 5 12 -7 6 5 18 -8 15 3 5 1 5 0 1 -3 2 2 9 5 -13 13 -2 -2 -3 -1 -3 -2 -5 -2 -4 -10 2 -4 -6 -7 4 -7 10 -1 4 -3 3 5 -1 6 0 -5 9 7 -6 3 14 -1 -1 6 -7 4 1 8 -7 -5 6 -6 -7 14 -1 12 -4 2 6 9 -6 8 -6 -1 2 3 0 -10 -3 2 4 -16 -1 4 -5 0 -11 -1 5 -6 
-5 -3 -2 -3 -15 8 6 -3 6 -4 3 -7 6 6 5 -2 -9 4 7 6 13 6 -6 9 -9 -3 -5 -1 5 10 0 -1 -14 2 9 -5 5 2 -2 6 0 1 6 3 2 4 1 -10 5 0 -1 11 -12 -2 2 7 5 4 11 -5 2 1 8 -5 3 -6 7 -4 -1 2 5 -5 7 9 -4 12 0 1 5 15 1 6 4 6 2 -8 -7 6 3 -4 -2 7 -3 -10 -9 0 -9 -1 -3 -1 3 0 6 -12 -7 13 7 -3 -8 3 7 5 4 0 -3 14 -7 -3 7 3 3 0 13 3 6 7 4 0 5 -2 2 7 3 3 7 -5 9 11 3 3 -4 8 9 -4 -3 6 4 -3 9 -2 2 7 -7 7 -5 8 -1 6 12 -3 0 -5 -13 13 -6 4 -4 12 -7 11 -4 1 -3 3 -7 -3 -8 -10 -13 15 -4 9 -3 6 -3 2 3 -10 5 -4 1 5 1 4 -5 6 1 -13 -6 -3 -2 -6 12 50 45 61 87 97 112 116 134 132 144 133 142 138 132 135 152 134 154 148 151 144 145 162 150 155 153 168 166 170 173 161 154 163 159 164 164 160 167 171 160 155 162 153 156 159 158 165 165 175 174 174 181 174 174 158 176 167 162 171 173 163 183 174 173 163 176 164 174 173 185 173 167 179 182 174 172 184 169 169 175 180 186 182 177 177 189 173 177 170 169 186 178 179 175 169 165 177 187 186 170 176 175 179 183 182 170 188 180 186 186 183 181 190 185 180 182 178 174 185 174 178 186 181 176 188 178 181 187 190 172 184 176 179 179 175 181 176 182 177 183 177 180 181 168 195 176 177 187 180 179 186 172 174 175 181 185 179 175 193 181 190 189 191 184 182 183 188 184 185 177 179 178 189 182 193 178 177 177 186 175 187 194 182 180 175 188 172 186 188 177 188 194 180 178 181 180 174 174 174 176 177 167 171 175 172 165 168 167 141 107 67 84 41 -12 -11 1 2 -9 11 2 3 12 8 3 0 -14 -6 -17 8 0 -10 -6 -9 8 -5 3 -3 -5 8 -1 6 17 5 -3 -2 -12 0 5 5 -7 15 1 4 10 7 -9 -2 2 -9 -7 6 -8 5 -7 5 10 -10 -3 -5 3 2 -4 9 7 4 9 0 8 -5 -9 4 6 0 0 -1 4 -7 7 3 -6 -3 -4 -2 -3 5 -3 12 5 11 -4 5 -2 -9 -7 3 0 -6 -4 -2 1 -3 -1 0 5 2 3 6 7 10 4 -3 3 -1 -4 12 -8 -5 5 -2 4 10 1 3 -1 1 -1 9 2 16 10 8 5 16 1 11 9 -4 17 6 12 7 4 -2 5 10 -1 -5 -4 -3 0 0 -8 -13 9 0 4 5 1 -4 -5 -1 3 11 16 -8 13 -7 -5 -1 -5 11 -11 -5 -6 -12 3 12 -10 -7 -6 -8 -1 -1 -5 5 -1 2 -11 -5 5 5 -1 -5 2 -8 8 -1 2 -7 8 5 0 0 -6 -1 -3 8 11 -5 -5 10 5 11 -9 3 -9 -6 -8 -1 8 -6 3 -8 2 10 3 4 
-3 -2 15 -6 -6 -2 -2 14 11 -4 -5 -10 3 12 -3 -12 5 -4 -4 -5 -4 -1 1 2 6 -4 -2 -2 12 -3 0 3 8 14 7 2 0 1 12 10 12 -4 7 4 4 7 2 1 1 5 -5 -7 -6 -3 -9 8 6 10 12 2 14 -1 3 -2 4 -5 8 1 2 5 8 8 8 1 2 6 11 0 5 -6 4 3 13 1 5 -5 -3 1 -6 3 2 -10 -4 5 -1 7 9 -4 0 11 -5 8 -3 0 4 2 3 2 -1 2 2 1 2 6 -5 2 -5 3 -1 1 -1 0 -5 2 9 -4 0 5 5 6 -1 7 2 -1 5 6 3 -3 11 -4 -2 8 5 5 -1 2 7 -4 -8 -1 20 7 1 -1 -3 -5 -8 8 -7 -1 2 5 -7 3 -9 2 -3 -6 -19 -7 -3 -12 -3 1 3 4 3 -3 -5 2 -6 3 -14 -2 -11 -5 -7 -13 0 -8 -1 -11 -10 2 -12 -6 -18 -5 6 -7 3 7 -1 7 34 44 61 91 95 111 119 117 113 144 128 133 143 141 131 157 132 154 140 138 156 162 166 138 149 145 165 161 146 173 163 165 160 173 174 171 163 169 175 172 159 166 167 153 164 162 174 162 169 163 177 167 171 161 173 165 167 173 159 170 177 175 165 185 178 181 181 176 172 189 178 179 172 164 177 156 184 183 186 181 169 173 187 169 181 184 178 170 172 182 176 173 180 188 180 179 181 184 176 185 181 178 182 178 177 179 171 186 181 185 179 167 188 169 177 183 185 180 180 182 187 180 174 188 178 175 177 178 170 174 178 175 186 182 179 166 178 171 186 181 173 181 173 165 167 182 177 191 174 181 169 170 178 178 177 178 174 193 192 178 188 185 181 177 184 177 166 178 181 183 185 188 174 184 183 193 180 173 196 172 182 184 169 182 173 177 188 159 181 173 179 184 192 168 185 187 182 174 183 179 175 189 168 167 165 159 140 100 76 76 36 -12 -17 1 7 -8 16 -11 10 -8 4 3 2 8 -15 -9 9 -7 10 -8 -11 0 -5 -8 -5 4 -9 -3 -2 1 -12 -2 7 13 4 12 -1 3 10 3 3 2 11 -4 -9 -3 -7 3 -5 -9 3 -6 22 2 0 0 9 15 12 10 -4 0 0 -1 11 10 9 2 19 -11 13 16 11 9 6 1 2 8 -2 14 1 11 -1 -1 5 9 1 -7 -10 -6 4 3 -4 6 -6 -4 -6 4 -11 1 -6 -1 0 -7 1 -3 1 4 5 10 3 7 1 -6 -3 -2 7 0 13 15 0 3 -1 17 -8 4 10 5 16 -2 7 18 -2 18 3 4 11 11 -1 7 7 0 3 11 -5 10 1 -2 0 -4 21 8 2 -9 4 -3 0 -1 -3 -2 10 -13 9 2 -5 -2 -4 3 -3 9 4 3 -1 -4 -3 5 -1 -6 3 -19 10 7 -1 -7 -6 -2 11 8 -2 10 -12 -2 -8 1 -11 0 6 4 6 1 3 -7 5 5 10 4 5 6 1 -4 -13 11 -9 4 11 -2 -8 2 -8 3 5 -1 -6 -8 -6 7 
4 4 4 8 1 -9 -3 -7 6 6 0 13 -8 -1 3 0 -6 2 2 -5 4 -7 8 7 -1 18 -3 -3 -10 13 1 1 -1 2 1 -1 6 9 -8 7 2 5 6 6 -2 -8 6 -8 3 -3 -7 3 5 0 -3 -4 7 -10 10 17 0 -6 2 2 0 1 5 4 -7 -5 -9 -6 16 1 15 7 3 5 11 4 10 0 6 -8 4 -4 -4 2 -4 -1 -3 22 -2 18 1 6 -5 7 -12 4 4 0 3 11 -2 -8 8 -17 0 0 3 -4 2 -4 -4 10 1 1 -6 -7 6 0 2 3 9 -4 1 -2 3 5 12 -10 1 15 2 4 -4 -5 -2 -3 10 5 10 0 -4 7 8 -12 11 7 7 -13 6 -1 -3 20 1 5 2 -18 -4 -3 -8 -17 -11 -2 -2 -6 -1 -11 6 -7 -1 4 -2 13 -1 -8 4 -4 -8 -5 -2 -17 5 -8 -9 5 -13 -9 -2 -13 -4 -11 -4 -12 11 -7 -1 0 2 8 -14 -4 21 27 42 57 73 91 89 102 124 115 137 136 136 142 128 121 154 144 148 145 148 162 144 160 152 154 157 150 159 164 154 161 165 160 168 160 171 178 152 163 167 168 166 174 165 149 166 164 163 176 168 168 174 157 179 164 177 177 182 178 182 175 179 176 160 171 175 172 172 180 179 174 167 182 174 180 175 183 177 178 185 177 183 186 179 185 174 173 175 174 184 171 173 172 184 176 177 174 184 180 178 168 172 178 181 180 179 185 184 164 182 179 183 169 181 174 175 177 187 173 178 190 168 172 174 167 178 173 184 177 175 182 173 177 156 187 165 171 178 170 163 182 172 166 178 178 182 182 191 174 173 181 173 185 177 181 178 178 179 175 178 182 170 188 178 180 182 190 191 183 183 180 180 182 180 182 188 171 190 191 184 178 195 170 175 174 177 192 181 186 181 175 188 176 172 174 178 173 165 172 181 161 177 151 158 141 92 67 84 15 1 -14 0 -15 -12 6 -8 9 -3 -6 -6 9 4 4 2 0 0 1 10 -7 2 -7 -8 6 3 -1 5 -3 4 3 -3 -3 3 4 9 0 -11 2 10 1 12 -3 2 3 2 4 10 -7 4 6 -7 -6 2 7 22 -3 -1 -3 1 14 -5 10 17 -5 15 22 5 -1 -1 7 -14 8 12 6 12 -10 6 2 -5 -2 4 -1 -1 5 -8 -2 -7 4 -5 -6 10 7 -4 -3 -5 -2 -12 -3 -3 9 -11 6 3 3 1 -2 -1 8 2 -3 6 13 2 7 3 -1 -3 3 7 9 1 2 4 -4 8 6 8 9 2 5 21 7 3 9 4 10 12 10 12 8 7 -3 10 10 -4 4 -11 -1 -3 -6 4 -4 0 7 4 1 9 0 3 -7 1 -2 -6 -7 -4 4 -1 2 -4 1 11 -4 -4 -15 -3 -12 -6 -6 4 -2 -8 -14 9 6 0 2 -3 1 5 10 -1 2 3 0 -4 11 0 4 -1 1 0 3 3 -10 9 -9 11 -6 4 -1 7 -6 -1 -9 -7 2 4 -5 10 -4 6 -11 -2 5 0 2 
2 -7 -3 5 -3 -1 3 2 7 -9 -5 1 1 -6 -6 6 0 7 7 5 3 -5 6 7 -1 -8 -2 2 7 -6 17 -9 0 10 -1 -7 7 -5 -7 3 16 -10 5 -4 5 -4 14 -1 -8 9 1 -9 1 14 7 -3 4 -7 6 -1 3 3 -3 -4 14 -1 6 -3 -6 3 17 25 5 13 4 9 1 12 1 5 7 17 1 4 15 -3 2 1 -3 -6 0 -3 5 -3 -2 4 0 3 2 4 3 -1 13 8 8 4 3 1 -2 7 -5 10 2 -7 2 -4 -2 -3 -4 -7 3 -19 1 4 -4 11 -3 -4 9 -5 0 16 18 -4 4 2 -3 9 9 9 0 -9 -14 -4 -1 -7 6 6 -1 -8 -6 -4 4 1 -5 -6 9 -5 -5 3 6 -1 -7 3 -8 -1 1 -3 -17 -12 6 -2 8 3 3 0 -3 0 -10 -7 -1 -3 0 -6 3 3 0 -3 -4 1 3 -7 -16 -16 1 8 -3 -9 -10 -11 5 -5 6 -5 -3 10 36 35 34 70 72 98 106 106 116 107 110 139 138 137 133 135 136 136 157 148 153 141 148 152 147 155 158 160 157 150 155 157 167 150 174 157 166 160 160 163 154 167 169 161 171 165 172 169 165 155 165 159 157 168 162 160 157 158 162 167 166 164 174 175 174 186 171 176 164 184 180 176 172 183 164 176 170 172 181 173 171 179 170 169 172 180 177 166 182 177 183 188 178 179 175 183 174 178 180 179 174 185 186 170 183 168 174 178 179 173 173 174 184 177 177 178 165 183 188 179 170 178 177 181 172 183 175 173 167 175 174 176 173 186 163 165 166 173 179 173 175 183 182 181 185 183 176 172 179 159 182 176 173 169 167 187 176 177 185 180 200 186 175 180 185 186 189 186 190 180 181 189 194 174 179 181 186 177 183 185 171 176 182 178 174 177 173 172 185 179 183 176 174 169 168 175 158 170 167 162 177 160 114 64 81 70 17 -18 -3 2 7 5 -4 -8 14 2 15 1 12 -2 -2 5 -15 -8 -6 1 -15 6 1 4 4 4 -2 -4 8 -10 -2 -2 -6 -6 -3 9 5 12 -10 10 1 -2 5 -5 -9 5 -3 0 4 1 -2 7 6 5 4 0 9 7 2 6 -2 22 2 0 5 8 12 14 4 8 5 10 -8 6 -3 5 1 -8 3 1 1 -12 11 9 2 0 14 -3 -2 -2 -5 5 -1 -11 3 2 -5 -2 -4 -4 -2 1 -4 0 6 -6 12 5 7 9 10 3 -2 11 1 8 2 5 13 16 13 6 -5 2 7 15 2 4 8 12 3 -6 6 1 27 10 0 -5 -8 8 3 4 8 0 10 5 3 -1 -1 -9 -1 -2 -7 10 0 4 -8 8 7 -11 -8 -1 14 -6 6 -6 2 -8 3 -11 2 -6 -5 -11 -10 -2 10 12 -3 5 -7 -4 3 15 -9 -3 -3 -3 6 13 -8 0 10 -4 -14 -2 -6 -10 -1 -2 7 -3 2 12 -2 13 -9 -3 2 1 8 -8 2 1 10 4 7 12 -15 -12 -8 -4 4 -7 -1 -5 -14 -2 
5 15 4 3 5 6 3 4 4 -2 7 -1 6 6 -5 0 9 -1 -1 -5 1 -4 4 -2 5 -6 -7 7 0 3 2 6 1 -10 -4 6 15 -11 15 8 9 5 -1 3 5 -3 2 8 -1 15 5 7 8 -3 9 -8 -1 8 14 8 -13 4 11 -6 5 -5 20 4 -3 11 5 -4 7 3 9 7 15 1 6 8 7 1 7 9 -1 7 -3 -2 2 -1 1 4 9 -9 8 -1 -4 -2 6 3 2 3 6 8 -2 13 -11 7 0 -12 -2 -4 -4 2 9 -7 -4 4 -8 -3 -5 -1 3 -4 5 4 -3 6 2 9 -4 -15 9 3 -7 0 11 2 -2 4 0 -3 -6 7 9 5 -9 6 -9 11 -1 5 0 -11 -11 4 12 -8 -2 10 -6 -5 3 -7 -3 -4 3 -2 -11 11 2 6 1 6 9 -3 1 5 -1 -2 0 -7 -9 10 5 -7 -6 -7 6 -14 0 -3 10 -8 -12 -9 -12 5 -4 13 -2 -6 0 13 -1 16 -3 24 33 43 69 69 86 95 108 105 112 113 123 133 130 124 135 149 128 139 141 139 139 148 160 140 155 158 171 155 163 158 158 165 151 162 151 161 178 167 162 169 171 173 162 168 174 173 166 170 182 177 171 167 163 160 171 171 168 157 155 157 171 176 164 175 171 183 165 176 186 172 178 167 173 180 173 177 168 185 191 166 176 175 172 173 169 172 176 175 172 163 180 171 179 176 179 175 176 173 173 171 186 184 184 170 178 177 174 178 178 181 180 171 177 166 175 173 180 172 174 177 173 174 168 171 175 177 179 173 172 166 158 171 172 184 166 175 178 180 174 175 165 164 175 174 174 170 162 177 180 166 173 174 179 180 176 188 184 176 170 187 182 188 176 182 185 181 183 188 193 185 178 189 173 186 190 190 196 171 188 189 164 186 180 181 180 175 181 172 168 177 169 161 173 161 176 172 164 165 153 114 69 88 61 4 2 -7 1 4 -4 -14 -7 -8 -8 0 1 4 -11 -3 -8 -7 12 -10 2 1 0 -2 -13 4 -1 -6 -1 -5 10 4 -4 5 0 5 -12 -7 1 0 12 -7 2 9 -4 12 -4 0 -1 -2 3 -2 3 4 6 7 7 8 6 6 -8 23 15 25 19 2 17 5 16 14 12 7 2 9 -2 10 8 0 2 3 -1 -4 14 -4 -5 11 2 -6 4 13 9 1 -3 -15 0 -1 9 -3 -5 8 7 0 -14 3 18 3 1 8 8 7 9 11 6 -4 3 10 -3 -8 4 0 15 -1 -10 8 -2 0 3 -3 5 -8 11 -3 -1 9 8 5 -4 4 3 3 3 5 5 11 -7 11 9 5 11 -10 11 -12 -7 -3 -7 7 -2 -4 -8 0 3 6 -5 2 -5 -2 -9 -11 0 -3 -7 -8 0 -12 -17 -1 6 -3 -12 0 -1 7 -10 0 2 -13 5 4 13 -6 11 -2 0 -1 4 -1 -4 6 -6 -12 0 6 9 2 1 1 14 -12 8 -1 9 -3 7 -1 -6 7 7 0 4 6 2 13 -1 -7 -6 14 -2 7 -9 18 
7 5 7 3 9 -8 2 6 1 5 4 3 -3 11 -16 -5 -11 -2 -8 13 1 4 0 5 -19 9 7 7 -1 -3 3 -5 -1 8 -1 -8 1 7 2 -6 -1 -3 1 -2 -2 -5 15 1 2 15 10 -5 9 15 14 12 11 2 3 3 -5 14 -1 8 -1 9 -9 -5 12 0 -2 22 -12 10 3 2 12 -5 6 -3 2 5 7 15 13 4 0 -7 -1 -7 13 -13 5 1 -4 1 3 -7 0 -6 1 -5 1 7 3 -1 0 2 2 -1 6 0 3 3 -6 -7 -11 4 -7 8 -6 -6 4 1 -4 0 10 4 3 10 8 -10 14 -3 2 -2 -8 4 2 6 3 0 -5 0 -1 -7 -7 0 -9 -2 -3 -3 0 12 2 1 -17 -3 4 4 0 1 -1 7 -2 -4 -8 -1 2 7 0 -14 -14 -2 7 -1 -3 3 -11 -13 -9 -6 9 2 3 0 0 -7 -10 -16 -8 -5 -16 -8 4 7 5 2 -18 -2 6 4 3 -2 2 4 6 -5 16 28 30 42 57 66 77 99 110 116 111 119 120 129 129 130 143 142 132 141 147 136 154 155 137 157 144 153 145 156 148 154 159 174 168 157 163 171 169 169 163 166 170 173 161 173 176 164 164 170 174 162 165 172 168 169 161 164 172 161 174 163 167 169 167 165 173 169 173 170 173 171 180 170 175 178 169 184 183 175 181 178 178 170 169 169 170 171 166 182 171 179 189 188 183 172 186 177 182 172 187 180 182 184 182 179 177 176 177 182 182 184 169 183 175 168 167 174 185 181 182 168 175 178 173 164 179 160 183 171 175 173 162 162 177 175 167 157 174 179 173 175 180 170 173 165 170 170 178 166 169 181 175 180 178 180 180 176 182 180 174 185 175 178 192 184 187 177 191 182 186 188 185 178 183 182 178 180 180 169 183 167 185 181 177 176 178 168 171 180 164 183 169 166 169 174 160 145 104 69 89 38 2 -10 -3 0 10 -4 -4 -1 -4 -10 0 3 -6 -15 -13 -10 -17 11 -8 -4 -4 7 -9 -6 4 9 1 10 -2 -9 7 -13 -12 2 2 -1 1 -6 -3 -7 8 -3 2 -10 0 8 3 1 15 -2 7 12 9 14 -8 -5 0 8 16 9 -2 12 13 13 14 15 -18 -2 24 6 27 5 11 3 -2 2 -14 -1 5 -5 4 8 2 0 -9 5 13 3 -1 2 -3 5 3 -7 1 1 -2 1 -5 -2 1 -4 20 2 4 -1 -10 9 5 -4 3 3 2 0 -3 7 0 -1 -11 -7 5 8 2 -1 7 -1 14 -3 9 9 2 1 10 0 9 9 18 -9 1 -2 6 -10 -4 15 -2 5 5 -12 3 5 -12 4 -1 7 -14 4 -12 -10 2 -6 12 -6 -4 -9 -5 0 4 -5 -8 2 -6 -1 -12 6 -8 -6 1 6 -9 -5 7 -5 -11 -7 9 4 -5 -5 5 2 -14 4 -4 12 3 0 -6 2 -9 -10 -1 -9 1 9 -6 4 -1 4 3 -1 -5 7 -14 -2 -4 3 -3 18 -1 -4 10 -12 -5 -1 5 1 12 -8 -5 6 
10 1 4 8 -15 6 -3 11 4 1 -11 4 10 -1 13 4 -1 4 3 -4 -7 -2 -4 -15 11 -8 0 -3 -1 -6 -3 9 2 -1 -14 11 3 2 0 1 5 5 5 -2 -4 13 -3 -1 4 4 16 7 12 -3 6 8 0 -6 2 1 1 16 16 5 10 10 8 1 5 -3 8 16 10 5 6 2 15 1 9 14 1 11 11 -4 1 4 8 -1 10 -3 5 -1 2 15 5 -3 11 -2 2 1 -5 4 4 1 -3 0 -4 -4 -11 -1 -5 -14 -5 -13 -7 -7 -6 3 1 -2 -9 3 -8 6 -19 4 -9 7 7 2 5 0 1 5 -17 2 -11 8 6 1 -5 8 9 -1 -10 5 -5 10 4 -1 0 7 4 2 4 0 8 1 1 1 -3 -8 -11 -7 3 3 4 -12 -11 10 4 3 -1 -3 1 7 -2 -12 12 13 -5 -18 -4 4 -2 -13 -13 0 -4 -6 3 11 -9 -3 -4 -2 0 -9 1 0 1 5 3 -9 6 -5 7 -5 -7 -2 25 26 44 60 70 79 96 91 104 126 105 118 117 131 120 130 132 142 140 130 143 136 150 139 143 147 151 158 159 153 158 147 155 173 164 163 160 178 176 153 165 161 167 166 164 174 168 170 173 162 170 178 169 172 163 167 167 166 174 163 169 163 165 159 175 161 170 176 169 161 163 159 184 161 172 186 176 174 184 177 166 183 157 173 174 174 183 184 175 175 170 175 191 180 177 175 182 182 175 173 180 177 172 187 181 170 183 178 170 180 181 179 163 185 184 169 180 169 165 176 172 171 181 179 170 170 181 173 172 179 178 173 179 170 171 181 169 177 179 164 167 179 179 174 185 174 176 175 184 174 180 171 183 175 175 170 169 183 173 196 180 184 192 196 183 199 171 194 176 182 176 186 173 193 185 174 174 169 188 181 181 168 176 171 178 161 180 166 163 173 160 171 160 160 127 88 64 76 20 -1 -6 -1 8 4 3 -5 -13 -3 2 3 9 2 -1 3 -14 -13 -10 -13 -2 2 -9 -7 -2 9 7 0 5 9 -6 0 1 -5 6 6 10 1 -4 -1 -13 4 -15 -7 -6 -7 4 4 12 -6 4 7 -9 8 -5 -7 1 4 12 -16 6 0 11 4 -11 13 2 -1 0 1 -3 15 1 15 9 11 10 3 -3 4 7 5 10 1 15 -1 -2 -13 6 -8 -2 -6 -2 6 0 -11 -1 -13 6 -5 2 1 -2 -4 -5 -1 -5 8 0 4 -1 -10 5 7 7 10 2 -1 2 1 3 11 -6 8 -7 -1 13 -3 15 -3 9 3 2 9 1 0 1 4 5 1 1 1 10 7 -1 1 17 6 -12 10 -5 14 0 3 5 -11 9 -7 3 -3 -6 5 -10 4 2 7 5 12 -15 4 0 0 -3 -5 0 5 -5 -8 -15 -2 5 -4 6 -5 -3 2 7 4 -2 5 -4 -1 -1 -5 -4 -5 -2 6 -14 6 -3 3 -4 4 -8 -1 4 -5 -5 -6 -5 10 11 -3 -4 -4 9 8 7 1 4 -4 2 5 7 -3 -7 -11 -1 6 -3 8 
3 9 -5 8 1 10 18 -7 -5 -5 -1 -5 10 -7 -10 0 4 -5 3 -2 -1 2 1 6 3 2 9 3 -5 6 0 -13 -6 -5 7 -3 -4 -1 7 8 3 8 -3 4 -11 2 8 3 15 6 10 2 8 -2 10 5 4 -1 -1 13 -4 1 11 -3 -4 -6 3 12 -3 1 11 11 7 3 11 -2 14 7 -1 7 0 18 14 6 7 2 -3 -4 0 -9 -9 -9 2 -3 4 -3 5 -7 -5 11 -4 0 0 -5 3 5 -2 2 -13 -3 0 -2 0 -1 0 5 -3 3 0 4 6 4 -2 1 -8 5 -7 9 -7 2 2 9 -6 -8 -10 -3 -1 13 -4 7 0 1 6 10 8 -4 -5 15 -7 3 4 -18 11 12 -2 0 6 2 1 0 2 -3 2 4 4 -7 -4 -3 -2 11 -3 5 6 5 6 -5 -9 -5 2 -12 3 -1 4 7 -7 4 9 -5 -13 -3 8 -3 -7 0 -2 3 -5 -2 5 0 -1 0 2 13 3 8 -9 10 -5 -4 3 3 34 33 47 62 67 68 105 98 95 107 115 129 135 138 104 131 144 137 130 137 144 144 145 128 139 143 148 146 144 159 151 162 160 160 161 153 161 175 160 163 171 162 150 171 158 160 152 179 163 165 172 168 153 167 167 163 160 165 175 168 166 179 164 169 173 157 167 160 161 173 153 170 172 172 181 178 181 180 168 175 164 176 177 173 181 173 184 187 182 172 176 182 177 168 194 178 170 180 164 164 161 165 180 176 181 164 169 171 172 179 173 178 174 185 190 167 182 181 172 181 179 166 175 170 172 172 178 169 174 186 171 174 167 166 177 169 168 171 176 161 160 175 183 170 167 171 175 171 170 173 175 182 177 181 178 172 179 181 177 183 187 173 185 173 175 178 176 172 186 172 182 170 177 174 178 185 169 175 178 173 168 178 192 180 160 173 169 166 166 164 152 126 74 79 80 22 2 2 -18 10 -7 2 15 6 -4 11 -5 23 -7 10 -15 5 -10 2 -10 2 -5 -10 -6 2 -11 -10 -7 -6 -4 -3 -5 -11 1 2 -2 -8 -1 -6 3 9 7 -2 -2 -1 -1 -13 1 -12 -5 7 -5 1 10 10 1 -6 3 9 1 16 12 9 8 1 2 -3 7 -3 10 3 -5 13 17 13 3 17 9 6 10 2 -3 16 5 -4 -3 4 11 -5 9 -1 2 -4 -2 -4 3 7 -10 -3 1 3 -2 -3 4 10 -9 4 4 6 -1 -4 0 -11 17 4 -8 -1 -7 3 -4 -11 11 -1 7 10 6 0 -2 6 2 5 5 10 -4 7 4 8 9 -9 5 4 3 4 -5 -9 0 -1 7 4 5 -1 -8 -3 10 -7 0 1 5 -8 3 3 3 9 -7 10 0 -14 -2 -6 7 7 -4 -4 -1 4 -2 2 -19 -8 1 1 -9 3 -2 2 -6 -2 -5 18 -5 2 2 -2 1 2 0 -4 -3 -4 0 -4 14 5 -4 -5 4 7 12 -2 10 -5 4 -5 8 0 -3 6 -4 4 -6 -11 15 4 6 2 4 -8 -1 -7 -3 7 7 8 
16 12 -6 4 2 3 5 19 -2 -1 11 -3 11 -4 4 6 -1 -2 13 0 -4 -3 4 -2 -2 5 -7 -3 1 -5 8 5 3 -1 1 6 -9 5 4 -8 6 5 1 15 15 1 7 10 -12 0 9 12 8 1 -4 16 -1 6 7 4 1 16 8 3 8 11 -2 8 1 13 6 14 1 1 1 26 6 9 11 2 6 5 8 3 6 2 2 3 -4 -6 4 -5 -7 -2 0 -21 -11 -4 0 2 -14 0 0 9 -18 4 -5 -1 1 1 5 5 2 1 4 -1 -13 -16 8 2 -13 2 -7 0 4 -6 2 -3 -2 0 0 8 3 2 1 0 1 6 -15 6 -5 -8 8 -2 -8 -4 0 -5 -11 6 1 6 -8 -3 -7 -2 -1 -3 -1 2 -6 -6 7 7 -1 1 -9 -20 3 8 -3 1 5 -12 7 -9 -5 -4 0 4 -1 1 -3 -11 4 -5 -4 -16 8 5 -8 -3 1 11 -13 -14 -6 -4 2 3 -2 1 14 14 -4 -1 0 -1 0 -3 -5 -14 -8 25 34 36 47 47 73 74 93 102 97 113 108 122 115 110 106 127 138 131 139 116 141 147 127 151 145 155 153 162 153 155 165 152 165 170 161 163 154 173 159 155 163 154 158 157 173 147 173 163 168 158 160 168 163 175 175 155 159 153 153 168 166 176 152 171 167 176 171 161 171 175 174 172 182 166 171 175 187 186 176 169 175 173 168 167 178 170 180 174 193 178 179 182 179 185 178 180 174 182 180 186 178 172 172 183 183 171 173 182 166 181 181 186 178 185 169 181 182 174 168 174 172 172 175 175 176 168 166 167 184 175 177 175 172 167 182 174 177 168 180 173 170 181 181 175 179 174 182 173 173 180 183 175 173 183 186 178 198 181 182 187 162 186 167 173 184 169 176 180 170 189 183 185 181 171 173 178 166 177 169 169 170 181 175 167 175 151 169 149 111 62 93 60 4 2 -6 4 8 1 -4 -9 9 7 7 -7 -6 -2 -7 5 10 -5 8 1 -5 -2 -8 2 -6 -8 -7 -4 -13 -1 -5 -2 -4 -3 -7 6 1 -7 -5 9 3 -4 7 -8 -4 7 -10 -1 -3 -2 3 -3 0 2 -6 5 2 -6 11 9 10 11 8 -7 8 8 2 11 5 10 15 6 15 5 20 15 4 -4 14 12 4 2 10 1 4 -1 -4 1 5 10 4 -1 9 0 -8 -1 6 -2 6 2 -4 2 4 2 0 -7 -4 -7 -7 -1 0 2 5 1 5 -3 9 4 -2 1 -13 0 3 -1 1 8 0 3 0 2 -10 8 8 10 -8 8 5 5 9 2 -2 7 -1 -6 5 10 -7 15 -4 9 -4 -4 -4 8 -2 15 -5 -8 0 6 8 1 -6 -2 -3 -4 0 3 -9 -2 6 -2 5 9 -4 -11 -5 -17 0 4 -2 1 -4 0 5 -1 13 0 -10 6 -7 -11 -2 4 -16 -2 -1 -7 -1 10 -3 -1 1 -8 7 10 1 -4 12 -2 7 -13 7 9 -12 8 -5 4 0 5 -4 -4 4 -10 4 -9 2 -4 9 -8 9 -6 -1 4 
4 13 6 -2 4 2 8 0 7 5 -9 -8 2 0 5 5 8 12 -17 7 10 -11 0 10 13 0 -3 17 5 1 -12 -2 -10 -1 10 -9 -2 -7 9 7 -2 -5 14 1 -9 8 9 -6 -1 -1 1 -2 -2 -4 7 5 14 1 11 2 9 8 3 5 -1 6 -3 0 3 7 -6 17 10 15 -4 -4 6 6 12 4 12 7 -4 -5 0 -2 -3 -7 13 -9 12 -2 0 6 4 -12 -3 5 0 0 1 3 0 0 7 -8 7 3 -13 2 -5 8 3 -3 -9 -7 -7 -3 0 -6 -4 6 7 -6 -5 7 5 -4 8 3 3 0 3 1 2 3 4 3 -5 -1 2 4 1 -9 17 -2 -10 0 -6 -1 10 -12 3 -4 0 -4 -1 -3 -7 -4 -1 -11 11 -5 -2 8 -13 -9 17 0 9 -4 17 4 -3 15 -3 -3 -3 -13 -6 2 12 0 7 8 5 5 5 4 -11 4 -13 -1 1 5 -1 -2 1 -10 2 1 -5 4 10 6 2 -6 -7 -16 -4 13 -12 -2 4 25 36 29 51 51 62 76 84 93 96 100 110 112 118 116 116 138 133 142 132 128 151 140 138 143 138 134 149 143 160 158 159 158 156 164 159 157 163 160 158 155 152 161 151 158 172 158 165 169 169 167 167 161 163 172 166 175 167 167 171 169 170 165 177 161 173 171 158 166 175 169 175 169 175 176 179 172 168 163 165 187 173 173 168 168 172 178 183 179 177 178 172 169 175 170 179 183 174 186 175 182 180 171 168 183 183 176 183 173 171 173 172 169 170 175 164 175 182 174 169 185 166 183 177 181 169 186 178 176 176 184 178 177 161 172 166 172 163 173 172 166 164 176 178 174 185 177 166 177 166 181 165 176 175 179 178 176 180 176 192 181 173 174 183 177 173 181 181 179 171 188 173 172 170 175 176 182 173 183 171 167 167 176 158 161 136 93 62 89 41 1 -13 9 11 -2 0 1 -9 5 -1 0 -1 14 -19 -14 2 -3 -2 3 -17 -1 2 2 0 5 -4 -6 5 -4 2 -1 -1 -13 -11 15 -9 0 -3 -4 -15 6 5 0 5 7 -4 9 -3 14 2 -7 -4 -10 8 -1 -1 2 4 10 0 10 10 6 3 7 0 4 1 12 7 17 16 3 0 -13 2 10 9 11 22 -1 0 5 -9 0 -3 0 -13 -4 0 1 3 5 8 4 -8 3 4 -4 -6 -6 4 1 -14 6 8 0 -9 4 -5 7 -10 10 7 -13 0 9 7 4 -6 -16 -10 4 -2 -2 7 3 0 2 -5 -3 6 3 10 8 11 -4 5 0 12 -1 0 10 1 0 -11 5 -3 -5 -8 7 0 -2 4 -5 -5 -5 8 -1 -7 1 0 3 4 -11 4 -2 5 5 -1 -1 -4 -2 7 6 8 -10 -1 8 -10 -9 -6 1 -12 -4 3 4 -3 -16 -2 -4 -3 12 1 13 -1 -9 -1 2 -13 13 6 -4 4 -2 -10 5 -2 -4 6 5 -2 -8 8 4 -2 -1 11 6 -19 -5 12 2 -5 4 -2 2 7 -9 7 3 8 -8 14 9 
3 -2 -1 7 -1 5 7 12 11 -4 8 0 -10 11 -4 2 -3 -9 2 4 10 -2 5 3 2 0 -7 6 9 4 2 6 15 2 -4 1 1 6 12 -6 9 1 5 5 6 9 7 3 6 3 -6 8 5 -11 -1 -3 7 -1 11 0 -10 5 -6 -10 3 -1 6 -1 7 -5 12 1 2 9 7 7 7 4 0 1 8 9 -6 -10 -2 -13 0 -2 -5 -3 -2 -10 4 -10 3 5 4 -5 -6 -11 1 -17 17 8 1 -3 -2 -3 -8 -3 1 -1 -7 1 7 -24 -3 -2 -3 -2 3 -3 -11 11 -10 4 -4 -8 6 9 0 1 2 2 -7 -7 -3 2 -2 0 9 2 3 4 -9 1 3 2 9 -2 2 -11 17 -3 4 13 0 18 -4 12 -5 3 10 -4 14 5 0 -9 -6 -4 -3 -2 7 2 -9 -4 -5 -3 0 -3 -9 -2 -6 -4 -11 -2 5 -7 -4 -7 5 11 -9 19 2 -3 -7 -7 -7 -10 -9 7 -4 -3 0 -5 -3 -5 3 3 -15 1 -1 -10 -7 0 8 25 19 37 56 52 66 70 78 95 101 104 107 104 110 118 117 125 130 126 121 137 145 146 139 148 141 150 151 155 152 160 160 148 158 147 150 166 160 163 155 151 156 171 167 153 162 165 164 162 164 156 167 168 173 167 170 154 174 156 166 146 170 177 162 160 176 175 173 170 170 177 174 166 169 169 174 162 176 162 175 166 176 173 188 175 171 168 167 168 173 171 172 169 174 174 171 170 182 166 174 178 176 170 175 166 168 177 181 177 172 173 172 176 180 180 171 176 165 174 177 168 166 160 174 183 158 185 178 173 165 170 173 182 172 183 171 179 163 180 183 182 173 185 175 175 166 161 168 177 182 182 194 174 176 173 165 182 165 180 175 178 183 188 157 181 171 173 180 174 171 176 183 160 172 173 163 169 165 166 167 161 150 129 80 70 81 25 -7 8 7 -1 5 1 11 11 -4 -6 5 10 -12 -10 -7 -2 -3 -4 2 -6 -11 -2 -7 2 8 -4 -2 -11 -5 -9 -6 8 -7 8 -5 -3 -1 -11 -6 -2 -8 11 4 7 -9 17 11 -1 -1 3 8 -5 -11 -10 2 8 5 3 24 -10 8 -10 10 8 10 7 5 -2 3 12 1 11 -1 15 11 -2 13 2 1 7 8 15 5 7 0 5 -2 12 3 7 1 -10 2 -1 -1 0 4 0 -9 -9 1 10 -1 0 1 -2 1 9 -5 -5 -12 9 10 1 1 0 1 6 -7 6 4 -6 2 4 -10 11 -4 -1 7 0 -1 1 1 -11 2 1 7 -8 5 -8 6 8 4 -4 7 10 -3 -8 0 1 1 -6 9 4 3 -8 4 -4 4 -7 -2 -10 4 -3 3 -7 2 -5 -3 2 1 17 2 8 0 -1 1 5 -5 -25 -2 -6 0 7 -8 -5 -2 -3 -4 -9 -9 8 7 6 -8 -7 -4 1 -9 -7 -1 9 8 -2 2 5 1 -7 4 15 -5 6 13 5 -7 -11 2 -1 -2 3 2 8 -5 8 1 -4 -6 4 0 -3 13 12 -6 3 -2 2 
8 11 8 4 0 5 -1 -1 7 0 0 17 7 -6 -4 6 11 1 6 10 11 0 0 2 -6 19 4 7 -15 -1 -4 -3 -7 6 -2 -8 -7 -7 1 1 12 5 -2 11 3 6 6 -5 4 -6 6 6 -9 7 5 16 0 1 6 -2 7 -1 4 12 1 -10 0 9 14 7 4 12 2 12 12 8 -4 7 2 -4 14 -2 9 -1 2 3 5 -5 0 -1 0 -10 -3 -3 5 -6 0 6 -7 -10 0 10 5 -15 2 4 -1 8 -14 5 -7 -12 3 -8 2 -2 -8 -11 -4 -11 -7 4 2 -11 -4 -13 15 1 3 2 -2 -1 -4 2 -7 14 0 -2 2 11 5 5 -11 1 -1 3 -4 -15 1 1 -12 14 0 8 2 -3 -1 3 1 3 -13 -6 -1 1 5 -18 9 5 14 4 14 11 -8 0 8 -2 -2 -7 13 -10 -7 -16 4 10 5 -1 -5 0 0 -5 -2 -3 0 -8 3 15 9 -13 -3 -2 -6 -4 8 -4 9 -7 1 8 -12 -4 -4 4 -19 3 -11 1 4 16 20 32 21 38 52 55 64 78 71 91 92 92 97 105 114 116 117 121 134 121 126 124 145 144 143 138 138 145 149 150 158 147 148 157 152 157 162 158 154 165 160 148 146 157 163 162 158 166 164 159 158 158 154 158 165 169 170 165 163 157 152 151 161 164 163 153 164 165 170 176 179 161 169 172 170 176 169 168 177 177 179 167 172 167 177 171 170 178 165 172 172 179 168 174 166 176 185 175 163 187 180 173 177 179 170 177 173 176 169 181 165 164 168 173 162 167 163 178 175 170 187 169 163 167 181 176 179 172 176 171 176 177 172 168 184 173 174 176 178 172 184 189 176 179 168 169 175 174 178 174 171 172 169 176 191 170 180 171 181 171 171 176 177 178 181 180 169 169 164 180 174 176 175 168 177 166 174 162 172 147 105 79 80 68 11 -2 13 7 9 2 7 15 -1 -4 10 3 -14 -9 -5 -6 1 -2 -13 3 -13 -4 2 -3 5 -14 -15 -3 -7 -3 -1 -5 4 9 -8 -4 3 -1 -14 -5 -2 -5 -17 -17 4 3 3 10 2 8 10 25 0 5 -1 -4 -1 -1 3 7 8 4 0 6 -1 21 0 8 7 16 2 -4 21 15 -1 3 5 -5 -4 1 7 12 -2 10 4 2 4 -3 -8 2 13 -2 7 -4 16 8 11 3 4 -1 5 9 8 -7 -5 8 -3 4 4 -1 -1 -4 -5 -3 -21 -11 -5 7 -3 12 0 -10 14 2 0 -3 -3 -1 -2 -1 -3 6 3 4 10 18 8 2 7 -7 0 0 -4 -9 0 3 -4 3 6 -6 9 -1 -4 -7 -2 6 5 -11 10 -5 6 -7 4 -14 1 -4 -4 5 -11 -13 13 -5 -14 4 -5 -7 0 11 -3 1 -7 6 -7 -1 -2 11 -5 1 6 5 1 -5 -4 -6 -2 -5 5 -13 -1 -6 -7 -3 -2 -3 -3 1 -3 -4 -8 -4 0 10 -3 -3 2 3 2 12 -1 -2 10 3 12 5 3 12 -2 4 12 -6 3 -6 -10 -2 6 5 13 -1 
11 -1 6 2 17 13 5 2 -1 -2 10 3 11 -12 12 -5 1 3 1 6 2 9 4 0 -3 3 -6 -11 5 0 -2 1 -1 -8 -4 3 10 -9 13 3 -4 -2 6 -1 8 5 -2 -11 8 -2 5 -2 11 5 24 11 4 7 7 7 -3 2 -2 10 -10 7 -4 2 -5 -1 2 -3 8 -2 3 1 -2 -2 11 14 -8 4 -15 5 -16 -3 9 9 -6 10 -1 -8 3 0 3 4 -5 -6 1 -11 4 -11 7 2 6 3 1 -1 -2 3 -8 -6 3 -6 4 -4 3 11 -7 2 -2 -22 -4 -5 12 -13 3 -3 8 9 -2 4 -2 -9 -5 3 -10 3 -2 -3 6 4 13 -4 3 -1 -5 6 -7 -8 10 1 0 13 -8 -1 -2 5 0 4 0 5 10 5 1 3 -4 10 7 -2 -1 9 7 1 6 -3 10 4 3 -3 11 5 3 -6 -8 2 5 -1 -6 -4 -9 -7 1 0 2 -7 -1 -8 5 -5 -5 5 -1 -8 -9 -7 -3 1 1 3 -18 4 -7 -3 -1 3 2 -8 7 -12 21 20 31 35 41 50 57 69 71 86 87 97 102 101 103 99 120 122 136 128 128 124 136 143 150 149 144 144 138 153 149 153 146 151 141 159 162 154 152 175 164 169 144 162 144 158 151 164 161 160 164 169 168 170 168 167 159 165 170 169 156 169 150 172 171 167 160 177 160 172 165 165 172 169 177 179 167 172 175 169 169 171 171 183 171 174 165 172 171 168 173 168 179 161 167 172 171 165 162 168 165 171 176 175 175 171 172 174 170 165 160 173 166 179 172 167 172 165 174 168 166 186 180 161 184 169 171 182 170 174 164 179 170 177 168 184 179 174 167 159 159 168 182 164 178 181 167 177 174 176 173 176 188 164 162 170 166 180 173 187 172 175 166 170 183 168 179 173 173 174 173 156 155 165 171 156 113 71 68 65 51 12 -6 -1 16 7 -2 10 11 -6 2 14 2 9 11 1 0 2 6 -1 2 -6 0 1 -3 0 -5 7 -9 1 0 11 -1 4 -9 6 5 -3 3 -12 2 -4 -1 5 -11 -2 -7 -5 1 -9 8 12 14 -2 7 6 -4 4 -1 -1 5 20 -1 6 -5 11 0 4 11 -9 -1 7 0 1 -2 14 -5 18 -1 -11 10 -9 11 4 8 16 12 5 2 5 1 4 5 1 7 2 -6 5 5 -5 2 11 -5 3 -2 9 -5 3 6 -6 -6 7 6 -8 7 5 2 4 -2 -11 -4 -2 -1 2 6 -2 8 -8 7 3 2 1 3 3 -1 1 1 -12 -4 -3 -16 -5 2 0 4 -5 -5 6 -5 -3 6 2 -16 14 -15 5 -10 -3 0 3 -4 1 4 -6 9 -3 5 -2 -2 3 3 -3 -2 20 9 5 -12 15 -3 -10 7 0 10 -5 2 3 -15 2 -4 -2 0 -2 3 0 9 -15 13 -6 -8 11 -1 -3 0 -12 -10 9 3 -2 -10 3 2 4 -7 4 -4 8 2 -5 5 -1 0 1 -18 1 2 8 -6 8 -3 -2 3 -7 4 3 3 -9 1 6 6 2 
-3 15 6 5 8 0 11 4 8 14 0 -4 4 -3 -4 0 -2 8 -8 6 8 13 20 11 5 -10 9 15 -4 5 -5 -4 2 -1 -1 -2 3 7 6 3 8 0 3 5 9 2 10 5 3 7 2 7 10 -7 15 9 8 2 10 7 5 5 6 5 7 9 6 -2 11 0 -4 7 17 2 15 1 8 7 10 -8 6 5 7 -3 -7 -4 2 7 -10 -2 3 -1 8 0 -1 5 -2 -5 -3 -3 -4 -1 -1 1 6 -6 2 7 -8 -6 -3 -9 -9 3 -2 3 -5 -4 -15 -1 -15 1 6 -9 -7 -7 -1 1 7 -9 -6 -6 -5 -11 2 -1 0 4 12 4 -4 -6 1 4 -15 1 -2 8 -18 9 -9 -2 1 8 -2 -1 6 3 0 -3 1 9 -7 -8 -11 -9 -7 -2 3 -7 -13 -9 -3 4 -1 0 -2 4 0 -4 4 -6 -8 -12 -12 -3 0 4 9 -9 2 7 -5 4 -7 -7 1 0 -9 -9 -3 6 2 -19 7 -3 0 -2 2 11 -2 2 -5 -1 -3 -7 9 4 13 -9 -13 -6 18 25 28 33 29 45 55 65 78 80 83 83 101 103 112 115 109 107 118 133 137 132 132 150 136 140 142 151 145 145 163 143 139 156 157 157 166 155 145 159 145 138 158 154 160 151 151 156 158 169 159 167 175 169 168 155 149 167 169 158 172 160 169 166 173 162 170 171 158 166 168 175 170 159 171 168 167 168 175 178 171 170 182 178 174 174 176 163 174 161 153 167 168 158 175 171 183 173 172 168 171 157 175 166 162 151 166 163 168 157 156 171 169 173 169 155 175 166 172 160 180 166 170 161 166 171 170 171 183 154 170 174 167 167 171 164 171 168 164 184 179 161 171 175 161 169 163 171 164 163 175 168 179 174 178 176 167 177 175 170 169 165 173 173 168 173 159 167 157 171 174 161 128 83 65 82 73 28 -2 8 10 -2 9 8 8 -1 -6 5 10 18 -12 -3 -13 -3 -4 -7 5 14 4 2 0 -6 -5 -2 -11 -2 3 3 -8 12 -3 2 -3 -1 3 7 -12 1 1 1 2 -9 -8 5 0 -6 5 13 15 -2 7 4 -3 -1 12 -16 -6 4 10 -5 7 -13 7 15 8 5 11 3 4 7 1 11 13 15 -2 5 -1 4 2 5 -3 -6 2 5 6 6 7 14 -4 7 8 -4 14 -10 6 -1 6 2 2 14 4 -1 8 0 -5 0 -8 5 1 -10 7 0 -4 4 4 -10 -5 3 5 1 -4 4 -6 13 -14 12 -16 0 -9 2 -8 12 -6 7 1 4 -11 2 -7 10 -12 -2 -1 -3 -1 -5 6 -3 7 0 0 -5 4 4 -7 -2 -2 1 0 -14 -2 -9 6 1 1 -3 -14 9 -4 2 -11 1 10 -1 -1 4 5 6 1 -6 -6 7 -12 -10 5 -8 -7 21 -10 7 1 14 -8 -3 -3 0 -10 -5 5 -6 5 7 2 1 0 4 -1 -3 -6 4 0 -3 4 0 3 10 5 -6 3 0 5 0 17 -3 -6 -5 -1 -7 5 8 10 0 1 8 13 8 2 -1 
4 15 -4 12 7 -3 -1 15 -2 6 11 10 -1 -13 -1 7 6 -9 6 -2 12 14 3 7 11 15 7 -13 5 0 -1 -6 2 1 5 0 5 0 6 6 -7 15 0 -1 4 -1 1 6 0 8 2 4 -1 6 1 4 -3 10 13 -3 0 10 -1 2 7 0 -9 9 -4 9 0 -1 10 6 6 3 2 -3 2 2 4 3 10 6 -5 7 -10 -3 8 8 -5 -11 -1 -2 -1 -8 6 -1 -4 -8 -3 -1 5 3 -2 11 -3 -4 -8 3 -8 -8 -6 -4 -8 -9 -7 -6 -4 -2 2 -7 0 -5 9 1 -10 -5 -5 -3 -12 2 -11 -2 5 1 -12 -10 -5 6 1 -6 -3 -3 -13 -8 8 -2 -8 -1 -2 13 -2 -1 -1 -6 -2 -6 -12 0 -8 -2 -13 -5 8 -16 -3 8 0 1 21 0 5 5 0 1 2 -8 -14 8 -5 3 9 -3 -4 5 3 -1 6 -6 -2 -5 -5 -6 -5 7 -12 -11 0 3 1 -6 -8 9 -13 -2 4 20 -10 -10 16 -5 -10 3 3 5 1 -12 5 -5 -7 13 5 -1 -4 22 33 38 38 22 42 57 57 79 89 80 86 87 102 103 94 119 109 116 139 109 134 133 137 130 153 138 147 144 149 131 142 148 153 156 148 146 164 144 146 162 145 152 147 152 158 153 158 157 151 159 150 159 168 154 169 170 162 151 164 179 165 160 177 156 157 168 169 167 163 171 164 169 157 176 166 165 161 165 166 153 166 168 166 164 155 173 163 163 159 181 164 165 176 168 165 172 179 161 175 172 171 183 172 170 174 174 176 163 177 163 178 179 177 170 172 160 176 165 157 167 179 183 171 173 162 173 177 176 173 181 165 175 184 176 181 183 172 164 167 160 165 173 171 170 169 170 180 167 176 168 172 171 172 179 169 178 166 174 171 165 178 162 162 164 168 158 134 101 57 86 89 41 0 19 12 19 0 0 6 6 3 -2 15 6 -1 -4 0 -4 -1 6 -4 5 -2 2 -1 7 8 10 0 -5 6 7 2 0 4 1 -11 -7 -3 -15 -3 -4 -6 7 2 15 9 -7 0 -1 -9 7 2 -9 -2 4 5 10 3 -7 7 0 -5 0 7 5 2 7 -1 7 8 7 3 24 2 3 5 -4 14 7 -3 10 0 8 4 4 9 3 2 6 14 8 7 0 8 -3 4 -14 7 1 -8 2 -2 -7 5 -8 -8 5 5 2 10 -14 3 5 4 14 2 -13 4 2 -1 -4 1 -3 0 -11 6 -4 -9 -10 3 6 -12 6 3 0 4 -7 -6 -3 -4 5 -1 -18 -16 4 -4 0 -4 9 -5 12 -3 5 0 4 -5 17 12 -17 -6 0 -2 -7 14 2 3 -11 -5 1 2 1 0 0 1 -1 1 0 2 5 -2 6 7 1 -8 14 12 3 6 0 1 14 -8 0 1 -1 1 1 -2 -2 8 -3 1 4 5 4 -11 -4 -9 -2 -12 1 -1 -6 -5 -5 6 -4 -2 5 5 9 -2 2 -8 -3 6 2 1 3 14 3 14 0 4 6 1 2 2 3 3 2 7 5 
-1 12 0 -8 12 3 0 0 14 7 14 -7 -9 8 -8 -5 -1 0 6 -1 2 2 9 1 7 -1 -5 -1 4 -8 2 -10 10 2 8 -6 4 -3 -6 -1 3 -6 5 6 10 1 1 6 5 -7 2 7 1 6 2 -2 3 -7 7 0 19 -5 8 -7 5 -4 0 8 7 1 -4 -2 10 15 1 7 -1 12 7 4 7 5 3 -2 -1 5 1 3 -5 0 -1 5 -4 -1 2 3 -3 -9 -9 0 -7 -8 3 2 15 -7 -6 -9 12 -4 -1 -2 -11 -4 0 -6 -2 5 -6 -12 -1 1 3 3 -12 -3 -3 4 -4 0 -6 -2 -26 -4 2 -4 -17 4 -4 8 -6 -1 -6 -13 7 9 -13 9 -5 -8 1 -6 -7 -10 -1 -17 2 2 -6 1 0 -5 0 3 14 -12 2 -1 3 12 -1 6 -2 10 3 -6 -3 2 7 -2 -2 0 5 5 2 -2 -5 -5 8 9 -3 10 11 -3 -4 -3 4 8 -2 -3 0 -7 4 6 -14 3 10 4 -1 2 4 -8 0 -10 4 4 5 0 -3 -8 -1 -1 -3 7 4 -2 14 2 28 10 38 32 37 51 51 71 70 83 85 93 96 96 113 117 106 114 119 119 136 139 132 140 135 145 139 140 144 146 145 144 158 150 148 153 147 140 148 136 148 147 148 149 154 155 163 150 157 152 155 162 159 165 169 165 160 157 160 173 171 175 167 161 170 161 174 170 160 163 175 156 161 171 167 170 172 165 176 168 162 165 166 172 167 162 165 168 168 165 167 162 169 168 170 159 171 161 166 177 166 160 167 172 164 166 162 174 171 164 192 164 175 165 164 175 174 162 163 162 179 176 173 171 165 164 166 169 168 181 168 169 167 158 171 152 171 166 170 169 166 157 172 175 176 165 174 161 179 169 169 177 157 173 162 155 171 156 160 156 166 159 151 127 71 83 78 58 5 15 9 -1 8 0 9 8 6 13 10 0 2 5 0 4 -3 -6 -4 0 0 5 -2 7 1 -7 9 8 3 -6 0 1 -6 -2 2 -15 -5 -5 3 -5 -8 1 0 -12 4 10 3 -5 1 8 0 0 -3 11 4 7 10 9 12 -4 1 -4 6 5 4 1 3 6 10 2 0 15 -4 4 7 -1 -3 -4 1 11 17 5 1 2 5 -4 11 0 -7 1 -1 -3 14 7 5 1 5 7 14 5 7 7 0 -1 0 1 -3 -7 12 -2 -5 -5 -3 -11 12 8 -8 14 -2 3 -2 7 -1 -10 -2 3 -5 -5 -4 8 -4 -13 -4 -5 -2 3 0 3 -11 7 5 -1 -4 -8 -2 3 8 -8 -5 3 1 -8 6 4 -6 -12 -2 -1 -4 -11 2 -9 3 4 -6 3 5 2 -6 -2 -4 -2 -13 1 -4 -3 9 4 -5 -10 10 11 0 -8 15 2 1 -4 -6 -4 3 2 0 0 6 8 -7 4 -5 -2 4 7 -2 8 -7 5 12 5 1 3 0 -13 -4 -8 -1 7 -15 17 -3 5 -8 -5 1 -4 2 2 5 6 0 2 -5 3 4 -6 -1 12 3 0 5 5 4 2 12 -10 
10 3 2 19 5 9 6 -4 14 17 5 -4 4 1 -6 11 10 -4 -21 7 9 -3 -8 0 -4 -12 7 -1 4 -9 -2 6 -3 1 10 10 5 1 11 -4 11 0 -2 -8 11 -3 7 7 2 -4 3 -2 5 -1 -2 1 2 3 3 0 13 0 -2 2 7 -5 17 -17 -1 7 -3 10 0 -4 6 -5 -3 15 -1 6 12 11 1 3 9 0 -3 -3 13 6 10 -14 5 -10 -3 -11 -7 -4 2 -5 1 -6 8 1 -2 10 -7 -7 -10 -6 -1 -13 -9 2 5 -2 3 -5 11 -2 0 -1 -5 3 -6 -5 -9 -1 -3 -16 -4 -16 -10 5 1 0 6 -2 -12 4 9 4 -5 -5 0 -14 -3 -8 -11 7 6 -12 8 -2 6 -2 -2 -2 -1 1 -6 -5 -14 4 -7 -5 1 13 11 1 14 5 4 -11 10 -10 6 2 -6 3 -3 13 6 -2 10 -9 14 11 -7 11 6 6 1 1 4 8 0 -2 0 -10 6 -5 -10 11 -12 3 -1 8 -4 6 -6 6 6 5 6 2 6 6 -6 2 -3 8 7 10 -9 5 4 3 9 10 16 23 25 35 48 44 58 60 66 63 76 73 79 105 106 109 90 108 114 131 125 116 132 124 131 130 130 135 137 131 138 149 149 144 130 142 148 148 150 146 155 154 149 160 150 153 144 150 146 160 158 150 159 159 149 165 151 163 157 158 167 163 174 157 165 151 149 160 162 162 150 173 156 163 162 156 163 175 165 164 150 160 156 163 160 155 151 169 171 165 171 160 170 173 171 153 163 156 174 165 167 169 172 179 174 170 175 168 174 150 165 171 165 170 176 184 175 167 164 168 172 173 175 170 166 178 177 168 172 169 170 178 179 170 167 154 172 158 165 164 171 166 157 165 164 172 154 159 171 164 167 174 166 156 153 146 154 163 154 129 68 84 91 62 15 3 12 16 14 3 -10 1 -8 9 22 -12 5 -6 10 -9 -3 -1 -2 -2 -7 -1 6 6 -3 5 -11 11 8 1 8 6 4 3 9 -9 9 -7 7 -8 2 -7 -5 0 2 -3 -16 -12 -4 4 -11 11 -10 -4 4 6 4 5 13 0 6 -1 0 -6 -5 -5 4 -4 -1 -2 1 12 -5 9 1 7 6 0 4 3 -12 6 -2 1 3 8 -5 2 1 5 13 13 -3 12 11 14 8 5 7 1 -5 2 4 -3 14 7 3 7 0 10 -7 -8 13 4 -5 7 5 9 -8 15 -11 7 -1 -3 3 7 -3 -10 -7 9 0 -2 -4 8 2 3 3 5 -13 -5 0 12 -8 2 -5 -4 -11 5 -6 -1 13 0 -2 10 9 -7 2 9 -15 7 10 5 -15 -2 1 -7 4 7 -6 5 18 2 11 -3 12 -1 -4 2 3 5 9 18 13 -14 7 -13 0 2 8 -5 -1 1 -3 -4 -3 1 1 -13 -4 17 3 -4 6 9 1 -1 1 -11 -7 5 0 -2 -1 -5 14 -4 0 -14 8 5 -1 -4 -3 11 -8 4 7 0 -1 7 -2 -3 10 -12 4 6 12 1 17 10 7 4 9 14 13 1 
1 12 -10 3 8 16 1 2 -2 9 3 10 -9 -2 9 6 -3 -1 14 14 15 16 13 17 8 12 4 -1 0 11 10 -8 3 -2 -9 13 8 -2 12 -4 21 -3 0 1 8 -1 8 -4 7 5 10 2 12 -1 1 -7 -1 2 7 -3 -1 3 12 3 -2 9 -8 1 10 3 2 11 -2 3 0 9 8 8 1 1 -3 5 -5 2 -3 -2 -1 -2 9 -1 -9 2 0 7 -11 0 -13 -2 0 -4 16 4 6 -1 10 3 -5 16 1 -2 -7 -5 -4 -3 -6 -4 -4 -8 2 0 -3 3 -2 -8 -13 4 -2 -13 -1 -9 4 -14 -13 2 -2 -7 -11 5 2 -6 9 -7 -7 6 -6 -14 1 -3 3 5 5 -9 0 -6 6 7 8 -4 -2 -1 12 3 3 -7 -6 -16 3 12 3 -6 11 4 6 -6 13 4 1 2 2 5 8 1 13 -3 7 3 2 -4 -2 3 0 8 -7 8 -7 2 -9 3 6 -9 -4 1 10 8 -3 6 11 1 11 5 2 -9 -4 -1 0 4 2 -6 0 -1 -4 9 -13 -6 3 6 3 3 3 10 4 11 11 25 25 28 36 30 33 43 49 75 64 68 90 95 101 96 105 109 96 121 116 137 120 115 128 119 129 120 139 141 138 161 143 137 144 144 143 150 139 149 157 157 151 142 151 152 154 154 148 158 144 150 164 163 167 162 162 160 165 148 163 148 155 161 170 169 147 166 158 158 160 167 153 167 157 166 157 163 165 164 172 163 158 163 163 166 154 159 163 154 165 159 161 173 158 176 170 180 169 171 165 174 160 174 167 160 163 171 171 177 162 178 171 160 161 168 179 168 164 180 163 173 167 172 162 167 162 157 174 159 162 171 171 157 163 164 167 163 170 167 161 168 164 167 166 155 166 173 168 153 147 162 145 162 153 127 86 83 82 53 12 2 8 -7 7 11 -1 8 11 0 4 2 11 5 3 -9 -8 8 12 0 -3 8 17 3 4 11 5 -10 4 -2 0 -9 -2 12 -7 2 -13 -7 10 -7 -2 8 -1 2 2 11 -8 5 3 -7 4 8 -7 5 -2 -3 14 -1 0 2 -7 4 -8 3 0 -7 6 0 2 9 3 -2 6 7 6 1 2 3 9 -3 2 9 -2 -1 7 15 8 1 -10 9 7 -3 -1 10 14 1 8 3 2 13 -7 16 16 9 4 7 4 -2 9 6 -1 -1 0 9 -19 12 -2 5 -10 2 2 -14 -3 -24 -2 -10 -11 -7 -8 6 -6 -1 5 -9 4 -4 -7 -3 3 0 3 9 9 5 -13 -5 1 -10 -1 -17 0 4 -7 -7 -9 -11 -10 3 0 -4 5 -1 -14 8 2 -6 -2 2 -1 3 1 -9 1 2 -1 3 4 -8 7 -1 -2 10 12 0 2 -2 5 -1 4 -7 5 -8 11 -9 2 5 10 2 5 5 5 1 -3 3 -6 -4 7 -3 -2 12 1 -1 6 9 -2 -3 -3 8 2 -10 -7 -8 -3 -4 2 -3 -2 -2 1 -1 15 -3 -3 15 0 7 1 13 7 -4 0 12 -4 8 2 9 6 -6 
7 11 8 12 14 -10 4 13 5 0 3 -1 -4 14 3 9 8 1 7 -1 -4 19 -1 5 -1 5 -2 0 13 -2 -9 3 3 4 8 -1 9 3 4 2 -3 -5 9 -6 -5 -2 5 5 13 5 -1 13 2 11 -5 9 -1 9 2 2 7 1 6 6 5 0 -5 15 -4 -10 1 8 -6 2 -2 12 -2 -4 -1 11 8 -1 12 5 3 -1 -1 -7 5 -6 5 6 3 -5 7 -1 2 -1 4 2 1 -1 -2 -7 13 -10 12 -8 2 4 -8 7 -10 -7 -4 -2 -1 -5 -6 -3 -5 -2 -9 0 -14 -8 -19 -7 0 0 -12 1 -6 -9 -5 -12 -7 -2 -6 -15 11 7 0 5 5 -1 -9 -2 6 -7 -11 -3 7 1 6 8 1 9 1 -6 -1 -13 3 2 -1 9 0 16 -4 15 5 2 9 9 -6 5 10 -5 -4 -5 3 1 -1 13 6 0 2 9 4 5 11 2 12 -11 0 5 1 -6 -2 -5 -3 -2 -3 -2 -1 2 -5 2 0 7 -13 -3 -3 8 6 3 -6 1 0 6 -8 6 10 13 -7 -1 11 5 -3 0 6 3 14 -7 27 13 21 24 42 28 38 39 47 55 63 63 70 86 89 84 106 111 96 105 118 108 123 124 121 113 114 123 144 135 132 142 137 142 138 141 139 137 143 136 148 145 138 143 150 143 155 147 139 140 134 138 158 152 144 150 163 157 159 153 157 163 159 144 160 147 151 157 164 164 167 166 158 164 167 164 163 160 154 164 159 164 165 167 166 157 152 162 161 166 167 162 168 173 167 172 160 162 170 160 155 160 152 176 166 159 158 161 158 178 173 165 176 157 160 173 168 153 166 168 169 167 180 164 158 164 169 163 175 152 159 174 172 161 157 163 166 168 180 168 167 159 158 162 158 148 162 153 151 162 160 135 92 61 73 76 34 4 0 -2 14 -1 0 10 3 3 12 7 26 -4 3 1 2 1 6 -1 -6 -7 4 4 -7 7 9 6 -20 -2 -8 5 0 -9 9 -6 1 11 2 -4 1 -6 1 -2 7 -6 6 -1 -3 -6 -11 -15 -3 -1 -2 12 0 4 -3 -6 -8 11 12 1 0 -7 -6 -7 -4 4 6 0 -1 12 -5 9 12 -3 -5 6 4 2 15 -5 0 9 7 0 -7 4 6 -1 11 8 12 -3 2 3 8 1 4 12 4 3 5 -1 -4 -10 -10 7 2 -1 -13 9 22 6 -5 9 -2 5 7 0 3 -8 -3 -4 -1 -2 -1 -5 -9 3 2 9 3 -10 2 1 -7 8 5 -1 -9 -6 -8 -6 -13 0 -12 -14 -1 0 -4 0 0 8 -1 -4 -11 -1 -5 2 -4 7 -10 -6 -5 8 2 -4 3 -5 8 6 -3 3 11 -10 4 -2 -10 6 12 15 1 9 -12 5 -1 11 0 -7 -6 1 0 8 6 -8 -2 -3 14 -3 -2 1 1 0 1 2 1 0 -3 -8 8 -3 1 -5 10 -5 3 -4 3 9 -12 8 -2 3 -7 17 -4 4 14 13 0 13 16 -10 2 7 6 4 12 1 0 2 5 8 7 7 6 13 
2 3 -3 5 8 1 8 -3 5 11 4 6 7 8 -4 10 6 7 2 16 7 -1 17 3 6 5 3 17 -5 2 4 -1 6 -5 0 -4 -5 2 8 -1 8 13 6 3 2 4 -2 -11 12 0 2 15 10 5 -6 11 -2 -3 -2 1 -9 1 2 -2 1 5 -1 -13 7 -3 -2 -8 5 -3 -4 1 7 -1 1 -8 1 -3 2 -12 2 10 2 -8 -4 -1 -3 3 0 5 4 0 -2 10 -8 -9 6 -6 1 -10 -4 1 -8 -12 12 -1 -3 7 -9 -5 -3 -14 -2 -8 2 -8 2 -16 3 -9 -5 -6 -9 -15 -12 -23 7 0 -8 -3 -11 -10 9 -13 12 -11 2 -7 -2 -6 12 -8 8 3 -6 7 2 4 1 -4 -8 1 7 1 -1 -5 9 8 0 -5 -2 -12 9 8 12 -1 -6 7 -10 -2 0 15 -1 12 -2 4 -15 18 -8 -12 -6 2 -5 11 -7 -5 0 9 -2 2 -3 0 -8 3 6 -12 0 -10 2 -4 11 0 -6 -1 0 -2 3 -2 -1 5 -3 7 10 0 3 -2 1 7 0 4 16 -2 0 15 6 10 -4 1 8 3 6 -3 7 7 -2 8 27 25 35 31 47 41 59 63 61 72 85 92 103 108 91 108 97 97 110 111 121 111 117 145 135 127 128 136 130 139 133 129 138 134 136 143 146 132 132 140 140 132 136 145 137 143 158 133 146 149 156 167 149 138 145 155 164 161 165 154 156 159 148 150 157 166 162 150 153 160 168 162 165 156 148 154 162 147 160 171 165 156 168 158 156 156 154 146 154 150 147 162 170 167 172 173 173 162 162 175 160 164 159 174 164 165 162 169 171 166 160 161 157 168 167 160 175 165 175 165 156 161 169 169 160 177 169 160 173 176 157 167 155 158 157 168 170 158 158 161 140 152 145 140 110 83 70 81 33 14 -5 12 5 10 -2 10 8 2 -6 3 -1 15 4 -13 4 -2 -8 0 8 -8 19 8 1 6 1 8 2 -2 6 -4 -9 2 2 -9 17 -8 -1 -10 15 -6 -2 -6 4 1 5 15 0 3 2 -8 0 -4 1 10 -1 10 0 13 9 8 -1 1 0 11 -2 1 -4 -16 1 -3 4 -1 -2 1 -2 4 4 0 -1 0 -3 6 14 5 -3 -10 0 -7 3 4 12 3 -5 -1 -1 9 2 2 -3 -3 2 0 4 3 -10 10 -6 1 2 8 -1 -6 4 2 -10 -5 0 -1 -2 8 0 7 9 7 -1 -5 -4 6 7 -13 -5 6 -2 -5 6 -5 -5 9 -6 1 1 -6 -2 -4 -7 -2 2 -3 -8 6 -19 -12 -1 -9 1 -3 -2 7 -3 6 1 -2 2 -3 0 -1 4 8 -2 9 -12 -2 -1 1 -1 -4 5 2 -1 9 0 6 0 9 1 6 10 -5 1 -3 -4 -1 4 -1 9 5 -5 5 1 1 -7 10 -3 -2 4 11 -6 -7 1 -8 -9 0 -2 14 6 -8 9 2 -3 3 3 7 3 0 11 15 -3 8 -10 20 -5 11 4 20 4 -2 5 -4 3 -12 22 6 3 -1 8 6 7 8 9 5 
-1 6 -3 -3 1 6 6 10 1 2 7 6 -3 12 3 6 5 4 4 -6 12 13 11 4 8 -2 16 2 14 9 -1 3 2 -3 7 3 8 -8 8 16 -8 3 2 15 3 1 2 -1 7 0 4 2 2 1 4 10 13 6 4 2 1 4 -4 0 -3 -9 -1 13 -3 -13 -2 -3 -3 -14 6 0 10 -4 -2 -3 11 10 -3 9 3 2 0 6 1 0 11 8 7 1 -1 -6 1 -1 9 6 -6 -7 -13 15 1 3 4 -6 -12 2 -6 -12 -3 -4 -14 1 -6 2 1 -15 4 -4 -6 3 -2 -11 -7 -11 -2 -4 4 -5 6 2 -5 -8 -7 -8 -5 -11 13 -3 5 9 -9 1 -1 -1 -3 0 0 -1 -3 -5 -1 -5 -10 -3 -1 5 5 -7 9 15 -8 -6 4 14 10 10 1 3 -10 11 11 -10 12 4 -11 3 13 8 -1 9 -7 1 -2 10 -1 6 7 -2 11 9 -3 -11 9 0 -4 4 6 -3 12 3 -4 6 1 -9 1 10 -3 4 2 5 -2 -1 -7 5 3 -2 6 7 -5 15 0 9 9 -1 0 1 4 -8 8 1 -1 11 4 0 -3 2 8 1 25 11 28 34 31 44 51 58 63 69 78 87 93 91 92 108 100 115 100 104 121 111 119 123 117 115 122 125 123 127 138 138 131 135 128 139 140 147 139 149 138 145 145 148 144 141 155 141 148 148 156 153 146 135 144 152 141 144 151 148 138 154 156 158 145 157 156 152 153 151 144 154 146 155 155 153 150 156 152 168 151 151 172 161 155 157 159 149 169 154 164 163 152 172 163 165 162 176 161 177 158 170 165 167 166 162 163 165 169 168 164 167 157 156 173 169 164 170 153 167 162 156 166 169 161 165 164 158 149 159 160 160 158 169 160 148 145 146 152 161 146 107 66 85 46 13 8 16 8 10 1 10 3 -1 4 4 -1 10 22 8 6 15 -2 7 -1 -1 4 3 7 -4 18 -3 8 -4 7 4 -8 6 -3 1 8 -7 0 -7 9 -1 -19 19 3 3 -4 5 1 -2 -2 0 4 -14 -2 4 -2 3 6 14 5 1 -1 2 -3 3 17 -2 -8 -3 3 -6 12 -2 7 3 -3 1 9 -1 -1 14 6 -7 1 6 2 8 12 3 5 4 5 7 9 1 3 14 -5 -8 19 3 1 8 8 -3 -5 6 3 3 0 -3 -3 -1 0 2 -3 10 4 5 1 10 2 2 0 -9 2 0 -13 0 -3 0 -11 6 1 9 -3 -9 -7 -3 8 0 2 -9 -3 6 -9 -1 -1 5 -13 6 -2 -2 -9 -11 4 -3 -10 -14 0 -10 -3 1 -5 7 -13 6 -10 3 -2 -4 -7 3 -3 6 2 0 9 -2 1 8 -1 -2 -1 1 8 13 3 -4 -2 5 8 -3 3 -5 6 -11 -10 -3 0 11 3 2 2 -4 -4 4 -4 -2 -9 -2 5 2 3 -11 1 -2 -2 -9 -9 4 1 -3 6 4 -4 -3 9 -1 -4 15 8 14 -3 18 0 2 -11 -2 1 -21 1 12 13 11 12 -2 4 -3 9 -3 -3 11 
7 14 -10 12 11 -10 3 5 -3 3 7 5 -10 9 7 -6 -1 -5 5 15 -1 6 1 10 2 4 8 -7 2 15 1 10 4 1 5 11 11 -9 -2 0 11 16 2 5 8 2 -13 4 5 -7 -6 10 -7 -2 6 2 11 4 -6 2 12 5 -12 -7 10 4 -6 -8 -7 -12 -6 0 -8 -13 0 2 8 1 5 3 -6 -2 -5 0 10 10 -2 -1 -6 17 12 -1 12 8 -7 6 8 5 1 0 6 4 3 15 1 -8 5 9 -14 -10 1 11 1 -4 -3 9 7 -1 -8 -3 -12 -4 -1 -5 -2 -9 -5 3 -14 -9 -3 -16 -11 -2 4 1 -6 4 3 -14 3 -1 1 3 -11 -11 2 -15 -4 2 0 -5 0 2 -3 4 13 -1 -10 -9 6 3 0 1 -1 -6 21 -2 5 6 5 -8 8 21 -1 3 7 16 2 -3 -10 4 6 1 3 0 6 -3 13 4 -10 9 -1 2 3 1 -1 2 5 1 11 12 1 16 10 2 -3 4 -1 -14 1 -2 -5 -3 5 0 4 -6 7 -3 -2 -5 3 -2 1 4 1 -3 11 -4 -1 6 10 -2 3 6 -5 9 4 -5 1 -2 6 3 5 11 22 17 18 52 44 59 67 70 76 104 88 86 82 89 107 100 100 113 118 109 113 113 124 122 119 135 120 127 136 129 133 123 148 145 139 145 130 142 137 138 147 139 143 144 140 144 153 150 144 153 138 140 146 135 146 141 134 147 153 152 164 141 146 147 134 164 155 161 144 152 152 147 158 158 156 144 159 155 160 156 161 162 164 170 158 157 170 158 169 170 166 166 167 172 160 155 170 160 165 160 161 168 177 171 160 161 150 163 175 170 158 159 157 161 155 159 153 161 157 164 157 149 155 165 154 156 165 154 147 149 154 142 159 149 152 138 65 62 90 31 0 10 0 9 6 -8 8 -5 8 -8 -2 3 8 3 -1 8 5 5 0 8 -1 5 0 2 1 -7 -6 -1 4 5 -4 10 3 1 11 -1 0 -3 -9 -1 3 -8 -9 4 0 -5 5 -2 -5 2 -1 -3 -2 11 -1 -9 -8 -4 1 -8 3 4 -8 0 9 -7 -4 -7 6 7 -6 -1 -10 7 -2 5 12 10 -3 -2 -2 7 6 -3 0 -7 1 6 -4 11 12 2 -10 2 2 7 9 -4 5 11 11 -1 2 12 -2 7 1 11 -2 16 3 9 3 -2 10 3 5 19 14 9 0 10 -9 -3 -5 10 -5 0 6 3 -15 -1 -3 9 -1 8 -3 7 7 -4 5 2 5 2 4 4 -7 2 -4 4 -1 -9 -9 -2 0 -2 -7 -3 -14 -9 2 4 -8 3 -14 -11 12 9 0 5 -9 4 -8 -6 4 0 -5 13 -7 -4 -1 -12 8 5 -2 6 8 0 -3 -3 0 -12 -10 -11 15 -5 0 -1 5 -1 -7 6 7 9 -3 1 7 0 7 11 -10 9 7 -8 16 -6 -9 4 4 1 -1 12 -7 5 0 6 8 -7 19 -3 -3 0 -7 17 13 -1 8 -14 22 -4 15 0 -3 0 -5 7 -1 15 -5 8 13 4 10 10 
-4 0 9 -5 5 -3 -4 5 2 8 -2 0 10 1 4 17 1 7 11 -2 6 10 0 -4 6 9 3 12 2 7 3 7 10 4 3 14 -6 9 4 3 4 6 1 12 -10 -3 17 -9 -2 -4 16 11 -3 -4 -3 -3 6 -1 3 0 -11 -2 -5 13 -18 2 1 -4 6 -6 -4 0 6 -5 9 -1 3 -2 3 5 7 8 4 7 11 -8 -4 -1 8 -8 11 4 9 -4 1 -3 -3 -5 11 3 -8 -10 -3 7 10 -6 14 3 -3 -8 -4 -2 4 0 -8 4 2 -6 -1 -1 -2 9 -1 2 -18 -4 -4 0 1 -6 -3 -6 0 -11 -10 -2 -13 -4 4 -4 -3 4 -4 1 -8 2 2 -9 -2 -2 -4 -8 4 -5 0 -8 7 15 3 -2 -11 -4 6 -6 5 -6 8 14 1 -5 7 1 4 0 7 -2 8 7 0 17 2 5 18 2 10 10 -4 5 -11 6 4 8 2 2 -12 9 -3 0 -1 2 -3 -11 3 2 -2 9 3 -7 -10 -3 3 1 -4 0 -5 6 0 -3 -2 -5 8 -2 6 1 15 15 7 5 1 -6 4 -7 -9 9 1 -2 11 -1 15 9 1 2 0 14 14 4 14 17 20 21 13 33 38 58 62 73 79 61 84 93 76 84 86 91 104 114 108 113 114 104 113 113 112 127 116 127 117 122 125 131 122 134 132 132 129 140 130 141 137 141 148 145 134 144 145 150 138 144 146 152 151 143 146 141 138 149 146 154 151 142 149 144 147 152 148 153 153 150 154 150 150 153 157 161 171 160 167 161 158 168 171 167 161 170 159 162 162 173 159 170 170 174 153 166 174 161 160 159 153 162 157 167 163 169 155 162 160 172 183 170 171 170 156 163 158 160 159 156 149 143 158 145 151 144 143 134 155 163 147 141 122 69 75 82 19 -6 -2 6 10 -3 4 1 4 -4 11 4 3 2 -3 -9 -11 5 1 -6 3 5 13 1 7 4 -2 1 3 6 -5 -12 5 -4 5 7 7 11 0 1 11 3 -6 1 -1 -3 -3 14 1 6 -2 5 6 1 -5 14 -11 -3 13 2 -9 4 12 -12 6 -2 9 -7 -4 9 -3 -7 -7 15 11 2 2 4 6 -5 13 -9 3 10 3 4 16 2 -3 7 -8 -2 14 4 -7 15 14 5 -3 6 -8 -3 19 -2 -1 0 12 -8 1 7 0 13 3 -8 9 3 8 6 17 11 -10 11 2 -4 5 9 2 5 4 16 -5 -2 -2 7 -3 -7 -14 -4 6 -3 -8 -7 -6 -10 -5 -13 6 2 12 -5 -11 -5 -7 -9 7 3 -3 -6 -14 4 0 3 -6 -6 -18 -4 -4 -1 -5 -6 8 -7 -6 6 6 -8 -2 -4 0 -5 10 -4 2 -6 -10 -9 3 -1 -3 2 -4 0 4 -1 -2 0 8 -2 12 -8 -9 -9 -7 1 1 6 1 3 9 2 -9 2 4 -2 10 4 1 3 -3 1 1 2 6 -6 9 11 5 -6 7 2 -1 9 -7 23 4 12 19 5 0 7 11 -1 2 1 7 3 8 12 13 2 -6 -7 8 8 3 3 
11 6 2 2 7 -5 7 1 12 -13 2 6 8 1 -12 0 1 2 10 -8 8 0 18 -5 3 3 4 2 7 7 2 17 9 9 -2 -9 -3 9 12 -4 2 3 -2 -1 7 -5 2 -6 17 -10 2 -8 0 4 7 -6 -4 1 7 -5 -12 -5 -7 -8 -3 1 -6 -1 4 -9 11 -8 7 6 1 4 3 7 -3 4 -1 -5 -2 -11 0 -4 2 4 7 -7 4 0 -3 -5 -1 11 -1 -1 -3 1 0 2 -3 14 3 2 4 -6 2 0 3 5 6 7 -7 -14 16 -8 6 -1 -8 -12 7 -11 -5 -3 -3 -11 -6 -2 -3 -6 -6 5 -6 -3 -1 -9 -4 9 -10 -8 3 9 -8 -9 -7 6 -2 -9 4 1 -1 2 -9 -3 -16 -1 2 5 5 -2 11 1 -4 0 10 4 -4 10 12 5 5 -2 10 3 5 10 11 -2 2 1 -2 -4 -6 -1 -1 13 -2 14 5 5 4 2 0 1 2 -5 -3 0 4 4 9 16 11 4 2 16 16 4 -3 0 2 -16 7 2 2 3 -9 6 -5 -1 7 5 -7 5 1 5 1 -6 0 -2 4 -11 2 -5 -2 2 -2 6 -1 2 -2 3 4 9 8 14 14 15 10 29 19 21 43 40 43 58 61 74 65 74 81 74 75 86 106 108 107 100 115 112 112 123 106 124 119 114 122 106 125 117 111 144 114 146 122 122 129 136 125 135 148 137 139 135 137 151 135 140 144 144 140 142 140 135 149 135 141 143 145 145 148 160 143 140 145 169 142 155 160 152 149 148 153 160 149 166 162 161 157 167 152 158 162 169 167 165 164 163 159 157 170 155 154 165 177 163 161 167 170 170 168 164 172 163 161 160 163 159 157 167 154 151 149 145 154 150 143 156 150 153 150 147 149 171 153 151 116 88 67 81 68 16 10 -9 11 -2 -5 1 -4 -2 4 0 3 16 4 -4 4 4 -2 -4 -13 -7 6 12 1 -7 4 1 5 4 8 6 6 -9 13 2 14 7 -4 3 0 -1 -3 -1 -3 2 0 2 2 0 7 11 -9 7 4 4 8 -1 -7 0 -8 1 -11 11 7 -1 -14 -2 2 1 4 -18 -5 -7 5 2 -4 8 -4 6 6 8 9 5 -3 1 -3 2 0 18 -5 -3 6 0 2 11 5 5 3 14 -9 -5 7 4 -2 6 -3 5 0 4 -1 7 1 -5 -1 3 -4 3 8 2 9 2 4 10 7 17 9 4 10 11 4 4 4 -14 -2 3 8 3 6 4 7 9 8 -15 8 0 0 -2 -4 -12 -2 0 9 6 2 -7 -18 -5 -8 -2 -10 5 -9 2 3 1 -16 1 -8 -5 -8 -1 -4 -6 -5 -9 7 1 3 2 -6 3 10 19 4 -1 0 -3 7 -7 -8 -7 7 4 12 8 1 -5 4 -2 -6 1 -10 3 6 6 3 -10 -5 1 4 6 -1 -5 -1 -2 -4 2 10 8 -13 9 4 6 3 -9 2 3 -9 -2 1 -1 0 7 -1 0 0 -5 5 3 20 9 0 3 -3 -2 8 7 7 8 -6 -6 19 -1 5 5 6 7 
4 6 5 9 -4 5 1 8 17 17 -7 7 1 1 2 15 -4 13 -13 6 -4 5 3 2 9 11 -4 9 6 11 0 2 2 -2 2 -1 9 7 -1 10 8 1 11 -2 -6 -4 -2 -1 -5 0 8 -15 0 -2 -6 -2 -5 1 -1 -10 8 -8 -1 -9 -3 -6 2 3 5 2 -18 11 3 -5 8 -3 2 4 10 4 1 9 8 10 -6 -2 11 -5 3 8 0 -1 6 -9 -1 -16 9 2 -5 -3 0 7 1 -1 4 7 -6 -3 -4 2 -2 -9 1 -2 -3 -6 1 -11 0 -3 3 6 0 -5 -4 -1 7 3 0 -6 6 -1 -2 -5 -22 8 -7 -12 8 -14 2 -12 -1 -6 8 -3 1 0 1 -5 -4 -3 -10 -9 3 3 7 9 8 3 -3 3 8 -3 6 11 0 -4 4 -12 -1 12 4 3 5 20 11 0 10 -2 8 -6 1 0 0 2 -2 -9 -5 0 3 -2 -1 0 6 2 1 12 10 11 -8 4 -3 -2 10 4 -1 -8 -3 9 -6 3 5 11 7 3 -3 5 1 -4 4 -1 -4 -3 9 8 7 -8 10 -4 4 3 -5 -10 2 2 -4 -12 8 9 -3 11 -2 12 -2 -6 0 6 2 14 16 7 11 30 27 26 49 59 47 56 56 71 67 77 66 73 86 80 87 94 97 103 93 114 102 115 108 105 113 122 112 107 124 111 115 122 125 134 132 135 127 133 133 133 128 131 134 137 138 133 137 136 154 139 130 141 130 134 145 148 143 137 141 154 138 151 154 147 154 150 147 165 155 154 147 162 154 150 149 153 159 153 164 155 161 171 153 155 164 162 160 163 156 156 170 170 160 161 165 157 160 168 153 165 153 149 159 153 158 163 151 157 154 146 149 151 154 157 154 149 150 139 137 153 154 144 116 87 72 83 78 32 1 3 -1 6 -3 4 0 0 6 -3 5 17 4 2 -3 -7 2 2 8 -2 0 -1 -8 -1 -2 5 11 7 7 9 -1 3 5 3 0 1 8 -6 6 15 3 1 2 -6 -2 -2 -1 -2 6 -7 -2 -2 -1 0 10 -2 -1 4 0 3 2 -11 0 6 8 -4 12 9 6 0 16 -6 -2 8 -7 7 -2 9 -5 -9 7 -1 0 8 -6 1 0 5 -3 11 7 1 3 6 3 -2 3 -2 -3 11 0 4 6 3 7 9 -10 1 2 8 2 12 4 16 -2 1 6 11 -9 15 -2 -1 -1 7 -1 -3 -3 -3 5 5 1 4 2 3 -16 -12 -4 -9 -12 4 12 -2 -2 10 1 4 -7 0 5 -5 -4 3 1 -3 -6 -5 0 -8 -2 -4 1 4 -5 9 3 -9 1 -8 6 5 -4 -1 -7 2 1 2 -6 -8 4 1 3 -3 -4 2 -10 -6 2 2 -4 -2 4 6 5 2 -5 0 -3 4 2 12 -1 -5 -10 -11 2 -7 7 4 2 -7 0 2 -6 1 -2 -2 -5 1 7 -3 -13 6 1 3 -7 1 0 19 2 5 7 1 14 -8 -2 7 2 5 3 23 -7 6 -2 13 2 8 16 8 7 0 -3 -4 3 8 3 6 5 8 
-5 7 15 -10 7 -3 8 3 5 10 10 3 5 -2 0 5 11 0 13 5 8 4 12 -4 3 8 4 13 1 -5 -8 6 3 0 11 13 4 0 12 13 5 7 -4 3 5 4 -1 5 0 7 0 8 4 6 4 -4 -1 2 2 -7 11 -17 -19 -1 -8 6 -8 -12 0 -3 0 4 -13 -15 1 -11 9 5 -2 6 13 -1 3 3 9 9 -6 -1 -8 4 -4 2 -2 1 9 -3 -4 2 -3 -1 -8 0 0 -5 15 -3 6 -1 -3 3 9 -3 0 -5 2 -13 -5 -2 -2 -8 -10 -4 -12 -3 -8 8 -2 1 9 2 -11 -8 -9 0 5 -16 -2 5 -6 1 10 -7 2 4 5 -5 -12 -4 -3 3 9 -13 5 -12 6 -5 -9 -14 -5 -15 3 17 7 9 -2 7 16 -1 15 3 1 -5 -3 -6 5 11 -1 10 7 4 -5 11 4 4 -5 7 -6 4 8 1 2 4 16 -6 2 6 0 -2 -6 1 14 6 6 -8 2 13 14 -1 7 -1 6 4 -1 11 -7 13 9 -13 -5 2 13 -8 -6 5 -5 3 4 21 -3 -1 7 0 -8 2 -10 6 3 6 -1 -9 -10 10 4 13 -3 1 -3 -7 -1 7 -3 -8 13 9 6 14 37 25 47 43 66 57 54 60 62 75 71 76 74 90 87 94 92 84 98 93 114 112 103 107 108 114 104 119 114 116 113 118 132 129 122 121 123 124 132 138 130 138 142 126 128 142 145 134 129 134 140 137 135 124 141 145 145 124 147 150 146 141 163 155 147 150 140 149 147 148 148 157 155 147 160 148 155 156 160 147 160 152 166 158 163 149 154 149 158 140 151 154 148 152 154 156 141 163 151 152 166 172 156 162 156 157 141 151 155 150 162 140 146 137 144 159 158 162 132 95 68 87 83 35 3 -6 2 -2 9 5 -7 5 21 6 3 4 2 6 5 -5 -1 -4 5 -7 10 -19 6 12 14 -5 14 2 0 10 6 -6 2 7 -3 1 -6 3 0 11 0 -3 2 22 12 -2 22 11 10 16 10 4 9 5 1 7 -6 -1 10 3 1 7 2 5 14 14 -3 6 0 14 2 9 6 6 -7 -3 11 3 4 3 5 -3 3 1 -3 0 2 6 -5 3 10 -15 -3 -6 -3 -5 5 7 -5 -8 -6 -9 -3 6 -7 9 -12 -3 8 -9 16 -6 1 9 7 4 -5 9 -6 3 1 12 4 -6 8 1 21 16 1 -7 5 2 6 3 1 5 -2 3 -2 4 -3 -11 -3 7 -2 -1 -7 -6 -9 -10 -8 9 -10 -3 -2 -2 -2 -4 -3 -4 -5 -6 0 -6 -7 -11 -2 0 1 -3 -1 -9 -11 -8 -5 0 1 5 -12 3 4 -4 8 2 3 5 6 -3 -9 -5 4 -8 17 5 5 0 -2 7 10 10 -1 -8 1 3 10 -16 6 4 -5 -4 -3 -6 2 3 -3 2 6 -1 -4 -1 5 14 19 -3 1 -3 9 -6 -7 -3 5 10 -1 6 3 -8 -6 -9 0 4 4 -6 7 7 11 0 2 12 -7 2 3 6 0 9 -1 5 10 1 12 11 
-5 5 -2 -3 6 -3 0 0 1 5 10 0 4 5 10 5 1 -4 12 5 -3 14 12 12 -10 2 7 2 9 16 4 10 7 12 -2 0 -1 -2 -4 -2 3 -15 6 -8 -8 4 8 9 2 -14 -8 3 -5 11 10 5 0 1 -4 -12 -12 3 -10 -13 6 -12 0 0 -15 6 -5 -8 0 -4 -8 0 3 -11 7 -4 9 15 -9 0 -4 -1 3 0 -1 6 -3 6 -6 -14 -10 -4 -3 -3 -9 1 9 -4 0 9 2 -4 -17 1 -8 3 -6 -13 5 -3 1 2 3 0 -3 -5 -4 -1 -1 0 9 10 12 1 -10 -7 4 -7 -14 1 1 -9 2 -7 -6 1 15 4 1 -9 -1 -2 -3 -7 9 -2 -13 2 -3 6 -2 3 -2 -17 6 2 -7 -1 2 -3 -1 4 8 6 -6 -5 -3 -5 0 -1 13 14 -1 5 -9 -4 -4 -7 5 -1 4 8 3 2 -2 2 18 -3 7 9 10 6 13 0 3 7 8 1 -1 -4 -14 7 4 -3 18 -8 6 -8 -2 -1 7 -4 0 14 5 -8 -1 8 -1 6 -1 0 4 5 9 7 4 2 7 1 6 8 5 -7 -5 -2 -5 -5 6 4 -6 2 2 2 2 -7 0 -10 7 5 11 18 18 16 30 42 47 56 63 73 64 64 70 77 72 72 90 80 91 91 83 89 86 102 105 98 99 122 102 100 108 116 106 123 118 119 125 134 115 119 127 111 122 124 124 131 134 131 137 142 143 129 124 135 133 126 142 149 150 158 149 141 153 145 145 154 142 148 135 150 146 153 149 152 155 164 143 162 152 144 148 153 143 147 140 154 140 153 146 150 145 150 155 162 165 165 145 161 150 167 156 152 156 158 155 142 148 149 149 149 148 146 141 139 142 161 151 148 143 108 70 80 91 46 0 -9 -7 10 -1 2 0 -2 7 1 7 2 -4 4 0 6 1 -6 -3 7 6 1 3 -2 -1 -6 6 0 10 1 8 12 -9 11 18 5 0 10 12 0 -4 11 -4 7 10 3 -6 1 1 2 -5 0 1 13 5 -4 -3 2 7 7 4 4 0 4 6 4 4 7 0 2 0 -3 7 -6 1 1 7 7 2 3 -2 -9 1 0 2 8 8 -2 -6 -4 2 4 0 26 -6 15 2 9 -11 3 7 9 4 -3 0 6 1 0 -4 6 -9 1 3 10 12 -1 12 -1 10 -6 6 2 -3 8 3 13 -6 14 -8 -2 -7 -10 -3 17 -2 1 11 -12 -1 -3 -2 -2 14 -13 6 2 0 -8 1 -6 1 12 -11 -4 -8 -9 3 2 -3 1 -10 -7 0 -6 -8 7 -2 -10 -4 1 -9 2 -1 3 -6 7 -9 21 -5 0 4 12 0 5 -5 -1 -4 1 6 -6 0 1 -3 6 1 6 3 3 -4 -9 -2 3 -1 5 -1 13 -9 -1 2 -5 3 2 -4 -2 7 -4 7 -8 -1 5 5 5 -2 2 -2 4 -1 2 -2 -1 11 8 -6 -4 -1 -8 10 16 -1 -2 -2 4 0 12 -1 7 12 2 3 -11 2 3 7 -2 5 8 3 5 3 -4 15 7 
5 4 -3 13 -6 5 -8 10 -1 -13 7 -3 13 15 4 3 11 -9 -5 0 14 7 11 9 1 10 -2 2 7 5 7 -1 3 15 0 2 10 10 4 14 -4 2 9 9 7 -2 7 -5 3 -5 -2 -3 8 -18 2 9 -8 5 -3 -4 -4 3 -16 -3 -1 -2 4 -10 0 -9 6 -10 5 11 -16 0 -7 0 0 -10 -5 -1 6 6 -3 3 12 6 4 2 0 5 -3 16 10 6 10 2 3 -7 2 6 -3 -9 5 10 -19 4 -10 -9 -4 -13 -3 -3 -9 -13 -9 9 4 -7 -7 -7 -4 6 -9 -12 2 6 6 6 -2 2 -9 -4 2 4 -6 -1 2 -7 -10 0 -7 0 -4 -4 5 -6 0 -3 -3 -3 8 -9 -12 0 -8 0 -5 -12 7 12 1 -16 -1 6 1 3 -9 6 5 -2 -4 1 15 8 -1 6 10 16 7 3 0 7 -3 1 8 11 -6 7 4 1 -3 5 0 3 3 1 12 -1 6 4 14 -11 10 8 16 5 -12 2 4 -4 17 8 -1 4 18 -3 -5 1 -14 -4 16 16 12 2 -7 3 -2 7 0 -6 12 -6 5 -5 10 8 -2 16 -3 -4 -4 0 0 6 8 6 0 7 3 0 -7 1 -1 -3 15 19 13 24 23 32 48 43 60 65 54 66 78 83 81 74 78 82 84 89 101 94 101 90 109 93 99 104 104 105 105 113 116 111 121 117 115 123 122 128 111 127 127 127 136 134 136 132 139 130 133 124 126 134 129 130 148 135 145 150 151 151 142 151 154 150 155 136 141 142 160 148 151 149 156 145 157 153 161 151 131 142 148 147 156 131 148 143 153 151 152 147 154 140 145 149 141 138 155 162 147 148 135 146 156 136 139 136 141 144 143 159 158 145 153 122 92 73 76 56 1 -8 7 13 -1 9 2 3 0 7 17 8 8 -2 2 11 13 11 -1 1 3 -8 -24 4 -2 6 5 7 -2 3 4 -1 6 0 -2 7 7 2 1 -7 -10 -2 10 -3 9 -12 -1 -3 14 8 11 1 11 12 15 9 3 13 14 2 9 4 6 -1 4 6 8 -1 -1 -5 -10 -3 11 8 4 2 12 5 6 -1 5 -9 0 -5 12 -13 14 -5 20 -6 0 2 -10 -6 -5 -15 0 -1 6 -7 8 9 4 -2 -7 0 3 4 1 11 -7 -6 3 -4 -9 9 -6 -3 8 1 -1 3 -3 2 2 1 -2 11 0 -1 1 4 9 12 11 -3 -1 -6 12 9 -9 5 0 5 1 -7 2 4 8 -4 -1 7 0 -2 11 5 0 -5 -15 3 -17 5 -5 -8 -1 -4 2 -13 -6 -4 1 -7 6 -4 0 0 0 3 -13 5 -4 -4 7 5 3 5 11 -11 2 1 -4 5 1 -9 -2 2 3 4 6 -4 1 -4 -1 -6 1 -3 10 -2 -3 0 -4 -4 8 -9 12 0 -7 -9 -4 11 6 -1 -4 5 2 5 7 -2 3 12 18 1 3 7 -7 6 14 10 12 3 19 -3 8 -7 6 10 -2 -3 6 3 3 8 -1 3 6 -3 16 -2 8 2 0 11 -7 17 
-1 0 3 4 5 5 -4 5 6 13 4 7 1 1 10 2 2 8 10 18 -2 4 0 3 7 10 8 6 16 -2 16 9 6 5 8 10 9 -11 2 7 0 -6 4 -7 -11 -4 6 2 -5 3 -6 4 -12 4 2 4 -3 4 -13 5 2 10 -10 -5 -12 -6 -10 -11 2 -9 11 -15 -3 -1 -7 -6 -2 2 -8 8 10 2 -7 -7 1 9 0 -15 -2 0 2 7 4 3 4 5 5 6 5 0 5 -1 6 9 -4 -11 -7 3 -8 -7 -2 0 7 -12 0 -6 -3 -15 8 6 -9 0 -10 0 -6 0 8 -2 4 -16 -6 14 -19 2 -5 -3 -2 -17 3 5 -6 -5 11 -9 -4 2 -6 -7 0 -8 -6 0 9 -4 -12 3 -7 3 7 -2 -4 5 -7 -11 3 11 -15 4 8 10 4 -5 4 -6 -3 1 13 -6 -1 -2 -6 2 -3 7 14 5 2 5 -7 9 9 8 -2 1 17 5 7 9 3 3 -4 2 4 -8 -6 2 4 7 0 2 6 5 9 5 15 -9 -17 22 3 5 -1 1 -1 -2 14 2 10 -4 7 1 -5 -10 6 5 4 4 15 6 1 -8 -3 4 4 4 1 -4 2 -3 12 2 3 -1 1 3 -2 -14 10 7 9 24 17 24 27 31 36 22 42 46 60 68 66 79 80 78 82 76 92 86 81 92 91 94 99 93 118 99 100 114 115 111 109 105 124 111 105 115 113 128 123 114 121 134 126 128 122 133 119 133 134 125 132 131 127 128 132 140 139 146 132 138 140 145 155 150 156 145 149 141 155 147 136 149 154 157 145 158 153 148 151 142 158 139 137 148 149 143 143 151 141 143 145 150 142 138 135 132 139 130 143 126 134 149 135 144 140 155 164 160 143 119 95 72 86 74 29 -5 -15 -7 4 8 -4 -1 -10 -17 -2 5 0 13 9 3 3 -7 2 -4 15 -6 10 6 -1 12 2 -15 8 2 8 -7 3 5 3 11 6 0 7 0 1 8 -5 1 16 1 0 13 9 12 3 9 12 -1 -4 6 -8 11 12 6 -2 5 7 5 -6 17 3 -11 3 19 10 10 12 -2 -3 5 3 3 2 13 -4 5 2 0 -2 -13 -5 -2 3 0 -2 14 -9 -3 -2 -8 14 -6 -2 4 -2 13 -5 4 9 4 4 0 4 9 -3 0 0 -3 -1 2 5 -1 13 2 9 4 7 -5 -2 5 5 4 9 4 6 4 13 -7 -7 -1 4 0 -1 5 -15 4 7 -8 3 0 -11 7 -3 8 -3 7 -1 -1 -4 9 -11 -6 -3 1 -9 -7 2 12 0 7 -10 0 -9 -15 5 -3 -1 -5 -11 -3 -9 4 -5 -4 11 -7 0 -5 1 0 5 2 4 -8 -1 -4 0 -3 -4 2 3 2 0 -1 8 -1 5 -2 -2 -3 13 2 12 2 -7 7 -2 2 -2 1 -6 2 10 1 -5 2 5 -1 9 -6 -3 14 -6 7 -4 -6 -1 -1 -6 1 0 0 11 1 3 4 -3 7 -1 2 12 3 1 -3 5 0 11 -1 5 12 1 2 14 -2 14 -9 12 3 0 0 
-12 11 6 18 -1 15 -7 12 2 5 12 -1 -12 16 -3 11 2 1 17 -1 24 -1 11 2 2 8 -6 -1 6 8 14 -5 8 5 6 14 6 -2 3 7 3 7 -14 8 1 9 4 4 -7 5 -5 1 -7 1 -9 10 0 10 1 -3 -6 -2 -16 3 1 -14 -17 9 -3 -5 -5 4 7 -1 1 2 -10 -10 6 -4 2 -5 11 -3 3 -6 -3 -4 1 -14 -1 -14 9 -4 4 1 -3 -2 -3 4 18 3 16 -1 -5 4 -1 6 3 2 0 2 2 -9 1 -3 5 -10 -11 8 13 -15 -6 6 5 -8 -1 -4 -8 6 -9 -7 4 -10 -19 -11 -7 -6 -14 -7 -17 -3 -15 -19 -13 -5 -14 -17 1 -7 -1 -7 -11 0 0 -4 -3 -12 -1 3 5 0 5 10 1 19 3 6 -8 -2 15 2 5 14 4 12 8 4 8 6 5 5 0 7 8 15 20 10 11 0 7 -4 11 0 6 -3 -3 -13 -1 10 5 1 2 0 -9 7 -6 1 1 -6 10 0 0 6 -1 4 15 4 2 -13 -2 -10 5 2 7 0 -4 -11 15 -12 5 -4 -8 6 -2 -6 -4 -2 -6 -12 10 -4 -2 10 -13 -2 -4 -3 -1 -4 8 6 1 4 5 8 4 5 5 -2 4 19 9 17 11 30 30 26 48 41 47 54 68 84 85 71 90 78 98 95 90 93 90 105 84 111 106 91 88 95 99 104 107 116 126 117 120 99 108 115 126 126 121 133 130 118 124 122 118 129 144 127 142 131 126 138 129 129 153 147 136 139 121 145 147 131 146 152 134 152 150 142 138 161 141 150 142 143 147 145 140 152 149 143 142 148 142 132 133 130 138 139 141 127 138 128 141 134 141 143 159 139 133 154 135 146 111 93 83 90 85 66 29 2 -12 12 -5 -2 -4 4 -15 -6 -1 -2 8 5 3 -13 -11 2 -2 7 -2 3 0 -1 8 -8 4 -15 11 6 -5 -2 5 7 -3 9 0 2 1 2 3 4 4 13 8 17 0 7 7 -3 -6 7 -2 -1 5 12 13 1 3 14 17 7 10 2 5 5 8 2 4 -8 9 10 4 4 6 6 3 -1 -3 8 0 -8 9 -2 12 -8 -3 -4 2 -1 -1 -4 -7 -14 -2 -6 -12 -9 -3 -3 7 -2 3 -8 -4 2 4 -12 7 3 6 10 -11 4 -9 4 -4 -6 11 -1 6 12 8 1 12 2 1 5 2 2 14 -2 4 -1 6 6 4 1 7 -2 -4 0 4 8 -9 4 5 1 2 -2 5 -8 -2 -6 -5 0 3 5 -3 9 8 -11 -6 -1 -6 -9 0 4 -10 -5 4 0 -15 6 4 -8 -4 -4 11 1 -2 1 -2 1 -2 2 7 7 6 0 -6 5 1 4 -16 -9 0 -7 -2 -5 6 9 -6 3 -5 -1 6 3 4 4 9 1 0 7 0 -4 -4 7 -5 1 6 5 -1 16 -2 11 6 5 -3 2 -6 0 1 10 -7 7 17 -1 0 13 8 5 -3 -2 14 20 10 8 -1 5 2 -1 5 2 -8 2 -12 9 9 -1 9 -11 -5 11 -15 -8 -4 6 
5 -4 -2 7 15 1 17 -10 2 -1 13 -2 17 4 2 2 1 3 4 19 2 12 4 4 7 14 7 2 4 11 4 14 5 -1 7 -6 -2 18 8 16 -6 6 -9 12 -13 1 -7 -1 5 2 -3 1 4 -4 -4 0 3 -8 9 6 -2 4 -11 -4 -5 -8 -2 5 2 0 -10 5 -5 1 -2 3 -4 -22 -3 1 4 1 6 1 8 -1 2 12 -15 8 -8 -4 -1 -11 3 -5 -3 4 -14 -2 1 -2 -2 1 -1 -3 1 -8 5 9 -4 7 -2 2 6 19 0 -6 3 10 0 -7 4 0 5 -9 -7 5 4 -3 -13 1 -12 6 -10 6 -7 2 5 8 8 2 13 6 0 2 -6 3 8 -3 -10 2 1 -2 2 0 -7 -3 -6 -1 -7 -2 8 -12 8 6 3 4 4 -8 3 0 5 7 6 3 5 5 7 5 6 8 16 11 6 10 12 -5 -1 -2 -4 -8 -11 11 -1 -1 4 4 7 6 11 -6 0 8 8 -4 6 9 9 4 -10 10 -1 0 13 -4 -5 15 2 -16 -1 -2 -6 -1 1 -2 6 -2 1 -6 4 7 -6 2 0 -1 -3 -9 -2 -6 -6 9 1 -1 3 -6 -7 -4 1 2 15 13 3 13 -1 14 19 2 15 23 -11 2 -3 3 5 19 12 6 22 36 37 47 63 61 59 73 74 80 78 83 98 87 103 90 110 88 107 95 106 91 111 96 105 105 108 107 107 113 122 105 106 107 120 110 139 123 126 117 125 127 134 126 137 133 133 130 140 137 127 140 130 138 139 131 125 141 124 138 134 131 133 142 141 147 144 147 143 162 143 151 143 140 132 137 134 142 142 144 136 133 136 133 137 146 122 147 143 152 152 145 140 149 148 140 112 95 62 87 70 58 26 -9 7 -1 4 -3 -1 -7 8 1 -3 3 8 -4 -4 0 -2 -2 -9 3 -2 7 1 -7 -16 5 4 4 -5 -3 -5 10 0 -3 2 -1 8 4 -3 -5 -5 -7 2 10 15 -8 10 0 3 3 -7 14 2 -7 9 6 8 14 9 21 2 8 -1 10 3 4 -1 3 1 5 6 11 1 4 6 9 5 1 4 3 -6 8 -2 8 -4 8 8 2 -10 -3 -1 6 4 6 -8 3 -1 9 -19 -6 1 -5 0 1 -2 -4 -3 -1 -2 -13 -1 5 -6 3 7 -9 2 0 4 6 7 4 0 9 1 8 3 -3 15 10 7 -2 -8 3 5 4 7 13 -2 2 13 -2 -8 -1 -7 -13 1 3 -15 -3 1 -1 -17 5 -9 -7 -14 -4 -3 3 4 -14 -3 -13 -20 -2 -4 2 -2 -9 2 -15 -5 -6 -1 1 2 -3 -2 18 -4 3 3 4 -7 -8 2 -6 5 -10 -2 0 10 -7 1 -11 9 -13 -9 -1 3 -1 10 -2 8 3 -9 -2 -2 8 1 -1 -5 2 0 2 3 1 -2 2 5 6 14 -5 9 2 -4 15 8 -5 3 9 7 -10 11 1 -8 12 -8 8 1 7 2 10 5 1 4 2 -6 18 10 -4 7 1 -1 2 12 3 12 4 6 -5 5 10 6 5 -2 3 9 -5 
1 7 15 6 8 17 -6 7 -1 -10 9 9 6 8 -2 4 -4 8 11 0 13 4 16 3 12 3 11 3 3 13 -3 0 -3 4 -2 6 0 -4 -13 7 -6 -3 11 -10 1 1 -5 2 -6 2 -14 2 -3 10 2 -10 -6 1 0 -5 4 7 -7 -3 -8 -7 19 -13 -22 0 2 1 -2 1 1 3 1 1 3 -11 -1 7 -4 1 10 -3 15 2 -5 -10 -2 -3 -3 2 2 -2 5 -11 -1 -3 -17 4 0 -8 -8 -14 -7 -9 -9 0 -9 -6 7 -3 -1 -3 -2 -1 4 -4 -3 4 -2 -6 4 -10 -2 -6 -1 0 2 -4 -17 -12 5 -4 2 -10 2 -7 3 3 -8 -7 -4 0 4 -7 -4 -7 -4 -5 -9 7 0 4 -9 -5 -4 -5 4 10 -14 -8 4 12 -6 -1 -4 -3 4 1 -5 5 -11 4 -8 -6 1 8 8 -1 -4 6 11 4 -1 10 -3 5 -3 -5 11 1 9 -1 12 9 7 2 8 7 9 1 7 4 7 -3 -6 -3 7 -8 -2 1 -12 -3 7 3 14 -5 -5 -3 7 -6 7 0 -2 6 4 1 -1 -16 3 10 -15 2 4 -11 -7 0 4 -1 -1 -8 -3 3 -6 3 -9 -3 -1 1 4 1 8 8 0 5 22 14 23 28 26 25 4 13 15 19 10 24 35 0 36 37 51 42 52 64 57 74 65 75 82 85 89 100 84 82 95 98 90 100 85 100 97 100 111 112 109 104 109 109 125 120 121 117 120 134 126 120 126 124 114 118 121 125 136 131 136 123 129 135 129 133 137 131 128 129 148 139 147 131 156 131 144 142 141 147 135 118 140 136 131 129 150 138 126 119 120 132 128 146 150 133 156 153 146 146 156 145 142 124 109 81 85 88 81 30 16 8 -8 5 -8 -9 7 -5 5 -7 6 -2 8 4 12 -3 2 -6 -7 0 5 -10 -11 9 -6 -9 3 -10 -2 1 -6 -4 -3 -4 2 1 -3 1 11 -6 6 2 3 16 2 3 8 11 3 10 19 -4 13 -2 4 10 15 14 0 3 1 -1 10 6 8 1 1 2 9 -4 1 -5 6 3 3 6 15 2 0 4 -3 -10 3 3 4 9 6 -9 7 6 -2 5 -12 -5 -5 -8 1 -11 -11 5 0 10 4 -5 -4 -5 3 2 -5 12 5 1 -3 14 5 -8 9 3 0 4 0 -3 -6 9 9 1 -6 3 7 7 -1 0 19 8 1 12 2 2 2 8 12 4 -2 3 7 2 -1 12 -6 7 -10 5 5 -6 -6 10 -8 -9 11 8 6 -3 -7 2 3 -8 9 3 -5 -12 -10 -13 -8 -3 0 -3 -2 1 -4 12 -6 -6 -5 3 -2 2 11 -2 2 11 6 2 10 2 -7 3 -6 7 2 3 2 2 -3 -3 2 9 -1 -7 -2 -2 -1 14 7 6 -5 -3 -5 10 3 0 0 4 11 3 -10 12 0 -3 9 11 20 5 -1 3 -8 21 -4 10 12 1 0 10 -2 -6 2 6 -3 -2 8 -1 17 7 0 3 15 -3 7 -6 4 3 2 9 6 1 2 15 -11 0 -8 -3 1 4 
3 -3 -4 -12 10 2 2 6 2 11 2 9 -6 24 -2 4 1 -4 4 8 6 0 9 11 6 5 -1 13 3 -8 19 8 9 9 12 2 3 6 3 -4 -3 7 -14 9 8 0 -3 -11 0 0 3 -9 -7 0 -20 1 -1 1 -6 0 -1 -2 7 6 -3 0 -2 12 -1 -11 -4 -2 -3 -9 -12 -1 1 -4 -2 4 -8 3 3 9 -10 -6 -3 -5 -1 0 -6 -6 -10 -4 -1 3 5 -5 8 -13 -7 0 -7 -1 4 -9 -15 -7 -4 -1 -13 4 -7 -13 5 -7 -2 -2 -3 -14 1 -7 2 -6 -5 2 3 7 -5 -8 10 10 12 3 10 -2 -1 -8 19 6 3 4 -8 3 -6 -1 -2 -3 9 10 -8 -1 3 -8 9 3 -9 3 -1 8 2 -5 2 2 -5 6 6 2 4 -4 -1 1 2 6 -5 8 -12 -4 -3 10 4 -2 -6 -5 10 8 2 10 -12 3 -6 0 -1 6 14 11 6 7 8 12 3 4 8 9 4 5 -6 12 8 1 9 3 13 0 8 13 5 -6 3 9 -13 -5 9 -5 2 -4 -6 4 3 5 2 7 9 4 -5 -1 -1 11 -14 1 -7 6 3 5 1 6 -2 1 1 -11 5 -4 -7 9 -1 4 2 21 10 17 24 17 21 38 36 28 34 24 18 12 32 15 31 28 25 30 28 39 46 48 55 57 68 78 69 66 82 67 80 83 78 86 84 90 100 104 92 100 95 103 108 104 106 113 105 124 117 114 127 130 120 123 132 113 121 119 121 120 126 129 124 126 120 141 124 126 120 140 126 132 127 140 130 140 125 137 132 124 120 118 121 111 128 131 129 127 118 117 134 142 151 146 129 167 144 153 146 165 138 128 88 79 91 86 47 24 1 1 8 0 4 10 -2 -3 8 2 9 3 11 -6 -1 -1 13 1 5 -1 10 11 -7 1 8 -3 -7 -9 -9 2 -7 -4 -10 -6 -8 0 -5 -4 2 11 -4 -9 9 1 -1 -2 13 14 11 4 7 5 -1 15 -10 -2 -1 -1 14 1 15 16 4 9 0 5 -2 0 3 4 4 12 10 14 2 -4 6 5 -2 4 -5 0 -1 3 -1 17 7 -3 10 -13 4 1 -6 -3 -5 4 5 -2 -6 -11 -12 7 -1 -4 3 -12 -1 -2 -9 -6 -1 3 -10 -11 9 -2 -12 7 -4 -1 -6 -2 3 3 3 8 1 -2 4 1 2 9 0 -4 3 4 -6 -4 -5 12 2 -4 1 5 -10 -4 -13 -9 1 3 -10 -10 -4 0 -9 -1 -11 -7 -6 -5 -18 -2 -5 -1 -3 2 -14 5 -7 4 -6 -6 -3 -1 -1 -3 -10 -4 -1 -6 1 6 5 -6 -2 8 -1 6 2 -6 -5 -4 -2 -4 -5 6 10 2 -1 4 -4 -4 -4 6 16 3 8 -10 -7 8 2 6 7 10 12 0 2 -5 -8 -3 -1 11 8 -8 12 -2 6 6 3 14 -1 4 10 -3 11 6 2 9 6 1 6 1 7 7 1 16 1 0 -2 7 4 8 -1 2 -7 -4 7 1 8 6 2 3 -6 1 1 17 7 9 5 3 2 -15 17 -13 
1 4 2 1 12 8 1 9 1 2 2 18 3 -6 15 -2 1 5 20 -8 -1 7 0 1 4 -1 0 -12 12 10 6 -4 11 -2 -2 11 -6 -1 7 8 0 -5 -1 -1 3 -3 2 -3 -10 16 -4 9 0 -7 6 3 8 -1 0 -10 -20 4 2 -10 2 -5 5 -7 -3 -7 3 -9 -7 -3 -1 3 -5 -7 -16 -6 -7 -6 3 3 0 1 -1 3 1 -5 -4 -14 -10 -7 -13 -4 0 -9 -10 6 -2 -6 3 -5 0 11 -9 -7 -13 12 8 4 4 1 3 -2 0 1 6 3 1 -7 6 3 9 6 -3 10 0 -4 2 -3 -5 8 2 0 9 -9 -2 -2 -8 -5 -7 6 -14 15 2 -12 -2 1 7 5 4 9 -8 1 -2 6 5 -8 1 0 2 3 7 7 2 1 4 0 6 -10 5 -3 -3 -3 -7 2 11 8 0 6 5 3 2 -5 7 1 5 3 8 9 -8 -4 11 4 -6 13 -4 -8 0 15 8 1 14 -2 16 -2 8 -1 1 12 0 -4 1 -5 -13 -3 -1 -10 -6 -12 0 -3 7 4 -2 1 -3 8 -3 3 6 -2 3 -4 8 7 5 -1 4 -1 1 -7 4 -8 10 10 1 1 -7 -10 10 4 -2 -14 -2 -8 13 21 31 27 18 17 35 46 28 36 30 38 36 39 27 36 34 21 24 36 35 40 45 52 49 61 50 67 65 81 75 79 77 81 84 88 77 75 104 87 79 95 105 117 99 109 107 112 107 103 115 112 115 122 98 116 105 102 115 121 115 129 111 118 120 122 131 131 131 118 124 132 127 126 122 122 114 116 124 116 113 124 109 134 131 127 136 128 138 144 145 146 144 156 162 149 156 136 112 88 65 70 79 69 41 5 7 -13 10 6 11 8 -2 -2 -1 5 -1 15 10 6 11 5 9 -1 -10 -1 -10 3 -10 -5 -1 -10 3 -6 -8 4 0 0 3 0 3 -5 -2 2 -11 6 -10 -9 2 6 1 -6 12 14 10 5 18 5 8 -4 12 2 9 -1 -1 2 3 9 11 0 13 1 -4 13 10 0 4 13 4 1 7 8 3 5 0 6 10 -14 1 -5 -1 6 4 1 -6 -3 8 6 2 2 13 -7 -9 -5 -10 -10 -4 1 -4 -10 -3 0 8 -2 -7 2 -7 6 -6 9 2 1 9 7 4 10 -6 -5 -1 13 -10 1 -10 3 8 -2 -2 11 -2 14 4 8 -2 6 -5 16 3 6 8 5 -16 3 -10 3 6 10 1 -8 11 15 -1 -1 -2 -12 13 -3 -9 -2 -4 -1 12 3 0 1 -2 -7 6 6 -4 8 -9 10 -6 4 11 -7 4 11 -9 -13 -8 0 6 -2 4 1 4 -6 2 7 -5 6 8 -2 -9 2 -5 -9 1 -7 6 -3 -1 -4 -3 -1 7 -6 6 16 6 0 -8 12 1 4 11 1 11 -1 -10 9 1 12 10 7 11 9 17 4 4 0 5 3 15 -1 0 3 -11 5 5 -5 4 -14 -5 9 -2 5 6 -4 6 -9 3 0 -2 8 5 2 3 -1 2 17 8 11 2 -8 8 15 -2 -7 -2 5 
5 -4 4 1 1 8 3 0 6 7 -10 -3 2 8 13 3 5 2 12 1 16 13 4 9 0 -3 -5 14 5 6 0 4 8 2 -4 -2 3 13 -6 5 -16 15 5 5 4 2 -11 0 0 -22 13 4 6 9 7 -15 -3 -1 -4 2 7 0 -10 -9 9 -3 1 0 6 -7 -1 13 -6 -2 -14 1 -7 -10 -11 -3 -2 1 1 -18 14 0 1 -5 2 8 3 -16 -15 4 9 -12 1 2 -1 -3 3 -11 -11 -2 -13 4 0 -3 -6 -4 -4 -12 -9 0 -6 0 14 -8 5 -2 -1 -1 11 -8 9 -11 -3 -9 1 6 -4 -3 0 9 6 4 2 2 -4 -2 -2 -11 6 -2 1 -1 1 0 2 3 -4 -2 -11 8 -5 -3 -10 1 12 -5 3 4 -3 -8 -5 0 5 11 8 13 11 0 8 -4 0 -7 2 10 -8 6 -3 7 16 -3 -3 4 3 0 -2 -1 3 -6 -2 18 2 3 16 16 4 15 2 5 0 -11 19 0 3 -3 11 -2 -2 7 8 6 11 -4 12 7 3 3 -11 -1 0 6 -2 10 -3 -1 3 -8 4 2 -9 6 10 -2 5 -5 -4 1 -4 -3 25 -4 -8 0 2 3 -2 -1 7 -5 -3 -9 -3 3 -3 10 -12 3 2 20 32 25 34 27 31 46 48 39 47 43 36 44 37 41 55 44 53 35 46 38 39 46 37 41 54 50 57 67 67 67 81 86 62 83 98 98 85 78 83 88 86 87 96 92 95 106 112 103 104 111 110 123 107 106 116 114 117 98 100 108 106 114 117 115 110 117 110 119 127 114 131 116 119 112 107 120 138 123 128 120 121 128 137 138 152 147 153 150 161 145 117 109 76 76 71 88 63 52 18 3 -8 -5 -3 8 13 -6 3 0 3 -5 4 5 20 11 -1 2 5 -6 2 6 -2 -3 -3 5 -4 3 -4 10 8 -8 14 5 7 -4 5 -1 5 2 -8 0 6 -2 -1 12 0 -1 -5 13 3 1 -6 -7 14 3 7 6 1 -4 6 -2 -2 -1 7 5 1 8 10 10 7 -5 10 -7 6 1 6 5 1 16 1 15 -5 -1 -2 -1 2 0 4 -1 3 -11 3 -6 9 7 -4 -11 1 -13 2 13 -10 -1 -7 -4 -2 -6 -6 2 6 -3 0 -8 7 0 -11 2 1 4 2 -7 9 -2 3 9 3 -10 3 3 6 1 -7 8 8 -9 5 5 -2 13 4 3 -1 -6 -1 0 3 0 -5 7 1 -11 -13 2 -7 -2 11 8 3 3 9 -2 -1 3 11 3 -3 8 -6 12 -2 -4 1 -16 -2 5 1 7 -5 2 1 6 -2 -7 -5 -1 0 2 3 0 1 -7 -9 -3 1 -6 -1 -4 3 -1 -2 -7 7 0 0 10 -6 -1 1 5 -1 2 -5 3 5 6 0 -11 3 5 2 -10 6 7 -9 16 -3 7 5 4 9 1 8 12 13 3 3 -4 1 21 10 14 13 5 3 9 -4 15 -6 1 -6 5 0 7 -9 8 -5 4 0 9 -5 -1 1 -11 6 -4 9 -7 3 2 10 -1 0 8 7 1 -9 5 -3 1 
-5 5 4 1 8 -2 0 -11 -5 4 2 13 7 8 9 11 5 5 8 4 9 3 4 10 -4 -7 -5 2 3 6 0 -13 8 0 6 -4 -6 0 -3 10 -5 4 -10 13 -2 2 -3 -5 2 -4 8 6 -2 -6 -1 -2 7 7 -13 0 -2 -14 -5 8 0 9 2 -10 -2 6 -5 -8 -4 3 1 -6 -1 -8 -9 5 3 -21 -2 -4 -4 -7 1 -3 -6 9 -10 1 -3 -1 -7 -16 4 -6 -4 7 -4 1 0 -11 -2 -5 4 3 1 4 8 20 4 -11 1 -14 4 2 6 6 4 -13 14 -12 8 -8 1 3 12 2 -9 -6 -9 -10 -10 -2 -1 8 -2 4 -11 5 1 8 -12 4 1 2 4 -11 -20 -4 4 1 -6 1 -9 0 10 -7 3 -8 10 -1 4 -11 6 -7 -1 1 2 -1 7 5 2 3 -4 5 5 -4 13 3 0 -2 21 12 8 8 7 -5 4 0 11 -13 -2 14 -9 -3 3 -1 8 9 6 11 -4 -2 5 0 -6 1 15 6 5 -2 -3 13 11 -3 -4 2 -13 -3 14 7 5 -4 -8 5 -11 2 -6 3 12 0 -4 0 -7 9 4 5 8 -3 -14 4 0 -1 -6 -4 7 4 3 0 -2 7 -8 2 12 -4 -1 -7 -13 0 -2 -1 36 36 32 25 29 31 51 56 53 61 62 43 47 50 41 64 64 68 58 56 56 58 68 67 64 69 68 66 71 55 52 63 82 68 80 75 78 82 83 81 81 80 96 93 72 84 96 105 100 108 102 96 109 94 101 104 111 103 102 99 106 103 120 122 106 109 119 113 121 127 135 133 135 130 133 138 139 134 138 149 145 159 151 148 120 104 78 68 72 73 87 50 43 14 7 0 4 9 0 9 -2 8 9 0 -5 3 6 5 -7 12 -7 -4 0 -6 1 2 -4 1 -8 -5 7 4 7 9 -9 10 9 15 -10 7 7 7 -2 -1 -5 -2 -6 4 0 12 4 5 0 8 3 -1 9 -6 3 -5 -13 9 12 -4 -4 -3 2 -6 14 1 -3 4 11 10 7 6 4 -5 8 6 -5 7 8 17 8 -13 10 -7 1 5 10 12 -15 6 7 -5 9 2 1 -1 12 -9 -2 -8 -7 -2 -9 -2 5 -17 -7 4 -7 -7 0 -2 3 -1 -14 -10 -1 2 5 5 9 -13 3 5 12 -11 3 0 -6 -8 -3 3 -7 -4 -4 -3 -6 7 -5 -7 7 -19 -8 0 -2 0 8 14 -10 -11 -3 -4 -12 6 5 4 -11 -9 -6 -2 6 3 -2 7 -4 -9 -4 14 3 -15 -1 0 11 -1 -8 -3 -6 0 -4 8 7 7 0 -5 5 -15 5 -3 4 -2 1 19 -5 1 5 -9 -2 8 -10 3 2 13 -9 -4 5 -6 9 0 6 6 3 6 1 9 4 0 -2 8 -1 -2 -7 -1 -1 0 3 7 -3 5 4 10 -9 2 9 8 12 14 8 -2 12 4 14 13 7 2 13 -1 5 5 -6 8 2 7 13 -7 1 -4 9 7 -6 -3 15 6 -10 7 -2 -7 2 2 7 -5 -1 11 16 4 -6 5 -5 4 5 4 -6 5 
-3 -14 6 5 -5 -1 8 1 10 -12 3 -7 3 8 2 -3 22 -3 8 4 21 0 11 2 -7 -2 1 -7 2 -7 10 -2 3 7 -4 0 3 -8 4 12 -12 -9 1 -8 -7 -3 2 6 -2 1 6 4 7 -1 13 6 -1 -2 -3 1 14 1 -9 -7 2 -5 6 -6 -12 -2 3 -5 3 -2 10 0 11 -4 2 -12 6 7 2 0 -5 -12 -15 0 2 1 -1 4 -4 -9 -5 11 -5 -1 7 -6 3 2 -2 1 6 -1 1 7 2 6 -6 -1 -7 1 -4 0 -7 2 2 -1 6 -2 0 1 6 1 0 -5 -4 0 -1 -4 -3 1 0 -5 5 -14 2 -5 -1 -5 -5 -7 -7 15 -6 -3 -8 -10 -1 -3 9 -7 8 -2 3 -5 -7 -1 -1 -6 -2 -5 5 -7 6 1 7 4 0 9 1 3 0 2 16 2 -6 8 -2 -7 13 -1 17 6 5 2 -2 8 6 4 3 -5 15 4 19 5 10 6 7 0 8 9 -7 11 8 2 8 13 1 4 4 1 18 2 -2 2 19 -3 -11 8 -7 5 -2 -9 -5 12 -10 -5 -7 -3 1 4 -1 -5 9 -8 1 -11 -3 -2 -3 11 9 3 -5 -1 -8 -10 -4 -6 4 -2 -2 3 -8 8 -8 5 -11 7 6 1 2 -8 19 17 30 16 38 38 41 40 59 55 77 72 81 61 68 75 71 80 66 72 68 59 86 73 75 74 78 81 80 76 76 78 87 84 85 83 85 92 89 78 82 95 91 87 89 90 87 110 97 107 121 113 109 109 103 113 112 110 117 125 111 121 120 141 126 124 114 123 120 134 136 153 126 147 142 148 160 146 115 113 82 76 70 71 72 60 40 27 4 -3 -14 -3 5 7 7 13 6 5 2 -2 0 10 7 0 8 1 -7 -8 2 -1 0 8 14 11 9 0 4 4 20 9 -4 3 10 4 -5 0 0 -10 -14 0 -8 13 8 11 -3 12 -3 8 -6 3 7 4 3 -2 5 0 8 0 14 10 -4 -4 -1 15 -2 -9 6 4 -2 0 13 -1 2 12 3 11 2 17 8 4 6 5 10 4 -3 2 5 -5 1 -3 3 3 -1 -3 1 1 -4 1 -5 2 -7 -4 0 -3 5 -4 -2 -16 1 -17 -2 -5 2 -14 4 8 -1 7 -2 0 -11 12 -7 -11 2 -17 -8 8 -4 5 8 2 -7 0 -10 -2 6 6 5 -11 5 9 0 -1 0 -13 4 -12 -5 -7 3 -13 -10 -10 -12 -1 -11 -10 2 -2 2 3 3 2 1 5 -2 8 3 -11 -7 10 11 0 -6 1 -3 8 -3 -3 1 8 2 -1 3 7 7 4 -3 -6 -6 -4 -4 -5 3 -13 5 14 5 0 13 -3 -8 5 9 1 10 -5 2 -3 4 -2 5 -8 -19 4 3 4 -3 -3 1 -4 12 2 4 6 -6 9 2 -2 12 -10 16 8 8 5 -12 6 11 8 9 -2 -7 1 16 12 2 -3 13 -1 7 9 -3 5 -8 -2 -4 16 -2 3 6 -9 11 4 -1 6 8 15 2 9 0 -7 1 -9 -9 4 3 -5 -6 4 -6 3 6 -6 
16 0 5 -5 8 4 0 -5 6 2 1 -1 14 -2 -6 3 0 10 1 4 -4 3 6 -3 2 4 1 10 -3 4 9 3 -4 10 7 -3 3 5 -11 1 -2 1 -8 0 2 -6 -14 1 8 -4 1 2 0 1 -4 2 -7 -6 -10 7 -6 0 0 -4 10 -7 -4 19 -4 2 -20 -7 -1 6 5 -3 -9 -3 4 0 6 -8 3 -5 2 3 5 -3 1 -5 4 4 -9 -13 -3 2 -7 2 -9 9 4 -11 -1 -14 1 5 -3 13 4 -5 9 -2 9 4 -1 14 6 1 3 5 -5 -3 3 -4 8 -4 -5 8 3 1 4 -3 6 -1 7 2 14 10 5 -1 1 5 5 -3 5 -13 1 -6 -4 -2 -10 -7 10 6 5 0 -8 3 -2 -7 14 -16 7 1 -5 1 2 -5 -2 -9 -1 -6 10 1 8 0 6 -6 17 0 4 17 11 8 12 2 -7 6 11 16 1 2 0 -3 -1 5 8 14 10 6 0 12 -1 4 10 9 5 0 -4 2 5 0 -6 -3 -3 1 -2 -10 2 2 -9 5 10 3 0 11 4 2 -7 6 -1 2 -3 4 -8 -2 -3 1 6 2 -4 -10 5 0 3 5 -2 12 -4 -3 -9 -9 -6 -9 2 -4 -9 -11 -10 0 0 -5 4 -3 8 -7 2 -1 4 6 13 26 42 38 44 40 54 59 59 61 69 73 76 82 89 87 93 88 86 81 72 85 88 84 93 91 77 84 95 85 100 104 100 105 90 106 105 97 101 105 103 109 108 105 101 105 98 114 113 122 116 120 123 118 134 125 123 147 128 125 143 144 145 144 139 152 142 135 115 111 78 87 79 75 68 63 72 70 60 31 2 0 7 -16 0 8 -2 9 6 16 3 -3 16 5 2 2 1 1 8 11 6 4 7 4 12 3 2 15 7 -3 8 3 5 6 -4 -1 4 3 -9 2 1 3 -11 -6 3 -3 4 -5 6 0 -5 1 12 2 5 -7 8 1 6 -6 11 -4 11 4 8 10 -3 15 -4 2 5 6 7 4 7 0 6 6 2 16 4 3 6 -6 6 8 10 14 0 4 4 -3 -1 10 -6 6 0 10 -3 2 2 -2 6 -5 7 -5 6 6 -5 -8 -3 4 0 4 4 -11 0 -4 -4 -5 -10 -1 -5 -7 -6 -8 -4 -4 -2 -2 -2 6 1 -8 -1 -6 2 3 -1 -4 0 6 4 -3 -4 -9 8 -5 3 -14 10 -7 1 -6 -8 -6 -3 -8 0 4 -3 -4 -4 10 1 5 -3 10 2 2 5 2 6 -5 2 -1 1 1 -1 -2 -4 5 -4 0 1 3 10 17 -6 -5 2 1 8 -1 -8 -4 3 -1 17 4 12 1 6 -7 16 2 -4 -11 8 1 -15 1 1 -18 -3 2 -10 -5 -6 -7 -3 14 8 -6 11 -7 6 4 -1 15 6 -4 -2 2 10 2 -9 1 5 1 1 15 4 18 -3 2 2 7 -5 15 -6 9 -5 3 3 6 4 8 11 8 -4 12 2 14 5 3 13 15 7 9 5 17 -8 -14 -3 -4 5 -6 1 0 5 1 2 6 -2 7 8 -2 9 3 
-13 8 -3 11 -1 -7 -10 7 6 3 4 8 -3 -5 -2 9 3 7 -9 10 7 3 13 -3 -3 2 -5 3 -2 -2 4 3 5 11 19 3 -4 12 0 2 4 -15 -5 -10 6 -11 -6 -5 -4 -2 -9 4 0 -6 -4 6 8 2 5 -11 12 -6 7 12 -8 1 -2 -8 -8 -6 -2 -5 2 -5 1 -7 1 1 0 3 7 9 0 -9 6 -11 -3 -5 0 -1 -7 -7 -4 16 1 4 3 1 1 -1 -6 -2 -8 -2 0 9 -1 2 5 -3 3 0 -1 -5 15 3 -3 -6 -5 9 -2 4 11 -1 -11 3 4 3 -3 11 1 3 12 2 2 2 2 3 -2 8 -5 0 11 -2 -9 8 11 4 1 -10 -6 0 7 5 7 -4 -1 3 -2 -7 2 -4 14 -8 4 1 5 -3 2 9 5 -6 -2 9 3 -2 2 -1 1 7 7 4 6 13 8 8 13 -2 -10 5 8 -6 2 -9 15 5 3 -7 0 3 -7 -7 5 1 2 10 2 8 5 -9 -4 -5 7 -5 4 5 6 -4 -6 0 7 -2 -4 0 -2 0 4 14 5 5 -7 8 13 -5 4 4 -1 -9 -5 -8 -7 5 -4 1 2 -1 -11 -13 0 0 -11 2 -1 1 4 -15 -10 6 -9 -8 1 2 -3 4 -3 -4 2 3 -1 -6 -8 -1 -1 -5 4 26 32 44 52 46 37 47 57 59 68 81 85 72 98 98 93 84 88 102 90 99 97 97 105 108 100 108 107 107 99 115 123 117 115 118 127 97 110 94 113 119 99 117 103 114 120 122 137 147 138 145 145 146 145 148 141 125 128 103 110 93 91 80 75 78 75 80 58 72 55 34 35 13 -10 2 4 6 10 8 11 -4 20 6 8 -3 14 4 15 -1 4 -4 9 10 5 4 7 6 5 9 7 22 14 3 7 2 4 7 -5 2 1 -9 -4 -7 2 -2 8 -3 8 8 5 0 -1 -2 5 10 -1 9 8 5 0 8 12 0 1 11 15 7 0 8 2 3 -2 -5 3 1 -6 4 9 8 5 5 3 3 16 0 13 4 -5 0 6 8 -6 6 -6 11 0 2 -2 3 3 1 9 3 5 -4 12 4 5 -2 -4 4 -3 9 -5 -6 -17 0 -4 -11 -5 -12 6 -5 1 1 3 8 5 -4 8 -12 -4 5 -14 -10 -6 -2 12 -6 13 -13 -10 -13 5 -12 3 -2 -12 8 -9 -1 -4 -2 -4 3 -3 2 -3 3 -5 6 -3 0 -2 -2 -7 -4 12 -8 -7 -9 4 5 -3 3 6 5 0 7 8 10 4 6 4 8 5 -2 3 15 14 4 3 8 2 5 5 -2 9 0 -5 -13 -5 -3 1 -9 -1 -9 -6 0 -3 0 -4 -1 -7 1 -1 -4 3 4 -1 -4 -12 2 16 -2 5 2 6 3 -4 4 17 -9 14 -3 -2 0 16 -4 -10 4 -2 0 -4 -2 13 4 0 1 3 0 12 -5 8 7 10 2 12 6 10 -6 13 6 -2 -4 1 11 -6 -2 4 3 6 -18 14 6 3 1 4 6 4 -5 3 4 3 -3 7 5 -1 1 -3 0 -2 10 0 2 
3 -4 0 7 -6 8 2 13 5 13 -5 -3 6 -1 -2 0 2 -7 7 -4 4 -12 6 -5 5 -4 -2 0 0 -2 14 -10 7 -1 -6 7 3 -6 -1 3 2 7 -10 0 -2 4 7 -12 5 -6 7 0 -6 1 4 0 -12 5 3 2 -10 2 4 -8 -1 -2 -7 3 -1 -9 -8 -9 -6 -7 -13 -3 -6 2 0 7 -10 16 -5 1 -3 -5 -11 8 -3 -20 2 -5 -6 -5 3 3 -2 -5 5 -2 -8 15 -3 -1 -6 2 -6 -6 2 -10 -4 6 -3 -5 -5 -3 -14 -1 -6 -11 -2 -16 8 -2 5 3 -1 10 -6 -10 7 0 -11 -2 -2 8 -1 -6 1 11 12 -7 3 -1 5 3 -5 -4 -7 -3 -5 2 6 12 2 -9 5 14 -4 5 6 -5 6 -4 -3 3 5 10 12 -8 5 -5 13 11 -9 8 5 4 -1 5 4 14 9 14 11 8 -5 4 -1 7 -1 -9 2 10 -14 17 5 5 6 -6 3 0 4 11 6 1 5 -6 8 7 1 -5 -7 -7 5 13 -7 -5 -2 11 -4 -10 10 6 2 -8 -3 6 -4 3 4 -10 -1 2 1 7 -10 -7 -1 -10 -1 3 0 6 -9 0 1 -6 4 -8 -4 9 -6 -2 -5 1 1 -6 -5 3 11 8 7 1 4 -14 1 1 -3 3 -1 3 -2 -3 14 -1 -5 -3 3 17 30 21 45 52 50 40 46 68 53 59 60 71 74 72 74 102 88 100 96 113 108 110 107 116 121 115 117 116 112 116 118 115 131 124 118 127 124 115 121 111 104 106 97 101 90 97 103 81 83 75 74 81 82 87 75 76 78 63 59 42 20 21 23 -11 5 11 2 6 6 10 19 11 11 5 17 11 6 4 24 14 15 10 8 6 15 16 3 5 5 14 -4 17 6 15 11 1 3 9 -5 -9 -1 -4 0 2 3 -6 -11 5 -3 -8 11 2 1 18 2 4 3 -7 -5 -6 -6 10 3 4 -4 4 0 6 15 8 2 3 3 2 -3 0 2 1 2 2 5 -2 9 3 11 7 6 -1 -2 10 13 1 -4 -4 8 -3 3 7 3 2 -7 -5 5 -7 3 0 7 7 7 11 5 5 -1 6 8 4 0 -9 -14 -1 -1 8 6 -1 -15 0 4 -5 -7 -1 0 -9 1 -8 0 -10 3 7 -11 -6 -16 -5 2 -3 -9 -3 -2 -14 -12 -6 -4 1 3 2 -9 -1 3 -8 -5 -3 4 -14 -8 -1 1 -4 -11 -11 -3 -2 -2 -7 -11 -3 -13 5 -6 8 11 -3 6 -4 8 10 -4 6 6 -1 18 -9 0 -2 12 -5 7 9 -5 -1 4 11 2 16 5 5 12 0 10 -4 -5 15 12 -1 5 -4 -5 -7 7 9 4 -8 2 -7 10 -3 -2 -10 -7 1 -2 -1 -7 4 12 2 -9 14 12 5 4 15 4 9 -3 5 5 2 -9 6 12 3 25 5 23 -1 19 1 7 -2 13 -1 10 10 8 9 6 9 8 1 8 14 4 2 10 -1 -1 1 5 2 8 1 10 -6 5 -8 10 -5 0 3 -7 6 -2 -8 -2 5 -2 2 9 0 7 4 
-2 10 6 8 4 1 2 1 -12 7 -13 2 9 0 -9 -2 -3 0 5 12 -7 4 -9 5 -2 12 7 18 10 -7 -2 0 9 15 -1 4 1 -2 1 -3 8 -4 -5 4 -14 -8 9 4 3 -2 -12 14 1 -3 -3 -14 4 3 9 6 1 1 1 2 -7 -7 -8 3 -7 1 5 -11 -1 13 -5 1 2 -5 9 2 2 -15 2 -10 15 -4 4 -2 7 -15 0 -6 -2 3 -8 3 4 9 3 4 16 -11 2 0 9 -7 -2 -7 -6 4 3 5 -4 -3 4 1 3 5 -7 2 2 5 4 1 5 8 1 -5 -5 16 -1 10 0 -2 4 6 1 1 6 3 15 0 -13 -8 -3 6 11 13 -6 5 -10 10 3 -3 5 5 8 -1 10 14 -1 -1 9 7 3 -2 -6 -6 -1 11 8 10 -5 -3 8 9 9 6 10 10 8 4 6 6 -3 -7 4 8 -6 1 -2 1 -8 15 -3 -2 7 3 8 -1 8 6 4 -5 0 2 1 6 2 5 4 2 -2 -5 -1 4 1 5 -4 0 -14 8 -8 -3 7 -5 1 1 -12 -3 7 7 -9 -2 4 -4 -9 -7 6 -6 11 -2 5 3 -6 -3 0 3 1 -1 1 -3 -1 4 -12 -8 4 -7 -12 -14 0 -9 10 3 1 -3 2 -2 -4 2 1 0 -12 7 2 -1 3 6 0 0 -4 0 3 6 14 41 37 38 36 56 53 49 50 75 60 70 61 66 63 60 55 72 61 78 65 67 61 71 73 75 82 70 63 76 63 78 67 75 63 68 72 69 64 68 69 80 64 80 75 74 67 59 66 47 34 12 14 -6 -14 -16 -2 5 -6 0 7 16 23 14 14 5 9 10 21 0 11 15 6 6 13 -3 1 8 13 12 13 3 7 -1 -2 1 5 20 -1 10 1 7 5 -6 -4 7 -5 2 -4 8 5 3 6 -8 -3 -2 2 5 -5 -2 -1 -2 1 7 -3 0 4 3 5 -2 7 -12 17 1 1 -15 4 -4 -3 -6 11 7 1 -2 5 -5 -3 -7 9 -6 -3 8 -4 6 -1 1 1 4 -14 3 -11 -7 -3 -12 -2 1 -4 13 -5 9 7 6 -4 4 17 -6 4 -6 -6 -1 -9 6 4 9 2 5 -1 -8 4 -15 1 -4 -8 -5 3 -5 -3 0 -12 0 9 3 0 -6 8 1 -2 -8 -6 -2 -1 -6 -12 -5 -12 -1 -4 -4 -14 -5 -11 -1 -4 1 -8 -7 2 -17 -3 4 -5 6 -6 -7 1 -1 6 -2 -10 1 0 -3 -5 8 -9 10 9 4 3 -2 0 2 8 2 10 2 1 -1 8 0 -3 0 8 16 1 10 -7 5 4 1 -3 -5 0 -4 -9 2 7 -4 0 -2 -2 -1 -7 -11 -3 -1 -1 -6 -12 -8 1 -5 -3 2 0 11 7 0 10 6 1 -8 9 3 0 3 4 -4 4 9 -1 3 12 0 9 11 7 7 -7 4 10 5 8 8 2 16 4 -1 3 -6 12 6 -7 5 7 5 10 2 -1 -3 2 1 2 9 -9 -1 0 -11 11 4 -10 12 -11 7 -5 4 -2 -4 8 -7 -7 8 -18 -4 3 -1 
9 3 -1 0 2 -3 2 -3 3 7 -4 10 -10 -1 -2 8 -1 -4 -8 3 -6 4 -6 -12 -2 0 -5 -6 2 4 -3 3 6 6 3 3 0 -1 4 -2 -1 -3 -3 -6 0 -4 6 -9 -6 8 -6 -10 -3 2 -2 -21 2 5 7 1 6 1 12 -2 -7 4 -5 -2 -3 -2 -9 -15 -2 -9 -7 7 8 4 -3 -2 7 0 -3 4 0 -4 -3 -7 -16 -3 -3 -5 -6 -7 7 2 3 3 -6 10 5 0 6 -6 18 2 -4 1 1 0 15 10 9 3 -5 5 0 -2 -13 2 3 -6 20 3 -3 9 -3 8 6 -7 -14 5 4 2 -7 -3 10 -8 1 3 -1 -6 6 7 -7 9 -12 1 -2 1 -8 -4 -6 -1 6 8 7 3 5 -9 0 0 -6 0 -8 -7 6 3 21 -2 8 -4 -2 0 -3 9 9 1 15 -2 2 -2 15 0 9 16 2 -2 5 -16 3 -4 9 -10 -8 10 9 3 -2 -4 6 11 -4 7 7 16 8 -5 -9 4 0 5 3 -3 -3 0 12 -2 -8 -4 7 1 3 2 -15 1 7 0 10 7 6 -5 -2 4 -5 -7 2 1 4 -17 1 2 -12 -2 -10 -13 -8 -16 -4 -1 6 -11 6 -13 -2 8 -4 -11 -3 6 -20 0 -10 -11 18 -17 -7 -8 -6 -10 2 -3 -5 -6 4 2 2 3 10 2 -3 -7 -1 1 -10 -2 -2 -16 -2 -9 4 4 17 32 31 25 51 56 61 59 45 64 74 72 58 68 64 73 75 69 62 72 72 79 76 77 62 77 56 68 57 65 60 56 43 34 41 23 20 10 17 4 -8 0 -8 -17 -11 -13 -1 11 -6 6 0 -1 6 4 -2 2 1 13 -3 5 3 11 11 -13 -2 -2 0 -4 4 6 -5 -9 -11 3 -2 -4 -1 -2 2 -1 2 9 -4 -2 13 2 3 10 -8 -3 3 9 -3 -4 -6 -1 -3 5 -4 -3 -9 0 1 -9 -6 -8 -1 -5 -4 2 5 1 3 2 -2 0 6 12 -9 6 13 -11 8 8 0 1 6 -1 -7 1 5 4 4 -2 2 2 -6 5 -6 5 5 11 5 -3 -3 -6 1 0 -6 -11 6 1 2 -2 7 3 4 7 13 -2 -6 4 -5 -5 -4 -10 6 -6 13 0 -6 -16 6 10 -4 1 -4 6 3 1 2 9 2 0 -8 -6 1 6 -2 -11 -4 -7 -11 -5 -9 -5 5 -8 -10 -4 5 3 3 2 3 -7 -7 -9 -9 -13 6 2 -1 -6 6 -4 -10 -7 -2 -2 -5 -5 4 2 -12 -3 -9 1 0 -7 9 -5 0 -10 3 2 4 7 11 6 8 -3 6 6 -6 -1 1 12 1 22 -8 -4 5 3 5 -10 9 -6 7 -3 14 13 1 2 -7 -8 -1 -6 -6 5 10 -4 9 -2 -3 14 2 -4 4 -3 -5 -2 10 5 3 -1 3 9 -5 9 8 2 3 2 -10 -6 6 -4 -3 4 17 6 7 5 4 9 5 8 12 0 -3 -9 8 2 4 7 2 9 -12 5 -8 2 0 -4 6 -12 10 -6 3 2 12 1 10 -5 11 -4 5 -2 -3 4 -8 -7 8 0 7 8 -9 -7 
-9 8 2 3 -3 0 -2 1 -3 1 3 -1 -3 10 -9 -11 5 3 1 -14 2 8 7 4 4 -6 -3 0 -12 3 12 8 1 -7 5 -14 -7 2 1 3 -2 0 4 2 -6 3 3 -8 1 -6 3 -1 -7 0 5 4 6 -4 3 -2 -8 5 -3 -2 -12 2 -5 -13 -4 -7 -10 7 0 1 2 -4 -18 -1 0 -2 9 -5 -3 -7 -1 -4 -8 -2 -6 0 1 -8 -8 -7 3 5 -1 5 -5 3 -9 1 -1 7 -7 5 6 -3 0 4 -3 1 0 12 -10 16 1 6 8 4 -4 0 -9 12 7 8 4 13 -1 13 2 7 13 5 3 6 15 -7 6 0 1 -6 4 4 1 0 3 -3 -5 -2 4 14 2 -3 -3 -3 0 1 6 6 -1 6 -1 5 -10 8 1 -1 -6 7 1 3 -8 14 7 7 9 9 9 10 12 2 2 0 5 -1 5 -1 -1 -1 -9 0 -1 5 -8 -6 11 -1 8 6 7 8 0 2 -3 8 -5 8 5 16 8 -8 -12 -3 3 6 -9 -1 -5 -6 -1 -4 -9 2 4 1 1 11 7 13 8 8 -8 -8 -5 -3 -1 5 -11 9 -10 -6 -7 -7 3 -6 -5 -4 -1 -10 8 -2 2 -10 12 -19 -3 -16 0 -4 -6 5 -1 -2 -8 -1 -21 3 3 2 -10 -10 -1 -2 -1 8 -17 -7 -4 9 -5 7 4 -2 5 -10 0 5 0 -5 -6 8 -4 -4 2 10 -10 3 -4 9 12 17 0 3 10 10 18 8 24 17 24 23 22 13 24 7 10 6 -8 7 -6 -1 -5 -12 -11 -7 -2 7 -12 -16 -12 -7 3 -10 -9 1 8 4 4 -6 -10 2 1 -6 14 11 17 13 0 -6 2 8 8 -8 -3 -3 -2 0 0 -1 -2 2 16 -3 1 -2 -9 2 -1 5 -1 8 13 8 -4 1 0 -7 1 -1 4 -3 -7 5 -5 4 6 -5 8 3 4 -8 -1 -4 -1 -6 13 9 -10 -3 -3 24 11 -1 7 0 -8 0 2 -6 2 3 -6 1 11 -6 4 -5 6 4 11 10 -4 -15 -1 20 4 9 4 -10 18 5 -15 8 8 -2 -12 6 -2 -6 -14 -2 1 -2 3 0 11 -11 4 8 -10 1 6 -2 -5 -4 -10 5 -13 1 -7 -7 -3 5 6 4 -8 1 6 0 -4 2 -3 6 -12 -7 7 -6 -11 -24 -2 -3 -8 4 -6 -5 -6 -9 2 -9 3 -16 1 -5 -2 -7 -2 -3 -2 6 -1 1 -8 4 11 11 -10 3 -11 -7 5 -7 -8 4 6 8 -9 1 -11 -1 10 -1 5 7 -1 5 -7 2 11 5 9 10 1 10 7 6 10 -5 12 4 9 2 11 6 7 0 8 17 -5 5 2 7 2 0 -6 6 -3 -3 -4 -2 3 13 3 -5 -5 7 -2 4 5 15 5 2 0 -3 -2 -2 8 -5 -2 2 0 0 10 0 4 -14 -1 3 13 8 3 6 3 -2 0 11 -3 13 5 1 -2 0 -3 -1 3 7 1 5 -5 11 8 -2 12 -7 -3 -2 -3 2 9 5 -4 2 -3 -6 -7 -2 -12 15 -1 5 -2 8 4 -7 11 -3 4 -8 3 2 
7 -3 -8 2 3 -5 -1 10 7 1 -1 -1 -3 10 -2 2 -10 -3 2 -4 1 -17 -13 6 -13 0 -1 -3 1 3 -5 -2 -1 6 12 5 4 -2 -11 -5 6 -22 -7 4 -2 1 1 -2 1 6 7 1 -2 3 2 1 1 -1 2 14 6 -5 -5 5 3 -5 -8 5 -8 5 -5 -5 -2 -1 -12 4 -1 0 -7 3 4 -6 7 3 -6 1 0 -9 1 -9 4 -4 1 3 -5 5 -7 10 -1 -1 -2 1 1 3 9 13 2 -2 -3 -11 3 12 -2 -14 11 -1 2 10 4 4 10 -2 1 0 -2 16 6 1 11 10 -5 2 -5 2 -7 4 -1 -3 5 -1 -1 3 6 5 11 6 3 10 7 4 0 -12 -4 -6 5 -1 10 3 -2 -4 11 -9 -4 -1 1 1 -1 12 -1 10 1 10 -7 2 -11 3 6 5 -2 10 8 -5 13 -2 6 2 -5 -4 0 1 11 -6 6 8 11 2 2 13 0 8 3 -11 6 5 5 2 -2 -11 -3 -9 1 8 1 5 4 8 0 0 -6 6 -3 -4 -3 8 -10 9 -4 8 -3 11 -10 -9 -2 10 -6 1 1 -12 -1 -3 -13 -2 -8 -4 -12 -8 -4 -8 -1 10 -7 -14 -2 -2 -1 -11 -4 -2 -9 -14 -16 -13 -19 -1 7 4 -14 -3 -15 -3 -1 -3 -3 -10 -5 0 0 9 6 -7 6 -11 -5 8 -2 3 6 3 8 -7 2 -3 2 6 1 4 -3 -8 -1 4 -5 8 9 0 -11 2 5 -1 1 -3 -5 -1 6 -3 9 -16 -10 -4 3 9 -3 1 9 8 -10 2 2 4 8 8 9 -2 14 4 5 4 -2 0 5 5 -4 6 1 10 4 17 16 -5 2 0 1 -7 -3 2 14 -8 2 17 17 -8 5 0 -3 -1 4 15 3 1 2 -5 6 1 3 1 8 -4 -5 -3 -9 2 6 -3 9 10 -3 0 1 -7 -4 13 -11 4 2 2 12 -3 7 -9 1 4 -1 0 6 4 -6 14 10 -2 -1 11 -8 5 11 -14 5 -2 -1 7 1 8 -5 -5 6 1 6 9 -13 9 5 -3 -10 10 2 6 -9 -10 2 -6 -3 -15 17 2 0 -4 -9 9 -8 -3 2 6 2 -9 -2 -2 -9 -2 -8 2 1 4 0 -11 2 -3 -7 5 -2 -1 -2 8 -5 12 -3 0 -5 9 -4 -9 3 8 -10 -10 -9 -2 -6 -4 -4 -17 2 -2 6 -1 -3 -2 -9 -3 -12 -1 -11 -3 8 -2 -4 -1 1 4 -8 2 6 -4 -6 -13 8 7 3 5 -4 9 -5 -7 5 -4 2 -2 -3 4 -2 11 8 13 8 2 -4 12 9 6 4 2 20 11 -4 8 8 11 11 1 3 4 0 2 -5 1 -7 4 12 3 6 -5 0 3 10 6 -8 -13 2 -11 5 -4 3 -7 12 -9 5 4 2 -8 10 6 13 6 -2 0 6 7 -4 18 -1 -6 -5 4 -6 11 13 10 14 4 17 8 3 13 20 2 3 -1 3 1 1 1 -7 -2 -5 8 -4 8 1 3 -2 11 4 3 2 3 5 -2 -2 13 -1 4 7 -2 7 -8 -6 5 -7 1 5 -2 -3 4 
9 16 -3 -2 0 -6 2 -1 14 2 1 7 -7 -12 -11 12 -8 8 -13 -2 -3 4 0 -8 -6 -9 -14 -5 2 -1 -5 -4 -13 3 -4 5 -11 -5 2 3 0 -6 16 -8 2 -5 10 1 -8 4 -5 5 -2 11 2 4 -6 2 4 -5 3 10 4 -1 -6 2 -5 1 -15 -1 2 2 -2 -5 2 -4 1 -5 18 4 -17 0 -14 2 -6 4 -1 0 2 -18 -7 -1 -7 -7 7 4 -2 4 10 0 4 -5 4 4 3 -4 5 -1 0 -5 5 -1 1 9 5 10 2 -2 10 4 -4 14 6 -5 10 -2 -1 6 6 3 15 0 11 2 7 4 9 4 -1 5 21 -4 4 -1 -2 0 8 -1 -16 16 5 11 -3 -3 -3 2 -3 15 -15 2 -8 13 7 6 5 11 15 0 0 -12 9 -1 2 -7 3 8 6 9 -4 -1 2 -2 5 3 3 -3 -10 1 -6 -14 5 10 -7 -2 4 -9 -10 9 -4 -7 1 -2 2 0 -4 0 -4 -1 12 14 -9 -3 9 -6 1 5 -3 -10 -3 -6 -1 -1 -17 3 1 -4 1 0 -1 3 3 1 1 -1 0 2 -3 0 -10 -12 11 -17 0 -6 -3 0 2 -9 -9 4 1 -2 1 -2 -7 -2 -13 -1 -13 -10 -12 -18 -11 -5 -16 -2 8 -13 -11 -5 -6 -2 -5 0 -3 0 -10 -1 7 7 1 -2 2 -2 7 -3 5 6 -6 4 7 -3 -4 5 6 10 17 3 0 1 11 13 -10 5 24 10 4 2 9 0 -4 20 -5 5 0 13 -1 -5 4 -4 11 -9 3 -2 12 15 3 14 4 12 5 7 3 5 8 14 18 9 5 14 8 5 -8 -4 -2 3 6 6 17 0 8 6 -3 6 7 11 -9 7 0 1 2 16 -2 28 -2 7 4 -1 2 8 12 4 1 11 5 2 7 7 -5 1 8 -7 6 1 6 5 6 11 -5 9 3 9 -1 -4 -7 10 -4 4 -1 -11 2 13 -5 -2 -6 -6 -14 1 1 -13 4 -1 -7 -7 -7 10 -4 8 5 4 3 18 3 0 4 0 12 7 5 11 -6 -9 0 -12 -5 -6 -7 4 6 6 19 1 2 5 7 0 -4 1 -11 3 -6 6 1 -6 0 -2 15 -6 8 0 1 6 8 -1 -9 18 4 -1 -4 -13 -15 3 1 2 8 -5 0 6 -7 0 -1 3 -4 -3 -4 -6 -6 8 10 -2 -3 -3 -5 4 -5 6 5 5 -7 -3 -1 3 0 -8 5 -16 5 -4 10 12 11 4 -2 3 6 9 2 -7 12 -5 -6 3 9 8 3 1 6 -11 9 12 4 13 6 8 12 -3 10 16 -2 7 2 2 13 7 9 -5 5 9 3 -1 -4 1 13 -5 -3 -2 6 -5 9 -7 -7 -4 6 -5 4 -1 -3 -6 -3 4 3 2 -5 -1 4 9 -5 0 2 4 -3 6 -3 11 3 2 -9 4 3 3 -9 -3 -5 4 13 5 5 -1 7 -1 -5 -2 -3 2 -15 -2 3 3 -6 -2 15 -1 0 8 2 -5 0 -11 -3 1 3 14 7 -4 4 2 3 1 -11 -1 -1 -4 5 -13 4 8 -7 6 -4 2 
-8 -8 4 -4 4 18 -2 -6 -7 12 2 -1 5 -19 6 -14 -4 4 5 2 -4 -6 -7 -2 -4 -19 -6 5 -5 7 -10 -4 1 -7 -10 -3 -1 -4 -9 -4 -3 1 -10 -3 -5 4 -7 -2 5 0 -1 -5 12 0 2 14 2 -1 0 7 -8 -8 -7 -3 -3 -2 0 -8 2 -6 -4 2 -5 -12 -10 -6 -1 3 2 -3 8 8 2 -4 -19 6 -3 2 -10 -6 -4 -8 -7 0 2 -8 -5 -9 -1 -1 1 -4 -15 5 5 3 -3 -10 11 -2 6 -11 1 -4 9 0 5 4 -1 2 2 7 5 2 18 0 6 12 -7 6 7 12 4 9 0 2 9 3 11 6 6 3 -1 -2 21 0 6 4 5 1 4 7 4 8 -12 -7 6 -8 5 6 6 -2 1 3 -1 8 0 -4 -4 0 -9 -5 -6 6 10 -14 4 3 5 2 -5 6 3 12 -3 14 -9 2 -10 -3 -1 -5 -3 7 -6 4 2 6 7 0 -14 -1 1 1 0 0 -9 4 -6 -3 -1 4 -11 7 6 8 -4 0 0 -6 2 1 4 18 -4 2 7 -2 13 -7 -1 -4 0 -8 -10 -8 0 0 -4 5 -13 3 -6 -3 -2 0 -2 0 5 -6 4 -1 -10 -3 -12 3 -1 1 -19 -10 -8 -6 -2 -9 4 -3 -15 3 4 -4 9 -8 13 3 7 5 -1 -8 5 -4 4 -4 -4 0 2 -3 1 2 -2 8 -5 6 2 6 -12 7 -8 -9 -2 8 -4 3 10 -1 -6 -6 6 6 -12 7 4 -16 10 3 17 -6 -4 -5 3 -7 -18 6 -3 0 -8 3 -4 8 7 7 1 12 21 3 10 5 8 13 5 -12 1 6 7 2 1 0 12 13 8 11 -6 8 25 -2 7 24 10 3 7 5 -1 -3 14 3 -5 5 -1 -5 3 8 11 -5 9 15 5 7 6 -4 9 4 2 19 3 6 -1 8 3 -1 -5 18 10 5 -3 -5 1 6 5 -15 -7 -2 6 -5 -2 -9 -5 -3 -2 -9 -2 -6 -1 -8 1 -3 5 -1 0 4 1 5 -1 -4 0 -3 -4 1 -7 -6 4 -1 -8 -6 7 4 -1 -6 6 -8 2 7 -7 4 -6 -1 11 0 5 1 3 -3 2 5 -7 -8 7 6 4 -4 8 -8 0 -1 5 10 0 13 8 7 3 -6 0 0 -4 -4 5 -5 -2 -6 1 -2 -1 -1 -5 0 -5 12 9 1 3 -14 2 0 -9 -4 -7 -10 -3 -5 -15 -19 -6 -4 -8 -6 9 2 -13 -9 7 -10 -2 6 -2 -1 4 1 5 13 1 5 3 0 6 9 20 3 -3 19 11 2 13 18 3 3 11 -5 14 1 -1 8 -1 -2 -10 9 -9 0 -6 0 -1 4 10 6 3 -1 10 -7 15 -1 9 7 8 6 -10 5 -2 -5 -7 8 -16 7 4 7 4 7 5 1 16 8 6 3 1 13 -4 8 2 1 12 8 20 -2 3 14 6 8 14 2 8 6 -1 15 -4 8 -2 1 8 -17 -8 -7 10 0 4 1 5 4 5 4 2 17 -5 2 4 0 -1 12 -4 9 -1 -10 -3 -4 3 2 4 1 -5 -8 -4 -4 -2 -1 
4 0 -5 7 -3 -6 6 5 -7 0 3 4 -5 -12 3 -12 -9 -6 -12 -5 -3 -2 3 2 -3 -6 -7 3 1 -1 -4 -4 -6 -9 6 -1 -2 3 -4 -3 3 -2 -1 -10 13 9 -4 8 3 -2 9 13 -4 6 2 3 5 1 4 -6 -2 12 2 -8 -8 5 5 2 -6 -6 -13 -7 -4 -3 -3 -8 11 2 -3 -7 10 -3 7 -4 2 -6 0 -11 -2 1 -4 -1 -3 -2 -2 -3 -3 -2 6 -1 8 -7 -4 -5 -7 9 3 5 13 -3 18 -1 -7 10 -5 2 9 -3 -2 3 8 -4 2 -8 -6 -7 6 -5 5 11 -1 13 5 -2 -9 -3 8 1 -2 -5 2 3 17 2 1 12 15 -2 9 9 6 3 13 -6 -2 -2 -1 -2 1 0 -4 6 7 -2 8 6 -2 6 0 -9 -3 -10 -10 1 0 9 7 6 19 -2 2 -8 -6 3 -4 -10 1 9 -9 9 -2 8 0 -6 -7 3 -9 -1 1 5 9 -10 -8 2 13 -8 -7 -6 6 13 1 6 4 10 3 1 -2 6 -3 -7 1 -4 -5 -1 5 -7 -4 9 10 2 8 -8 9 -2 0 -8 -5 -6 -13 -4 16 12 -7 -5 -2 2 8 -3 -2 -7 -3 -4 -6 -6 3 -13 -3 -5 5 4 -22 -3 1 -6 -3 -3 -6 3 -1 -3 11 2 4 -5 4 8 6 2 -1 5 0 -3 -8 -7 -7 8 -2 2 -5 2 -14 -5 -3 3 -14 7 2 4 -6 -7 -7 -4 -2 6 7 -4 2 8 -2 8 -7 1 -7 -1 -4 1 1 8 -11 -4 -3 -5 -1 4 -3 3 -4 3 -1 0 -12 7 -2 -3 -1 15 -5 2 2 -2 12 1 0 3 9 0 16 4 5 2 10 4 13 2 9 3 -18 11 3 15 5 6 22 4 -3 1 -3 1 5 10 6 4 7 -2 6 2 -6 8 -1 9 0 -10 12 -9 8 9 13 1 -3 9 9 0 -5 0 -9 4 -4 0 0 3 8 14 1 5 -3 -16 -11 -1 -5 5 5 0 12 1 -15 -3 -2 -6 0 -1 11 -8 -2 -6 -11 0 6 4 5 -3 0 9 -5 -13 -10 -7 -1 -7 -10 4 -3 0 0 -2 -2 9 -6 -1 -3 16 11 -11 10 -17 -5 -4 -3 1 -9 4 -3 3 -7 1 -4 5 -5 -6 -10 8 -14 5 5 1 -1 3 0 15 -6 -5 1 -11 -4 12 -13 -5 -17 -9 -7 -6 -10 -5 -15 -3 -13 -1 -1 -14 1 -8 -5 -6 -11 2 -7 -6 6 2 -7 -7 6 2 4 2 -4 0 -8 11 -8 -4 10 -6 3 9 11 12 6 2 17 9 5 7 -2 -2 3 13 4 16 14 6 10 8 9 -11 6 11 3 8 1 14 2 2 0 4 6 -4 9 12 -2 0 7 4 6 -9 -2 -3 -2 6 12 6 2 4 9 2 6 1 5 4 27 6 5 13 8 -4 10 0 -4 -12 9 2 14 4 3 10 9 2 2 -10 10 -5 6 -2 9 9 -11 11 0 -2 1 0 1 3 0 -2 -8 13 1 -5 2 4 2 9 -10 6 4 -10 4 -2 3 5 8 -2 -2 16 3 10 1 9 0 -9 
9 -4 7 -1 3 0 10 -1 -3 -3 4 -15 -9 4 0 -2 7 -21 8 -4 -4 2 6 -7 -10 -8 -7 3 -7 5 -13 1 -8 -1 -1 3 2 -10 -1 1 -5 -3 1 -2 7 -1 3 -4 1 3 7 -1 0 -2 3 2 16 5 8 -8 -6 -2 1 -4 -2 -5 1 -12 9 -16 -2 8 -19 -7 -6 5 -6 -2 -4 -2 2 -6 -10 -6 10 5 4 0 9 -16 -2 2 -4 5 -4 2 -5 1 -1 9 -9 11 8 11 1 5 -1 -11 7 -7 4 1 -3 -1 9 7 -1 -3 1 -2 -4 7 7 -3 16 3 5 9 12 2 -4 5 1 10 -7 0 -9 -2 14 -6 6 8 0 6 -2 -2 15 4 -4 -4 1 -2 3 14 -4 1 -23 -3 -20 -8 13 5 2 -12 14 -4 -10 3 1 -10 18 0 3 10 9 -2 14 5 3 -1 -3 11 7 -2 -1 -8 0 -1 -19 -1 -3 -2 5 1 -11 8 3 6 -2 4 -5 5 10 16 0 0 2 -5 8 1 13 -3 -1 -5 0 2 8 -15 -4 -7 1 4 -3 4 5 5 0 2 0 12 14 -3 -2 2 -3 10 1 6 1 -7 -2 -2 -7 -6 -7 -1 -13 -3 -2 -3 -8 -12 -15 1 3 -11 4 8 -2 -6 2 -5 -4 -7 -4 0 -8 4 0 -5 -9 1 -5 -3 -3 -7 4 -6 -2 9 -1 2 -2 -2 1 -4 -7 -10 -3 -5 3 4 -8 5 6 -8 -4 -3 6 5 -1 -3 3 -16 6 1 -1 -1 -3 -8 8 -8 -8 -11 2 6 6 -2 0 8 -4 2 8 -6 0 0 -11 -5 -6 -10 1 -3 2 1 -2 -3 13 -1 8 -7 -7 -3 6 4 2 -1 1 5 13 -1 15 2 4 -6 2 15 9 11 -7 1 0 17 1 5 9 5 -1 10 12 -4 -1 -7 4 6 15 3 6 5 3 7 3 0 -4 20 4 12 -1 5 -13 -2 -6 -4 -2 -5 -7 4 -6 7 2 5 -15 5 1 1 -7 8 12 -9 4 0 4 2 -10 -7 -10 -8 -1 -6 -3 1 0 2 1 -6 0 -3 4 5 8 -1 1 -11 7 -1 -9 -18 -15 -4 0 -8 1 -6 8 8 10 12 -4 -8 -5 0 -3 8 2 -3 4 7 3 -1 -3 -1 -9 1 -8 2 2 -1 -6 7 -12 -1 -5 -2 6 12 8 -13 2 3 -6 1 -5 -1 -3 -13 -8 -12 -3 -11 -12 -4 -3 -8 -4 -8 -10 -2 -1 -13 8 -17 12 -3 -8 0 2 -9 -4 2 -11 5 -3 -5 -3 2 -1 8 9 23 8 10 7 -3 6 1 -11 12 -2 19 3 16 2 8 8 15 -8 -3 -2 6 0 2 2 10 4 6 6 8 5 -1 0 -3 8 16 14 -2 -3 11 10 -1 3 10 -6 9 -10 -3 -10 6 -3 5 7 9 14 -8 10 4 1 7 -4 16 4 1 4 16 3 8 4 16 -8 7 -1 15 6 6 8 2 -1 -2 -8 5 12 -3 7 3 -1 5 -11 -1 -2 2 -3 8 4 -4 -1 2 12 -9 10 -1 -3 10 10 2 9 -12 -5 1 3 4 5 2 -2 10 -14 5 5 5 4 -4 -1 -8 
-9 3 -4 6 7 -4 4 -19 8 0 0 -10 -3 -6 -5 6 -8 -4 -14 -8 2 -6 -8 -7 -5 1 -9 0 0 -6 -9 1 2 2 -4 -6 -7 -6 -3 4 -13 16 -1 2 -5 -5 -13 -5 -3 1 1 3 -7 15 13 1 -7 10 -15 0 -7 -5 8 -17 4 -1 9 4 -2 -4 -5 -12 6 -4 -5 -9 0 12 -10 0 -7 -2 5 -4 -11 -4 6 2 -13 3 -9 -7 -3 1 5 -5 3 3 12 7 -5 -9 1 6 5 9 10 -3 3 9 -1 4 9 -10 -5 -9 9 0 1 11 0 0 1 11 8 -4 1 1 6 15 7 1 13 13 4 3 -7 16 3 10 12 16 18 10 2 10 -7 4 8 3 5 -3 5 2 8 8 9 -1 5 10 1 -7 14 2 -1 13 -4 1 0 -9 -7 -4 -7 -7 5 9 -1 7 7 -9 0 -7 -5 2 1 6 2 0 -3 5 -4 3 15 -1 5 -4 -6 1 -4 -3 4 -2 0 -9 2 -5 2 -3 -12 -5 -12 -6 6 12 0 -4 -1 3 -1 6 5 5 -7 0 1 -12 8 -1 -2 -4 1 -1 -10 -8 -5 -1 -5 6 -5 -3 2 -5 -1 -5 -5 14 -4 3 -3 -10 -3 -10 1 -8 -3 -13 -8 -4 -9 -10 -7 0 -7 -1 -6 -12 -6 -4 -2 -8 -1 -7 2 -9 -8 3 -8 7 -11 7 10 -1 -4 2 5 11 1 -2 -9 7 2 -4 -8 14 -4 0 4 8 0 4 4 -13 1 10 5 9 3 10 3 0 2 -8 -1 -1 -2 -1 -3 2 -8 -5 -5 1 6 -6 -10 2 -5 -7 7 7 4 -1 -9 -14 10 4 4 8 -4 -2 3 4 -2 3 1 -3 -2 11 4 3 10 9 4 -5 5 -5 5 13 1 6 -1 12 -9 -7 3 9 3 -5 7 3 14 -12 -2 10 2 -10 0 0 -5 -3 8 2 0 8 0 2 14 -7 9 -6 3 -8 -8 -4 4 3 6 -3 3 7 2 9 8 -1 1 -6 -2 -13 4 -7 -2 -11 -5 7 -3 2 0 0 0 -9 -5 10 -7 -5 3 -5 -7 -3 1 8 9 -13 -7 -1 3 0 -7 -10 3 -10 -3 1 -2 6 1 -7 0 -7 -4 -4 1 -8 -4 11 14 8 -8 -1 11 -4 2 20 8 -3 4 -1 0 0 3 8 -6 -1 -6 -9 6 4 -1 11 11 -4 2 -6 -8 0 -15 -4 -12 -11 1 4 -5 2 -10 -1 -3 -2 6 -13 -5 0 -9 -15 2 -1 7 2 -1 -16 11 7 -10 6 -7 -5 -1 -3 15 -1 2 11 -5 12 3 4 2 17 10 15 16 -2 17 13 1 12 10 2 1 -12 5 6 -1 7 1 9 -1 1 11 14 8 -1 8 6 2 17 12 -7 4 8 2 11 4 -7 -4 8 -4 4 5 1 -2 6 11 0 11 4 9 7 15 -5 3 3 -8 12 -2 -1 11 7 10 -9 1 4 -6 -6 9 -15 8 15 11 14 -4 7 3 6 -10 1 7 -2 8 -5 13 -1 4 5 7 5 -4 4 -10 -1 7 -6 0 -1 6 3 8 -6 9 -1 0 3 8 -4 15 -2 6 -6 8 6 4 -4 
-7 -9 -9 -8 8 -6 -3 -7 0 -12 -11 -17 -3 -6 -7 -1 -2 -4 -11 8 4 -1 -1 -8 -1 -9 9 8 -8 -7 -8 -7 6 7 4 12 6 -4 3 10 -1 7 -3 6 -5 2 -4 -6 1 5 8 3 1 12 12 9 -4 6 -1 -11 -8 4 -6 4 13 -6 -12 -4 -16 -3 -9 1 4 3 4 18 1 -2 -6 -3 6 -2 -7 -4 -9 1 1 2 10 2 -1 -3 2 -7 -15 1 2 12 5 10 0 3 -1 2 9 7 -3 9 -12 -1 1 -3 8 1 -4 -5 -3 9 -3 9 -4 3 4 8 -2 9 5 -6 11 10 18 0 10 7 8 2 6 6 9 1 3 0 8 7 -17 -3 2 -4 -5 -12 6 1 2 4 1 14 10 4 17 -3 4 13 2 7 7 6 1 -1 -7 8 -4 8 -15 6 -6 2 11 -6 0 5 0 11 -15 0 -2 -11 -9 5 -2 -4 -6 10 -13 -4 1 -8 3 1 1 7 -12 -2 -14 1 0 -2 6 -2 -2 2 4 -9 -5 -6 -1 -2 -10 4 10 -8 3 2 7 5 1 3 10 16 -2 -3 2 1 10 1 -3 -12 -7 -4 -5 -9 -5 3 -5 -1 -6 1 4 6 -3 -6 3 -5 8 -8 1 0 -16 -8 5 -1 -10 -19 2 1 4 -6 -3 0 -8 -6 -11 -4 2 6 -3 -9 -4 3 4 2 1 3 -15 3 -3 -8 -7 -4 10 -1 -4 -4 8 -6 -11 18 -4 3 8 6 -2 8 -7 -7 12 7 9 -4 9 4 0 -3 3 0 7 -20 2 3 7 -9 13 -11 2 3 0 2 3 3 -7 12 -10 -1 8 -7 -5 1 1 -6 -6 -2 10 -8 -3 6 15 1 7 1 -7 8 -5 -4 -10 -2 5 15 -4 9 3 16 5 2 5 9 9 -4 -2 10 8 2 6 -3 9 -5 1 20 -2 7 4 4 4 -2 0 -2 -4 -4 0 -7 5 -3 4 1 13 -1 12 8 17 0 4 2 1 -3 1 5 -5 5 -6 -2 -5 -2 -11 -5 -12 -6 -2 -9 -10 -3 2 -6 -6 -7 -6 3 -7 10 9 -4 -1 -7 -4 -6 -8 -8 0 -1 2 2 1 -3 2 -12 4 -1 9 -18 -3 -2 -4 16 10 0 3 10 0 -3 -4 11 -5 2 -8 6 4 1 5 6 3 -2 2 8 -1 7 2 3 2 -1 14 -1 -1 -9 -1 -5 0 -6 2 -5 14 -4 -1 -11 -3 4 -13 -7 0 -3 -5 -3 1 0 9 -9 -5 -4 -3 -2 -7 -6 1 14 2 3 -1 -1 3 2 1 0 -1 19 3 1 7 -4 3 14 12 8 3 5 1 7 3 14 4 12 9 2 -4 16 -16 5 -7 5 1 13 2 -1 -1 11 -1 5 8 8 -9 2 -1 1 -3 10 11 0 6 -3 2 5 0 14 6 2 8 6 3 14 3 -2 12 -1 -8 -2 13 1 9 10 0 -2 13 -7 3 0 5 -1 -2 -12 2 0 1 -4 -7 0 -5 -9 11 4 3 4 2 9 -3 -1 0 11 0 4 0 -8 -2 1 2 8 -3 10 8 5 6 12 -7 8 -2 12 5 7 11 -9 6 -2 -5 0 1 -1 
4 3 -5 0 -4 12 -10 -10 -5 -8 -7 -2 -1 3 -2 -3 -15 -19 3 -7 -2 -9 -20 -9 -12 8 -10 0 -7 -2 -12 -5 5 -1 -2 -21 6 -11 1 -8 -1 -2 -1 3 -3 -6 3 -3 4 -4 -8 12 11 -5 -1 0 12 -13 6 -2 10 -4 12 -5 4 -6 2 -1 -4 -7 9 -3 2 2 11 -6 18 -6 10 3 5 6 -3 -1 -6 1 -1 -3 -2 6 3 7 -13 3 9 -3 7 -12 -1 -9 -3 14 -10 6 -8 1 3 5 15 7 3 4 -7 4 6 9 2 2 2 5 -3 14 -9 6 6 0 13 9 5 15 4 -2 16 -5 3 2 -6 10 12 -3 -1 5 -3 -5 -4 5 3 7 11 10 4 8 -14 13 8 17 2 -4 1 18 1 7 4 19 19 3 4 11 2 -1 -1 -1 0 -8 4 5 -1 5 3 8 6 2 0 4 3 -4 -4 -2 -2 0 -13 5 2 -2 5 -3 -15 -3 -1 -11 16 -13 1 -12 -14 3 11 -10 -5 2 1 7 6 5 -3 -5 3 -5 3 8 -10 0 6 4 2 5 -4 3 -3 -1 -2 6 7 -4 6 -8 -5 -5 -1 -3 -13 10 -5 -7 5 -9 -9 -1 -2 -10 -6 -4 -6 -1 -3 -10 -8 -3 -10 -5 -6 3 -1 -7 -15 8 -1 -4 -5 -2 5 2 -4 1 0 6 2 11 -1 6 8 0 -4 -4 9 4 2 1 2 -7 -1 4 2 -5 1 12 -2 10 -8 2 3 -4 -1 -2 -9 -1 0 3 -6 1 -3 1 3 -6 9 7 9 -2 5 5 2 -7 10 2 7 8 -2 4 2 4 14 -4 15 3 -11 8 2 6 6 9 -1 0 5 15 4 16 0 12 13 2 -5 16 6 5 1 9 4 4 -7 3 5 8 -4 12 4 0 13 -2 1 0 5 6 -4 15 1 5 8 5 12 -6 14 19 -8 7 9 -4 1 17 3 -3 9 -7 4 13 1 1 -8 -1 8 -2 2 -1 2 11 6 1 -6 8 -3 -20 -1 -7 -4 -9 -2 -6 -9 5 -3 0 7 -5 0 2 -8 2 -2 -1 2 -2 -7 4 -6 -1 -9 -13 5 -9 5 -4 -10 -7 -2 6 -3 2 4 9 -10 -6 4 -2 6 6 -1 -3 10 10 1 -9 16 2 -5 11 0 9 -12 -16 -6 2 -16 -3 0 -8 -2 1 -5 4 -13 -5 0 -5 -3 0 10 2 -3 0 -9 10 -6 -3 -7 -1 -13 -7 -1 12 -7 2 -4 -3 -3 -6 2 2 -4 -1 3 -4 -5 4 6 5 0 5 -1 -1 -3 1 8 -8 2 13 -1 -12 8 20 3 9 14 8 5 11 7 9 11 -1 2 5 8 0 1 3 13 -6 4 9 2 3 -3 3 15 15 14 12 -6 0 -5 4 -3 -6 9 -1 8 0 7 5 -5 1 1 9 2 5 2 -9 3 7 2 1 5 9 8 0 0 5 -4 6 2 2 5 0 7 2 -1 -6 4 6 6 -5 -7 10 5 -2 -4 -3 5 -8 -7 -1 -2 1 3 -3 -5 2 6 -3 -3 -1 3 -2 6 5 4 2 -12 5 -3 2 6 -11 9 -9 -6 3 1 -1 -7 -2 
-4 1 -10 13 -6 -6 -3 -21 -7 -3 -2 -19 1 -8 5 -6 -5 3 7 -6 -8 -6 -4 -5 -1 -6 8 -13 -9 -16 4 3 -3 -1 6 14 -3 5 8 -11 -5 3 -4 -9 -2 9 -14 7 -5 9 -1 -1 -2 4 -10 1 2 -2 9 -11 2 13 -2 0 -12 3 3 -2 12 -5 -2 1 1 6 3 -5 -9 9 -3 5 1 -2 2 10 0 7 6 6 5 -1 -3 3 -12 -3 -3 2 -3 5 -2 1 7 8 10 14 4 6 -1 -2 9 4 2 5 6 6 -1 4 3 8 2 -1 15 4 7 -2 1 12 -3 -3 -16 12 -11 12 4 -2 1 1 -5 3 4 6 2 4 14 2 4 9 1 3 -1 10 4 3 3 -1 -18 2 0 -6 0 -2 -4 2 -1 -2 -2 -2 -3 -7 -9 4 4 -8 -7 -6 -1 3 -4 7 -1 3 9 3 3 -3 -6 -8 -5 3 -11 -12 -7 -6 -7 -5 0 4 4 3 -2 -1 12 -3 -3 -7 -1 -9 -1 3 4 0 3 1 -2 -9 -5 -4 -5 -9 7 -5 -3 1 -2 3 -4 1 1 5 -4 -9 -8 1 -12 -1 -3 13 -16 -1 -1 -22 1 -8 1 2 -13 -9 -1 -2 -3 -5 -2 -4 9 -2 -12 10 3 -2 -5 -2 3 -12 -3 -9 5 1 -11 1 -4 -2 -5 -6 -6 -1 -8 -1 -10 3 8 -7 0 -6 14 -3 4 5 6 -2 7 1 -5 7 -6 7 7 4 -1 4 3 13 1 -2 6 20 15 6 5 11 -8 9 -7 -6 -3 0 18 17 9 -4 1 -9 8 1 5 1 15 7 4 2 12 15 12 7 4 1 -2 -7 -1 7 -2 3 21 5 7 -1 -8 4 15 3 -8 -2 10 1 11 12 18 6 -5 7 11 12 -15 7 3 -2 4 -5 3 -11 13 16 -8 4 -1 11 5 11 -3 12 19 23 6 -4 21 9 1 7 -5 0 3 -3 0 1 0 -2 -3 -3 7 -3 -4 -4 13 -2 9 10 4 5 9 -11 6 -12 3 -6 0 -7 -12 -2 -3 -10 -5 6 -19 -4 -7 -3 7 2 -2 6 0 -11 1 -7 -14 4 -10 12 -12 -12 -11 -8 -10 0 7 14 3 4 -1 5 2 4 5 27 3 15 9 -2 2 4 -6 -6 0 -7 0 -1 -12 -1 -5 6 0 12 6 1 4 0 -1 7 -6 2 3 -8 -4 -9 -8 -5 -15 -13 2 -2 -4 -14 -18 -1 -12 -3 3 6 0 1 -1 6 -8 -6 1 3 -2 13 0 -4 4 -12 2 -8 6 13 -19 3 3 -6 -5 5 2 -1 8 8 -2 -12 -6 -12 19 18 17 12 17 6 -1 2 -2 14 2 5 -5 4 18 8 4 4 13 6 -3 8 -1 2 6 9 4 -4 14 -1 6 -4 9 4 -7 6 -3 -6 0 7 -8 -5 20 12 3 2 -1 7 -2 6 7 0 -3 2 0 2 6 1 -1 9 -3 2 -2 8 -2 5 13 -1 7 12 -10 -10 9 -2 -3 -6 0 -12 0 9 0 5 10 3 1 3 -4 -5 -1 1 7 -4 2 -1 -5 -9 0 2 21 16 6 -6 2 -7 8 -2 2 -8 2 -3 -6 1 
2 -1 -2 2 -10 -3 -14 -5 -9 -6 -24 7 -4 -10 -2 -1 -13 7 -1 -1 -7 -16 3 -23 -5 -7 -1 3 -4 1 -2 16 2 4 1 -4 -7 -1 -6 14 -13 -5 7 -7 -6 4 2 -1 1 11 5 -2 12 3 2 8 12 -7 -2 -2 1 -8 0 -8 5 1 -22 7 -2 12 -2 2 0 7 2 -3 13 -4 2 2 -2 11 -4 9 8 4 3 2 2 -2 -4 -7 -14 3 -6 -4 12 0 6 6 2 0 0 2 6 -2 -4 8 -6 7 -2 4 -2 8 -13 10 9 -3 4 8 6 -7 7 2 1 10 9 3 5 10 0 -15 7 4 1 -4 11 4 7 -3 6 14 1 8 14 -7 2 -1 8 0 8 -3 -7 5 -5 -8 1 0 -9 5 -5 8 5 7 -9 12 -6 -5 6 -10 10 -4 6 -1 -5 -5 0 -2 5 1 15 -6 -4 -3 -1 1 -2 5 4 -3 2 -4 3 3 0 -1 1 -4 8 0 -2 -8 -2 -11 0 6 7 -5 -3 -6 -4 -2 4 -5 0 -3 -9 0 -12 -4 7 -1 -11 -3 -4 3 1 -6 8 4 16 0 0 -3 -7 5 5 -15 4 0 -7 -7 3 0 -4 -4 -5 -10 8 -1 -5 -15 0 -1 6 -6 2 4 -3 -5 -1 -6 -6 -7 2 -3 7 -12 -11 4 -7 -10 3 -13 2 0 8 10 -1 7 5 -1 -1 -14 -3 1 4 -10 22 9 0 -3 4 -12 -6 -6 -2 3 1 -3 2 4 7 12 5 -2 7 12 3 -4 7 -3 15 2 10 -5 -7 7 2 9 6 -9 -1 6 -2 1 17 5 -10 6 -1 -4 4 -10 8 4 -9 5 -11 11 5 2 0 -5 -2 11 9 0 11 -11 15 10 2 -8 1 -4 5 0 17 -5 4 1 0 11 11 7 4 11 -1 0 2 -1 1 -2 14 5 -2 19 15 5 15 8 0 8 -8 -5 2 -2 -1 5 -7 9 3 -5 12 0 -3 -1 6 4 1 15 -5 7 3 7 1 -2 1 4 1 -14 -10 -8 2 -1 -3 -10 9 -1 -3 -7 1 -2 -3 4 5 -1 3 5 -7 -7 -8 -7 -12 -4 -3 -4 -4 11 1 2 -3 -2 8 0 4 -5 9 -15 11 4 6 4 8 5 9 -2 6 6 1 5 -4 -5 -8 -7 -1 -11 2 -11 9 -6 -1 8 4 -2 11 -2 -4 12 0 -2 -3 -1 -4 4 -13 5 -15 -7 7 -7 -8 3 0 -15 2 1 3 -15 1 6 -4 -7 3 12 4 17 3 -11 13 4 4 12 -3 -6 1 3 -9 4 1 10 7 9 7 12 6 -3 7 7 -1 0 1 10 13 8 4 4 13 1 -4 1 -17 -2 -5 10 -4 5 11 -2 15 7 4 1 -4 6 1 3 4 -7 0 7 5 10 -1 1 18 -9 9 4 -1 6 1 -2 10 11 16 -6 13 -3 4 8 11 -5 -1 -10 11 -2 -1 14 -1 2 10 -4 7 -5 1 -3 1 -3 -9 10 0 -6 15 15 -8 3 -3 8 -7 2 10 -2 -4 10 3 -1 -10 5 13 -12 5 10 19 8 -3 11 7 11 9 5 -21 8 -19 1 -1 7 1 -4 
5 12 -2 0 16 -5 0 1 -1 0 -1 -2 -7 2 -13 -10 -2 -11 -3 -5 0 2 -5 -7 -6 -3 -5 0 -10 -5 -4 -5 10 -8 3 0 4 6 -3 -5 5 -2 -4 9 -12 7 -2 6 -2 6 5 13 -1 2 -8 -6 4 0 -3 5 2 2 -5 12 -11 4 -8 3 1 -12 1 -6 4 8 0 -8 -14 6 4 -2 8 6 11 9 1 5 2 6 4 -1 -5 1 11 6 -3 -11 4 -8 -3 5 -3 -2 2 7 1 6 -6 0 -7 -8 3 6 13 -4 5 0 7 1 -5 -2 -9 -7 5 6 -5 -10 2 14 -6 1 8 18 15 -7 11 2 11 10 3 -1 9 -4 -1 14 0 18 10 5 10 14 -10 6 -1 17 2 10 -1 0 8 1 -2 11 -8 14 -5 -3 14 -11 -3 -2 4 -2 0 2 -1 -8 -12 -3 2 -5 -1 -1 2 0 6 -3 -10 -6 3 -3 -1 -8 -4 4 -14 -6 -1 -3 2 -1 -5 6 -5 5 1 -7 -3 1 -5 10 2 5 -3 -2 6 0 0 -2 -7 6 -5 -9 8 5 -8 10 1 6 -2 -8 -7 -6 -3 4 -12 0 -2 -7 1 -16 -17 -8 -9 4 -3 -5 0 2 -9 -2 8 -1 -2 -4 -4 -3 0 -15 -4 -15 -20 2 -4 -6 -5 -3 -6 7 -7 -6 -1 -1 8 -7 -9 13 -2 -11 -7 -1 6 -1 7 -14 4 -11 12 2 -8 -7 -9 -5 -7 -2 -3 5 -3 -3 -1 0 1 3 -4 2 7 4 11 15 8 31 12 5 3 2 2 0 -12 -13 2 1 3 7 -4 15 -8 4 0 -6 -5 14 2 0 6 -9 6 13 3 -6 -6 7 6 1 -2 1 11 -4 -12 3 11 0 7 11 8 7 13 2 0 -1 3 6 10 5 12 -3 2 2 1 -8 -8 15 7 5 -1 -4 14 0 5 -4 11 -9 3 14 6 11 10 11 3 6 -1 11 -2 -3 8 0 -4 8 10 4 3 9 0 7 5 -15 1 1 5 -10 -14 -4 -3 -6 12 -4 -10 -11 -14 -1 -4 -6 -14 10 -7 -4 -12 3 8 -9 -3 -10 -3 -13 -5 4 -6 -5 -11 -14 -7 3 -2 0 8 3 1 -9 -3 3 7 1 6 3 16 -4 -6 -1 -5 -8 6 -15 9 -6 3 11 -15 6 -12 0 10 -1 5 3 -13 0 9 1 -14 -11 3 3 -6 1 -6 -6 -2 -13 1 -1 8 0 -12 -2 -2 2 -1 4 5 -8 -5 0 5 -7 -1 -2 10 -6 11 1 4 5 7 -2 8 0 -4 -10 -9 13 0 -5 5 10 9 -9 7 5 3 8 3 8 15 6 -4 2 15 -5 15 2 4 9 5 3 -6 2 4 -2 9 14 10 10 -6 9 9 -3 7 4 8 12 12 9 -3 1 -4 9 -1 3 -1 16 11 3 17 -2 9 7 -9 11 4 8 9 7 2 -1 6 -8 12 1 -2 0 -6 10 -1 2 12 11 -4 -3 1 1 -11 4 4 10 1 5 2 2 11 -5 -4 5 -4 9 -8 -9 3 0 5 2 -8 2 4 3 -7 7 -4 6 3 9 -8 3 -9 5 -9 0 1 -13 4 0 -2 -6 
1 0 10 -1 -5 3 -12 -14 0 -6 2 -7 4 -5 -7 -11 -7 -6 0 -14 -18 -5 -20 0 -6 -9 4 7 7 -6 15 -22 6 -11 -5 9 -10 1 7 0 -10 6 6 -11 8 1 7 -6 3 1 0 -11 1 -5 8 5 0 9 2 15 4 1 2 2 5 1 3 -6 -8 0 10 -4 -6 2 -5 1 -2 -2 4 10 3 8 18 -4 -2 2 -7 -8 -9 -9 2 -3 -5 -4 -6 -1 -1 -3 -9 1 -11 -4 -3 2 -1 -1 8 -2 12 4 10 0 -1 2 2 4 5 4 2 -5 -4 13 2 2 -1 3 13 -7 8 -6 10 3 -4 7 9 6 -9 6 3 1 10 5 8 15 -8 -3 2 10 9 15 19 16 9 1 5 3 14 -2 0 13 17 0 6 4 -2 11 10 3 4 -3 -1 7 -3 -3 -8 0 -6 -9 -7 1 7 -5 -4 -2 -15 -8 -6 -15 1 -7 -19 7 -4 -13 -8 -11 8 2 -13 -2 -11 15 -8 -8 -7 2 7 -8 7 3 5 -3 6 -1 -11 -1 12 -11 -3 -3 -8 -3 7 -2 0 -6 -5 8 2 9 4 13 -3 -6 8 -9 -7 7 -7 -17 -3 -13 -6 0 -9 11 -1 -8 5 -5 -10 4 -8 1 4 -12 0 -1 4 -4 6 2 -10 -2 1 1 3 7 -13 -2 14 -2 1 -2 10 7 -6 -4 9 1 14 12 -3 5 10 -7 -3 1 -3 0 -12 -9 4 9 -2 5 11 20 8 11 -12 15 8 -1 1 -4 3 7 12 -3 3 6 7 -5 -5 -1 13 3 1 0 0 3 3 -3 1 10 9 -3 0 17 -6 -1 -5 -2 6 4 3 10 -12 7 7 -1 0 7 6 10 -2 4 10 5 1 -6 9 -15 2 10 -1 9 6 3 6 -8 7 7 8 0 1 -6 17 10 2 -1 3 15 -4 1 7 3 6 11 0 6 -9 1 3 -1 -12 6 12 -3 11 3 10 2 -4 -6 7 2 -3 10 9 -3 -5 7 -2 -1 -1 -15 -10 -4 -14 4 -5 -2 -7 2 -12 -6 -2 -12 13 -2 -5 -11 4 -9 -5 10 -9 -3 -16 5 6 -6 3 -9 -9 7 10 -8 -1 -7 0 -2 -11 -5 -3 -8 -5 -4 3 -3 1 11 11 9 5 -3 -9 -6 7 -5 -2 0 -1 -10 -3 4 8 -14 0 -11 14 5 5 -5 -3 -6 8 3 5 -12 -7 -5 -4 -1 -9 3 -3 -18 5 -4 -8 1 -12 8 -9 -10 -9 2 -13 1 4 2 1 -9 -5 -7 5 -6 2 -5 -4 2 5 -4 -1 1 8 -3 11 5 -7 1 3 14 1 13 3 9 4 4 4 4 8 -3 10 5 10 7 4 7 5 10 -4 2 5 4 8 2 18 4 10 -9 3 6 -1 8 4 11 6 3 17 7 7 2 8 1 9 20 -1 1 20 6 -1 2 17 9 -4 1 4 4 -1 4 -3 -5 3 -7 5 -8 -5 5 1 -9 -9 10 7 3 3 -16 1 -1 16 5 -5 4 8 -3 -1 -15 13 1 -7 6 2 8 -1 0 3 3 11 5 6 -3 7 6 -1 -8 -3 -6 5 -18 1 -6 2 -2 -9 6 -11 14 
-3 -8 -3 5 -11 -5 -10 8 -18 -1 -3 15 -10 -1 -5 2 3 -12 -6 1 0 -12 -5 -11 -9 5 0 -5 -1 4 -8 4 -1 2 -10 -6 0 11 -21 -1 -4 -2 -3 4 -1 3 -6 15 8 2 3 -5 2 -5 12 7 4 2 10 9 -4 7 2 -14 1 -1 0 7 -5 -7 -7 -1 -2 6 2 -9 -7 0 14 -9 7 12 0 10 16 -5 5 14 8 -5 6 -8 -2 2 5 -2 7 -7 -2 10 -7 10 11 1 10 6 11 9 -4 1 10 -3 10 4 -1 6 -3 -4 1 -7 15 -2 5 22 8 -3 2 -1 10 13 11 -2 18 10 -2 2 5 5 -7 20 -2 8 3 6 4 0 11 9 8 13 1 -4 12 6 -2 10 2 4 5 -5 -2 0 6 6 8 -10 4 3 -4 -15 12 -4 0 -3 2 -3 -6 0 -4 -3 -4 -1 5 8 1 -13 -21 -4 -4 -9 -5 -13 -4 0 -6 -2 -8 -7 6 3 9 -13 -8 -3 3 -5 -7 0 -10 -5 0 -3 -6 -8 -5 13 -2 8 2 -1 4 -5 5 -2 3 9 -3 3 11 -3 1 -7 3 12 -15 -3 5 -6 -6 -4 -5 0 -2 -21 2 -2 8 -14 -5 -3 3 -4 -3 3 8 0 -3 -5 -3 1 -6 -8 11 -10 -3 -1 3 -8 1 -11 -10 7 14 4 10 6 -1 7 0 4 -15 3 1 -1 3 0 -7 6 6 15 11 -6 5 0 11 6 -8 9 13 15 5 3 1 -7 -1 9 -10 -2 -8 2 -13 -16 0 0 -6 -4 8 7 19 6 -1 0 6 8 7 10 -7 7 8 3 -2 12 5 10 -8 0 3 2 5 6 14 -2 0 15 -2 10 4 11 3 -1 1 -2 3 -3 -1 -2 5 3 -7 -11 -3 13 13 5 -7 8 12 14 12 -8 7 3 19 15 3 -19 -11 1 3 -1 0 9 -1 -7 14 -2 4 3 5 -6 -3 -4 7 -8 14 -2 19 1 -2 -5 -6 0 4 -3 9 -3 1 -5 2 2 -9 -8 -18 -3 -5 -11 -13 -8 -8 -12 -11 -6 -10 -5 -14 -12 -1 -7 3 1 5 -1 -2 -4 -9 -4 -4 -10 -5 4 5 5 -3 -1 -7 -6 -2 -7 10 -9 -26 -2 10 -2 9 1 6 1 2 4 2 -1 3 0 -5 1 -4 -3 -5 6 8 8 6 8 2 12 4 -2 5 -10 2 -4 4 3 1 -6 -10 13 2 -12 -4 7 0 -5 -2 -3 2 6 -2 -2 1 3 -1 1 -1 -2 2 0 1 6 0 8 -16 -8 -1 1 2 2 4 2 0 12 -4 11 5 5 6 -5 2 6 3 3 -8 -9 -3 6 13 -5 1 -4 9 -10 12 -2 2 5 8 5 12 3 5 -9 16 10 -8 12 8 4 6 8 -9 -2 -8 2 2 3 9 8 3 -3 4 2 -6 8 4 10 0 0 1 2 -4 -6 -1 -4 -10 0 -4 0 -3 4 -10 8 -6 0 -4 1 -7 5 -2 0 -7 -1 -4 -4 9 0 -3 7 1 1 -1 -4 -6 9 -7 8 7 6 7 -2 -11 -11 9 8 -1 4 -13 8 7 0 5 1 -13 -5 -16 2 -7 3 6 3 
10 -8 13 -10 -1 -9 -1 -2 -6 -6 -1 -2 1 -8 3 -2 -3 6 -7 -1 -14 -3 -5 -7 13 -7 -6 -6 1 0 -2 0 -3 8 0 6 -4 3 9 6 1 -1 -10 -10 0 14 3 0 8 0 1 6 -5 9 0 15 3 3 14 12 -2 9 -6 4 -3 5 8 3 -5 -6 -4 -3 2 -5 -2 -1 -2 -7 1 15 6 8 0 2 -4 1 3 0 3 7 -2 -7 -8 -11 4 6 4 -2 0 4 8 -6 -1 2 -6 -2 4 -7 9 3 6 3 -2 11 3 0 -2 10 -7 -2 4 1 5 13 5 3 -3 2 -5 7 1 4 8 7 12 5 3 -1 5 -1 -13 20 2 6 -1 0 9 -6 -3 4 -3 6 12 1 0 -4 3 -2 5 4 -2 17 1 -7 -1 6 -9 5 -3 3 -10 -5 13 0 -1 0 8 -2 9 -2 6 -1 -5 -6 -1 6 -8 6 -17 -4 -6 -8 -3 3 -11 -2 -3 -8 -5 1 -4 -14 -3 -13 -8 -7 -3 9 4 -5 1 4 -5 -4 5 -9 -2 -9 -4 3 0 -1 -3 1 -1 7 0 6 -5 2 8 5 -3 4 3 -12 -2 -7 -5 2 7 -4 4 12 -13 -17 1 0 -4 0 1 -8 -5 9 -3 11 -15 -1 -1 2 -3 -4 2 -5 -6 -2 4 -10 5 -1 -9 9 -9 -1 1 -3 -4 3 -11 -6 12 -9 -3 -6 7 -1 -3 7 3 4 6 3 -2 7 -9 12 14 18 13 -13 -8 4 -6 3 3 3 -12 -9 -5 -6 -4 -12 -2 -11 0 6 -6 -2 -7 10 1 0 5 30 5 8 3 13 -7 -5 0 -6 -2 -2 7 9 4 4 3 7 -12 -1 1 -6 5 6 3 -2 8 8 19 7 3 -9 -8 -11 0 -2 6 -7 12 -3 0 1 1 6 -3 7 0 9 18 3 8 -4 -8 0 -4 -4 -9 -5 -3 13 0 7 14 9 3 0 2 -1 -1 7 8 -12 8 -2 3 12 3 6 21 -4 15 14 -3 9 -5 0 -4 -15 -13 -6 -2 -3 -7 -5 5 -6 4 -4 -12 -4 -12 10 7 5 9 -7 -1 -14 4 -5 3 -5 -7 -2 8 -7 -1 5 -1 1 -8 -11 -1 0 3 -7 -7 -2 -5 -6 3 -9 12 -5 -12 9 -4 -1 -5 -3 4 -3 7 0 -6 -10 4 1 0 3 6 -1 -7 -6 7 0 4 -6 0 -4 -14 -3 -5 5 -17 2 1 -8 1 0 4 2 -3 15 -9 -7 2 13 -4 -3 0 -1 0 4 10 14 11 4 6 -4 -2 7 -7 3 -4 -2 4 10 -3 6 4 -5 15 0 -4 6 9 -3 9 -2 9 -5 1 14 2 13 6 -4 8 6 9 4 10 12 -8 5 10 -3 6 -3 11 5 6 8 1 1 3 6 7 5 6 0 19 0 5 2 7 8 5 15 -6 12 -2 -7 -7 5 1 -2 -6 -7 0 -2 6 3 6 -4 3 1 -9 -7 1 -2 -9 9 5 -3 9 -6 -2 -3 2 5 -5 7 1 -2 2 11 -6 -3 4 3 8 0 2 6 1 11 12 1 5 7 1 5 4 2 -12 6 0 -11 -6 -10 4 0 -9 1 -3 0 
1 -1 -3 -16 1 -9 -4 -3 -8 -3 -4 -7 -4 -7 -18 -6 -4 0 2 -11 -8 -1 2 6 -1 -3 -5 -2 -4 1 -4 -4 -15 1 -12 9 10 -10 5 5 -3 3 9 -2 1 2 -5 2 6 -5 -10 -13 -3 0 -6 2 10 -4 8 -10 15 -3 2 18 4 3 -2 -7 1 -8 -14 3 6 13 2 7 -9 5 3 -11 0 -3 4 7 9 7 13 6 6 0 9 3 -2 4 5 -4 -8 10 5 -1 -3 8 5 9 10 4 -1 -1 -6 -3 -1 4 -8 -4 -6 -3 2 -8 2 -8 6 10 -9 8 -5 7 1 -6 1 6 9 8 3 4 -2 5 12 -5 3 10 2 -3 4 4 13 10 6 11 8 0 4 13 12 3 8 2 6 6 1 1 -2 -2 -8 3 14 14 2 -3 -6 -1 2 1 -1 1 -11 4 -7 11 0 6 -19 -8 -3 -9 -3 -15 -3 -10 -5 0 8 -6 -6 -1 -2 -1 -6 4 -1 0 -6 -6 -4 -12 -16 -9 -8 -15 -7 -5 -9 1 1 8 3 -10 10 -4 2 -8 3 -6 25 -4 2 0 7 -5 5 6 -4 0 -3 2 -3 -10 2 -4 -18 -1 5 1 -5 11 9 2 -8 -4 -11 -2 -2 5 -5 -9 5 -15 -3 -7 -1 5 7 -5 -7 1 8 1 14 -11 3 -16 1 9 0 6 1 2 -3 -9 0 7 1 -6 0 -3 -7 0 1 -2 -4 -5 3 -1 12 -3 5 3 -6 -9 5 9 -3 8 5 -15 6 7 -6 2 -7 9 4 13 -3 7 1 -1 28 -9 11 9 2 -5 14 -9 -4 3 -1 0 -2 5 -10 -21 -5 -10 -7 -5 -3 -16 -3 -7 -3 10 0 -7 3 -1 -1 2 -8 1 -4 1 -1 1 4 3 -11 -8 6 -13 7 -2 -4 -1 -4 11 5 6 -2 7 5 -7 8 15 -5 3 5 5 6 4 5 2 11 -4 -5 -4 9 -6 0 -6 9 -14 -7 3 -1 -9 2 -4 4 -6 1 -3 12 -6 7 -11 -2 -14 1 -4 -4 -12 -1 -15 0 -12 -6 -11 0 -6 -7 2 -12 -5 7 -8 6 -6 -7 11 1 -4 2 -5 6 5 -1 -3 -14 4 -2 -4 0 9 -1 -12 -12 4 -13 -14 8 -13 0 11 3 9 4 -10 8 -1 -1 7 -6 10 -1 -13 -13 8 -3 5 -1 7 5 -4 -8 0 0 8 -6 5 7 -2 -5 9 6 -6 9 -2 -9 6 1 3 2 -8 -1 -1 -6 5 0 3 -11 5 9 -6 1 8 6 -6 1 -3 1 10 -2 4 -10 7 -12 8 7 3 1 9 -6 -9 -7 17 0 1 6 4 6 -2 -7 12 2 6 9 4 6 -2 15 4 1 2 13 -4 -1 -4 3 10 5 14 0 23 9 -1 10 5 19 8 12 -3 13 21 -2 11 -5 4 -3 3 0 8 3 8 -2 5 18 -5 -17 2 12 7 -12 1 -9 -3 -1 -10 7 4 4 9 -4 1 3 -3 -1 1 -1 -4 -2 1 -8 -2 -1 -2 -1 -5 -10 -13 5 -6 4 9 -5 8 -4 0 8 1 -4 -4 3 -8 -5 -3 -9 -5 -6 -5 -1 -15 -4 -4 0 -4 9 4 8 -7 
-8 -4 -2 7 -1 0 9 -9 -6 1 0 -7 9 -3 -9 -2 3 -11 0 -6 -6 -4 -4 0 -2 0 0 -2 -11 7 -6 3 -4 2 3 4 -7 11 -4 -4 5 2 6 2 0 3 12 -20 -3 5 -11 0 5 -5 5 -1 2 -1 4 -4 6 1 2 -9 -6 8 1 -7 -5 -3 4 -10 -17 -8 5 5 5 7 -1 6 2 11 4 5 -7 4 5 -3 6 27 7 -6 10 2 1 5 4 -1 9 1 1 -1 1 7 11 0 4 -2 0 11 -8 -8 -1 -12 -8 4 3 -1 -9 12 0 3 -8 3 1 0 8 -10 4 -7 -10 4 8 4 4 -3 16 -2 3 8 2 4 18 2 6 5 8 13 0 5 -2 10 4 4 4 3 -1 -3 2 5 0 1 8 0 -1 3 -11 8 -12 7 0 -1 2 7 7 1 1 -5 6 -11 4 -6 4 2 -15 2 -2 -20 -3 9 -17 -19 9 -3 -6 4 3 -8 -9 -2 -3 -2 -16 -1 -6 2 2 -6 0 -1 -6 2 -3 -2 -7 3 -14 -3 0 -3 -13 -7 2 13 2 -4 -2 12 -6 -15 4 -7 1 -18 -4 3 -15 -2 -5 -7 -5 -17 -1 9 22 2 8 -4 -12 -15 -5 -9 0 5 -11 1 3 -9 10 -4 -1 -10 -11 3 -8 -11 9 5 1 -5 -8 -12 11 -6 7 -6 -9 -8 -11 11 -3 -10 0 -10 9 2 9 -1 3 7 -12 -12 2 5 12 2 -5 1 -8 2 4 -15 10 0 8 -10 1 -4 7 9 6 2 7 -1 4 6 -2 2 8 7 5 2 -7 5 6 2 -2 10 14 -1 -2 11 2 -2 -5 -2 -7 6 5 0 -3 9 1 0 3 -7 0 14 -2 -2 8 5 -9 -3 -6 -6 2 6 4 -9 -1 6 -9 -9 -10 0 2 6 -5 4 8 10 -6 8 13 0 6 5 -8 11 13 3 -9 11 -3 0 -5 4 -5 -6 6 9 11 -3 3 10 -1 5 -6 -5 -5 -5 2 -6 0 1 0 -6 -5 -5 -6 -14 -4 -5 -3 8 5 2 -1 1 -9 -16 7 -4 -10 7 3 6 5 -3 3 -4 2 1 -8 4 -3 4 15 -6 -11 -9 -1 11 -4 -2 -8 -2 15 -11 8 -1 2 -2 9 0 -14 -6 0 -11 -1 10 -6 11 -13 0 2 -3 -20 8 9 1 0 11 -9 -5 10 3 7 6 -9 2 -2 -8 -5 -6 -14 6 -5 10 0 -3 5 8 9 4 12 2 -5 6 5 -1 3 4 -11 11 -4 5 14 -2 3 -3 7 0 -4 -3 -3 1 -3 3 -1 15 -11 4 -7 13 7 -5 -4 8 8 1 -8 0 -8 8 6 14 19 13 8 -4 14 1 19 6 13 12 11 1 19 19 3 8 8 8 15 13 -5 0 7 -7 2 15 1 -3 7 9 5 17 -3 -5 -11 3 6 3 -8 3 9 -7 -7 -1 -6 3 10 4 6 5 -6 -5 -6 4 -8 -12 -4 19 -5 -9 0 -8 0 -8 1 11 -3 -2 9 1 -14 -2 -8 -9 5 13 3 2 5 1 7 4 1 -14 3 1 -10 0 1 6 -2 -2 6 2 3 4 -1 -6 1 0 -2 -3 
-9 -5 -5 -6 2 3 -14 5 -5 8 -5 -6 -16 -6 -14 -3 -12 -3 3 0 -2 9 -2 8 -6 6 -2 0 0 -14 3 -16 2 -5 -8 9 -9 -5 10 7 0 9 -7 -6 1 -4 -3 6 1 6 12 -5 4 -9 6 2 -4 8 -2 4 4 17 -3 9 0 4 0 3 3 -8 10 8 4 14 3 -3 16 -5 -1 9 -2 6 -4 -4 7 -3 4 4 -8 1 2 4 2 -2 -2 6 13 5 8 7 5 -3 15 0 0 8 -8 4 -13 3 0 -2 -3 0 15 -3 -2 7 -5 -1 1 -8 -1 -2 -3 16 11 -2 3 1 6 14 6 4 3 10 2 2 9 -2 1 -9 10 -7 4 7 8 2 15 -3 9 5 5 12 6 -3 9 7 -4 5 12 17 -4 -8 6 -3 2 -6 -4 -2 -9 -3 -8 -10 6 0 -2 -4 3 -1 10 -21 -1 -2 -6 -5 -7 -7 -18 -4 12 -1 -9 -3 6 -3 0 1 -5 -4 6 -2 -6 3 -3 -12 -1 -5 1 1 0 -2 -4 -1 7 -11 1 -2 0 -17 -1 -6 -5 -3 -4 1 2 5 16 0 4 -5 -5 -11 -3 1 -11 -10 10 9 -6 0 -5 -4 -2 1 3 1 -1 -3 -3 -13 1 -5 -3 2 -9 9 -11 -10 -1 -18 3 -17 0 -3 6 9 6 -9 -2 0 1 12 -2 10 -5 1 12 -1 2 -6 4 3 -4 0 -2 2 2 -2 8 0 6 -1 -5 -7 3 -1 4 -5 6 5 6 -3 5 7 9 15 1 8 -4 10 -3 -2 7 6 3 10 0 13 5 -8 4 13 1 9 3 -9 9 10 -2 -1 5 -2 7 -1 10 0 7 -1 7 4 2 -9 1 3 -6 9 8 10 -1 0 3 3 -7 6 1 -3 3 4 9 1 9 -3 2 -8 2 -1 6 2 5 -4 11 4 9 -5 6 -8 0 -3 2 -7 -4 2 3 2 -3 13 4 -6 8 7 -11 -5 0 3 8 5 -1 -5 0 5 10 0 -4 -8 -3 -1 -10 -2 -5 0 -2 -11 -4 -3 0 -6 4 -1 -4 2 -1 -9 2 -2 -7 -1 2 -6 0 0 -8 -1 -3 -1 10 -1 5 -9 -10 10 -6 -4 -6 -5 -2 5 -1 1 14 -6 5 10 3 -5 4 2 -9 8 15 13 6 -4 0 6 -8 4 -5 14 2 3 8 6 7 -1 15 3 1 2 7 -7 7 -5 0 -8 -3 13 1 0 1 -1 4 9 -6 0 3 4 7 -4 3 -2 -5 9 4 -2 5 -1 -7 6 -7 -2 5 2 -1 -9 9 -7 1 -2 2 0 -6 15 7 6 11 2 2 -5 13 5 -4 3 -5 -9 6 7 -4 9 8 0 11 -8 4 11 10 -1 -3 15 9 7 22 4 6 4 -7 8 7 1 -2 1 -3 -15 10 -2 5 4 1 5 4 7 4 17 -3 15 -4 6 12 0 -11 1 0 -4 -8 -3 -2 -10 -3 3 5 -9 8 7 1 -1 -5 -5 -6 1 9 -8 -2 5 11 5 1 -7 -3 -5 -5 8 -2 3 -7 2 -1 -2 -2 10 3 2 2 -3 2 -7 3 -1 2 -7 8 -4 -7 2 1 -7 -9 -1 -6 -11 
4 -6 -2 -3 -4 -7 9 -14 0 -2 -4 -1 6 6 -4 -5 -5 0 -4 -3 0 4 -8 -3 6 7 3 -9 -6 1 11 0 -10 -15 -1 -2 -7 -8 -3 -10 12 -1 15 -5 -4 4 3 3 7 0 4 -4 8 0 3 -2 5 7 5 -2 5 0 1 -3 10 -1 -5 2 -9 8 14 2 1 1 -6 6 -1 -1 13 0 5 9 20 -6 9 14 11 1 -5 2 16 4 -6 2 -4 5 16 1 10 11 11 1 3 3 1 3 -11 9 -1 0 -6 18 -10 -5 3 -2 -2 -5 -2 8 -10 -5 -2 9 -1 -5 -5 -3 7 2 3 -8 8 13 0 8 5 -8 8 5 14 6 10 10 22 6 -5 1 6 16 2 -2 2 3 5 -10 -2 1 -10 -1 1 -1 -6 -2 -5 5 -3 -11 -13 -4 -1 -2 -2 -3 8 -12 4 4 -2 3 1 -5 -2 -10 6 -4 -1 -2 -11 1 -2 7 -2 -3 -11 0 -16 -8 -10 -4 4 -14 5 -3 -13 0 2 -1 -9 -13 3 -3 -3 -5 -2 1 5 -2 -7 1 -8 -19 3 8 4 11 4 -4 -4 -5 -3 -5 9 -9 -1 -4 -2 -10 18 -12 2 -5 3 2 -6 -2 6 7 -1 8 4 3 -6 1 5 14 -1 -9 -4 -4 -3 2 -11 -3 -17 0 10 12 7 10 -9 0 -9 5 3 -11 15 -15 -7 2 14 -1 3 1 -6 5 8 6 10 -7 -15 -2 -4 -3 7 -3 7 -10 3 5 10 2 2 0 10 -4 10 -5 -4 4 2 4 -2 3 1 0 16 -1 -2 0 18 2 7 2 9 -2 -1 -2 -3 -3 15 6 10 -2 -1 3 -12 -3 14 -6 6 -13 9 -6 -1 -10 0 2 -8 0 -1 -4 4 0 4 -4 6 9 4 -7 -6 0 -12 1 9 2 0 2 7 -4 5 5 13 6 8 0 12 13 5 5 -3 -6 15 -6 0 3 -7 1 -15 -3 12 -5 -2 3 2 -4 1 -6 -9 6 0 -2 -2 4 4 0 -7 -4 -4 -9 5 -2 -17 7 -1 -6 -15 8 -4 -16 0 -1 6 -2 -5 1 3 0 -6 1 -7 -15 3 -3 -3 5 -13 1 -9 -1 4 -1 3 -8 5 7 -7 -2 -7 1 2 -4 -18 -4 9 7 8 -6 2 -3 0 2 -6 8 11 -6 -7 -8 3 -6 7 -1 -3 -11 1 10 6 5 7 2 7 9 10 1 7 4 0 -1 -3 6 0 8 12 -18 1 -1 -1 13 5 2 11 6 7 13 10 5 3 8 1 -2 0 4 -3 6 -2 4 1 1 2 -10 -1 9 10 5 -4 0 3 9 0 -1 -1 8 6 -10 6 -3 6 5 12 5 -5 12 7 17 10 -7 14 13 -5 0 3 19 -3 7 7 11 8 -5 8 -3 -9 0 2 1 5 11 10 1 -4 -4 1 -7 -3 7 2 -1 3 5 -2 -2 2 2 -5 -13 1 10 -2 7 -3 4 4 -10 6 -6 7 -19 -1 -7 -8 -5 -4 -3 12 -4 5 -7 -8 1 0 1 15 -10 -2 1 -4 -1 -2 4 7 -1 1 6 -2 4 8 -1 4 -6 3 -10 8 -1 4 -1 -8 -10 -9 -5 -5 -5 
5 -3 9 -15 8 6 -3 -8 5 4 2 -5 7 7 3 -5 -5 -6 1 8 -8 -6 -2 9 -19 -5 4 -3 5 8 -2 5 -2 -1 -5 6 -1 -8 5 -4 4 -19 -1 0 -4 6 -3 1 0 5 -4 -7 -2 -8 2 7 -6 5 -2 9 2 -1 3 -2 4 4 5 -3 2 11 3 -2 -7 3 5 16 3 7 6 4 2 12 -1 4 6 7 -7 0 2 -1 -11 -5 13 2 8 5 0 -7 -2 3 12 -6 7 8 4 -1 -3 8 8 3 1 3 14 -3 2 8 1 1 3 -2 -4 8 -2 -2 4 15 -4 5 3 7 5 -9 4 0 -4 -1 6 5 -8 4 -1 -8 -6 4 2 -1 11 3 10 -4 4 7 5 2 -6 4 -6 -8 11 -1 -2 -4 2 4 8 0 3 -6 1 -5 14 3 -12 -7 3 -5 -7 -3 3 3 -6 6 7 6 3 -6 -3 -7 -14 1 0 -14 6 4 6 -12 -6 1 -9 2 -17 -10 6 -12 -3 8 -9 0 2 12 -1 5 6 -1 -5 -4 -10 -1 6 -8 5 -6 1 4 4 -6 6 0 13 8 -10 6 -3 1 1 -12 0 -15 -2 -9 5 15 -3 -7 4 0 -3 3 15 -3 -4 6 7 4 6 -6 4 -5 5 1 -5 0 -1 -5 0 -5 2 -6 7 -1 -6 5 -3 -8 -5 6 2 3 1 -1 -2 -1 8 2 -2 -3 -10 -2 6 -4 12 8 7 2 8 -7 3 7 17 6 -2 11 0 0 15 5 13 4 14 -2 10 7 11 9 3 6 -7 -2 14 9 9 4 -12 4 4 1 0 10 2 11 1 -7 2 1 -6 -13 8 3 5 -3 -11 6 -8 13 3 -6 -10 -1 -3 4 -4 -1 -3 5 -3 3 -3 10 1 -8 9 10 5 1 -4 -3 8 -13 14 10 2 14 11 2 11 -2 6 0 3 0 -7 -8 -1 -8 -1 -4 -10 -13 9 5 -8 0 -1 -13 5 -4 -1 7 1 -1 -16 1 -2 -13 1 -2 -8 -10 -11 4 -8 -5 -4 -8 -8 2 -19 -4 4 4 7 -13 -8 -14 -2 -4 -9 2 2 -3 -1 0 -2 3 -10 -7 -15 4 -6 8 2 6 -10 -3 -4 -16 8 3 -4 4 1 2 4 4 -19 -1 3 -2 -4 2 8 2 6 4 1 1 6 -2 2 5 0 11 -2 10 11 6 -1 1 2 -7 1 -8 12 5 -2 -2 8 3 6 1 5 -2 -1 1 4 0 5 4 6 6 6 -5 7 -7 1 19 0 6 6 -10 3 -4 0 8 1 11 -1 -8 2 5 5 -3 7 6 11 -1 3 0 9 -8 -5 2 -14 12 -11 17 0 4 6 10 2 5 1 4 9 19 8 4 5 -5 17 -7 6 7 0 3 0 7 8 6 1 -1 13 14 4 14 -4 17 2 0 -6 7 2 3 12 0 7 5 1 9 -1 3 -5 -8 -12 4 -2 -1 3 13 -4 10 -8 7 4 -2 -11 -8 -9 4 1 4 -8 9 -10 4 1 0 1 3 -13 8 -10 -6 1 0 4 4 -6 8 8 -14 -1 -10 12 -11 -2 -3 -4 10 -3 1 -13 0 7 -11 5 -7 -2 -13 
-6 -7 -2 -4 -1 -7 -12 4 -3 5 3 6 -3 0 -13 8 7 -4 -4 -2 -1 -6 2 1 -6 17 7 -10 -4 -4 8 2 4 -1 -3 -7 -17 -6 -2 -6 -4 4 -5 3 4 -3 0 2 8 0 5 2 -5 6 9 -6 1 0 -2 5 -2 16 1 8 -3 1 6 20 -5 -10 -2 11 7 -4 9 11 10 8 0 16 19 4 1 2 -1 1 8 2 2 3 10 1 6 5 -7 7 12 1 12 14 -3 8 4 0 -14 5 2 1 7 -6 11 -5 -1 9 -11 -4 -5 -17 -3 -6 -8 4 -13 -6 -5 -3 -3 -1 -4 0 -8 7 0 2 0 -1 1 11 2 6 1 -5 13 8 5 7 8 12 -6 7 -1 2 7 -5 10 1 0 -4 -11 11 6 -6 14 2 -6 4 -3 -2 -1 -8 -3 -2 -11 -3 -2 -12 3 2 -13 0 2 -7 -12 -12 -6 6 -7 -10 -3 -6 6 -8 5 -13 12 -8 11 -6 -10 1 -10 -2 -4 8 -2 -5 -4 -1 0 -8 -6 -11 -9 2 -10 8 6 -1 -9 5 -10 -1 2 -10 -3 -5 14 2 -3 5 2 -4 -8 2 -1 2 5 -12 5 4 1 1 16 6 2 -3 5 4 -2 8 6 5 1 1 6 8 -1 -10 5 -2 10 3 -5 -5 7 2 1 -4 -4 -2 2 -2 -5 -7 -2 -4 -5 -15 -8 -12 3 0 -2 8 8 0 1 11 -2 9 6 1 -5 6 7 7 2 10 -1 3 1 5 -10 -8 -3 -1 3 -9 3 6 2 6 -2 2 4 13 -6 13 11 13 -3 -2 10 11 10 8 8 7 22 10 5 9 6 6 0 -7 0 1 -2 -16 9 -9 -13 3 -8 -7 3 -4 1 -3 -6 14 0 -7 -1 4 0 -6 -2 -5 8 2 1 2 4 -9 3 3 -2 2 1 4 -6 -10 6 5 -1 4 -5 -9 1 8 -8 -11 0 7 -1 -7 4 10 3 3 -1 5 3 5 8 12 4 2 0 1 -2 -6 -2 -7 -6 -6 3 4 -6 3 -6 1 6 7 -3 -3 0 -5 -15 7 10 -12 -1 -4 -7 1 -3 -1 0 -3 -13 5 6 6 -5 -9 3 -16 0 -6 0 -8 -17 10 -8 -9 4 -9 -1 14 -4 -1 -4 6 15 12 3 1 -5 5 5 -1 9 -13 -6 6 9 -4 10 4 2 -2 -4 15 1 8 4 4 -9 2 -3 8 3 -3 16 7 0 16 -5 5 -1 9 -4 12 13 5 6 -9 6 2 1 11 -1 7 2 4 4 6 -8 -2 -8 -6 10 -5 -5 -1 -3 -7 4 2 4 2 7 -5 8 6 -4 0 -14 13 10 -1 8 -4 7 -6 8 -7 4 3 4 2 14 2 -3 2 -2 11 1 3 -3 6 3 -3 13 3 -3 7 13 2 0 2 4 2 1 -6 2 2 1 3 -3 -4 -1 -1 12 -12 -3 3 1 4 -1 -1 -3 3 -6 -7 -2 -3 5 -3 12 0 -5 4 -1 0 -14 -14 -1 -5 -5 7 -6 10 -7 3 -5 -10 -13 3 3 -2 -2 -16 0 3 4 -8 -8 12 -2 12 -5 15 -14 1 2 -6 -8 -10 3 -12 -6 -7 2 -4 5 -12 
17 -4 4 8 -11 2 4 3 -9 -2 -7 -5 1 2 13 -4 -4 -6 3 -2 -8 -2 -5 8 -10 10 -9 5 1 5 -2 -9 -17 11 -9 2 -1 -7 -6 3 -9 5 -2 0 -7 5 -3 -4 -9 8 -1 9 1 11 -5 -2 6 3 13 5 -6 -2 2 8 6 3 0 8 10 9 -7 -6 -4 11 3 13 2 0 6 9 12 3 -4 6 3 5 -5 1 9 7 7 -6 5 -4 -3 5 -1 16 12 4 1 16 -3 4 5 -10 -6 0 10 -1 -10 3 -7 5 -11 -15 -2 10 0 5 4 6 3 11 -2 4 1 2 7 -9 11 3 -5 12 11 -16 16 2 8 9 2 1 9 0 2 10 10 10 13 4 12 9 8 13 3 2 8 -3 -5 6 -2 8 2 -3 -12 -5 16 -11 -1 -1 -11 -8 -3 -4 -11 2 11 -13 1 6 1 -15 -8 0 3 -6 12 -9 2 -2 -10 4 -15 -10 -1 -13 4 -5 0 -15 0 -13 -4 -1 -3 8 1 11 0 -17 -2 -11 -6 -2 3 -10 -7 7 11 -9 -19 4 -6 7 3 -15 5 7 -2 0 1 0 -1 0 0 -3 7 3 -9 -5 -2 1 9 2 11 9 0 -2 -3 2 -5 -11 -12 -13 6 -3 1 -3 -6 -1 5 -6 7 -3 -10 7 14 -8 -7 12 -8 -5 6 2 -4 1 5 -10 -1 -7 2 -2 -3 -7 3 -5 -9 2 -1 3 9 0 8 -3 2 0 0 2 7 4 -2 12 -6 3 8 2 -3 0 1 6 4 2 6 7 -11 -6 7 1 -3 5 6 2 17 5 -5 5 3 -6 6 4 7 -13 11 -11 1 -4 9 1 2 2 5 0 1 3 -12 -1 6 4 2 6 -13 -3 9 -13 -6 3 -7 3 -5 2 5 -4 7 -7 -4 -2 -3 -14 -23 -10 0 -7 5 -7 5 -4 10 0 16 -4 2 -5 -8 7 -10 6 6 3 8 0 12 10 4 4 -1 2 6 1 -5 3 -6 3 2 -6 -9 -2 -9 1 -10 0 4 7 2 -1 1 -2 0 1 0 -10 -3 -1 -4 -7 -5 10 1 0 -7 -13 0 -12 3 -5 5 2 -12 2 -6 2 -3 3 -9 -16 0 -1 -6 15 -12 3 -8 -8 7 -5 -4 -2 5 -5 0 -2 -13 3 -4 1 0 4 4 10 0 9 4 -4 2 8 0 8 -5 3 1 5 0 7 6 3 8 0 -3 6 -5 5 5 6 0 -2 -1 -4 6 11 9 -8 12 2 -1 -8 14 -4 -4 5 -4 -4 9 -9 3 12 2 -12 5 -7 -7 -4 11 -6 4 12 0 5 9 6 -5 -1 7 7 -11 6 3 13 -3 5 1 8 18 -5 6 -4 10 8 7 11 7 3 -1 6 15 12 -1 12 5 1 5 3 6 4 3 8 9 -4 5 3 11 6 14 12 -1 1 5 -3 9 -2 -1 7 -7 6 1 0 -12 -1 10 3 -5 -3 3 -7 -2 -2 4 21 -4 2 4 7 -5 8 -1 -8 -3 -5 -6 4 -3 -2 1 0 -1 3 -2 1 1 -2 7 3 -11 8 -8 -12 -8 -4 1 -6 4 9 11 -3 -4 -4 -8 -6 2 -3 -1 -4 
14 -9 0 -2 0 -4 -9 -9 4 13 2 7 3 -6 -8 -3 2 2 0 -8 -8 9 5 -1 5 -5 5 -5 -4 17 4 -1 3 -13 1 9 0 -10 -8 -10 4 -3 2 -1 14 -1 -10 6 -15 7 3 -5 9 1 2 -4 5 -5 8 -3 4 11 10 3 3 -5 1 2 4 3 -8 14 9 4 3 16 9 2 4 2 11 12 -4 9 11 6 6 1 16 1 15 2 16 9 -5 5 4 11 -3 1 7 2 0 -12 -12 0 8 -6 -5 -11 1 1 -1 1 9 -9 -2 0 0 -7 0 -11 -4 7 -2 0 6 0 7 -8 -5 4 15 -6 -5 -3 -1 -14 1 -5 5 14 8 4 3 -3 2 12 2 2 0 -10 1 1 6 7 11 -4 2 -2 15 -3 6 1 -9 -2 -6 11 -5 12 2 6 -2 7 -2 0 -9 16 -9 2 -11 -4 -7 -3 -5 -14 -3 -10 5 -8 -2 -14 8 0 -6 -14 -5 15 7 -5 -6 1 -8 2 -21 -2 -1 -3 0 -2 -5 -6 -6 -1 -3 -2 -11 1 -1 12 -8 0 -3 0 13 2 -1 9 4 -2 3 8 0 5 6 9 -15 -9 -2 -2 12 -14 -2 5 -6 -2 -1 5 -4 11 -12 3 -2 -4 9 6 -12 15 -3 16 7 0 -2 -4 -5 1 7 -2 -2 8 2 9 -9 0 2 -7 2 1 0 6 -13 11 -10 8 0 -10 1 2 -3 3 5 -5 2 -13 -5 10 4 9 0 5 2 7 9 8 -6 8 3 7 10 8 6 3 -11 9 15 4 7 7 6 -3 15 7 6 0 0 3 9 9 1 -1 -12 9 -11 -13 13 12 -6 -3 2 2 2 1 6 -6 3 -18 -5 2 -9 1 -2 3 -11 8 -13 1 -4 8 1 3 1 3 -12 -6 0 -19 -7 3 -1 0 -4 -4 9 3 -7 10 2 -1 -8 -14 -11 -3 -7 5 -8 -2 -6 -17 -2 1 6 3 9 0 3 2 -2 11 4 6 -3 -2 -7 1 -7 0 -3 2 -5 8 -7 2 -5 0 -6 5 4 -5 -3 5 -7 -1 -7 -14 5 12 -8 -4 4 1 -8 2 -7 5 -8 -6 -3 -3 -11 3 -9 -5 -5 1 8 -15 4 -14 -9 1 -8 -10 -1 4 4 -1 6 11 -2 -7 -3 2 -7 -2 4 3 0 2 3 0 4 9 6 22 7 5 15 4 7 7 1 6 5 4 7 7 7 5 7 7 7 5 7 -5 -2 15 5 11 -4 -4 2 0 14 1 4 -1 4 13 -13 1 3 4 -5 1 -3 0 4 11 2 12 -1 4 -1 4 7 4 -2 10 11 -1 5 2 0 3 -3 1 -8 1 7 0 8 10 10 2 5 12 0 10 15 4 8 10 -5 -17 8 -5 2 -3 4 6 6 7 2 1 -3 5 14 3 0 -4 7 2 -4 -1 -1 -3 -4 3 15 -9 2 -6 4 6 -9 9 0 -6 -7 -5 -7 7 -2 8 3 -2 6 -2 -2 0 1 3 -10 -11 -2 -3 -5 1 -4 -1 -1 -6 1 4 0 -6 11 -4 0 -9 4 -4 5 1 1 2 -12 6 -5 -4 -5 0 0 -11 8 5 0 3 3 4 
-5 -1 6 -6 -1 -1 -2 -5 4 -7 0 6 4 -3 5 3 -1 6 -8 -5 -5 4 7 -11 4 -3 7 2 2 3 -1 3 -10 1 -1 4 -11 -8 1 -9 -2 -9 3 1 2 -6 12 -2 0 0 11 2 -13 4 9 -6 3 9 10 -6 2 14 -8 8 5 -3 -2 12 -5 3 11 5 -2 9 -3 9 -5 5 6 -8 13 7 9 2 -6 7 -8 15 2 6 1 9 -2 9 12 3 6 13 -3 -1 6 3 -2 -9 0 1 1 -6 -7 -3 -5 10 3 3 4 3 0 -7 -10 15 -4 1 5 -3 4 9 -2 1 -9 6 7 2 8 12 -4 7 -15 3 1 -2 -13 -3 -1 -1 -6 5 14 -1 13 0 -1 9 6 -3 4 -9 1 -4 0 -13 -7 -5 -9 -4 8 -10 2 -3 -14 -18 1 4 -2 3 3 6 0 1 3 2 1 -9 -9 -6 -1 -4 -6 -3 -12 -6 1 -3 -6 -2 3 -11 -1 -7 -5 -4 -2 -18 -8 1 -6 -19 -7 -12 -6 -4 -5 -10 -12 7 6 -8 8 -11 -3 -3 9 14 2 14 5 -5 6 -7 -4 2 -12 2 -8 -4 -8 0 -12 0 -5 2 -1 -6 10 -9 -2 4 2 -2 0 0 19 -6 19 -12 -2 0 19 1 -3 5 3 0 1 8 4 5 0 5 5 4 -3 3 -9 10 3 -9 -4 9 0 6 -16 0 -4 3 -7 -1 -2 1 11 3 0 13 6 4 9 -4 0 11 2 3 10 -5 3 11 9 7 4 12 3 10 0 10 -5 -1 10 5 1 -1 -1 7 -8 -1 5 8 11 6 4 2 1 10 1 1 -2 -4 6 7 7 5 12 -9 -1 5 -3 14 -10 8 -1 2 -10 -10 3 -1 6 0 6 -5 3 2 1 -10 -8 1 -6 -7 -10 7 1 -2 -2 -12 5 -3 -12 7 10 -7 -2 -8 3 -2 3 -11 -13 -1 1 -13 1 2 -5 -3 1 0 3 9 -9 -21 17 -4 4 5 4 4 3 -2 0 3 6 -2 -5 6 -1 -4 -11 4 -9 -4 -14 2 -11 -14 -10 -4 -2 0 -19 -2 4 6 4 -7 7 1 3 6 -3 -2 5 -5 -5 2 1 -1 -6 -12 -1 6 0 -3 1 -4 -9 11 2 -1 12 -4 3 -5 9 -3 -5 -6 -3 2 1 -4 9 -1 9 12 9 15 -1 5 13 9 -7 -1 19 5 11 12 11 3 -12 11 6 1 4 8 6 0 2 3 4 6 9 5 -6 14 -6 4 4 16 3 9 -7 12 6 9 -14 5 -2 -1 -1 13 1 0 4 -5 -3 14 3 -3 -2 2 -4 7 -3 -5 2 -2 12 -1 2 5 6 8 -1 7 1 2 3 4 19 9 13 0 11 6 16 -1 7 -7 13 0 13 -4 7 11 6 -14 -4 8 3 0 -8 -2 2 17 -1 -9 0 5 -8 -3 -13 4 -3 0 -5 0 2 -7 -6 5 -13 -4 7 -2 3 -8 1 -4 -3 9 4 -1 9 0 -9 -5 7 0 -10 5 3 -8 -4 12 -4 1 1 -5 -1 1 -3 -8 -2 5 -8 -5 5 -1 4 -2 2 8 -5 0 -3 2 -1 0 -1 6 6 -6 -5 8 
3 1 6 0 2 -3 4 -4 -6 5 8 -3 1 -4 5 -6 -10 3 -6 5 4 -4 -5 10 8 2 -5 2 -17 7 8 2 -2 1 6 13 6 0 -4 -4 2 0 -2 4 -5 -5 5 -4 16 -1 0 -7 6 0 -1 3 6 4 2 9 5 3 -2 6 3 8 3 1 6 10 2 7 3 8 11 8 5 -2 10 18 -1 13 -3 4 2 6 8 12 12 -3 1 10 0 3 0 9 7 1 15 -3 10 11 -2 10 2 2 -4 2 -12 3 2 0 -5 10 11 -8 -6 -3 13 -4 9 -8 0 -17 -8 -10 6 0 -2 4 -10 -10 1 -4 -6 -10 0 -3 -11 -7 0 -5 3 -1 -6 2 -2 0 -7 -1 -15 13 -10 5 8 -8 8 8 1 -14 8 -8 11 6 -6 -11 -3 -3 6 -4 2 -12 3 8 6 9 -10 -3 -15 2 -7 14 -5 -7 1 -10 2 -7 -13 -13 -9 2 -9 -4 -1 -14 -7 -11 -9 -13 3 7 -14 -3 -9 -7 8 4 -7 -8 3 -5 -3 -10 -9 4 -2 1 3 -7 -5 4 2 -8 9 0 -2 6 -6 13 -5 5 -4 -3 -3 0 -3 -7 4 4 -1 11 -4 1 1 -16 -6 2 12 0 -1 5 4 1 6 5 7 4 -3 -3 -12 -4 10 -2 -9 7 0 -7 4 5 3 -5 -12 4 13 5 -7 -1 8 -8 5 -11 -4 5 1 6 -3 -7 10 3 12 7 -6 -8 8 -4 0 -2 6 -5 12 6 13 7 2 1 2 7 4 2 6 -1 5 -2 3 -13 9 -3 9 2 -6 1 14 5 1 -5 6 2 3 8 10 4 -9 10 2 -5 -3 -6 1 10 10 10 7 -3 3 6 1 -1 -2 6 3 10 11 -5 -4 -2 1 9 -13 -3 -14 -5 1 2 -1 2 -1 4 -9 -6 -11 3 0 2 -2 -3 10 4 -5 -9 -1 -6 1 -3 -3 -2 -13 4 -3 -6 6 -11 -4 -1 -6 4 -2 -4 -1 -4 -6 -6 -4 -4 -17 -3 8 -4 2 2 3 -2 1 5 -6 5 -3 2 1 4 -5 -2 -5 -1 5 10 13 4 -5 -5 -3 2 -3 2 -1 8 -8 -1 4 -5 -5 -10 -9 -4 10 -13 -8 -7 -11 2 -1 -2 7 7 15 -7 2 1 8 -8 3 7 -4 -3 0 -5 10 5 14 -1 1 3 9 7 9 12 4 -9 7 -5 14 5 8 9 -11 2 4 7 7 2 6 6 15 11 5 12 -4 12 8 -2 -1 4 -8 -4 -4 1 4 4 7 9 -3 1 2 -10 -5 -6 4 -13 3 -2 9 3 1 0 -2 1 1 -6 10 -3 -4 -13 7 13 -7 4 5 4 0 7 10 0 6 -1 7 -3 0 7 4 0 7 0 0 5 -3 8 6 -3 -2 17 0 2 -4 6 -4 9 8 11 -6 -4 -3 4 0 -1 8 4 -7 2 -6 -11 1 -6 -8 -1 -7 -8 5 4 -10 3 -8 -2 -3 5 -14 5 -2 8 -7 5 -9 4 -1 -1 1 -5 1 1 -5 -9 -6 -1 -1 -11 -4 -11 4 8 -6 0 3 -4 -3 -2 -1 -4 0 5 -5 2 -1 -7 -8 -12 5 -4 -10 1 6 -1 
1 -10 8 -1 -3 -5 3 -5 7 15 5 4 3 -9 11 -2 10 -9 -4 2 2 2 -6 -1 -3 8 -2 7 -3 -10 6 -7 -1 -1 -3 3 -11 2 -2 2 -11 -11 1 0 -5 -3 5 -5 -2 6 -4 7 -9 4 2 7 1 12 8 -2 -5 9 1 -5 7 -15 5 3 2 2 13 3 1 -9 1 0 -7 18 5 -2 8 1 10 11 0 -5 12 4 -1 -1 9 7 4 9 1 -3 9 0 7 12 0 13 0 -7 -4 9 4 8 10 -13 0 6 4 -6 -1 -13 -1 -4 2 9 -18 -5 -5 2 -4 -13 -7 7 -5 3 -4 11 -2 -2 7 1 11 -1 2 -7 -7 3 -3 0 -3 2 -8 -4 2 -2 -1 4 13 -3 1 7 2 -5 8 6 10 -9 -8 4 6 8 -1 2 -10 2 -4 -12 -4 9 -1 4 0 -5 5 3 5 1 -9 0 4 -9 9 -6 -3 -14 1 2 0 -2 -8 0 -14 -5 -10 5 -8 0 -8 12 6 -1 -3 -1 -4 1 9 -7 -4 -10 -7 -5 -12 -10 -10 9 -9 -11 5 -6 -4 -4 -7 3 -3 0 -8 6 -4 5 4 8 -3 8 3 1 -8 14 6 -5 8 -9 5 3 -11 10 -2 9 9 -2 4 9 4 8 8 -2 2 2 2 -2 -4 6 -10 4 -8 1 -10 7 2 -4 -5 9 3 6 -2 2 1 7 -11 12 -9 3 2 2 -4 -1 -3 3 1 1 4 -8 8 1 5 2 5 -9 -1 8 5 8 5 -5 10 13 7 0 0 -3 3 1 -3 7 12 -2 1 8 -1 3 -3 -4 10 0 12 2 4 -9 17 5 0 -2 -1 -2 5 0 15 4 5 -1 -4 -3 10 -18 10 3 -2 5 4 13 1 -4 4 -22 7 -2 -6 -22 6 -4 -6 -1 -9 -4 -5 -3 -1 -3 -6 3 -8 0 -2 -7 -4 -1 -1 -8 7 -3 -2 -13 -3 -12 -1 -6 -6 -4 1 4 1 -6 -14 -6 -4 -4 1 11 -7 -4 -4 5 -14 3 2 0 8 -8 9 0 -9 -12 -3 4 9 -9 4 5 -9 -6 -11 8 3 0 -4 -7 -8 -5 0 -8 -6 -12 -2 -7 -2 3 -2 -14 -3 -7 -7 -4 11 -5 -8 1 1 9 -2 -6 1 10 0 -6 -7 3 -9 -7 4 13 4 -3 2 2 1 -8 -10 6 0 10 12 0 15 0 4 20 -4 12 -3 9 1 3 9 11 -3 4 5 12 4 7 5 12 7 3 8 6 6 -3 -3 2 14 2 -8 10 1 3 -3 -5 0 -5 10 5 12 9 5 7 5 -8 1 2 6 -2 5 -5 2 -1 -8 0 9 -5 5 8 4 11 3 -11 5 1 5 17 5 0 4 8 4 12 4 2 14 -2 10 7 -5 11 -13 -7 8 9 3 -5 10 -3 -2 -4 1 -1 1 -5 -4 -11 -2 -2 -16 -6 -8 4 3 -10 5 0 -7 -4 -1 -8 6 -8 3 6 2 3 -6 -6 -1 4 12 7 -1 -1 10 -10 0 0 2 -15 -10 -7 -5 -6 -5 -1 2 -4 -13 -7 3 -5 -6 -1 -5 6 -5 -8 5 -10 0 -4 -8 -3 -3 -10 -3 -1 13 -6 6 5 
0 1 0 -3 13 5 11 7 11 9 10 -6 14 -2 -4 -3 -6 7 0 8 -4 4 -6 1 5 -2 1 6 5 -3 2 -9 14 6 8 5 -5 1 -1 -9 13 -12 -5 2 7 6 -6 6 5 1 8 -16 -1 -1 -5 -1 5 -3 3 8 13 -6 19 9 5 20 1 -2 8 3 8 3 13 5 10 6 -5 0 19 -6 11 -2 -4 1 6 5 8 -4 3 3 -3 11 8 -2 4 0 8 10 1 11 -5 5 11 -2 7 7 -2 -3 1 11 -2 -1 -2 2 1 -3 -8 8 1 -16 -7 2 2 -10 2 -9 0 8 0 4 -1 15 -6 -11 1 4 -7 4 -8 -4 -3 -4 -1 -3 7 -10 -13 9 -12 -3 1 -4 2 1 8 12 -3 -2 -1 -2 -6 4 7 5 -2 1 -2 6 -3 -3 2 3 0 -2 3 4 6 1 -10 1 -5 -10 -3 -1 -7 11 -9 -15 -13 -5 -4 5 5 2 -14 5 -3 -14 7 -10 -5 10 1 -10 -11 -14 -9 4 -15 -4 -12 -4 -4 -12 -16 -9 -14 -20 -5 -4 -8 0 0 5 -8 6 1 4 7 5 1 3 0 1 -8 2 10 -3 -11 10 9 -7 -3 7 5 8 1 -5 -10 1 17 9 -4 16 -7 1 5 4 -9 -3 4 -5 -16 2 3 3 -6 -5 4 6 -3 -5 -2 -11 10 4 -4 -4 -14 12 20 2 -5 4 5 -1 0 6 -3 1 0 1 1 7 2 6 6 11 9 15 -2 0 1 6 -7 2 0 0 9 3 5 3 4 8 -3 -4 2 -1 -9 -2 -4 -4 2 0 0 4 7 1 14 14 5 -1 4 -3 3 2 -3 -2 1 -5 0 0 6 6 7 -3 5 4 -1 0 -7 4 -2 -8 1 0 -2 2 -9 -9 4 0 -9 1 7 -6 -4 2 -1 6 -4 -7 1 1 -6 6 -1 -3 -8 -3 1 2 5 1 0 -4 3 -3 4 4 -6 4 -10 -5 -6 3 -1 1 -2 -12 -1 1 -11 12 0 -2 -4 -2 3 10 -6 -2 -2 -8 4 0 -5 -2 2 -5 1 -5 0 2 7 -8 8 3 -10 -1 7 -4 -4 0 6 -4 -2 -1 -14 -10 4 -2 -16 -4 -7 9 -7 -6 -2 -6 -8 6 7 -5 6 -5 -3 1 -5 3 -2 1 -1 9 -11 10 5 -2 5 12 7 -1 2 11 7 18 7 7 10 -3 8 -5 5 4 11 7 7 0 8 6 -11 17 11 18 -4 12 17 10 6 -2 5 -1 -3 -3 5 -3 -7 -19 -1 3 4 7 6 12 2 13 -9 8 -3 0 1 10 0 3 -3 -2 -9 -14 -8 1 -6 -5 5 -6 9 11 5 12 3 5 -4 15 13 -1 2 9 5 7 2 2 3 -4 -8 5 5 0 0 14 2 9 3 7 1 3 8 1 3 -6 1 -5 7 5 9 -9 0 -6 2 -3 -3 -7 4 -11 2 -1 8 5 0 0 5 2 -10 -7 0 -4 5 -16 -1 2 -10 3 -3 -7 -11 3 0 -19 -3 -3 1 -3 4 -10 -4 -1 -2 -11 -8 -8 4 5 5 -3 2 0 -12 2 -5 2 0 -8 1 -8 -14 -12 -6 2 -10 0 -1 10 
1 12 2 -12 4 11 7 -12 16 -1 12 -4 2 4 1 -3 5 7 6 1 5 -5 6 -2 -1 5 4 1 11 0 4 -5 -4 10 -8 12 1 -1 4 9 4 5 -13 -1 -5 4 14 9 4 2 -1 6 4 1 5 5 2 9 12 3 1 4 -12 5 1 7 7 15 0 5 7 10 14 -5 -2 -4 24 5 12 12 13 8 -2 2 4 10 8 7 11 8 -2 4 9 16 10 3 5 10 11 5 8 -2 3 -9 6 -6 2 7 10 19 2 0 19 -9 0 -10 2 10 -5 1 3 3 1 12 -5 3 -1 -7 3 1 -7 -8 -6 0 0 -6 -4 -2 -7 0 0 10 5 3 -10 -5 -4 1 -4 -4 1 -2 3 4 7 -8 -8 -5 1 -5 3 11 -7 -6 4 11 -10 -5 -11 -9 -6 0 -13 8 0 -8 -6 4 8 -7 1 6 -3 -1 -9 -7 -1 0 5 -3 -15 -10 -1 -7 -8 3 -5 -5 -5 -1 0 -8 -15 -10 9 -4 -6 -6 -5 -6 -2 -8 -6 -14 2 -15 -14 6 -10 -10 2 -6 7 -3 1 -2 18 -1 1 7 -7 0 3 7 5 -3 3 -4 6 9 6 -6 20 2 -3 -7 11 -2 11 -9 8 10 -2 -2 7 4 -6 14 5 -3 1 -8 -8 5 3 1 7 -5 -2 1 -4 -15 0 6 -5 7 2 10 4 -4 -4 0 -5 0 0 -3 7 1 0 7 1 4 -1 -2 -2 -1 3 -2 12 4 -8 8 11 3 2 -1 11 8 -8 12 -5 -5 -3 -12 3 -4 0 -2 2 7 3 4 -2 0 2 8 2 0 0 9 -2 1 -4 2 -4 7 -5 3 -11 -1 5 8 -1 -5 -8 2 -8 -11 -4 9 -17 -15 -7 -17 -7 -6 -13 -7 -15 -2 -7 -2 -7 -7 2 -6 -3 2 -7 -3 7 0 -1 0 10 -12 -3 2 -8 0 5 12 -7 -11 -7 -7 -3 -12 -4 -5 10 -8 -1 -1 -6 -2 4 -6 3 -2 6 2 -3 4 -3 2 -13 1 -5 -4 8 0 -3 7 -7 15 4 7 -9 4 -1 4 8 -14 13 2 -1 -9 1 -1 -8 -8 0 5 -7 -7 5 -9 4 -10 -1 4 -10 12 2 13 4 -3 1 13 13 -4 -7 2 -9 -6 7 -9 1 5 6 -1 -4 2 11 7 5 0 15 8 11 4 14 7 -14 2 9 2 -2 0 1 8 3 11 11 16 13 7 7 3 -4 1 8 13 18 5 14 4 -3 14 -5 4 5 2 -8 -6 8 3 7 0 1 -6 -1 -3 6 1 -1 1 -4 7 -6 6 13 0 -4 -17 13 -1 -1 8 6 6 -1 7 7 5 -1 9 7 7 -4 8 1 10 10 4 2 -10 0 5 -2 6 1 -7 -1 -2 -7 4 -2 -4 1 -4 2 -17 1 1 5 3 8 -7 6 0 -5 -5 8 0 1 -2 -6 10 -4 2 -8 2 -5 -2 -6 -12 0 4 -9 0 -8 -9 17 -14 -18 3 5 -11 1 -10 -3 -5 -12 -19 -4 -6 -1 -7 0 -5 -8 -6 -1 -5 0 0 0 -13 -2 4 -1 5 -7 -1 6 0 3 -2 11 -5 0 -3 -3 -1 7 14 -1 -5 
-2 12 9 3 -4 6 1 5 -1 -2 11 15 3 2 0 -5 0 13 -3 0 0 -6 -5 3 -2 10 11 22 -13 4 -1 -9 -3 -12 1 -1 8 -11 2 -1 -9 -3 7 3 4 3 -3 -6 5 -7 15 2 -14 1 1 6 6 9 -2 -3 3 9 1 5 -1 5 8 -1 2 10 16 -2 13 -11 13 6 14 11 6 9 -1 6 9 0 11 11 13 -4 3 -6 -6 1 3 7 5 -5 4 0 12 13 5 6 0 7 -4 10 2 2 -5 -1 7 3 2 -3 1 -6 -6 -4 0 -4 -6 -2 -5 4 -11 -1 3 7 -17 2 3 3 0 -3 6 -8 -8 -12 -8 2 -10 -11 3 5 0 -6 7 0 -6 -18 -3 -11 5 2 -2 0 3 0 -6 -3 7 -1 6 3 -7 9 8 13 -4 4 2 -13 6 -7 -1 10 3 -6 -2 6 -5 -4 -4 -2 -8 -8 -2 4 -10 0 -8 5 -10 2 0 -7 -10 6 -15 -6 -7 -6 -12 -3 -6 -5 -14 5 -7 -6 -3 2 -5 0 -5 2 -2 -22 -5 -6 3 -1 2 8 4 14 1 6 6 7 14 7 -6 8 0 -8 7 7 5 -4 8 1 12 8 3 7 0 -4 14 0 5 10 0 4 -7 8 -15 -2 3 -8 8 -7 -8 -10 -8 -2 4 0 -3 4 4 -3 -2 4 2 10 -3 -5 6 5 -8 11 -4 -1 -4 7 10 -10 3 -5 1 6 10 -3 3 6 -1 5 6 -2 -2 15 -10 4 0 2 0 1 -6 3 -11 4 3 9 3 4 11 1 7 3 5 6 -6 8 2 -3 2 5 6 11 1 -1 -3 0 -4 -5 -2 1 1 -16 -2 -12 5 -2 -11 6 -9 0 3 -1 -5 -1 2 8 4 -10 -4 -1 2 0 -9 -10 -10 -11 -4 -18 -10 -9 3 -7 7 -11 1 -3 9 -13 -10 -12 -6 13 -10 -5 -4 -2 -7 -6 2 -13 8 0 -1 -2 6 -4 9 7 0 -7 4 3 -7 -6 1 6 -6 5 2 8 0 -4 3 -12 0 -7 -12 4 -2 2 -6 1 -8 -3 0 2 1 1 -9 5 -19 0 -14 6 -2 -16 1 -3 -8 0 6 9 -3 -8 9 3 -15 5 9 -5 9 -13 5 -16 11 -9 1 3 12 -3 -4 6 0 1 -3 10 6 2 -9 16 1 12 5 12 10 19 14 9 15 3 16 9 7 8 9 -1 -2 2 6 5 4 -3 12 15 7 10 5 -4 5 6 3 4 3 1 4 0 8 4 -4 7 -7 4 4 13 -6 6 -14 -3 16 3 4 6 1 6 10 -17 11 7 -2 0 -4 1 12 6 -10 -1 -9 12 -2 -8 1 16 16 -3 -3 4 -5 -2 -5 5 -14 -3 12 9 11 4 -6 4 4 -3 3 -13 -5 3 5 4 -1 -9 2 -5 -10 2 -4 -5 -1 -3 -1 5 9 -17 2 0 -5 -2 7 -2 -12 1 0 3 -5 -5 6 -5 0 4 -3 5 4 -2 -5 5 0 4 -2 -9 0 6 -6 -1 0 -4 -13 -2 1 3 -1 -2 6 6 -4 -5 6 1 -9 8 8 -5 11 3 6 -5 -13 -12 10 -6 -10 -8 -6 3 8 12 
6 -1 4 9 15 2 7 -4 0 14 3 -1 7 2 14 0 4 -5 13 3 6 6 5 9 -10 2 -5 2 3 7 3 9 -5 10 11 -2 -4 -7 -5 -2 -11 4 -15 1 3 -4 -5 14 8 -8 10 10 1 12 -14 1 0 6 7 20 -2 -1 2 8 -5 10 10 -7 6 15 4 -3 0 0 9 4 7 0 -7 6 5 1 -5 2 -6 4 -1 -4 -2 -2 9 -4 2 6 4 -9 5 3 4 9 -3 4 -3 11 -6 6 3 7 0 1 1 0 -3 -1 -19 5 -7 2 -1 -13 -10 -2 7 -2 2 13 -5 3 3 -2 4 -6 -14 -5 -10 -2 6 -4 -5 -4 -2 -5 -1 -5 1 -7 11 -13 4 6 6 4 0 6 -5 6 11 -10 -7 8 0 5 3 5 -10 8 1 1 2 -6 -2 -5 -6 4 -1 10 0 -2 4 -5 4 0 12 -4 -8 4 -14 -16 -6 -1 6 -12 1 -5 1 1 -7 -10 -5 -4 -17 -3 -1 -7 -13 12 -6 -10 9 -7 -5 1 -8 -5 -7 2 2 -9 7 4 -14 6 1 6 -7 2 11 -3 -4 1 4 -17 14 -15 5 5 0 -1 -1 14 5 8 -7 0 -6 16 18 1 1 4 -12 3 -3 4 6 8 3 7 11 -2 0 -1 3 6 12 3 0 9 8 -3 3 1 -6 5 -2 -5 5 8 -1 7 2 1 -6 -2 4 -3 -1 5 10 15 -12 4 2 10 3 0 -2 -2 2 8 1 10 0 20 2 -4 -5 4 -4 -3 1 5 3 14 2 14 4 -5 4 -6 -5 -5 -2 12 -2 5 6 0 -2 10 4 8 8 -3 7 -3 -7 -7 2 -2 -6 6 3 -1 -9 -2 1 -15 -1 -7 -4 -7 -7 -6 9 -10 -6 -4 6 -15 3 4 -4 -6 -10 -7 0 -8 8 -3 -6 2 11 11 -7 -5 4 -10 -7 -3 8 10 -10 -10 -9 -7 -6 -1 -10 -2 6 -4 0 -1 3 -4 4 4 -14 10 5 7 -4 2 -12 9 1 -2 -9 -5 6 13 11 -4 1 -3 2 0 -5 -10 7 -15 2 -1 -2 5 3 -11 1 -15 8 2 -12 12 -2 1 -15 -12 -5 -11 -9 -2 7 1 -2 12 3 4 -7 -4 9 9 5 -8 2 6 -13 -3 2 -9 3 0 6 5 0 11 7 7 2 11 0 1 11 10 5 -1 5 10 0 11 8 11 -4 7 12 -1 4 15 8 13 16 0 7 2 9 -1 4 10 10 -8 -1 12 -12 -2 -10 -4 12 4 2 -5 2 -6 3 11 1 3 9 8 10 -4 -11 -14 3 10 5 7 5 1 8 3 0 1 11 8 1 6 -10 6 2 16 10 1 6 -1 15 4 -6 3 2 -3 -7 -1 -10 6 11 -3 3 -6 12 -1 -6 -12 8 -6 0 0 0 3 3 5 12 -2 -11 3 -12 10 3 -6 0 -3 3 4 -6 4 -4 3 4 4 -4 2 1 9 7 -8 -5 14 -8 -2 -4 -4 -3 -3 -7 4 -6 -17 2 -12 -5 0 15 -10 1 -1 8 -6 0 -10 -10 -2 -8 -3 -5 0 -3 7 11 0 -6 -3 -14 3 1 3 1 -2 -3 -3 -4 -5 
11 8 12 -8 -1 -9 15 1 6 6 -4 4 14 3 2 8 6 6 0 10 4 2 0 3 7 4 1 5 5 -1 -3 4 7 -12 3 -2 -4 -3 -2 -5 4 4 -1 1 -6 1 7 -14 10 7 5 11 7 4 -3 7 4 11 3 9 6 14 14 -6 13 -3 17 13 -2 1 -4 16 -9 -10 12 13 7 7 5 -1 7 -1 2 19 -7 -1 10 5 2 0 4 3 11 5 4 -6 -4 5 -1 12 9 4 -8 -3 -8 -3 1 18 1 -3 7 8 5 -4 9 -3 3 2 -7 9 6 5 -19 0 -5 -14 2 -11 -2 -5 4 0 13 0 -12 5 -5 -1 -9 0 -5 -10 -8 -16 -12 -8 -9 -6 1 3 -9 -12 0 0 -2 -8 -1 -16 -3 -5 5 1 -17 9 -2 -19 0 -8 -2 0 1 1 2 0 0 -8 -1 -1 0 13 -1 -6 -6 -8 -2 1 5 -11 -3 -15 -14 -18 -11 13 -10 -5 -10 -2 2 9 -2 1 -2 3 6 -1 2 4 -14 -2 -5 -7 10 -7 0 -4 -3 3 4 -15 2 -16 -4 -13 9 -5 5 0 10 -8 8 2 1 4 15 -6 -3 6 -3 -2 5 1 16 -1 -4 -3 3 2 2 -1 -6 5 4 6 -11 11 4 11 -5 5 -2 1 5 -10 11 1 1 0 -4 1 -8 -4 8 -10 7 22 -4 4 1 -5 1 -7 0 -9 2 1 -3 -8 0 6 15 6 -1 -6 1 -1 -4 0 8 -2 -2 7 11 -2 9 10 5 1 8 13 -1 9 6 6 12 2 7 -3 4 -7 -9 -5 5 -6 -5 -3 -5 -10 2 4 -2 8 -5 6 0 3 4 -7 2 1 -8 -3 -10 -15 2 -4 -8 -2 2 -2 -10 0 2 -2 1 -9 -9 6 -1 -1 -9 -4 -7 -5 4 -8 -3 -2 -14 6 17 -2 5 -9 -4 2 -8 -4 -1 -8 6 -1 -5 -14 -5 4 -8 0 -7 -1 1 6 3 7 -2 1 -11 -11 0 -1 10 6 -1 1 0 8 3 8 1 8 -7 -14 5 -4 -4 2 -1 -1 5 4 8 8 -4 -7 0 1 -3 -2 7 -8 -4 -8 -5 1 9 5 9 17 13 3 4 11 -3 -5 -4 4 -5 6 1 11 2 3 14 14 2 11 6 -2 -17 -1 -7 9 1 -7 -1 9 5 -1 16 -3 0 19 12 -1 6 11 5 11 4 -1 8 8 1 20 -1 11 9 -4 6 12 7 7 14 15 4 0 -6 1 -1 9 1 -12 9 -12 2 -2 7 -4 6 11 -5 11 2 -4 7 8 8 0 4 3 -1 5 15 5 -1 1 -4 5 -1 9 0 4 -4 -1 -14 -5 8 5 -10 3 0 -1 10 -10 -2 1 10 8 -9 9 -1 -4 0 0 4 -3 -5 -6 7 5 -1 -9 -6 15 -5 1 -8 1 -9 5 2 3 0 -2 -5 1 2 -5 6 -9 -6 7 2 0 -1 -4 -1 12 3 -11 12 -10 -9 2 3 -11 4 -9 -1 -8 2 -1 -5 -11 7 -3 -11 -2 -1 -14 -4 -4 -11 2 0 5 -2 -10 -3 -1 -2 -5 8 -5 2 9 -10 -5 -4 -3 4 9 -17 8 14 -6 15 -2 1 1 
0 2 7 6 3 5 2 -6 5 -9 23 5 -6 16 4 3 -9 -1 4 1 -1 1 -6 11 -1 3 -8 6 -4 5 9 2 -9 14 5 8 -7 -5 -1 4 -6 -15 3 2 0 6 17 9 1 -6 3 8 7 10 4 -13 2 13 19 8 9 3 3 13 5 -5 7 -1 5 2 -5 3 -11 -2 -8 -3 10 -2 7 15 -5 12 6 -1 3 -1 -4 2 18 8 -5 4 12 -6 4 14 7 -10 16 5 7 9 2 0 -1 4 2 4 1 5 7 -4 -6 -11 -3 -2 -13 -3 4 -8 3 -16 9 3 2 0 -1 -12 -6 6 -6 1 3 -2 8 4 -4 -7 -11 2 -1 -12 -1 -10 2 -5 -3 -4 -3 -16 7 -10 0 -10 4 -6 -1 9 -3 -2 -1 -11 -3 2 7 6 13 -4 -11 8 -14 3 -1 -7 8 9 10 4 -6 4 3 2 -10 10 -6 -15 -6 -6 -11 -9 2 10 -3 -15 6 -11 10 -3 -4 10 0 -3 -1 -5 1 -6 9 -8 -8 -10 -6 1 3 -1 2 -13 -8 10 1 -10 -2 -8 -3 4 0 -1 10 -10 3 8 -5 9 -7 1 6 12 -1 -9 4 2 -1 5 3 -9 1 6 7 6 -4 5 13 1 3 -2 8 0 1 5 14 -2 10 -1 -7 2 7 4 9 -3 -3 3 6 10 3 2 -9 7 1 -4 5 -5 -4 -1 0 5 0 0 2 -7 -7 12 3 -16 -5 11 1 11 8 -2 2 6 -5 9 -6 6 -4 0 0 8 -7 2 1 18 4 3 0 -3 6 -3 0 6 4 -3 1 -8 7 0 4 5 -7 11 -9 -5 5 -5 3 -4 13 -3 0 -7 5 -2 5 -11 -13 -5 -1 0 -9 2 1 4 -6 -5 -6 1 0 -4 -6 3 6 -8 0 -6 -10 -6 2 -7 -4 -18 -11 -3 -6 -3 3 -9 -14 2 -6 -1 -5 8 1 -12 10 6 -3 0 2 0 -6 1 10 -1 1 12 -2 -4 5 4 8 5 -6 2 0 -9 3 10 0 5 -2 -6 -6 -3 11 13 -5 10 9 10 -1 2 3 -1 5 2 -3 -5 -15 9 -9 5 4 0 -14 5 -9 0 -4 1 -6 9 -7 1 7 -3 0 -7 8 6 -5 -6 12 4 -1 -12 -7 2 9 -1 -15 -8 1 1 -1 7 9 1 13 9 6 -3 6 3 11 7 9 4 4 1 12 11 6 -2 17 12 13 -1 6 21 -9 -4 5 -9 4 0 5 7 -9 0 6 15 1 0 6 4 16 4 -6 0 8 8 -4 7 0 7 5 2 0 -7 6 0 -2 4 12 11 -3 3 9 -5 3 -1 3 5 2 -7 -9 -6 -3 -2 4 8 5 -1 -4 7 4 4 0 4 -5 -11 -2 10 11 9 -8 -4 -13 3 2 10 -7 5 -11 12 -3 7 -6 10 1 -3 5 -1 2 -16 -3 4 5 4 -12 -8 -6 3 4 3 1 -5 -3 0 -4 -1 6 2 2 -8 1 -3 -1 4 4 1 -1 -2 -2 9 1 -3 -12 1 2 -7 3 12 -10 3 -11 7 -7 1 6 1 -2 0 6 -4 -3 1 -10 10 -14 -4 3 -15 1 4 -9 12 -13 15 
12 1 12 4 3 -2 -4 -3 -2 12 -7 -1 11 5 1 -3 2 10 -5 11 1 -4 6 8 -6 -2 1 6 1 -5 -3 13 -7 0 -8 -5 -8 2 -5 4 8 14 -15 9 10 9 2 -6 8 6 9 5 2 5 0 11 5 9 6 1 6 -4 3 4 8 9 3 -2 6 14 -4 8 -3 5 3 2 -3 16 4 -1 8 10 -8 9 4 13 7 -10 -1 0 14 10 -12 1 14 -8 1 15 7 0 5 0 4 4 0 7 4 10 -7 15 -4 -4 -3 4 -7 13 -13 3 -9 6 -2 11 4 -2 -8 -4 -9 -21 -5 21 -14 -7 -7 1 -16 -10 -6 -9 3 -15 9 -7 -7 -15 4 -10 -10 -2 -7 11 -2 -5 -8 -6 4 14 -9 -7 -11 -4 2 -5 15 3 6 6 4 1 -1 -6 -6 1 -1 13 13 -19 7 3 7 0 -9 3 6 -1 -2 -8 -9 0 1 3 -10 -4 3 -13 3 -8 1 2 11 -3 -1 9 5 -4 -2 2 0 -5 -13 -4 -15 -3 -9 5 -10 12 -5 -10 0 -1 1 -2 1 0 4 -3 11 8 6 3 11 13 5 -2 6 -4 4 10 2 1 7 -7 15 -8 0 4 5 -1 0 -4 -2 14 -3 0 10 6 2 -1 0 14 3 13 13 -5 -2 -9 -4 11 7 7 12 -7 11 9 0 12 4 -6 -1 4 -4 -14 1 -1 -5 -2 7 -14 2 5 -9 3 -6 -5 2 -2 8 -11 4 -8 -4 -4 4 0 -8 6 6 -8 -9 -1 -2 -9 -7 -3 7 0 5 0 -6 5 1 -12 1 10 5 -9 5 -7 -3 4 -8 1 1 1 -10 -13 4 -4 0 -6 3 9 -6 3 -3 -25 4 0 -11 3 -4 1 -11 -7 -6 -6 -12 -17 -11 -10 -6 0 -11 1 -14 -10 5 1 -7 1 -5 17 -7 2 7 -2 0 -5 3 -3 0 -11 -11 -12 6 7 -7 -6 -7 -7 2 6 -5 5 0 3 11 -6 -9 2 -3 -3 7 -5 5 -5 5 4 6 -8 1 6 11 -9 6 -3 -13 2 3 7 9 0 3 -1 -4 7 8 0 -1 -2 -1 -6 -4 1 9 -5 4 -1 -9 -4 -2 -2 5 1 -4 4 11 -1 -13 -9 12 11 -2 -12 1 9 15 -16 7 2 9 -4 5 1 -6 5 3 7 7 13 12 10 4 -8 11 -5 7 2 11 5 8 -2 11 8 8 -4 7 0 16 13 8 7 1 -2 -5 1 -12 -12 12 1 8 -4 15 6 2 15 -10 8 2 7 2 -4 7 -6 -2 -1 4 6 7 0 12 6 9 3 -9 10 6 6 -10 -19 3 7 3 2 0 -5 -7 3 -6 1 -2 9 -5 -9 8 -8 -12 -8 -9 11 3 -10 1 1 -7 5 2 1 1 -6 0 -1 6 -13 3 -1 -2 -18 4 -4 -2 3 6 -12 2 -8 7 3 -3 -10 -4 8 -1 19 -4 13 0 2 6 -6 -1 -7 -1 16 -2 4 0 1 -5 5 -10 -9 2 -5 -5 -7 -3 -4 -9 -1 -6 -2 -1 2 4 -4 -4 -3 -5 3 -5 0 -10 -3 -3 -10 -4 13 2 1 -7 3 6 9 -7 -1 8 0 12 1 
-3 10 -1 13 11 18 9 -7 -1 17 -9 6 -1 -6 9 4 15 -2 3 -6 9 5 11 -1 8 -10 2 -6 3 11 -7 1 15 0 5 12 -2 12 1 0 2 -1 16 -4 1 -7 10 17 -9 1 -2 6 -7 1 1 -3 2 8 0 7 13 -4 -6 -5 -3 -2 -1 4 1 -5 0 5 -2 4 -3 3 18 4 -1 -2 -2 14 -5 9 9 -5 -6 4 -4 1 -4 -2 11 11 -6 11 6 11 10 4 -5 -5 12 11 3 11 7 -4 -7 17 7 6 -6 -1 -7 4 -4 2 -11 0 4 -10 -6 -8 -3 -3 -8 7 -2 -3 -6 2 -10 1 -7 -8 2 -7 -1 -6 -7 -1 -5 2 -4 7 -10 0 -3 -9 9 -15 -1 -5 -6 1 -1 6 -9 -3 6 5 4 -5 2 -17 -4 10 -2 -3 -4 2 12 -5 6 3 13 3 -8 7 6 2 -7 1 -6 -2 -3 -3 -7 -7 10 -5 7 -6 1 -12 -4 -7 -7 2 1 -13 -7 0 -4 -9 -6 -11 3 1 4 -15 -15 -2 -4 -4 11 4 0 -11 -7 3 8 2 1 14 6 -5 7 -3 2 -5 2 16 1 -7 -5 13 0 14 -5 1 2 -4 8 -2 3 2 2 6 4 7 5 4 3 -13 9 -2 -5 -1 1 12 6 1 0 1 -2 6 -1 7 -1 10 -1 8 2 1 -4 1 4 -3 11 5 -8 -7 2 4 -8 -1 0 -2 -5 2 -5 8 -1 8 -3 1 9 -9 7 -10 8 -10 4 -12 -3 6 -7 4 -7 3 1 -2 1 1 -3 8 -10 5 -5 2 -6 -4 -8 -2 6 -5 -6 4 4 -8 3 5 -8 -4 11 4 -2 7 -5 -10 3 -3 -7 -3 -4 -10 0 -4 -11 5 -1 -5 -3 7 -10 5 -6 -13 0 5 -13 -11 -18 -8 -4 3 6 -12 7 -15 1 -19 1 -5 -10 3 -5 -8 -8 -16 2 -10 11 -2 -11 -2 -10 -6 -2 1 -16 -4 -6 -7 -1 -3 -4 3 0 3 -3 1 -7 6 -4 12 9 -5 19 0 6 3 -5 0 14 2 1 10 10 10 1 -2 1 0 10 11 -4 5 -2 3 -7 -1 0 -11 -6 -1 -3 6 -3 2 -12 0 -2 -6 -4 -1 11 1 -10 -1 7 1 8 -7 5 -15 8 -5 5 -19 -2 8 12 8 -11 9 0 17 4 0 7 -6 2 1 19 7 -2 12 9 3 -1 -5 14 -2 8 2 3 4 5 0 1 4 -2 7 -8 2 6 -1 -7 8 0 3 6 2 -3 5 -7 2 2 -4 -4 8 5 0 -11 -1 12 3 10 10 5 -1 4 -7 -1 1 6 -2 2 5 6 9 -12 4 -10 2 1 2 0 2 2 1 -10 2 12 3 -2 1 -3 0 0 6 7 -18 -14 0 4 14 -9 1 -6 -1 8 -3 3 -3 4 19 -1 0 -2 25 -7 7 4 -2 -3 2 -1 -9 -16 6 3 -2 -3 11 -4 7 -6 14 -10 8 0 5 2 -10 8 -9 11 -3 -11 1 2 -7 -9 3 2 2 -3 -8 -8 -7 -2 3 -6 -2 12 10 -6 1 4 1 -4 -4 -11 -4 -8 -5 -1 -9 2 -4 6 8 3 8 3 17 
17 5 0 1 -2 -1 9 5 8 -1 9 18 4 2 -2 6 8 -5 5 13 -7 8 1 11 9 -5 -9 -1 13 13 6 4 5 -12 -2 -9 9 -7 17 4 -10 6 5 -2 14 1 3 -7 -1 -4 0 2 13 0 15 5 10 0 12 10 -5 10 6 4 12 2 -6 7 -2 9 1 5 6 -9 6 11 1 7 -5 14 1 11 8 18 -4 1 10 -5 9 0 7 8 2 -1 -5 9 2 3 3 2 4 -1 -3 8 -1 -5 -5 5 -2 0 -3 6 7 8 -3 -9 2 6 -9 2 -5 -13 9 -2 -5 2 4 3 -9 -12 -3 -10 -2 0 -9 1 -8 -9 -7 3 -14 1 -2 -8 -19 1 -3 -3 -11 -12 -10 -7 2 -2 3 6 -12 12 -9 11 1 -2 -3 -11 6 -2 -2 -3 6 2 1 6 -8 -5 13 1 -9 1 13 0 -1 6 -5 -8 7 3 -1 2 3 -4 7 2 -5 -2 4 -1 -2 -4 2 -11 -4 -7 -5 -9 -4 9 -6 -4 -9 -8 -3 17 0 2 1 -18 -7 -2 0 -3 6 4 -14 2 -9 10 3 -2 4 -10 8 5 -1 -8 16 -2 15 -8 4 -4 -4 3 -5 11 2 3 -11 4 -9 5 5 -2 3 9 -8 4 2 0 13 11 9 -3 -6 18 19 -7 2 -5 1 -5 1 -7 -2 4 4 16 -2 17 6 5 -2 5 -3 3 2 -6 6 -2 4 1 9 0 1 -5 -10 0 -1 -1 0 -10 -20 16 -2 -3 3 -5 -1 -6 -5 -1 -16 -9 7 -10 -1 10 -5 -5 -4 -3 -2 0 -4 -1 3 -2 -10 4 -10 2 -6 6 8 -6 -12 -8 2 -5 0 3 -1 5 -7 10 -15 -2 -9 -1 6 -10 8 -1 -3 -3 -5 -8 -2 2 1 -6 -7 -4 -13 -9 -12 -10 -1 -5 -4 -10 -16 8 -5 6 0 -7 -1 2 6 6 -6 8 -5 0 2 -1 10 -5 -4 -6 9 1 -2 -1 4 1 -1 4 -4 -3 -9 4 -4 -6 2 -3 11 6 6 6 -2 2 9 1 -1 13 0 4 7 7 -4 -9 16 -9 -1 -4 1 7 -5 -6 5 -4 2 -7 2 -4 -1 -1 1 -9 6 1 -2 5 -2 -12 -8 -1 -3 -15 -5 3 0 0 -1 3 -4 -3 0 -15 -8 7 -7 -2 -6 -12 6 8 6 -9 5 3 9 -2 -9 3 2 -2 9 -2 0 9 13 2 21 -3 1 -4 2 4 8 10 5 -11 0 10 12 1 -11 3 12 6 4 5 14 -1 -6 14 3 -1 -2 -3 7 -9 5 6 11 14 11 3 5 3 7 1 15 4 4 2 -8 -4 -4 -8 2 -3 -5 -4 -7 -3 -9 -11 -3 -8 -3 -5 -24 1 -10 -8 -1 -5 -2 -10 -1 7 -12 -3 -5 4 6 -3 -4 -9 3 -6 2 4 -1 3 -7 -4 8 5 -1 2 1 0 -4 5 0 -6 2 5 4 1 -3 -12 8 5 6 -9 -5 2 1 7 13 -2 -12 -1 6 -6 -7 -4 -10 -3 -5 -13 0 -17 -13 -6 -13 6 -4 -7 1 1 -4 24 -7 -12 10 -2 6 3 -11 -1 10 -19 8 -1 8 1 -5 -2 -1 -10 0 -3 -6 0 
-2 3 11 13 -4 3 2 2 10 10 6 3 4 -1 8 -1 -3 -3 7 10 4 2 -1 2 0 11 -6 10 -3 1 15 5 7 5 8 -8 3 -4 -9 9 0 8 -2 1 9 0 1 3 2 13 8 2 7 9 1 9 -3 7 -2 0 7 9 1 3 3 1 6 -6 4 2 -1 1 3 9 1 1 -3 14 1 4 7 -1 -2 -4 -1 6 1 -11 -5 3 -3 -13 4 2 5 9 4 -3 -1 11 5 12 9 5 5 3 -1 5 10 -2 -8 -10 14 -5 4 18 -6 4 -2 -19 8 -12 -7 3 4 -3 -10 -4 -3 -5 -8 -12 -6 -14 -8 -5 -11 5 -8 1 0 -12 -3 4 -1 -7 -7 0 0 -3 -3 8 -15 -2 0 -1 0 -6 -9 4 5 12 4 2 11 -4 1 8 1 2 6 8 -10 -7 2 0 12 -1 17 9 -2 -7 7 4 -9 10 -7 -3 -3 -2 -2 -11 1 0 -2 5 -5 2 -11 -3 7 -6 4 1 -3 4 -9 10 -9 4 2 2 3 -6 12 2 10 0 3 -6 -12 -9 10 -1 -4 4 3 -7 2 4 2 -13 0 1 -3 8 -5 -9 -5 -1 4 1 -5 6 -3 -5 3 6 -1 1 9 12 12 -5 3 10 -1 3 -6 -1 5 -10 1 6 4 1 13 0 -1 -2 6 9 1 3 5 -1 -4 6 6 12 -2 -14 -5 -9 2 0 -2 0 3 0 -9 -3 -2 -10 1 -1 -8 0 -7 -3 15 -15 -7 -3 1 -16 -11 -10 -5 -4 -1 -5 1 -3 -3 -7 1 -4 -2 5 7 -1 9 -11 -13 -3 -10 6 0 -1 -5 -10 1 3 -9 5 5 2 -13 1 -5 2 -14 7 2 -8 -2 -12 5 2 0 -9 -3 2 5 -1 -8 3 2 9 -11 -8 0 0 -4 -7 1 5 1 -1 -7 -10 -9 -15 -14 -9 -5 -6 -9 -15 -4 3 -1 -2 -5 -10 1 -17 -9 -5 -6 -10 -12 5 4 -4 5 -2 4 -4 3 -8 2 -7 -7 3 3 3 0 4 3 7 4 4 12 -4 10 7 1 6 1 0 8 -3 1 -7 -2 -3 -2 6 -6 11 -7 8 -8 8 2 4 8 1 4 -5 11 -12 10 -5 3 -13 -1 -9 7 -2 2 1 6 -10 6 8 17 3 6 6 6 1 12 -3 9 2 -1 3 8 -9 -8 4 10 -10 2 13 7 -5 12 3 -7 3 -2 3 7 9 5 1 13 5 3 -4 6 9 -8 2 -11 9 11 -3 15 -1 9 14 2 -4 6 -6 -1 1 0 3 1 4 1 -6 0 8 7 -1 4 -8 4 3 3 7 7 -4 -1 -7 -4 -1 2 0 -1 2 10 -2 3 -8 -11 -3 3 -20 -7 -10 -9 -2 -13 5 -2 -4 -11 3 4 -6 -6 -16 -3 -2 -4 -1 -5 10 -5 5 -6 2 -1 4 -11 -1 8 10 -4 11 -1 2 -6 1 1 4 -3 8 -7 1 5 1 7 -5 2 -6 9 2 7 2 5 4 -2 9 -2 4 -2 1 2 -16 -8 -6 12 -7 -6 2 -11 10 -2 -6 -1 3 1 -1 -2 1 -4 -2 3 2 3 4 12 12 2 8 -3 13 3 8 2 4 
-8 12 -5 4 0 6 0 7 10 1 6 0 -6 1 2 6 8 -11 10 -4 13 7 1 8 1 9 -2 5 9 6 1 5 17 11 9 1 7 1 -14 1 7 0 6 -3 6 9 8 0 4 10 -5 -1 6 6 7 4 8 4 -10 -1 6 3 10 5 9 -1 10 5 3 5 -5 6 5 1 6 -5 -4 5 -2 1 6 4 1 -11 0 4 -1 13 8 6 -1 3 4 -5 1 -4 8 2 5 2 -3 12 6 12 4 3 21 -4 -4 -4 8 6 16 -3 -5 -9 2 -16 -1 -6 -12 11 -8 -6 1 -17 -3 -8 4 -4 -6 -11 3 -5 -8 -5 -7 -4 -8 -1 -7 1 -10 -5 -6 5 0 0 -5 4 1 -9 -3 -3 -6 -19 0 -5 -4 0 -2 -2 -2 -4 -5 0 -4 4 -1 -12 10 -6 7 -2 0 0 -4 1 1 0 10 -5 8 -7 -3 -7 -7 -18 4 -14 -11 -3 -7 1 -2 -9 -8 6 1 3 0 1 -2 5 -11 3 9 -10 6 1 7 7 9 -6 -6 8 -3 4 10 6 3 -1 -5 0 5 1 -4 6 -6 8 -1 10 4 7 -1 -1 3 10 -8 15 7 12 -2 -3 -1 -4 8 5 14 2 2 -1 3 4 5 -5 -6 10 9 -2 -4 5 -1 0 3 -2 4 -7 -4 2 12 6 0 1 9 -3 -7 4 -12 -2 1 11 -13 -2 4 -6 -1 5 11 -1 10 -3 1 -1 -8 4 16 7 7 -1 -3 1 7 -1 4 6 2 -7 -4 -8 0 -9 -2 -7 2 -13 0 4 4 -12 -4 -3 11 -5 -2 2 -5 3 -12 -10 11 6 6 -3 6 1 -2 3 5 -11 3 -3 -6 13 -6 3 8 -1 -6 4 7 -3 3 6 -11 -4 0 -6 1 -15 -1 -15 3 -10 -7 -13 -4 -3 -15 -5 1 -11 2 -6 5 -5 -2 -2 -7 -2 -7 -3 -13 -8 -6 -3 1 -7 8 10 1 1 -3 6 -2 4 -7 -1 -10 0 12 4 6 -2 3 1 -8 2 -4 2 0 -5 -5 0 -5 0 10 3 -12 22 8 -1 7 -11 -5 5 2 -3 6 -6 7 -2 -5 -7 -1 -6 -10 5 0 7 6 1 4 -5 -1 13 -3 0 5 4 3 6 2 12 -5 5 -2 -1 -2 -7 -6 0 9 -6 1 6 6 -8 0 15 0 4 -4 2 -7 12 12 -5 6 -9 2 3 10 8 6 -8 9 4 4 2 1 5 15 -6 6 6 5 -3 12 10 -2 7 2 1 1 -11 8 1 5 -4 -4 7 -5 -5 11 10 2 -3 9 -5 0 -2 9 9 7 7 4 -5 -8 -2 2 -8 -9 -6 9 -8 -2 2 1 -7 2 2 1 -8 -1 -6 4 -1 -10 0 -5 3 -2 1 -1 -2 -11 -9 -16 7 2 -2 -2 4 4 0 3 -4 -16 -2 -1 -4 -12 -1 3 12 1 2 8 4 6 -5 -2 4 4 11 4 -6 -1 -7 -2 3 7 -7 -9 -1 7 -4 -1 2 -5 -15 1 1 -10 -3 -9 -2 12 -3 -23 4 -8 -8 5 -8 -3 0 4 -2 -7 -9 4 14 -10 3 -5 13 9 -7 10 12 5 -5 8 11 4 8 -9 9 
5 14 -1 3 0 4 10 -2 0 2 -2 7 3 -7 -9 10 -5 7 3 14 8 12 12 1 11 8 -2 10 0 10 10 7 6 5 -16 -7 0 0 6 2 7 9 -1 -3 0 -4 12 -1 8 1 1 -2 2 -4 6 13 5 3 7 3 3 7 7 0 -3 1 21 0 -3 5 -8 4 7 7 1 5 3 9 -10 -2 3 -5 0 3 0 15 -3 0 6 10 1 7 -2 6 1 -1 6 -8 18 -7 10 14 16 10 -9 16 8 5 11 -7 5 -7 10 -7 5 -7 1 -7 -12 2 -9 -4 -4 10 -1 0 -3 1 -5 -1 4 -9 -10 0 -3 -34 3 -3 -14 -12 -9 -3 -8 -3 -5 -5 13 -4 -6 -11 -11 -5 -13 -2 -4 -2 -7 0 -9 -1 -1 -8 -5 -1 7 -2 -6 -3 8 7 4 -5 -1 -6 14 -1 1 -7 -12 12 9 -12 6 4 2 7 8 -2 -5 -7 -3 -4 -5 -1 -2 6 -11 2 -12 5 3 -3 0 -1 0 -14 -4 6 -8 3 -3 -5 -8 -1 -8 -13 -3 -2 -7 -3 8 -6 0 -3 6 2 2 4 -7 0 8 8 6 4 -2 3 6 -9 0 -6 -10 10 9 -1 13 2 -7 -1 -5 4 4 21 -1 10 2 5 -14 9 0 -10 -1 3 -9 1 3 17 3 14 8 0 0 1 4 14 0 -3 5 -3 7 4 -5 7 -6 -2 5 4 7 2 -10 3 2 3 9 0 2 -4 0 -4 -5 -5 -6 -3 -12 2 -5 -12 -12 3 -12 -5 -2 -7 -2 -4 0 2 -2 0 0 11 12 -4 -1 -5 4 4 2 -11 0 4 -5 -2 -2 4 1 -7 8 1 4 12 -9 4 -3 -5 0 -2 -5 -2 1 6 -2 5 -2 6 1 -4 -5 5 -7 -9 -7 -1 -9 -12 -9 2 -14 -14 -6 -4 -8 2 8 8 -12 7 -6 1 7 -16 -4 -5 -10 2 -10 -7 1 3 1 3 4 2 -14 -4 -2 6 -5 4 2 9 -10 -2 -3 -2 7 13 1 0 -8 -3 -6 0 -10 0 1 14 -2 1 1 8 2 -3 2 2 5 -6 10 -2 7 6 1 2 -9 -11 -6 3 7 4 16 -8 5 15 -1 0 -9 -6 -14 8 -8 3 9 -1 6 5 -2 3 -2 3 13 7 3 0 7 5 15 4 5 0 -6 2 2 -13 11 1 0 -9 7 -10 -4 7 9 5 -4 1 13 1 -2 1 12 5 -6 5 0 -2 7 6 7 5 9 13 -1 -2 0 12 4 10 0 -1 8 1 3 2 -3 14 -3 15 -3 6 4 2 6 -5 7 -2 0 -4 -15 -3 0 -8 -13 -7 0 0 1 3 2 -14 3 -7 0 -4 -8 -8 -3 7 -16 0 -12 -10 -1 10 5 -3 -12 7 -8 10 1 -2 0 -17 2 -9 -3 6 5 5 5 3 -3 1 4 -6 2 2 12 11 2 0 3 0 7 1 5 -6 -11 3 8 -3 13 -14 1 4 -1 4 0 1 -2 4 -8 1 10 -4 1 12 -11 -1 -7 8 -2 -12 -7 -1 3 -4 2 -6 7 -5 5 3 13 -6 25 1 4 1 3 10 1 9 3 9 7 0 4 8 6 -3 
-4 -3 9 -3 11 6 14 7 12 10 4 0 -4 9 -5 11 3 -6 10 -7 14 4 0 1 -6 -2 0 -3 12 3 6 -4 -5 15 1 2 4 9 12 3 8 7 14 5 8 0 -5 -2 -2 4 -1 -4 15 -10 0 1 -7 -17 11 -4 -1 17 -14 14 1 -11 0 7 7 -3 14 2 -7 5 -2 11 -9 5 -4 3 -6 11 -5 -10 2 -4 -5 6 16 -9 3 -6 13 5 0 1 -5 1 5 11 5 1 5 11 13 2 -1 3 1 1 6 1 1 2 -6 6 3 -9 -2 -9 -7 5 -12 5 -17 7 5 -7 -6 -6 -6 -7 -6 -8 10 -11 -1 -5 3 -9 2 -6 -5 -8 4 -5 1 -12 -4 6 -10 4 9 -6 -1 -8 2 -4 6 -5 -6 -6 0 -13 -5 1 9 10 9 -2 7 16 -3 4 -10 -3 -2 13 13 5 5 0 -5 8 4 -8 -8 -9 14 1 1 -6 6 3 -10 1 1 6 10 2 -8 4 9 -11 -2 1 -5 9 2 -2 0 -3 -11 8 9 5 -8 -7 3 8 -2 3 3 -1 -2 11 -7 5 1 7 7 5 7 8 -9 7 -7 -2 -9 12 0 -2 -1 3 -6 2 5 7 3 -6 5 -1 -3 15 13 -1 2 4 3 1 6 1 -5 12 5 -5 -5 -1 1 -2 -3 1 -5 3 5 10 0 10 6 3 -2 4 2 9 7 9 15 7 -1 1 4 -2 -10 16 -8 -6 -3 -3 -2 -3 9 1 -11 -13 -2 2 -2 -8 -7 -8 8 -11 5 -1 15 -13 5 9 7 4 -13 1 -2 -1 -5 -4 -11 1 6 -4 0 -9 5 -13 -7 3 2 -11 0 -5 -14 -8 -8 5 -17 -10 6 1 1 0 1 4 -8 7 -4 -10 -10 -9 9 -11 -7 -6 -6 -17 -3 -8 -4 0 -4 1 2 4 -6 -10 -6 -9 7 1 2 10 1 -10 -5 -4 4 -4 5 -1 -5 4 -4 4 -10 -6 4 -6 1 -4 -1 6 2 -5 0 7 0 -4 -5 6 -2 0 4 4 4 -3 -3 3 -15 0 4 3 3 8 6 -1 -4 0 -1 3 5 -10 3 2 -14 4 -1 -5 -19 -12 9 9 -1 11 -16 -5 5 -4 14 1 6 -6 1 -1 6 12 6 7 14 2 -7 1 0 3 -1 3 8 0 -10 6 13 5 -2 -5 19 -3 5 6 1 0 6 11 -9 -8 -7 -4 4 -7 12 10 2 -8 1 -3 5 3 0 3 -6 3 0 2 -1 -1 5 8 8 -8 8 6 -5 -7 3 3 -2 -1 3 1 2 6 8 -1 14 -6 -3 7 12 -8 -13 2 -11 3 3 12 0 -1 3 -9 0 5 -10 13 5 10 5 -19 -7 4 -2 -1 -16 -7 1 -4 -2 -7 1 -10 8 -10 12 8 -7 8 5 5 4 -9 -1 7 0 1 -11 -3 -2 3 2 15 3 -6 3 -4 -8 0 5 -6 1 -6 7 0 7 -2 2 -3 4 -9 0 -5 8 -6 0 -1 -4 -2 4 -1 13 -9 6 -5 -13 -5 1 3 -11 -8 -3 6 4 -4 -2 1 3 6 2 1 -2 3 11 9 3 10 7 1 14 8 1 4 12 2 2 10 
12 -5 6 5 10 4 10 4 9 3 13 -6 7 0 13 -7 16 -5 -1 2 -3 12 3 -6 5 1 13 3 20 -8 -1 7 1 -7 -2 5 13 2 0 7 16 5 0 13 -8 11 20 9 0 -7 20 5 10 14 1 2 11 -5 15 -10 1 3 6 3 9 -4 4 1 -2 5 -1 -6 -5 -3 -6 5 -7 1 5 2 -1 1 8 8 0 16 1 5 3 14 15 7 -1 0 -5 11 2 2 8 -1 -5 0 10 10 2 -5 -2 4 6 -9 5 11 -3 -10 1 -1 -4 -1 2 4 4 -12 -1 -3 0 -11 12 14 7 -7 11 -12 0 -10 -9 -18 2 -6 -17 -3 -3 2 1 -9 -1 -7 -12 -2 2 -8 1 -7 -4 -9 2 0 -7 6 1 -11 -8 -5 -1 0 -5 1 -5 1 2 13 4 -7 7 8 15 10 5 0 4 0 -1 1 -10 3 5 -1 -3 2 6 6 4 -1 -1 -9 5 7 7 -1 4 -2 -3 10 -8 2 -5 -6 -10 3 9 0 -2 -7 -4 3 9 -8 -5 2 -3 4 7 8 -2 -4 6 7 -4 5 -7 6 5 -3 1 3 -2 -2 0 2 -4 0 -5 -9 -5 -3 -5 -1 2 16 -5 1 -8 10 11 3 8 -2 -1 -2 -6 1 -5 10 7 -2 0 8 3 0 15 5 10 8 9 -1 2 1 12 5 8 5 5 -5 -1 -9 -6 6 -6 -4 -2 3 6 -3 4 -15 9 6 -9 -3 -3 -4 2 2 8 -8 -14 3 7 -5 1 2 1 1 7 -2 -5 5 -3 -3 7 2 11 -7 -4 -13 1 1 7 -15 -4 0 -9 -1 -1 6 -5 -5 9 1 -12 -7 -8 -2 -4 3 -3 -5 5 2 6 -4 4 -3 1 -10 -4 2 -9 0 -10 -12 -3 2 -4 -8 -11 -20 -5 -21 -11 -7 -8 -7 -8 1 -12 8 -7 -9 -16 3 -7 11 -5 1 4 5 -6 -4 5 7 -4 -3 0 5 -6 5 -8 -6 -7 -1 -11 9 -2 0 -17 6 -3 13 -17 -9 5 -3 -10 9 -1 2 14 8 9 4 6 0 4 2 1 -5 7 1 -1 12 -3 -2 6 16 -1 1 7 2 -1 1 7 5 3 -3 -7 -3 9 2 7 3 14 14 7 8 -1 2 4 -5 4 -4 1 3 6 1 -7 5 -8 9 -16 2 2 0 1 -2 4 -14 2 -4 0 -7 2 2 2 -4 -4 4 2 2 -5 -1 2 -2 -3 3 -2 4 2 6 -5 -3 -2 -1 2 -2 5 4 0 6 2 0 -7 -4 8 7 11 -3 4 21 -1 1 3 21 1 11 -5 -14 -3 4 1 -9 7 -3 -7 6 -2 2 -6 4 -2 -7 -18 2 2 -1 -11 -1 -4 -15 -2 1 -10 -1 6 -5 -7 -1 -9 -8 -14 -10 8 1 -10 15 5 -3 12 -1 3 -14 1 -3 -4 5 -8 4 4 5 -1 12 -7 -7 -5 6 -4 -1 12 -5 4 5 9 11 -1 0 -2 -2 -2 12 0 7 6 -3 8 4 -12 -8 -3 5 2 -3 -1 -13 -18 1 -9 -1 0 5 9 11 5 7 2 7 -2 3 15 4 0 6 4 -2 -2 -15 8 -1 -1 4 19 0 
-7 5 9 -1 1 17 11 4 9 11 11 5 5 12 -9 8 7 -3 11 7 3 17 3 -3 8 4 0 -4 0 10 -9 3 16 1 9 -2 -4 11 -12 20 8 9 2 3 10 10 -5 5 5 -7 1 1 3 -1 -10 -4 1 6 -2 4 6 -5 6 -12 3 2 1 2 -8 -6 1 -1 0 13 4 -3 -1 3 -5 -3 -5 5 2 0 0 -2 -6 4 -4 -3 -12 12 -7 -4 9 2 -1 3 -3 9 9 2 1 -2 12 -4 14 -4 9 7 4 -1 4 -2 2 6 -9 1 -13 -4 1 -8 -10 1 -11 -7 -1 4 -9 2 -11 -13 -13 -7 -7 0 0 -15 -4 4 6 -14 -15 -8 -10 -7 1 -14 -3 -5 5 -4 -4 -2 -5 1 3 -3 -4 -9 5 -5 7 0 -1 2 2 8 9 -3 8 14 10 -1 -1 8 -5 11 -1 1 -4 -3 5 -4 0 -4 1 3 -9 0 8 -1 -3 -12 -1 -9 -3 7 3 9 4 9 1 0 -2 4 -3 10 5 1 -5 0 10 3 -10 2 8 -5 8 -1 0 8 -3 2 3 -3 7 7 0 6 -4 9 -2 2 -8 -7 18 0 0 1 8 -2 1 4 1 2 1 2 7 8 0 1 -2 -1 4 11 -12 0 -9 5 10 3 -5 1 7 -2 2 3 13 -10 2 4 8 7 12 1 3 0 -5 -12 -3 8 -10 0 7 -8 12 -11 6 -1 12 -6 9 -11 7 -7 -1 -8 4 6 7 -7 -4 1 0 0 -6 -6 -11 0 1 -1 -8 -12 8 8 2 12 -1 -3 1 -5 -10 2 -5 0 10 5 -5 -6 7 -2 -5 -9 -9 1 -2 -10 -5 4 -4 0 -3 5 6 2 1 -4 -10 -7 0 9 -11 1 -7 -9 -17 -2 -15 -14 -10 -5 -8 -7 -2 3 -5 -7 -5 -15 4 -3 3 -8 -19 0 -5 -3 3 -4 -2 -8 -8 -1 -2 -9 7 7 -3 -5 -6 8 -5 -2 -3 0 6 5 -7 7 7 -5 -9 8 -3 2 -4 3 0 8 -4 10 2 6 0 -11 5 -4 -3 0 1 -1 5 -5 13 7 -1 6 4 6 -2 6 10 1 -2 10 -13 7 0 4 2 10 7 -1 1 -5 11 -12 -9 5 -8 10 15 15 1 -3 7 3 1 -5 1 -2 -5 3 -1 -4 2 -7 4 -13 -4 12 16 4 4 1 6 -5 -2 9 0 -4 -9 -11 7 3 2 0 -4 -5 4 -5 1 3 6 -4 9 -3 10 7 -17 2 3 1 -4 13 -1 3 -9 11 13 1 -4 7 8 1 -1 -4 9 0 12 0 -3 -6 -5 1 -10 -3 -8 -2 4 0 9 -6 -4 2 3 -6 4 9 -2 -5 -6 -4 4 -7 0 1 2 -2 -7 9 -11 8 2 -7 -4 -8 8 9 3 6 -2 -15 9 1 -6 3 5 1 -2 3 -5 5 -1 -7 9 6 11 -6 12 -2 6 -1 9 -13 7 -1 2 -1 -4 2 -7 -8 -4 10 -7 9 -8 -3 8 2 -12 1 -9 5 4 -9 -4 -6 3 3 5 7 -8 2 2 7 1 -1 5 0 5 14 -6 -7 -7 8 -10 -14 -3 4 1 -2 1 0 6 12 -4 9 
18 4 -7 4 6 0 11 6 2 8 1 4 2 4 6 -19 6 12 -1 11 2 -7 11 -2 -7 1 2 -2 15 4 6 5 6 4 9 0 8 7 2 5 3 -4 13 1 18 -4 7 20 -6 1 14 -3 2 -1 6 3 -5 4 -2 -1 1 -7 -7 13 -3 10 -4 2 -4 5 -2 0 1 2 -4 4 -6 0 15 -1 -5 0 -8 1 -4 -5 10 7 3 2 12 7 5 8 -8 -2 -1 5 10 -5 0 7 -5 1 -10 6 1 0 5 -12 -4 9 -5 2 -9 7 8 2 1 -1 -2 -11 -9 0 5 -1 -14 -10 -6 6 -8 -9 2 -9 -8 -11 -7 5 2 -16 2 -9 -4 10 -9 -8 -1 5 2 -2 2 -11 -16 -11 5 0 -5 4 -4 -6 -9 8 -14 1 0 -10 -2 -1 6 -9 -16 4 5 -2 7 6 1 9 1 4 0 -11 -3 -1 3 10 12 3 12 3 -8 2 1 7 0 6 -6 1 1 2 -8 -2 9 1 -4 6 -3 -4 4 -7 14 3 7 -16 6 7 -2 -2 1 6 1 15 1 6 4 3 1 -6 10 1 -4 -6 -1 1 7 -1 -6 -6 0 3 -2 5 0 -5 -1 12 -6 5 -8 9 -2 -1 10 8 2 -5 11 -1 1 1 6 -2 5 10 -2 2 6 11 4 -7 1 -4 7 7 1 -9 0 -3 0 6 -13 0 -13 7 -13 16 -6 -8 -1 11 0 -6 6 -8 -20 3 -8 0 -13 -8 -8 -2 10 -13 -6 -22 9 -6 -7 -1 3 5 -6 -2 5 1 -1 -9 4 -3 6 5 -3 -8 10 -7 -11 -2 3 -2 3 4 -4 -10 3 8 9 -5 4 -11 1 -2 10 10 7 1 8 -6 -6 -6 -4 -5 0 -9 -2 0 -5 4 -3 -12 -4 0 6 1 -6 -28 -12 -14 -2 -9 3 -14 -2 -3 3 -6 -4 0 -1 -8 1 2 -1 -2 9 -7 3 -2 1 3 -7 -3 4 -9 -3 -7 -7 -5 -9 1 10 -8 -3 0 0 11 -2 6 -5 3 0 0 4 -7 -3 -5 5 2 8 5 4 4 9 -1 5 0 5 16 -1 1 -4 -1 6 18 7 -13 6 9 5 12 4 9 10 -1 17 8 -7 15 17 12 1 -2 13 8 6 7 -6 -10 -5 7 1 1 8 -6 3 -5 -1 8 3 2 -3 -1 6 14 -2 5 -9 2 8 -4 12 2 13 0 1 6 -1 11 -2 7 1 5 -3 -6 5 11 -1 27 13 4 4 5 1 -2 11 6 5 1 10 -7 8 2 0 8 14 3 6 9 -2 -1 0 -11 3 -4 -5 -1 -15 -7 -9 7 -14 -1 2 -1 5 -10 5 -1 -6 4 -4 -3 3 -3 3 -11 1 -4 -15 -1 0 -12 -2 3 -2 -8 2 -3 -1 -7 2 3 6 4 6 -10 -4 6 1 -2 4 4 -6 1 1 2 10 14 -3 -3 -2 -3 -2 -12 -1 4 -6 5 9 -4 5 7 -7 1 6 -1 0 8 -1 5 -7 11 -8 9 -4 0 9 4 7 9 7 -2 -5 5 -2 -2 10 -9 14 -9 5 14 -1 2 6 7 1 0 13 -6 6 0 6 -3 -9 4 6 13 6 15 
3 -2 6 10 0 21 -5 1 2 1 17 6 0 13 19 10 4 -5 6 9 5 21 -2 4 7 4 -1 9 -5 11 -12 9 1 -6 6 16 14 -3 5 2 11 6 -4 8 -2 -2 12 0 2 15 -9 5 -1 2 -3 -1 -1 5 -3 -5 3 -3 4 -11 -1 2 2 4 0 -5 4 3 4 4 4 -7 2 -2 8 0 -2 -4 1 -11 1 2 -2 0 -8 -4 12 -7 4 1 2 -4 4 -3 -1 5 2 0 4 4 5 4 -8 0 9 10 10 -1 -4 -7 -6 -3 -16 -12 7 -2 2 19 1 5 8 4 2 -2 -4 3 -4 -9 -7 -3 -3 -5 -4 8 9 -7 2 2 -3 1 4 -1 -4 -2 5 2 -7 3 -21 1 -12 -5 -8 -19 -2 9 -3 -10 6 -2 2 -1 -4 7 -3 -4 6 10 -1 -4 3 9 -4 15 -4 6 -1 8 1 -3 -1 4 -8 19 0 1 5 0 2 12 7 5 9 3 -7 8 3 5 4 -3 1 5 -4 -4 0 5 14 8 -8 5 12 -2 1 10 -4 4 -2 -3 9 9 0 9 5 5 15 0 0 -5 -1 1 4 2 -8 3 -5 3 -5 2 -6 6 9 3 2 -1 11 -7 -8 7 5 14 -5 0 -2 3 -2 -3 -8 -1 0 1 -3 8 3 10 5 13 8 2 14 6 -6 12 3 11 10 -3 -2 7 1 -14 -2 7 -14 1 -8 -11 6 -9 -4 -7 5 -14 -6 -10 -6 -14 -4 -9 -7 5 9 -9 3 1 -5 2 -3 -6 4 -7 -5 -9 8 -10 5 2 -7 -4 -12 3 -10 -4 -5 0 -3 -4 5 -3 4 6 6 -12 -6 -4 -4 -12 -3 -4 -3 2 -20 10 1 -6 -8 9 9 0 0 -7 -10 -5 -6 -3 -6 -7 -2 1 -7 0 -7 10 -2 5 -9 1 1 16 -2 -11 -12 10 -5 6 -4 12 3 -10 -1 -5 -10 7 0 -3 5 0 7 -8 -3 -3 -2 -5 4 7 -4 2 4 14 -7 -8 -5 -2 -3 8 -2 -3 -9 4 3 1 2 9 10 -2 12 7 -2 10 4 1 8 2 2 13 -6 12 0 1 -2 10 -9 -4 6 1 3 -1 8 9 8 3 5 0 7 8 7 4 8 11 5 4 3 -1 6 5 -4 8 0 -6 8 9 5 7 -1 1 -1 -1 -11 -4 8 10 -1 4 8 -11 8 -7 -1 -6 3 4 5 4 10 8 -15 3 6 -18 5 1 11 -8 -7 -8 7 2 0 2 15 11 11 2 -4 5 1 3 -1 1 15 3 -1 13 5 0 0 0 -7 -2 -4 6 1 -5 -7 -12 5 -7 -4 8 1 -6 8 -1 3 10 -7 -12 -12 -7 -8 -5 -16 -1 -15 4 4 -4 4 -3 11 -11 -4 -2 3 -6 0 -8 2 -3 -1 -3 2 14 -3 0 2 1 -14 6 -8 -7 -10 -15 -3 11 -8 8 -8 17 8 -1 -3 1 -9 0 -11 -10 14 -11 1 0 -5 4 0 8 10 2 14 0 10 1 -1 3 6 2 3 4 2 7 -4 3 -6 -5 3 2 -3 1 10 13 10 -7 -1 -1 6 8 9 -1 2 11 14 4 -5 11 -3 2 4 -2 
4 -1 6 -1 2 10 0 8 0 12 -4 18 10 1 -11 -2 7 18 3 5 7 16 -12 17 -3 4 6 4 4 3 -4 2 8 8 5 1 10 2 14 -1 11 6 3 3 13 13 8 11 1 -4 4 -5 3 4 6 8 4 -2 7 -9 2 -1 -1 1 -8 -7 -6 -11 -7 5 -16 7 1 -8 6 -6 5 3 -11 4 4 -9 3 6 4 -5 10 2 8 7 -17 5 15 11 1 5 4 10 0 -3 4 8 -3 8 3 12 10 -5 9 -2 11 -5 3 -10 2 9 -1 -4 -12 -1 1 -8 -11 7 -9 -1 5 -6 -11 -6 1 1 -1 -6 -12 -8 -9 4 -11 -6 -11 5 4 -6 -9 -8 4 0 -10 0 -7 0 -8 -3 -5 -4 2 -5 -3 5 7 -1 5 3 -5 5 -7 1 -4 12 -5 -7 -8 0 -5 4 -7 5 -11 4 -1 -3 -5 -3 6 6 7 4 -7 10 -2 2 3 6 -10 8 -10 -1 16 -5 12 -11 -3 2 4 3 10 2 -4 4 5 7 -2 9 0 12 4 5 7 -3 4 12 -5 9 3 -2 1 -7 2 0 0 3 -12 2 0 -3 5 0 -2 -1 1 1 18 4 -4 3 4 0 2 16 -4 2 6 -3 -10 -5 6 1 -2 11 6 7 13 8 -4 18 1 4 11 -4 -2 -1 -3 4 0 2 -4 2 10 1 2 -6 -1 -12 4 0 5 -5 17 1 -12 -4 6 -4 -13 -4 -3 -1 -1 -7 3 -17 -5 -15 1 1 -7 -6 -4 -7 -7 5 -2 -1 1 -8 -2 -5 1 0 -5 8 -3 7 -16 0 2 2 -6 -1 -3 -7 5 -3 -1 6 -9 7 1 -3 -2 -4 -14 4 14 -6 -8 3 4 -1 -12 10 -4 -7 -10 -6 1 -14 -5 -4 5 -6 5 0 -11 -4 -14 0 9 -6 -17 -2 8 11 -7 -1 4 -4 4 -11 -11 -2 -5 -12 5 -8 5 -4 -9 -9 -5 -1 3 -7 -2 -3 3 6 -6 10 -4 -5 5 -3 -10 -7 5 3 -3 -6 5 7 4 -9 5 4 1 7 -4 -2 -9 3 -2 13 -3 1 -5 1 -4 8 9 5 23 -11 -4 10 8 9 4 11 8 2 8 -1 5 8 -2 4 1 15 2 -9 3 -3 -9 7 0 -10 -1 5 -6 3 -12 -4 5 -6 0 1 -7 10 0 2 2 -10 -3 10 -2 3 -5 -3 5 4 14 4 8 7 -3 4 3 -8 -8 -2 18 2 -3 8 5 5 10 12 16 -2 8 3 0 -13 3 -1 7 2 10 13 8 -2 21 -2 -2 13 -5 -1 6 -6 0 -4 0 -1 9 -7 5 3 1 2 3 0 -3 1 -9 -6 5 -5 2 4 3 -4 -4 -9 1 -7 -16 -11 -4 7 -13 0 1 2 -5 1 5 -3 -8 -5 -3 2 -5 -14 -1 -5 4 -5 -6 5 -2 1 9 1 -7 12 -2 -2 3 -16 4 15 -8 -6 -5 0 5 1 -3 2 -1 8 8 8 -4 -7 1 2 8 8 2 3 -3 -2 10 4 -12 -7 3 -3 -7 10 10 1 7 3 -1 16 4 5 12 -4 -1 6 0 9 -6 9 3 2 0 10 -15 6 -4 13 4 16 
1 -6 10 10 -1 5 -1 8 -9 14 -8 11 4 11 12 18 9 6 2 17 -9 4 4 5 7 8 2 12 9 12 7 4 13 7 13 -1 -2 2 2 9 3 1 6 5 -2 6 3 -5 -4 7 -1 3 5 -1 0 6 -3 1 -17 7 4 0 -1 -2 5 2 7 -6 9 5 0 3 6 -6 -1 -10 3 4 7 -1 3 -1 4 -1 -2 -8 -7 4 4 -6 2 1 -2 1 1 7 -7 8 -8 8 6 0 7 0 3 -2 -11 3 1 -8 11 -12 -3 0 11 -16 -4 -1 2 10 5 0 3 12 -3 -8 0 -11 -3 -10 -18 -13 -7 -2 -2 -11 -4 -5 -4 -3 0 3 -1 7 11 5 -3 -10 -5 -1 -6 -2 -4 5 -4 -21 1 -8 1 -2 6 -13 -1 -2 -7 -13 0 9 -10 4 0 0 -6 2 1 -6 -5 -8 0 -5 5 -8 5 -4 12 -5 9 2 0 7 1 3 6 5 8 -1 4 4 3 4 1 10 -10 3 12 6 -2 5 15 -10 -3 6 9 8 20 3 -1 2 11 -3 13 -12 8 1 14 -4 7 -9 4 -4 0 9 1 0 1 -10 3 7 -5 -9 -1 3 -3 0 10 1 12 5 -5 -8 16 -4 1 -9 7 1 -4 0 -6 -5 8 1 3 -3 9 -9 4 -7 3 7 5 15 11 -6 15 -1 15 3 0 2 10 -11 3 10 6 2 -8 -7 3 -9 -7 8 11 3 -4 -1 2 3 2 -8 -6 -3 -12 -10 -19 -3 -2 3 4 5 13 7 -2 2 -11 -9 12 -5 10 -9 6 -9 2 -5 -1 -7 -1 -1 6 -10 8 -2 -1 9 -6 1 9 2 0 -4 -7 -10 -3 -9 -1 5 1 -6 -10 2 5 -21 2 -14 -9 -11 -6 -2 2 -19 -2 -4 -11 -18 -1 -2 -16 -7 8 7 -6 -2 -15 -4 10 -6 -15 -1 -5 3 0 1 9 -6 -15 5 -12 14 -7 1 -11 -7 2 -9 5 2 -4 7 17 -2 0 3 11 1 6 2 3 -4 4 -1 1 14 5 4 -7 5 -1 15 11 0 2 18 -3 -2 8 0 2 9 0 13 -5 0 7 1 6 1 10 5 10 -5 6 5 4 16 6 -3 3 20 12 1 6 -2 -1 11 3 11 3 10 1 8 0 -7 5 3 -7 4 3 -3 5 -16 6 0 -5 -1 5 3 -6 1 -5 -2 -7 0 16 -6 6 -5 5 -1 0 -9 7 2 -9 11 -3 5 5 0 -5 -1 0 15 11 -8 -3 -10 9 5 12 4 3 -1 5 11 -10 2 -9 -3 9 -1 5 3 2 9 1 -5 3 8 2 -1 -10 12 7 -10 -3 4 -5 -1 -2 -1 -3 -12 -19 -10 -9 -7 -12 3 -1 -4 3 -6 -3 -3 -2 4 -4 11 -7 -4 -5 3 0 -1 -4 -1 7 0 -10 -9 -1 1 -10 -16 -7 1 -8 0 5 9 -9 0 3 5 12 -7 -8 5 12 -4 2 -12 13 3 3 1 -5 7 0 13 2 -1 -5 3 3 0 4 -13 -10 0 9 -4 0 1 7 -4 -2 -12 -5 11 0 9 -7 -9 4 17 16 7 8 8 5 2 1 -5 -2 1 2 7 5 1 
2 6 -3 1 -10 13 -1 9 -7 10 1 12 1 4 -4 7 13 12 9 3 11 -3 21 14 7 -5 9 6 1 6 7 -1 -3 12 9 5 14 -2 -9 5 -17 8 -8 7 7 4 4 5 0 1 -4 -2 -7 1 -1 -1 1 -1 10 1 -9 1 0 -10 -8 0 4 12 -9 2 7 1 2 -5 -1 -4 -7 5 0 7 14 -3 8 0 8 0 19 -4 7 -14 12 22 -8 9 5 -7 5 -14 9 -3 -3 8 5 -1 2 1 -4 10 -8 3 -4 1 -8 0 1 -2 4 -2 -5 1 -2 5 13 -4 1 6 -4 -3 -3 -16 -1 -2 -7 -5 -1 -6 -5 -5 -3 10 -6 -2 6 6 -3 -12 2 -2 -23 -4 -5 -2 5 -7 3 -9 -6 2 11 0 1 3 -7 -2 1 -6 -3 -7 2 -8 2 6 -3 2 1 5 -3 -4 9 5 -8 -2 2 6 3 9 12 0 -4 10 8 11 -8 -5 6 1 3 2 1 3 -1 2 -1 2 10 7 0 6 10 17 6 0 -3 6 13 -4 9 6 -5 12 0 -2 10 1 -9 6 5 8 -11 -5 11 7 6 -6 -4 7 -15 -3 2 -5 -3 3 1 8 0 1 3 -2 15 1 0 0 2 5 1 14 4 9 5 -4 1 -6 -4 -8 0 1 -1 5 0 -4 5 12 -2 3 -4 -8 2 -2 -5 6 -8 0 3 -1 1 10 4 4 6 1 -8 1 -8 -7 -8 -11 -4 -4 -9 -8 -8 -16 -8 -11 -9 -12 -4 -6 -3 0 -8 -5 -6 -6 0 -9 9 5 -6 4 6 -16 0 1 -2 5 8 2 -3 -6 12 -7 10 -12 -13 4 -7 2 6 1 0 -11 -5 -16 -7 -14 -2 -3 -14 2 -10 -6 -4 -14 -9 -9 -7 -7 -2 2 -12 -2 0 -6 -10 5 -5 -10 -6 -14 -7 -11 -3 -5 -12 0 2 -5 -1 7 -10 -10 0 -8 0 -14 -5 2 -2 4 3 -6 9 -8 -12 6 5 0 0 -2 -7 -4 14 -7 10 11 -6 -7 9 1 -3 1 -2 -5 7 -3 0 -6 4 6 -11 10 -2 4 6 -1 8 -6 14 -1 10 16 8 4 -3 -3 3 -5 -3 4 6 7 5 -2 4 7 -2 -4 -2 8 11 10 11 -2 5 -5 8 7 6 -10 5 0 1 8 2 5 -3 3 2 15 -12 -2 -1 5 -1 4 -5 5 7 -13 -4 -6 4 -3 1 3 -2 -5 -7 7 3 -1 -2 3 5 5 -6 14 5 8 -1 7 -9 12 18 2 1 -4 1 9 4 -1 12 -2 14 -13 -2 0 -6 -1 -4 2 -14 1 8 -6 18 12 -2 6 -5 -2 10 -7 -10 -4 11 1 8 -10 -2 -10 2 1 -8 3 -15 1 -3 -2 6 0 -5 5 8 -12 -2 -6 -2 -9 -15 8 6 0 12 -4 2 6 1 0 12 -3 -3 -4 0 -2 -2 5 -2 5 -3 -7 -2 -3 -14 -2 21 -3 -2 -17 2 1 3 7 7 -7 10 8 -4 -9 11 2 2 -6 7 -4 -4 -2 2 2 9 -4 3 -1 -2 1 6 13 11 4 3 -3 8 3 1 6 -1 -1 13 8 0 8 1 13 -17 5 -4 -1 -5 -4 
0 5 -3 -4 4 7 2 -3 9 1 -1 9 0 10 3 12 8 3 6 -6 1 15 14 12 8 5 0 5 9 5 -2 13 4 13 -1 9 8 4 10 2 4 -3 10 11 10 2 2 9 -5 9 -8 0 -5 10 15 -7 0 -3 -9 -1 4 -10 9 -7 16 3 4 -2 -2 11 2 14 2 -6 3 7 -2 3 14 6 2 3 5 -10 -13 5 -4 -10 4 8 -11 -6 3 6 4 2 -4 7 -4 6 -1 2 4 -7 4 6 1 3 -5 2 4 -20 13 -6 5 10 -7 -11 12 -3 0 8 4 9 11 6 0 5 -14 7 -2 -3 7 -2 9 1 -6 5 -1 -11 -14 7 -2 2 3 -1 1 -3 1 -2 -5 -3 -4 -1 -9 4 2 -10 0 -6 -13 -4 -3 4 3 -5 -2 5 1 6 6 7 -10 -7 4 -10 6 -15 3 -3 6 6 0 4 17 -18 7 1 -1 5 1 6 6 2 5 -2 11 -4 6 -8 10 10 12 5 10 5 6 15 8 -4 4 7 0 10 -7 11 3 10 0 -3 -1 4 -2 -1 8 2 1 5 4 6 4 6 3 -5 -7 12 3 7 -11 1 -2 -10 -4 9 -1 7 7 14 0 9 13 4 11 -3 8 3 7 -1 3 6 0 7 5 9 -3 6 -6 10 -4 -5 4 0 1 -5 -3 7 -5 4 -6 -8 4 8 -13 -5 -1 -2 5 -3 -5 -8 9 1 3 2 -1 -14 1 -4 -3 0 -4 3 7 2 -5 -7 -3 -3 0 3 1 -11 -10 -3 -17 -9 -1 -11 -12 1 -6 -2 3 -1 -5 1 2 -11 3 4 -4 0 -8 -5 -13 -3 5 -5 3 -10 -15 4 -2 -4 4 8 -1 3 -3 -5 -1 5 -8 -2 7 -6 -7 -4 -1 -5 -10 -12 1 -6 -6 -10 -4 2 -5 -14 7 -8 4 -2 -8 -1 -10 5 -9 -8 -5 -1 -8 -17 -9 -1 -1 -4 6 -3 -7 -2 -10 0 -13 2 -4 3 -5 -3 -3 1 -9 10 -7 -7 -3 0 -2 6 7 2 2 0 8 -1 -2 6 18 -7 16 2 5 2 8 8 1 12 -3 11 3 12 -8 6 21 -12 8 11 7 15 17 11 5 -2 6 10 6 5 12 1 3 -3 -5 8 25 1 4 1 11 -4 -4 1 -2 -3 -9 7 1 3 3 -7 -3 4 6 3 3 0 10 -5 -7 10 1 2 -6 4 -15 1 -3 19 -1 -3 -9 16 -8 5 0 -3 9 -1 -1 11 13 9 3 3 2 8 4 8 1 -3 3 1 3 -2 4 11 -15 -10 1 0 2 14 -2 4 -8 -4 -1 -5 -3 11 2 1 -6 -3 -1 -8 -2 0 -10 4 -9 -3 -14 -4 -11 -6 -7 0 -7 -2 -6 3 -3 -12 -8 -3 -1 -4 -6 -5 -2 -3 5 -8 9 3 -1 -6 3 -1 -2 -1 1 -7 -8 -2 9 -2 7 -2 16 -10 6 10 6 4 -3 -9 1 4 -6 5 8 6 6 7 6 -8 12 -3 7 4 2 1 -4 5 -5 3 -8 -7 -1 3 5 -3 -3 0 6 -1 -7 7 9 -1 -4 14 -4 14 4 6 12 7 -3 5 3 1 3 -4 10 -1 2 -3 
10 -7 5 -7 5 8 5 -1 -1 11 12 15 4 4 6 8 3 -1 12 -5 7 0 -3 11 3 1 5 8 5 -4 0 6 3 2 -1 -1 -2 7 15 3 -6 11 4 4 -1 10 8 -2 7 -2 2 0 4 2 5 4 3 -4 5 -3 -8 -7 -5 2 -8 -2 16 -5 -5 -10 5 -11 -8 -8 -2 -4 -7 7 0 3 7 -9 -2 0 -2 6 1 -11 7 4 9 -8 -3 11 3 5 -3 3 -1 -7 5 2 -4 5 4 -1 -1 12 7 -1 1 -11 4 -13 -10 1 -7 16 -9 2 4 0 -2 -4 -6 3 -4 -12 0 -6 -2 2 -2 -7 -8 4 2 -3 -2 7 2 -1 -1 4 1 -4 1 -1 -12 -12 1 -14 6 -3 -11 1 5 -5 -12 -8 -13 7 -12 -9 -10 -2 -4 7 -2 -3 -8 -8 1 -11 10 4 4 3 7 -1 3 3 2 0 -5 4 4 8 0 -7 -1 -1 6 -1 1 1 7 -3 6 1 2 -5 1 6 5 13 2 1 -5 3 2 9 7 2 -2 3 -1 6 2 -3 9 1 10 -1 4 4 -6 -5 8 -5 13 -3 1 2 -2 -4 20 -9 -5 9 0 0 13 -3 7 -12 -3 -4 -2 3 3 4 -4 3 -9 9 -8 0 1 -8 14 -6 -9 -1 1 8 0 1 4 5 6 -7 -2 6 -8 -1 9 2 -5 0 -2 -6 -5 -8 8 -6 -2 -1 2 -4 1 -14 0 -3 -8 -8 -7 -3 -7 -2 5 0 -15 -15 -10 -7 -5 -8 -5 -7 -7 3 -4 -5 -9 -6 -2 -8 1 0 -4 -15 1 0 -17 -9 -4 -4 7 4 4 3 5 -2 -4 11 -5 11 -1 -1 -7 -2 -11 5 -18 0 -5 -16 -3 1 -2 -1 16 -1 -3 6 16 -9 -12 -3 2 -3 6 -2 -5 2 1 -9 5 -2 -9 1 -4 4 -5 -8 -6 0 -12 9 -3 -12 -2 4 2 -7 -8 -1 -14 7 -16 -3 -6 -4 1 -3 4 -6 3 4 -4 6 -5 -15 -2 3 -3 -5 1 3 7 1 11 -2 -9 10 -5 -9 11 -4 8 12 -1 2 9 3 10 1 13 8 15 12 6 8 0 6 1 11 12 -2 -3 15 5 -2 8 4 6 10 0 7 4 3 3 1 8 3 -5 -6 7 7 -7 1 7 4 1 -5 5 1 1 0 11 9 -7 -4 4 6 -1 3 6 -1 0 22 -14 7 0 -6 -11 -4 3 1 3 9 4 0 14 5 -1 -2 8 5 -5 14 1 0 2 -1 2 0 2 5 -3 10 -5 14 6 2 -2 2 -1 -1 15 1 8 0 -3 4 2 -3 -8 -1 6 -4 -2 0 10 -2 -1 11 -2 8 1 -4 8 -10 0 5 -8 -12 2 2 8 1 6 -3 -8 3 2 -6 6 -5 2 -7 -4 -4 3 -6 10 -9 1 2 5 -4 -2 6 6 -7 9 -1 3 0 7 -6 -6 -7 6 -6 16 19 1 -6 -2 1 2 -4 9 2 8 -2 4 21 8 7 10 3 2 1 -6 2 5 -3 4 5 7 20 11 5 -3 -3 28 6 9 5 14 -3 6 -7 -1 10 2 20 5 13 1 -2 -10 0 1 -5 -8 1 
-10 0 9 -9 4 6 11 -4 10 1 1 -1 11 3 3 -2 16 -1 10 -3 4 4 15 15 5 5 6 -2 10 9 -2 8 1 3 4 -5 19 11 2 7 7 19 -3 13 14 1 8 5 2 4 8 -12 3 -13 2 -5 -7 6 -5 -1 -16 21 1 -4 -1 10 -3 2 -8 4 -1 -3 -8 -1 -9 8 -4 3 -10 -10 -7 8 0 -7 -1 -13 2 -5 -5 -5 -1 -8 5 -7 -2 -2 6 -10 -6 -7 0 -3 0 -1 -2 13 -5 -6 2 -4 -5 0 -1 0 3 -9 -6 16 -9 -17 -1 0 -4 3 20 -18 2 -3 -3 9 -4 -2 -5 6 -2 -5 0 -4 -8 4 -7 0 0 10 -3 4 -2 -10 -7 1 6 5 -7 4 -9 -6 -3 -3 -13 -1 -11 -1 -11 -6 1 0 0 -1 4 3 8 -4 3 1 -8 1 1 0 14 11 -15 2 -1 7 1 0 3 2 9 3 1 6 -1 8 5 0 11 -6 -2 1 -4 14 -3 -2 5 10 -2 11 5 -10 9 -1 -1 -2 -2 4 -2 4 5 5 8 -13 1 1 -4 3 0 10 7 9 0 20 1 2 3 -1 -3 -4 14 -9 1 -6 -1 0 -6 -7 -3 15 2 5 -4 14 0 12 3 10 -1 15 3 5 -15 2 -9 -2 4 -4 0 3 19 -1 14 2 -2 5 4 -6 2 -1 2 2 -4 7 -13 -10 2 14 13 -6 -3 4 0 -12 2 4 -14 -3 -14 3 1 1 -9 4 7 -10 7 0 -7 -11 5 -4 -1 1 -10 -3 -2 -4 -10 -14 -14 -7 2 -7 -8 0 -4 0 2 7 -1 3 8 2 -3 1 8 0 -6 -4 -3 -10 -2 -3 -9 -3 -24 -10 -4 5 8 -2 4 8 -3 -3 2 -7 -12 5 2 -7 -3 1 2 -6 -5 0 14 -11 0 -4 11 -7 -15 -1 -7 -4 3 8 -1 -13 3 3 1 -12 -4 -3 8 -7 2 12 -3 4 -4 -15 -6 2 -3 -15 3 -2 -7 -7 -5 -1 -3 -1 -6 16 -5 -4 -2 -11 0 -6 6 6 5 -1 5 8 9 5 9 0 9 3 11 11 6 10 10 19 6 9 12 4 -2 7 9 18 9 -6 4 -4 16 -6 3 6 3 6 2 9 0 0 6 -2 2 6 1 -1 2 -1 3 5 6 0 -2 -9 -7 -4 -7 -5 6 4 -4 1 1 5 10 4 10 1 -2 3 -4 -6 -5 -3 4 -12 -5 0 4 -11 -3 3 1 3 -8 11 7 8 -1 8 3 -14 9 6 -11 -5 0 4 4 11 -6 12 3 -1 8 -10 0 3 2 0 18 -1 1 -4 15 -8 1 2 0 -2 -5 5 -5 0 4 5 7 -3 -2 -6 -5 4 -3 -7 -3 -4 -7 1 -8 1 -2 -4 5 -4 -8 -10 -4 -7 5 4 -16 -6 -3 -8 -4 -1 -1 -6 2 2 1 -1 -10 -8 1 0 -2 -2 -2 13 -3 -1 -2 -9 -15 15 -2 -5 4 2 -3 -4 0 -8 -8 11 -1 8 1 3 0 4 8 -7 5 -4 19 5 3 -8 5 -2 6 8 -1 4 3 -6 0 3 -2 2 14 -7 10 -1 0 -1 -3 5 7 6 -1 4 2 11 
9 -2 14 0 9 -8 5 -10 14 5 9 -5 14 -9 5 10 0 1 5 1 4 -9 0 3 -2 17 8 7 3 4 12 5 7 4 6 3 -4 9 3 16 6 9 8 -2 -1 14 -9 0 -6 -1 6 5 2 -1 6 2 6 -3 -1 -5 10 -9 -1 -11 6 -5 2 -12 0 0 3 -12 -1 9 4 -11 3 1 2 0 4 -6 -3 4 -2 -7 4 -3 3 3 -2 -6 2 -2 -1 -3 -5 -3 -7 -2 -3 4 11 -4 -4 1 -5 7 4 -8 8 3 -4 -6 4 -5 2 -1 -9 6 -12 14 4 9 1 -12 1 2 -4 4 -12 2 0 13 3 -1 2 8 4 -6 -6 -4 5 -9 3 -10 -12 -3 -8 1 -10 -13 8 -4 8 -3 -2 -6 7 2 -4 6 2 5 -1 -3 -4 -2 9 -2 4 4 1 3 -4 12 1 4 -1 4 9 -5 12 -4 -6 11 -5 -4 8 1 3 2 10 1 12 5 15 6 4 5 14 7 0 1 3 14 0 -1 5 9 6 -9 8 1 -4 7 5 -14 7 -6 5 -7 -18 0 13 -2 8 6 4 15 1 -1 6 14 7 0 5 -2 9 -5 0 -8 5 -4 5 -1 -10 -11 1 -1 6 -13 10 -2 3 -3 8 -11 2 5 -7 3 -27 1 5 9 6 10 -11 6 6 -9 13 4 1 -14 -1 -3 -8 -1 0 2 -8 -6 -3 -6 0 -5 -7 0 2 -17 -18 -6 -4 -2 -7 -1 -1 -8 5 -3 1 7 -9 -6 -3 -3 -14 4 -2 -6 -21 -9 -2 -6 -2 -4 -7 -10 -12 -17 -9 5 -3 -1 -6 -11 3 -8 0 -3 3 5 4 -3 0 9 0 7 -3 -10 2 -13 -4 0 -12 6 -3 6 -10 10 0 -2 5 4 3 3 -9 6 0 -5 2 -4 -2 2 9 3 4 3 -4 3 8 23 7 3 -4 -12 -3 2 5 2 2 3 -4 -3 -19 3 -5 1 2 10 8 -6 -10 2 -14 -7 -9 5 -7 3 -3 -3 0 -4 3 3 -2 5 0 2 -6 5 3 5 7 13 11 3 13 -7 -7 7 0 10 8 2 0 18 20 7 10 2 14 6 11 -3 5 4 -10 10 8 -3 8 3 -3 -12 -13 10 0 10 -1 -3 -1 11 -4 7 0 -4 -7 -5 2 4 -9 -2 4 -4 -5 3 0 -5 1 -9 -10 7 -2 -1 10 9 6 -3 -5 0 0 9 -5 -11 4 1 4 8 8 2 4 2 0 -1 8 0 -14 0 -5 -3 5 -12 -13 4 -2 1 -16 -5 -12 4 -2 -15 -2 1 -3 12 -6 3 4 -12 -1 6 -8 7 -1 4 1 -1 4 -8 3 -6 5 -4 -7 -3 -9 13 -6 13 3 0 2 -7 -1 -10 0 2 -1 1 0 4 6 0 -1 -6 -3 -1 -1 -13 -2 -4 -10 11 -8 0 -4 6 -15 -4 -5 -8 15 -5 -9 7 -5 8 9 -7 11 -6 14 -5 12 -1 10 5 1 -13 -2 16 -6 -1 -2 9 3 -4 9 5 2 -4 11 -3 4 15 4 8 0 8 -3 6 -7 9 -4 7 -7 8 6 14 13 1 0 12 -12 6 7 2 -3 -12 14 4 3 6 3 -2 
-7 7 -6 6 -3 -2 -2 3 9 -1 1 8 -11 -3 8 13 -6 5 6 14 8 6 -2 10 4 -2 5 -3 9 0 2 12 13 -10 4 1 8 15 -3 3 3 9 8 5 13 10 4 -1 -4 9 9 -8 1 -8 8 0 7 -13 -7 -4 -2 4 4 5 -12 4 -11 5 1 6 -8 1 -3 -2 2 -9 3 -3 1 -3 -5 -2 10 1 -7 -4 0 8 8 -6 11 4 3 -5 -9 4 -7 -15 2 -12 -1 10 -1 -5 -12 8 -9 -4 -19 10 -19 5 -4 1 -3 4 -1 -3 10 -1 -3 -1 -3 6 3 5 4 -13 5 4 2 -3 -8 -7 -17 -5 1 -5 -4 -3 13 7 -7 -8 2 -6 -7 -12 0 -3 5 6 -4 -13 1 -14 4 -6 -14 0 -7 0 -13 3 -11 -4 -11 10 -4 0 -14 9 -5 -1 7 1 9 -1 -3 2 3 -6 3 3 9 12 -6 21 4 -1 -7 -4 0 3 -3 5 -6 -5 6 1 2 14 8 13 -3 7 13 6 4 11 7 -2 1 -2 10 6 9 -3 -7 4 5 1 9 -6 8 1 3 3 2 -7 -1 -6 5 -17 0 0 1 4 -1 3 -3 -9 8 -2 -8 -6 6 0 -3 -1 3 1 3 -9 -1 6 -14 2 -3 5 -12 0 3 13 -5 -1 11 -3 3 5 8 2 5 11 15 -6 -4 -7 -8 -18 -5 -5 -11 -1 -5 -3 -5 5 4 -8 -1 -8 -1 -12 10 -9 -9 -1 0 2 -3 -6 -10 -17 -5 -11 -5 -3 -7 -6 -1 1 6 3 -9 -7 -15 0 -11 2 -4 -10 9 -7 -5 -2 -16 -16 -9 -2 2 2 3 5 5 -2 2 4 -3 -13 -5 -1 -14 -8 -11 -5 7 0 8 -2 1 3 -5 11 -17 6 -11 -4 -5 0 1 -4 -3 -3 -1 -8 -5 4 -6 3 -6 8 -6 -3 -11 -5 -1 -6 3 5 0 -5 1 -18 2 2 1 0 -4 -2 -11 -3 -4 -5 -8 1 -5 -7 0 -4 0 -8 -2 3 -1 6 -2 10 -13 -17 -1 -2 -9 1 3 -2 3 -1 -6 11 14 4 4 4 1 21 9 5 7 10 7 9 1 2 9 7 4 2 8 9 6 6 8 1 2 10 10 5 5 -3 11 3 15 10 2 6 -4 -2 0 7 4 -2 -5 -9 -5 1 -7 10 -6 -2 8 0 1 0 -4 3 0 -2 10 -1 7 2 2 -1 0 -3 -4 -3 10 7 -2 -4 0 0 -6 3 2 -14 12 0 0 5 7 -2 13 -1 8 -1 -3 -5 5 -12 3 8 -4 0 1 -5 -2 11 8 0 11 7 2 1 1 -4 0 -4 -12 4 4 -3 -2 -4 16 -9 7 -4 3 1 -5 1 7 3 6 14 -10 18 -1 1 1 4 6 -4 0 5 -2 -11 -2 -5 2 1 0 -1 5 0 7 -9 -5 -3 -4 8 4 0 -2 2 -3 2 6 3 7 -4 6 13 -6 6 3 8 1 8 3 -5 8 -9 -6 12 2 2 5 8 11 11 10 10 16 11 11 5 6 -3 1 -2 12 5 4 3 1 5 8 2 2 11 -2 3 8 9 3 -2 1 -3 9 5 6 10 7 1 -14 -1 
-5 1 2 -1 7 19 6 -6 1 20 0 2 -3 2 -4 2 7 9 4 6 4 0 5 2 2 11 -3 7 27 0 3 6 -7 6 13 -1 7 8 5 5 0 1 1 0 4 -4 0 10 10 0 -4 -2 0 -4 -11 -2 -2 -1 1 0 -9 -12 2 1 -4 1 -6 1 2 5 2 -1 -2 0 -5 1 -9 7 -4 5 11 -6 -3 5 0 3 7 11 -10 -4 -9 -9 7 1 -12 -9 -7 3 -3 9 -2 -6 0 -3 6 -5 3 5 -3 8 1 1 11 -1 -13 2 5 3 4 -7 7 -3 4 2 -10 -14 -10 0 7 4 5 14 7 10 -6 -10 4 -8 8 -11 -10 -7 -1 -14 -1 -6 -16 7 -3 -11 0 -5 -3 2 -1 8 0 1 -4 -2 3 2 1 -3 0 1 -7 -1 -5 14 7 2 2 -1 11 3 4 3 4 -1 -6 5 0 1 4 1 0 7 7 4 9 2 -1 -8 3 2 13 -5 9 8 -2 9 0 -2 16 -2 7 1 3 7 5 15 -8 10 -8 12 -4 -3 2 0 3 11 9 4 -4 3 6 -9 -3 1 -6 4 1 -4 2 4 -5 12 -4 -3 12 9 -10 -4 6 -14 1 5 3 9 2 12 5 4 0 1 5 4 3 -8 5 6 3 -2 5 -3 -9 -6 1 9 7 7 -5 6 1 3 -11 2 4 -1 -9 -3 -9 -2 3 -5 -5 -8 7 -3 -8 -4 -13 -7 -14 -6 -2 -6 3 -10 -1 0 7 -5 0 -1 7 -6 -1 8 -11 -6 -8 -11 -13 -7 -10 -6 -7 3 -7 5 1 -11 -7 1 4 -6 -14 -10 -1 2 -11 -3 -1 4 -8 -12 -4 -5 -8 -5 -13 6 -1 -7 -5 -3 2 -5 -4 -6 2 1 11 3 -1 8 0 -4 1 5 -2 -4 -14 10 -6 4 5 7 -3 -2 8 2 7 12 -10 0 4 0 7 -5 -2 6 4 -10 2 -9 -6 -5 -1 -4 2 -3 -3 2 6 7 -1 2 0 1 -3 -2 -15 -3 -7 -4 2 4 3 -1 -5 6 11 10 7 12 18 11 -7 2 -1 11 -2 10 6 5 15 4 6 10 -5 9 2 7 9 5 -2 -2 10 9 2 11 -2 14 0 7 2 1 2 -10 14 0 7 -7 5 -7 5 -6 -1 4 -3 3 3 -2 -20 1 0 -6 -7 6 -10 -7 -9 7 5 5 6 -8 -8 2 -3 7 6 -8 -3 6 3 5 5 10 -17 6 3 -3 3 -4 6 5 3 6 -1 -3 3 3 -10 0 -14 2 -3 -3 -4 -3 -2 0 -10 5 -3 -12 4 1 -5 -3 5 -12 0 -1 -14 3 3 -2 -7 7 -10 -5 -8 1 -3 0 3 -3 -2 1 1 8 -7 0 10 0 -4 2 -2 1 -9 7 -7 4 4 -4 -15 -2 0 -6 10 7 -11 -7 8 -7 1 -10 1 1 -9 -5 9 11 -4 6 -6 -3 -1 7 -8 -8 -1 -7 7 1 9 -7 4 3 17 3 12 7 6 0 5 -10 21 7 4 7 -7 6 14 5 1 4 7 1 -3 -1 6 3 -7 2 1 2 17 7 0 -3 4 -6 -4 13 4 12 5 -2 -9 7 0 4 18 3 
3 -11 -3 5 -6 8 9 11 -6 3 13 2 10 8 5 -8 -6 -2 10 3 -1 8 8 3 7 5 15 -1 1 2 2 9 7 2 13 0 16 12 0 20 10 1 4 -8 3 5 2 6 -1 -13 12 -4 -22 -6 -13 -6 9 -10 2 -9 -8 -2 -5 -4 -11 -5 3 -16 -8 -7 -6 -4 0 1 11 -8 -8 -4 -6 1 -12 -3 1 -7 5 12 5 1 -13 2 7 -2 -13 -8 -14 -2 -9 5 3 -6 -3 2 2 -4 -10 8 0 -3 5 1 -4 -3 8 -8 5 3 9 1 -9 -5 12 8 -10 -3 4 10 4 7 -1 4 -4 -1 -5 -14 10 -9 -12 0 8 3 -1 -1 6 -4 -18 11 -5 -18 -4 -5 9 -5 1 -11 5 6 -3 9 -6 5 -6 7 -12 -1 -19 -6 6 -6 3 -10 1 3 -3 -1 -7 5 0 -6 6 2 2 2 -2 -4 -4 7 0 3 3 3 1 -4 2 0 -5 0 -5 -4 0 -1 1 -2 19 8 15 3 12 4 11 6 0 13 -1 0 2 -4 -2 -1 -15 -8 4 6 6 0 -2 4 2 -10 11 0 -7 -3 -2 -2 10 0 0 -5 -9 0 -14 -6 -2 0 3 -4 7 -8 0 -5 6 -7 13 -2 -5 -3 -4 1 3 -5 -6 -1 -2 -3 -1 11 -2 13 -9 0 7 7 -1 12 -4 -9 10 -17 -5 -4 -6 -2 -3 -3 8 3 -10 5 -7 -2 0 -9 -5 -6 12 -4 2 -1 -7 0 0 3 -8 3 -5 -5 -1 1 -13 0 -6 4 -9 -6 -1 -8 -10 -12 -15 -2 -13 2 -3 -5 -4 -1 -8 -9 0 3 -10 -3 1 3 -4 -10 -4 0 -3 -7 -5 -11 0 -7 4 6 9 9 3 9 2 0 -3 -7 -14 -2 4 -2 1 -8 3 -6 1 0 3 5 -7 -4 1 6 10 -3 15 10 -16 -4 -1 3 -4 9 -20 3 -1 4 -5 2 1 6 12 -6 -5 8 -12 7 -9 4 -7 15 -10 -3 -1 -2 6 5 8 9 -4 1 3 1 -10 3 -3 0 1 0 7 -3 10 14 2 12 -6 4 -9 11 3 14 0 9 6 10 12 4 8 23 12 -8 13 4 0 -4 11 1 4 3 -2 1 3 2 6 -14 11 -2 9 -6 4 -10 -4 11 5 1 24 -6 2 -2 -1 -5 6 -5 -3 -4 -3 -10 5 5 -4 12 1 -4 -1 -6 -5 -5 4 -1 0 1 -5 7 -12 -1 1 -1 -4 -2 3 12 10 3 -3 4 6 1 0 0 -7 -9 -10 1 -12 5 -3 -5 11 -5 -5 4 -2 12 -8 11 1 7 3 3 5 3 -2 5 -7 10 1 17 6 -11 11 12 3 -8 11 -17 8 6 -2 -3 15 3 3 9 5 10 -12 7 -1 0 5 -10 3 3 1 -4 -10 8 2 -9 9 3 -10 -5 -6 7 -11 -3 -2 4 -1 0 -1 5 6 -1 -2 14 12 8 -4 1 11 5 4 6 13 0 2 4 7 1 15 6 7 14 10 4 17 1 5 2 10 6 -2 -4 7 7 6 1 6 7 -4 8 0 8 4 -5 5 16 10 1 10 0 -9 10 -1 -3 4 3 7 -4 4 -3 
2 8 6 3 12 5 -3 -4 2 11 9 10 -7 1 -2 5 0 5 -4 -3 13 -5 2 -2 10 -1 1 11 9 -2 -8 -1 3 6 2 19 -7 -3 7 7 9 -1 2 -6 0 2 -18 8 -7 11 -12 -5 -3 -3 -3 -9 -6 -6 -9 -4 -12 6 5 -2 7 3 -6 6 2 1 -2 -1 2 -6 -4 1 -3 -3 3 -2 6 7 -9 -1 4 -10 -3 0 -3 -10 3 -10 7 -5 -2 -10 -8 -2 -1 10 1 4 -4 -10 1 -8 2 5 -8 -3 2 -5 0 -14 -11 6 -9 -4 7 3 8 -9 -2 4 9 -15 -5 4 15 -15 -8 2 6 1 4 -6 9 -2 0 5 2 0 -15 7 -8 -5 -8 -1 -6 2 -1 3 2 -5 4 -2 -9 9 -4 -3 -13 -1 -13 11 -16 13 -9 -5 12 4 -1 -9 -6 0 7 0 9 -3 -19 -3 9 10 -3 3 0 0 9 -3 21 11 10 12 4 13 -11 1 2 -5 10 0 11 2 4 -5 5 12 1 8 1 1 6 14 10 3 3 -2 8 9 5 4 -3 -12 10 -14 9 -5 -2 12 3 -7 -9 1 -8 4 4 -8 3 1 -3 -2 -9 3 -3 -4 7 15 14 2 -1 3 8 -9 0 5 3 2 -1 -13 13 -1 -3 -13 -4 4 -12 5 -8 3 -1 0 -4 4 2 17 -8 -3 1 -8 0 -9 -10 -7 -12 -12 2 -7 10 -7 -1 -7 5 -8 4 -4 -12 5 3 -9 -5 -4 -2 -10 0 -4 -2 -11 2 -5 2 2 -6 -2 1 -9 -1 -10 -8 1 3 -6 -11 -3 0 -8 2 -3 -11 -16 -3 -6 -5 0 -6 -6 -11 -4 -1 -4 -7 1 -10 -1 5 -8 -9 4 -2 10 -8 -6 14 7 -1 3 -5 3 -7 1 -2 10 -8 1 1 -1 -6 -7 12 3 9 -5 17 -11 1 4 4 6 2 -4 3 5 6 -6 -7 -6 1 -5 3 -1 -12 1 -4 -7 0 3 -5 -1 0 -4 -5 1 -2 2 9 -5 8 -5 5 -5 0 8 12 -1 -4 0 11 7 1 -2 6 -6 1 9 -5 15 1 -6 10 10 6 9 8 -1 10 -5 11 -9 5 7 12 4 0 4 4 -5 -1 -1 -2 -1 6 9 0 3 6 7 4 -11 -1 11 9 7 13 -1 -8 10 -6 3 0 3 -4 -2 -2 1 8 5 8 3 8 -8 9 -6 3 -10 -8 4 -19 -1 -15 14 -3 -12 3 6 1 -8 14 4 -3 0 -17 12 5 3 10 -3 -4 -3 -4 0 9 -1 -3 -18 0 -5 -2 6 0 2 -1 13 2 4 5 -1 5 -4 -8 3 3 6 -8 -1 -6 9 8 0 8 -14 4 -1 4 -5 -1 -4 -6 5 14 7 -12 8 -1 -8 9 6 0 -4 6 -8 -1 4 -8 6 0 2 -9 9 -7 -9 -4 0 3 -4 2 5 -5 -6 6 4 2 -3 4 7 1 15 2 2 5 5 4 4 8 6 -1 1 10 4 12 11 7 3 17 13 -16 15 9 15 -3 0 6 -4 10 3 -6 13 -2 -12 8 0 -6 9 10 6 15 5 13 7 -6 -15 9 8 -5 11 8 4 -1 -13 -2 6 -8 -1 
6 6 0 12 -3 19 2 -1 6 -2 3 12 -3 1 8 4 10 6 16 10 5 -5 4 -6 6 3 1 7 -3 1 19 9 5 -1 -1 7 9 0 12 10 1 12 -6 18 -7 -5 6 6 -3 -10 -5 -4 -5 2 -14 3 11 2 -1 3 3 7 8 0 3 -5 -8 12 6 -7 7 -7 -4 -3 -6 -5 -2 -9 -3 -10 -8 -9 1 3 -1 -5 -7 -2 -14 0 5 -3 0 -13 -8 -8 12 3 0 -5 6 3 10 0 -5 -10 8 -7 4 6 1 -5 2 6 17 4 4 -1 -2 -16 0 5 2 -4 10 16 -2 -9 6 -9 -1 12 -1 6 0 -1 10 4 -1 9 0 19 -5 8 -1 -2 5 0 -13 12 -14 7 -5 -2 2 2 -9 -11 -2 -4 0 -2 -1 -13 1 -2 0 5 -7 -11 9 -8 -12 0 -7 2 1 4 7 -1 5 -5 12 0 4 2 5 -15 6 4 -9 10 5 4 6 7 1 -2 -1 8 8 -7 0 7 -1 8 2 6 7 8 7 0 -4 2 1 4 -10 5 12 4 0 -2 10 7 -2 -11 4 -1 -1 11 -7 8 -1 14 4 9 -14 -2 17 -4 10 -13 -3 -1 5 -6 -4 1 -5 -12 -11 7 -5 -2 -10 -14 -8 10 -1 4 -5 7 -5 3 0 7 9 -3 12 -12 5 -1 -7 1 -17 4 -6 9 -7 -10 -7 2 3 -4 8 -3 -17 0 -7 3 -1 -17 0 4 -11 -7 -8 2 -9 -1 -6 1 -4 0 4 -2 -10 -12 -4 1 3 -4 -3 0 3 -8 -12 -4 -3 -5 -10 1 -13 3 -5 -3 -4 1 -18 -14 6 2 -3 -5 1 -7 -11 -13 -12 -2 1 -8 -6 -1 -9 8 0 2 3 14 -8 1 16 4 -8 0 2 1 12 4 11 1 -8 4 5 -2 16 1 16 -7 10 2 -5 15 -3 -2 0 -3 5 -1 -3 -3 9 -7 -5 -7 -7 2 -10 -5 -4 -4 5 -4 -1 16 0 -3 -4 5 -4 -3 -10 -7 -2 0 -6 -6 7 16 -12 -2 0 3 5 3 0 10 0 0 -6 3 2 -1 -1 -4 16 7 7 7 2 2 10 -4 7 -1 0 -3 4 13 -2 4 9 5 7 12 15 0 5 9 -3 7 4 14 6 11 7 -1 13 7 -3 7 -5 4 5 -7 2 -10 2 -3 -10 -5 -2 -7 -2 -1 7 1 4 -12 3 -10 -13 -2 6 6 9 -9 0 3 5 -3 0 -4 -18 -4 2 -5 3 -13 2 -1 -12 12 -4 5 4 -3 -3 -8 5 3 -5 1 -4 -12 -9 6 -6 4 9 -4 2 -1 -1 7 14 5 1 0 -3 4 24 5 4 4 8 0 3 -1 4 1 5 -3 4 3 -10 13 -1 -7 8 -3 -4 -7 5 -4 -7 1 -11 -5 -5 -10 -8 -14 13 -8 -8 -2 8 -5 10 -6 -11 -15 13 0 5 -4 11 1 -6 -2 -13 2 1 7 9 4 -2 9 1 -4 21 1 10 2 6 10 14 6 0 5 1 8 -2 7 15 13 0 7 5 6 2 9 12 18 4 3 7 3 -5 7 4 10 14 7 5 12 15 2 6 -3 -8 -7 9 7 13 2 -8 15 
0 15 7 1 -6 -1 -5 0 6 6 -8 0 -1 12 -5 18 3 -10 6 -1 -6 15 9 1 6 -6 12 2 10 7 1 7 -8 8 4 -4 9 1 -2 15 17 5 -1 -2 0 7 -3 -3 7 -12 -2 -3 -17 -11 9 -3 9 -5 -9 8 -2 3 0 9 8 -10 10 2 2 -2 -2 14 -9 1 -5 -8 -7 -1 1 -2 7 -1 1 -8 -1 1 2 -16 10 -5 -8 0 -5 -16 7 -4 6 -9 -1 -7 -4 -5 -1 -8 -2 -6 -6 9 -6 8 -2 6 8 -10 7 -8 0 4 2 5 -5 -3 -2 0 1 13 4 3 8 6 2 -10 1 -5 4 -13 -13 -4 7 -2 2 -3 3 -15 18 -7 -8 2 3 2 3 9 9 -16 -3 -6 7 5 -1 -2 5 3 -3 8 -10 6 -15 9 -4 -10 -2 9 -9 -3 -6 -6 -7 -5 1 2 -2 -7 7 -6 12 7 9 13 2 -4 0 4 3 2 -1 10 2 6 12 18 0 16 5 5 4 -2 9 10 0 5 -4 0 12 -11 -5 -4 5 0 4 2 8 4 -4 11 17 8 16 2 15 -7 0 1 -3 -2 3 6 3 4 -7 0 10 -7 1 -10 -3 8 2 -1 -1 2 1 -3 1 1 -5 1 -4 0 8 0 -17 2 0 -2 -4 -10 -7 3 -4 7 2 1 5 -9 -6 -1 6 -10 -3 -5 2 -2 -4 -1 9 -4 -5 -3 -3 8 9 -13 7 -3 11 9 -2 -4 2 1 -7 6 -3 -1 -2 5 0 -5 5 -16 1 0 -2 -15 0 -1 -2 9 -10 -4 -10 11 3 -7 -9 3 -10 3 0 0 -16 -13 -2 -8 -4 -11 -3 -5 1 -3 -5 5 -1 -2 -8 -7 -13 -4 9 -10 11 -3 -5 -2 -6 0 1 3 8 6 0 14 0 12 -2 7 9 0 12 -2 8 -4 1 5 -4 -10 -4 4 -9 7 -4 -2 -9 4 -4 19 -7 -4 0 0 -5 -7 9 5 5 11 3 -3 2 -9 -5 -7 -4 4 1 1 -2 7 0 3 0 8 -3 8 3 0 5 2 -5 3 5 26 -6 6 -8 -5 8 -4 4 -3 3 1 13 8 7 -1 14 16 13 8 4 0 0 5 -3 -10 -2 4 -1 -4 7 7 1 4 -4 0 -12 7 3 4 -4 -3 17 -8 9 -2 -13 -4 -10 -2 -3 6 0 8 -8 -5 14 -8 9 2 -5 -6 -8 -1 2 2 -5 0 -6 5 -3 -12 -7 -6 4 4 -13 7 -10 -1 0 -13 -11 -1 7 -4 -3 -1 -4 1 -6 0 5 9 -2 2 4 -9 1 3 3 -7 -3 4 -7 -2 -4 -5 12 -2 11 7 11 -3 7 4 12 4 0 -1 1 2 9 4 7 -5 4 -3 10 5 5 -11 2 -2 -2 3 -3 2 0 -8 -19 0 10 -2 -3 -5 -13 16 3 -2 -12 3 -10 6 -19 0 12 9 2 6 9 5 2 16 -2 8 1 3 6 1 0 3 -10 1 7 11 13 -13 15 16 12 16 11 -3 7 8 5 0 -5 -2 5 14 3 14 9 -3 -1 -6 4 8 5 -2 0 -3 6 0 3 0 -4 -3 -2 5 9 4 8 3 -6 10 3 15 
15 6 5 10 0 11 4 6 15 6 -3 9 -6 3 -2 2 7 6 -12 9 -8 4 -7 5 5 3 14 -6 14 -8 11 0 23 -16 2 6 3 1 -1 4 -4 4 16 1 -2 4 -5 9 -5 -4 5 -2 4 4 -1 7 -1 -5 18 -17 2 -13 -15 4 -7 6 -6 3 2 1 -12 -3 -15 -3 6 -7 -8 9 0 -1 -3 -1 -7 -2 -1 -4 -1 -16 0 3 -16 3 0 -1 -10 -16 -22 -1 -13 -1 -1 4 -10 14 -1 5 7 3 -1 -9 -7 1 10 -2 -9 -4 -5 -7 -7 -2 9 0 16 9 4 -3 -3 5 7 5 1 20 7 6 -12 9 6 16 12 3 6 -3 -2 -4 3 -4 8 -2 13 -10 3 -4 2 -2 -23 -7 0 3 2 -1 -5 -6 7 -11 7 -7 3 -5 4 -8 -10 7 7 -7 -1 0 10 -5 -6 5 -6 2 -6 10 6 1 -2 5 1 8 7 6 5 -9 -3 11 4 0 2 -7 6 -3 0 -5 -9 3 7 -1 -3 -2 8 4 6 9 2 13 -10 -6 -5 5 -9 2 -2 -8 -13 2 -5 -14 2 1 8 -2 0 11 7 7 7 12 -9 -14 -8 3 0 -6 -4 2 7 -1 0 5 -13 1 2 0 -9 0 2 -3 1 -7 -1 5 -16 0 -1 -16 1 5 2 6 5 2 -3 -8 -7 -7 2 -8 -11 4 -4 -3 1 -7 4 -3 4 1 9 -4 4 -6 0 -3 -17 11 -16 7 -13 -9 1 -10 -3 -7 -6 -9 6 5 2 1 -7 3 0 1 -5 -13 -9 -8 0 6 -10 -12 -2 1 -9 -10 -8 6 4 -5 1 5 1 -1 -4 -8 -7 -18 -12 -4 -9 3 -9 -3 -3 5 3 7 -14 10 -4 2 8 8 9 1 -5 9 1 8 -3 -1 2 1 16 3 4 1 -10 2 7 5 8 11 2 13 -7 -4 -1 15 2 10 14 -1 -11 -3 8 -3 0 -6 1 0 -3 -3 6 2 1 2 -13 -7 11 -12 3 -1 -6 6 -2 13 1 -2 -2 -2 6 -6 5 -8 1 -2 -9 4 -3 4 -9 6 -3 9 3 4 4 5 3 8 4 -3 -5 12 7 0 5 -1 -2 11 4 4 5 11 8 8 16 3 0 3 13 0 8 -9 -3 -7 2 -3 2 -3 10 -1 -8 -7 -3 9 4 -5 -3 0 -6 -4 4 6 4 -3 -1 0 2 7 -12 -7 -4 3 3 7 -5 -4 8 -18 -4 -2 1 -3 12 -8 3 6 1 10 2 -10 2 3 -4 4 -10 5 -3 5 3 -3 2 -4 8 0 9 4 6 8 4 -1 8 -8 -4 13 -1 0 9 10 -6 2 1 1 13 3 12 4 -1 -4 4 3 9 11 11 11 12 1 3 11 0 -8 1 4 -4 5 -8 2 2 -1 3 -3 -4 0 -2 0 -2 7 -1 8 -2 -7 2 5 -14 13 3 -7 10 -12 8 -1 -7 12 7 2 1 3 -1 -7 8 11 10 6 -2 8 -1 8 4 4 25 10 12 -3 3 0 8 13 1 2 20 5 4 4 1 -1 -1 2 -5 2 6 4 3 -7 -1 9 10 -9 9 -9 9 4 -5 8 2 -6 16 -4 
-14 8 4 10 9 4 -5 0 6 3 5 3 -4 12 10 4 15 2 9 4 -1 8 -2 6 -13 11 -3 10 14 12 -3 -8 -7 -4 -8 11 2 2 0 -5 5 -7 -7 -5 5 -8 9 7 12 -5 -5 -6 3 4 -10 2 8 5 6 -3 12 10 4 3 -4 7 -3 -4 0 -8 5 -8 4 9 -9 7 -2 -5 15 -7 -4 0 -3 -7 -12 -9 11 -12 -7 -7 -9 -1 -5 -7 -12 -8 2 13 0 2 -8 8 -5 -7 10 -1 -3 -4 6 2 2 -11 -15 -10 -3 7 -12 -12 1 -4 11 -8 12 -8 5 4 -5 -3 4 1 11 10 -2 1 16 5 9 2 6 22 -9 11 12 -2 -9 -5 -5 -8 9 8 1 -8 -4 -6 -1 -1 -3 3 3 -6 1 -5 -6 15 -7 -8 3 4 16 4 5 -2 2 2 -7 0 -7 -1 2 -4 4 -14 3 -6 14 2 0 3 -5 -5 8 -1 0 14 -7 1 7 5 -5 -2 5 5 8 -11 1 7 -3 17 6 3 10 6 -3 5 -5 -8 8 3 -6 -3 1 -7 -10 -7 -12 -6 11 -9 -1 5 0 12 15 1 -2 7 4 -10 5 5 -3 -9 -13 -5 -5 -18 3 -2 -5 0 -9 -1 0 -3 -4 -6 -6 -2 -20 -11 7 -2 -7 -10 -3 -1 3 -5 3 1 5 0 0 -8 -7 -1 -7 -7 -13 6 -3 -14 -9 -1 0 -10 1 6 -5 2 0 -7 -6 -1 4 -1 -5 -7 -1 12 4 -6 0 7 1 -6 -3 -1 -7 0 -11 3 -5 -1 -8 1 0 5 -3 7 4 -10 -9 1 -17 -10 -14 4 2 -4 -8 -5 -7 -9 -1 -3 -4 9 -3 -2 -11 -5 -4 7 10 9 -2 3 3 0 -6 -4 1 1 10 0 -1 0 2 5 8 11 -1 10 -9 -1 6 -2 8 -4 2 3 6 -5 -6 0 2 15 -6 12 3 7 -2 11 -12 5 4 -7 4 4 -2 -3 -5 2 -6 -10 -1 -2 -1 -3 -10 -3 9 -3 4 9 2 3 4 -3 6 5 -5 12 6 10 -3 2 2 -7 -2 3 0 5 9 3 -1 4 2 6 14 6 5 -4 -1 -6 5 7 2 5 -2 -1 1 1 -10 -1 1 3 8 8 -5 2 -2 7 -2 7 4 8 -7 -3 2 -8 -4 4 8 16 9 -12 -6 3 -1 -3 5 15 -6 3 -17 8 -7 -1 6 -10 -2 -1 -6 -6 -2 4 11 -7 -1 1 -7 -11 -1 -6 0 -3 14 -7 -19 2 -4 -4 -1 -4 -4 -5 -2 -4 2 1 5 5 3 11 0 1 1 7 -8 -5 4 -3 -13 4 -3 4 -10 8 6 1 10 1 11 1 1 -3 -3 -4 -10 10 12 -2 9 8 11 1 7 -2 13 5 -3 -1 5 -4 -1 10 -8 17 -7 5 -5 -4 -1 -8 -13 -5 0 9 -8 -4 -3 3 -9 3 12 8 1 9 -5 1 -1 -3 0 -5 -1 -4 -3 -2 -4 11 6 3 4 3 16 8 8 7 -4 13 3 18 -5 15 7 8 3 9 3 9 13 0 5 14 4 -2 9 4 11 -2 3 8 0 -2 -2 -3 11 -3 8 -5 12 14 9 -2 2 5 4 9 
-5 12 11 -5 -2 -7 8 2 12 -14 2 -6 11 0 5 -5 10 1 9 -4 5 -3 -7 -2 -2 18 1 7 2 -9 9 -2 1 6 -3 13 0 11 -3 7 1 15 -6 -2 6 1 4 -1 5 -6 5 17 -5 -6 -11 -3 10 -9 2 0 -2 8 2 10 -7 -2 -1 1 9 1 5 -14 -2 3 1 2 0 14 -10 14 -3 -10 -8 -1 4 -3 1 -1 -1 -1 -16 -9 -6 -2 7 -1 -5 -12 -4 8 -2 1 2 -11 -1 -15 2 2 4 -15 13 7 4 -3 12 -4 3 2 -1 2 -7 -10 -4 8 4 1 7 -3 8 3 9 3 3 2 -7 8 2 13 6 -3 -2 8 -8 -4 2 7 -6 2 -1 16 15 -2 5 1 -3 -2 -1 5 -6 4 -6 -1 -2 7 2 -2 -1 2 -2 -12 -5 3 -13 -7 5 -2 -2 7 2 -1 4 5 13 -7 7 7 12 9 -3 -4 11 1 -10 8 -3 5 -2 12 13 -5 6 2 -3 0 5 -3 -6 -6 8 -2 7 2 -1 8 15 -6 7 2 -4 17 -1 -2 6 1 -6 -1 -11 -9 -1 -3 -1 9 -9 8 -10 -2 5 3 0 -3 3 1 10 -1 2 -3 -10 2 1 -6 -6 -6 -8 -2 -13 -3 -11 -5 -1 -11 0 -12 1 -9 -11 2 -15 -6 -18 -6 -12 -6 -6 6 7 3 3 -9 -4 -6 4 -3 3 -9 -9 4 1 -2 0 0 2 -6 9 -4 0 5 9 2 -10 -6 -6 -2 1 1 0 2 -6 8 4 0 -4 -10 -1 -2 2 4 0 -23 -1 -3 0 3 -7 -8 -18 5 -3 3 -3 4 8 8 7 0 -14 2 -7 -3 -14 6 -18 -11 -5 3 -14 2 1 15 -2 5 3 1 3 10 8 14 6 4 -2 0 7 3 14 -7 4 10 -3 5 0 -4 7 9 7 -3 5 8 -3 7 14 6 0 -5 15 -1 14 -6 -4 -8 -7 7 3 3 -2 -1 -1 9 -5 3 -4 12 -8 -3 -7 -3 -4 6 6 -3 -8 6 -16 12 6 -4 -5 1 3 0 -1 -1 4 0 7 -3 4 5 7 7 -5 8 7 16 1 13 7 -5 2 3 -2 -4 5 -13 -4 7 10 12 8 -8 -1 3 -3 11 5 16 3 13 -1 8 6 1 -8 3 6 -5 -3 -3 2 10 15 -2 19 -5 -1 -2 3 8 0 -5 14 0 -4 -3 8 -10 6 -1 3 0 -6 -6 -4 -16 -13 -5 -6 13 -3 4 5 -6 5 -6 9 -13 -6 -19 -5 -10 -10 -2 -7 -10 6 1 -3 -1 -4 -4 -5 0 1 6 3 1 -3 -2 9 -2 2 -6 12 1 -10 5 14 0 0 -4 -10 2 4 -6 3 7 5 -1 8 4 0 -9 5 -6 4 0 -5 5 5 -8 2 6 2 -1 3 -9 6 -8 -7 9 -8 -6 11 2 5 5 1 8 -8 -2 6 14 7 0 -2 2 7 6 8 12 8 6 0 4 5 9 12 -3 7 5 2 18 -5 12 16 3 6 7 10 5 7 9 6 9 9 -8 4 -2 13 -3 -3 9 3 -3 9 3 8 10 1 5 0 6 0 0 -1 -12 4 -3 1 -13 2 -4 
2 0 -8 -3 -5 12 8 4 11 8 0 4 -6 -10 13 7 11 1 -2 3 -9 3 9 7 -5 -2 0 4 -8 6 0 -11 18 -16 0 -6 -5 -9 4 3 3 -2 -2 -2 2 -8 3 -4 5 -1 -4 -6 5 2 -4 4 -3 0 8 3 21 -4 4 -5 2 0 -1 -10 -12 0 -6 1 0 -5 5 1 -6 0 7 0 0 7 -7 3 -4 1 -8 6 -3 10 -2 11 -9 2 -15 -1 -14 -8 6 -3 0 -14 -8 -7 1 5 5 -5 -9 3 -3 -7 11 7 -9 13 -8 -16 2 4 -1 8 25 -6 5 15 8 3 2 11 6 3 -2 7 15 6 0 5 -1 0 -4 8 1 3 11 2 5 8 6 3 -8 8 8 -5 -9 10 6 -2 5 4 -6 6 -6 -7 13 -2 16 1 6 0 6 -2 15 -13 -1 1 -3 -12 -13 1 -5 -10 1 -2 5 1 1 2 6 3 -1 15 0 5 -1 4 4 3 -1 -6 -8 3 -8 1 2 2 12 11 9 2 10 3 9 -1 6 -3 4 1 -7 7 -13 -6 -3 -2 13 -8 5 8 10 -9 10 8 6 13 -12 2 0 -1 -4 0 1 -2 -6 -7 -9 0 -6 6 -2 2 -10 -2 -5 -2 2 -1 -11 -21 2 10 -9 -11 -7 -11 8 -5 -1 -1 0 8 -6 -4 -8 4 -17 -2 1 5 7 5 2 -1 -4 10 2 12 -5 -1 2 -7 -13 1 -9 1 -6 -9 5 1 2 4 0 -15 -2 5 4 2 -2 -10 -4 -7 7 2 -11 -10 -19 -2 -4 2 6 -7 6 2 1 7 -6 -1 -3 -4 16 -3 5 -8 6 -3 -4 -5 -11 -3 -3 0 6 10 10 13 15 1 0 -8 -2 -1 6 4 2 1 -1 2 -5 -2 5 -12 1 0 1 0 -10 6 3 5 10 -5 10 -6 1 13 -8 4 1 -2 2 -2 -4 13 -8 -5 1 6 0 7 0 -7 -6 0 5 3 6 7 0 4 -4 -8 3 -6 4 10 -4 4 8 -2 6 0 -2 8 -2 -8 -13 7 11 2 4 2 0 3 -7 -1 -1 11 3 -2 -6 -4 -4 -4 5 7 7 4 -2 -12 2 5 0 11 4 5 6 16 -4 -8 -4 2 7 -5 11 4 0 -6 4 3 4 -7 0 0 -9 3 -3 10 5 13 -6 -2 -1 5 5 11 -17 4 1 -9 -2 -8 3 -1 -13 -4 -19 -1 12 -4 2 13 -10 -3 -5 3 11 3 -4 -8 3 -5 3 2 -2 -12 -5 -3 1 -1 3 8 1 -6 1 -2 -2 -11 9 -3 3 10 8 1 -4 15 9 9 0 3 11 -4 -4 11 8 10 4 -7 5 4 -6 3 -1 13 0 -7 7 1 1 9 6 -2 6 -5 -1 1 1 1 4 6 8 3 1 5 15 4 -7 -11 2 -12 8 0 4 -3 7 -3 14 -2 15 -2 -3 2 7 -1 3 2 -4 10 2 -1 -7 2 5 -11 4 2 -8 7 3 7 9 16 3 9 13 3 21 12 15 -8 3 2 6 1 1 2 6 -5 4 4 2 13 8 -1 10 -4 6 -5 3 5 -7 5 1 0 -1 1 6 16 12 2 -5 3 
-3 14 -12 11 0 12 0 6 -2 1 1 -6 -7 18 8 -4 4 -3 -1 -4 0 -3 -1 3 3 -9 6 -4 -4 -9 -2 -8 9 2 1 12 4 9 10 1 0 1 -1 11 1 7 -6 -2 -2 -10 7 1 -5 -5 13 1 18 9 4 3 -3 -5 -2 -4 -1 10 5 1 -2 0 -3 9 -2 2 10 5 0 -1 7 3 3 4 -6 -1 1 5 2 -4 -8 6 4 -14 -6 -8 -4 -10 11 -7 -20 5 -14 5 7 2 -9 -5 -5 0 -6 4 -3 -5 6 4 1 -6 2 0 -3 -2 1 9 5 5 0 -10 2 12 6 10 7 10 3 -7 1 10 1 10 12 5 9 15 13 4 -6 9 6 1 3 -1 2 6 -10 -10 -3 -1 5 13 -7 -1 11 1 -4 1 -1 -6 11 15 -5 -9 13 -6 12 -1 2 -3 2 -4 10 -4 2 2 -4 1 -9 6 -6 14 8 -4 0 -8 -9 2 2 5 -13 -8 -4 2 -2 -15 -4 -4 6 9 -2 -3 5 16 0 -2 5 5 -4 4 -16 5 7 13 -4 4 0 2 -3 8 0 4 2 7 -6 -5 15 3 -1 4 0 -7 11 -7 13 -3 0 -1 -5 -1 -5 -16 1 1 -7 -1 -12 -3 -1 -12 6 7 -14 1 -5 2 -1 -18 -7 -2 -8 -1 4 -7 3 -7 7 -11 4 -18 0 -5 -2 -2 1 11 -11 0 -11 2 3 -8 -2 0 7 13 -4 0 -9 -1 10 -1 6 -2 0 -4 7 3 1 -3 -4 3 -2 -9 -2 -9 2 -2 2 -8 0 -11 -7 -7 -1 1 -3 -19 -5 -6 3 -14 -10 -19 2 10 17 -8 -4 -2 8 0 -4 -15 9 -14 -2 -4 -2 5 -11 10 -14 0 -6 6 9 8 10 9 10 19 7 1 6 0 -1 13 1 3 -3 -8 8 -5 -8 5 0 -6 8 0 13 0 -2 4 1 10 3 3 -4 -1 4 -12 -3 4 -8 -7 -3 -2 -4 -19 -2 9 -3 4 3 0 2 -7 13 -7 -5 -15 2 -13 6 1 -1 -6 -7 -2 -9 -12 -3 -5 7 -7 0 3 -1 12 -4 2 -1 -2 17 1 10 1 3 -7 1 -7 -5 -10 -4 7 3 3 4 1 -3 -1 6 4 -1 6 4 11 -1 12 5 -2 4 13 1 -2 15 -8 22 0 8 2 4 8 8 18 1 -1 12 2 -19 10 1 2 -4 -9 -6 -8 -8 -5 0 -9 -1 5 1 -12 -3 -5 -17 -2 1 -17 2 -1 -10 -17 3 1 4 3 8 -3 3 -10 -1 0 2 0 0 -5 -3 -3 2 -7 4 -1 7 2 -1 2 -3 -3 1 0 7 3 0 -4 5 1 9 2 11 -5 -8 11 -15 7 1 14 4 10 9 1 -12 2 -7 15 2 -8 0 2 2 -1 3 -7 -18 5 -4 13 -11 5 -1 8 6 -3 2 4 -7 3 4 -6 -8 9 -3 1 -9 18 -2 -7 -2 -2 6 3 2 8 3 7 0 20 8 13 8 14 2 12 5 12 -2 12 0 12 -10 -2 -10 1 -1 12 -17 18 6 27 -7 8 6 0 -4 -2 6 10 5 1 -9 -6 1 -2 4 7 -1 3 -9 10 3 0 
1 -12 -2 1 0 17 -5 -3 -7 1 3 0 9 6 1 1 8 5 -8 9 5 8 0 -7 -7 -5 2 1 -3 2 4 -1 -5 18 -1 1 -3 1 3 -12 2 3 -1 5 8 1 -2 2 3 17 -1 -2 2 -2 2 -3 3 -1 8 3 0 17 2 -4 -4 -1 -6 4 -8 -2 4 -13 5 -2 -9 -6 -4 -8 -2 -2 6 0 -2 -5 -12 0 -2 3 -9 -13 3 -3 0 3 -6 2 -3 -6 -2 2 -8 -3 -4 -6 8 1 -7 0 2 11 -3 6 4 -3 -9 11 -2 -1 15 0 5 -9 7 -11 13 10 -4 -5 2 -2 -2 5 7 13 5 2 9 3 5 5 -8 0 11 -8 5 6 2 3 -3 -4 1 1 8 12 2 -5 10 7 3 -2 -3 7 2 -2 2 4 -3 -13 -1 -4 4 11 0 8 -7 -2 7 2 2 2 -10 6 -7 9 -6 3 0 -2 3 -10 -1 -7 4 -10 1 -6 -7 -4 1 -6 -13 -1 -1 6 2 -1 -1 6 7 -5 7 -3 8 3 -1 5 3 -5 6 2 6 -1 0 -3 1 -4 3 -3 7 5 -9 -1 1 5 5 -4 9 -10 7 8 -3 -10 3 -4 9 2 -9 2 12 -9 0 9 -7 -8 12 5 -1 0 -1 -6 -14 -14 -3 -9 -4 -20 -1 -3 -3 -6 1 -1 -11 -7 -4 0 2 0 7 9 -3 10 2 8 3 4 4 11 9 -6 -2 -1 -1 -6 1 -6 -4 -4 -5 -8 0 -8 1 0 14 7 1 -9 3 -12 3 0 -12 -2 2 -6 -17 0 -4 2 1 -4 -6 1 8 -2 3 -3 0 -12 -4 -2 -3 7 8 12 -7 15 -4 4 -5 -5 -1 -14 3 5 2 -1 -5 0 8 6 2 4 -5 5 18 0 2 0 4 -7 3 -2 1 0 5 0 6 9 6 2 8 2 0 -3 -4 2 5 -1 -1 8 9 0 -5 9 -3 21 3 -4 17 -1 10 6 -3 7 4 0 7 3 -3 4 6 -2 -6 13 10 9 0 1 -2 -3 -7 -7 -8 -5 2 -3 3 -11 -5 14 9 -2 -2 -4 2 1 13 -3 -6 -3 4 10 3 8 8 1 -2 0 -5 -13 -1 3 2 5 -4 13 6 -1 11 -1 7 10 -3 6 0 5 8 -3 -12 2 0 7 -3 8 -10 -6 4 -7 -3 -6 0 1 -2 4 -9 1 -8 -1 5 -2 2 -8 13 1 -8 4 -7 -16 7 -8 -12 5 8 -5 -10 11 -2 10 -14 -8 -5 -7 3 -1 -11 0 3 -2 5 -1 2 -2 0 7 -2 2 1 5 6 6 1 9 7 4 2 2 -1 -2 2 4 -1 10 -6 11 -8 5 -15 3 1 7 0 6 6 7 0 -7 0 4 11 6 14 8 10 2 -2 3 0 4 11 -2 -4 4 -9 1 0 -2 2 -12 -3 -14 4 -7 17 14 2 -6 13 -11 13 2 -1 -5 1 5 18 -1 4 1 -7 4 1 1 2 7 4 2 12 3 9 9 14 6 -4 0 2 0 10 4 2 10 3 1 2 12 -3 2 -9 -3 -8 5 9 15 12 12 -3 2 4 4 2 8 -6 1 7 -15 7 0 3 5 
12 16 -1 14 -6 6 0 13 10 9 8 0 6 8 5 6 -9 4 -5 -3 -2 1 2 6 0 4 1 -3 4 2 -4 -10 10 -14 13 -3 5 -9 -6 -10 5 6 8 -1 0 0 0 5 -2 -5 -4 15 -2 6 8 13 -11 9 11 3 13 -2 16 -2 -3 -4 6 6 -2 -2 -6 5 -1 -5 -5 -9 1 -10 1 -10 10 -5 -4 -1 -4 -2 1 -8 5 -8 3 7 -11 -8 -12 1 -11 -3 -8 -4 -11 4 -2 -10 -3 -2 -3 1 9 -11 6 -12 6 0 -2 -4 1 0 4 4 14 -5 -6 2 13 0 9 10 4 11 -5 0 12 4 -4 5 7 1 3 8 -3 18 -3 5 2 5 4 3 -6 9 0 17 7 -10 -2 12 7 0 -10 -8 1 0 -10 -1 10 -4 2 12 -9 6 5 7 1 8 -5 -2 5 3 -9 -3 6 7 1 7 -2 -2 -6 2 -2 7 1 1 -2 -5 -7 7 -12 -2 -2 1 -4 4 4 -8 -10 9 8 14 8 11 6 0 -3 0 -7 2 -3 -1 -5 4 -1 -7 6 11 2 6 -4 10 9 15 4 5 8 7 0 8 0 0 -17 8 -1 3 -10 3 0 -8 -1 3 5 -17 -1 -13 -2 0 -8 6 -5 -11 -8 -9 10 -1 6 4 -10 10 -6 -5 -8 -6 -4 -13 4 -9 -7 4 3 -9 6 -4 -1 1 -1 0 9 -1 3 5 8 10 6 2 11 15 -3 7 -5 -1 -4 -1 -10 3 2 1 -3 -3 -4 1 -4 -2 -10 -13 -4 -9 3 -1 4 -7 -3 -8 -5 -1 -11 -6 -8 0 -8 1 1 -3 5 2 0 -1 -3 -13 -11 -1 -14 9 -15 7 12 -4 3 6 -4 8 10 -1 -2 -15 5 0 8 2 0 -3 16 2 5 5 7 -3 -3 2 6 -6 -8 -10 2 -2 -12 -1 -1 4 -7 6 5 7 3 1 3 0 4 6 -4 7 10 0 10 6 1 2 -3 11 -8 3 -4 -4 10 -2 3 -7 -17 -14 1 -10 -3 5 -1 -1 -2 -5 6 2 0 -8 3 1 -5 8 -2 -2 -1 -8 -5 -1 1 -3 -3 -5 -2 4 -2 1 4 -4 3 10 12 -1 2 11 1 4 -5 4 8 7 8 9 7 1 7 -13 6 5 -2 10 -1 -5 -3 -3 -9 2 3 9 6 -1 3 7 2 -2 4 4 -9 -6 2 7 4 -1 -1 -23 -8 -4 7 -15 0 -2 -7 10 5 -10 2 -6 -4 1 6 -11 10 -4 -2 1 -17 -2 -4 -5 -9 2 -4 -10 7 3 0 0 11 -1 1 0 -8 7 0 3 0 1 11 -1 3 -3 13 -1 -3 -4 -1 0 3 -6 6 3 1 7 4 13 2 8 8 7 -2 -1 -4 4 -4 7 -7 10 14 -8 3 -13 1 5 2 2 -3 5 2 2 -2 8 0 -1 12 0 0 -2 0 8 7 2 -1 13 0 0 2 4 -5 -17 5 -5 -5 11 12 -3 -6 6 -1 6 7 -3 -1 3 1 9 -1 12 -1 -2 2 -3 -2 -13 4 5 -2 4 11 14 2 -4 11 6 17 5 -12 4 11 -3 9 -9 14 -5 -2 2 2 2 -4 1 5 -9 
7 -7 4 5 7 -1 9 5 6 -13 3 -3 5 -6 1 2 2 4 2 -7 -3 -11 -8 6 -5 5 -10 -7 2 -8 -13 8 -11 9 -4 -5 2 7 -3 8 4 6 -5 0 6 1 -4 0 4 3 -1 -1 1 0 -4 6 16 -2 6 5 10 8 4 -4 9 10 -3 -10 1 -7 -1 0 1 12 9 12 -12 3 7 -18 3 -12 -12 2 -4 12 2 7 -6 0 -7 -8 -1 -5 2 2 11 1 -2 0 -11 1 3 1 3 6 -5 0 -1 0 0 2 1 -2 -6 6 -5 0 14 -10 -5 11 3 0 -12 2 12 -9 -1 6 12 5 7 5 8 9 10 6 3 3 9 -5 2 6 -9 6 3 15 10 8 -9 6 4 20 5 -1 -7 8 0 -11 7 -7 7 -4 -3 0 -1 6 -4 -7 -6 11 -2 -9 3 -6 9 1 -1 6 0 0 -4 -13 -3 6 -4 -6 -3 4 11 -7 -4 1 10 -14 1 -6 4 -7 8 1 1 5 8 7 12 -12 2 -3 0 -3 -7 -2 1 3 -5 4 6 4 6 4 -9 1 -5 3 -3 18 -5 0 4 11 10 3 -4 -10 0 -1 1 -2 -6 6 6 -12 4 17 -3 -2 -1 -4 9 -1 -20 -10 -2 0 -6 -7 -2 -4 -2 -6 -4 -8 6 -8 1 1 -7 -12 5 2 -1 3 -5 -12 7 -5 0 -11 -4 3 -13 -6 -14 -3 -3 0 10 -5 -8 11 2 -3 -12 4 1 -11 4 0 -12 8 14 -7 -3 0 5 -8 -12 -12 -10 -1 11 -6 3 -3 -2 -2 2 0 -2 -1 -9 -6 2 -14 -5 2 -1 2 0 0 14 2 -6 -8 1 -14 -1 -5 1 2 4 2 13 1 10 -2 0 0 -1 6 6 -8 3 7 9 6 8 -4 -4 -1 -10 10 2 4 8 -14 -1 7 1 1 3 3 3 4 -1 -5 -6 18 -10 0 -1 5 6 2 -1 1 12 -4 -19 11 0 0 0 9 4 5 7 4 4 -9 15 -4 22 3 -2 1 -7 4 1 -17 -7 5 -7 0 -7 5 5 -12 -4 -13 0 -3 -2 -4 2 1 2 -7 -8 1 9 -15 -2 -7 2 -3 4 -9 0 8 -4 4 9 5 18 19 5 2 -8 6 8 5 8 10 5 -2 4 -8 7 2 -7 -13 -6 -2 -11 -2 7 -5 16 1 22 2 2 15 9 6 6 -8 0 -2 -3 5 3 -9 -4 0 -7 -1 -5 -7 -4 -17 2 -5 -4 -1 4 -1 4 -5 -14 0 -8 1 0 0 5 0 -4 -3 -2 -2 1 3 3 0 -2 -7 -5 -4 -1 -3 6 4 -14 8 2 -3 12 -14 1 6 -12 4 -4 10 3 -1 8 -2 0 -7 -1 -3 1 3 9 16 6 11 -3 -2 11 -8 13 3 -3 3 12 -7 1 -6 3 7 -9 -6 0 16 -14 12 -1 6 7 12 0 12 -1 11 -7 10 2 2 0 15 12 1 -3 -6 9 5 7 7 0 -13 6 7 6 2 -2 0 -1 3 15 4 6 9 12 16 1 -6 8 -7 11 -4 5 7 5 5 4 -5 1 7 5 11 2 0 2 8 -6 4 -3 12 2 -1 -3 16 -2 9 
8 8 7 -11 7 5 -3 -8 4 3 8 -3 5 -4 4 5 3 -8 7 -2 2 -4 0 2 4 -7 3 -4 6 4 -9 6 -18 -1 -8 -1 -8 1 2 0 -5 11 -6 -6 -3 -5 7 4 2 -9 0 -4 7 -4 -1 -1 4 8 5 -1 2 7 -8 2 -6 1 4 7 3 2 7 5 -3 -8 0 12 -11 5 -12 3 -8 -1 -10 -1 -6 6 7 -8 1 -10 -9 -3 -9 2 -12 -9 -2 -11 -1 -4 -15 5 0 -2 -5 -2 11 7 -1 8 4 8 1 -8 6 -10 1 4 8 -5 3 8 6 3 1 5 2 -1 14 -13 -2 3 12 5 7 10 4 7 13 -2 13 4 -1 -4 1 -6 10 10 6 12 2 10 -1 9 -2 13 4 -1 16 2 -7 8 6 7 9 13 1 6 10 6 6 9 0 1 -6 -5 -2 -10 0 -2 -1 -1 2 10 -12 5 -8 0 11 -6 -4 13 3 -3 -23 4 -7 -2 -9 0 3 -7 -3 11 1 1 1 1 -6 -7 -2 -1 3 2 1 4 -9 6 -6 12 -2 4 -5 -2 -1 4 2 0 -8 -2 -7 2 -2 3 10 -4 5 -9 -2 -4 -6 -1 0 -14 -8 2 -7 -6 2 3 -12 8 0 -1 -2 2 -3 -2 1 -4 2 -7 9 -3 7 -5 -3 -9 2 2 5 -8 -13 13 -3 3 -6 -9 0 -5 -2 2 -6 -6 16 2 -6 1 -8 6 7 -11 11 -7 -7 6 -1 -2 0 -3 19 2 -10 -9 -1 -6 -4 -15 1 0 -3 2 -6 6 -19 -5 -3 -8 -2 -6 6 -4 1 -6 1 5 5 7 8 -10 -6 1 -6 -9 5 -1 3 -3 0 6 -11 -2 -12 3 3 -1 -11 3 5 -1 8 -9 2 6 17 -1 8 -9 -5 6 5 -6 0 -2 -3 -4 -2 5 9 -2 -9 6 8 6 13 4 -5 -3 -3 12 5 9 -6 2 9 -4 14 3 -11 10 0 1 1 10 4 1 13 -2 -4 2 6 10 3 -1 -18 1 10 1 -2 -8 -2 6 0 -8 7 -2 -1 -6 -7 8 11 -7 -8 -10 -12 -3 -9 2 8 3 -7 -3 1 10 -9 -8 -7 -11 -3 12 1 -11 -3 7 15 -9 13 2 7 3 12 3 2 11 5 -7 3 1 1 3 1 2 -11 -5 7 -4 2 3 11 -3 -2 4 -2 -3 2 0 0 4 -8 10 -5 -4 0 -2 -6 -9 5 -3 -9 -11 -7 4 -5 -3 5 -1 -7 -1 -3 -4 -8 0 5 4 -1 6 -6 10 -19 -5 1 2 -4 -8 -6 5 -3 -13 4 4 9 7 -9 5 13 5 9 4 3 7 10 2 -2 3 -2 5 2 -4 -2 11 2 2 3 4 3 6 -1 7 4 -5 -7 10 2 6 2 13 7 -1 4 1 2 4 -1 5 7 1 -1 0 -2 5 -4 6 2 5 4 10 -1 8 10 12 10 0 10 -1 15 -5 14 -3 7 4 3 4 2 3 5 10 5 2 4 8 -3 -4 9 2 2 5 6 -4 5 12 6 -3 6 -4 16 8 10 -4 8 9 -8 6 8 10 3 5 -1 3 1 8 -2 1 -5 5 -3 1 10 -4 0 3 
2 -16 9 -3 4 -4 9 -2 2 -2 -6 -3 -6 2 6 -3 -6 4 -3 5 1 5 4 2 -2 -8 0 -1 -11 -3 6 0 -5 9 2 4 -13 -6 2 -6 -5 6 4 -2 -4 -3 6 -6 -2 11 -3 17 13 11 5 0 15 6 -4 5 6 3 10 -1 5 -3 18 -15 6 2 4 2 11 -1 -16 2 -6 12 -4 6 -3 6 3 -3 5 1 -2 -12 -8 5 -4 3 -4 2 -5 4 -3 0 2 0 6 3 9 8 1 -8 -1 -1 2 -3 10 6 -2 11 3 3 -1 2 1 5 0 -2 -7 -3 -7 6 -8 9 4 2 -3 21 12 3 11 11 3 3 -5 6 -13 -2 7 7 1 16 0 0 6 -5 -7 -2 15 7 14 -1 3 -1 8 -4 -1 -1 4 2 5 -5 6 13 12 -1 9 -17 14 4 -6 -3 12 -1 6 -7 0 8 3 2 -3 -3 -6 12 -2 10 -4 -2 1 -2 3 -8 -4 2 -3 12 -14 -8 18 -11 8 3 13 -6 -5 10 0 5 0 10 1 -2 -7 0 -5 -6 8 2 -11 17 -1 7 9 11 -2 0 17 9 12 -14 7 12 -5 9 -6 8 -1 -6 2 -1 -16 5 4 -5 -15 4 -3 -5 -10 -8 -5 2 7 1 -11 -8 3 -11 -3 -6 -13 -8 -6 -2 0 4 16 -3 -1 -4 -4 5 -10 1 -4 -9 1 6 7 -1 -7 -10 -5 -1 10 -7 -2 -17 3 -4 7 -4 9 -8 6 5 -4 -3 3 -12 -2 -6 4 7 -5 22 -10 11 -14 -1 -7 -9 -2 -12 -4 -5 -4 -12 10 -9 1 -1 3 -1 -8 6 -4 -12 12 -1 -8 3 -4 -5 6 -10 5 -4 -6 -6 -5 1 -1 8 -4 -1 0 7 1 7 -7 13 3 -1 -8 7 4 -7 -4 8 -10 8 7 0 -1 15 11 1 8 2 -1 5 -2 7 2 2 4 3 -4 -7 0 1 -6 -9 -4 -3 10 -3 -2 2 8 0 -8 -7 11 -7 4 -13 3 2 8 -6 -14 -4 6 -6 -3 -5 3 -10 -12 -4 -8 -3 3 -12 -16 0 -5 0 -8 -7 8 0 0 0 5 0 -2 -5 -2 3 -10 -7 -8 -4 -8 6 -1 4 -6 -6 0 2 2 10 -6 -16 -2 1 1 13 -6 10 -1 5 7 -3 -4 9 -4 0 2 8 4 2 3 9 9 5 3 -3 -4 4 -6 1 -5 4 -3 -12 -1 -5 -6 0 -2 -1 -5 5 11 -3 0 -11 13 4 -3 -3 6 -2 -1 -6 -10 -1 -9 -7 5 -11 -1 -7 0 -1 -5 20 2 -1 -11 -3 -1 -6 -2 -7 2 -1 -1 9 0 12 -9 4 1 -6 12 -1 -2 15 -4 -17 10 2 -4 -5 8 8 0 2 12 -5 9 -5 -9 -5 7 -9 3 16 -3 7 5 6 -1 -2 -4 13 6 10 7 2 8 6 5 -6 1 8 -2 -3 8 19 2 10 -1 5 2 9 1 5 -8 1 1 -9 1 -7 14 2 -2 6 12 -3 4 7 2 3 10 6 -13 10 12 1 5 -1 13 -5 0 15 -5 5 0 3 9 -6 -7 12 9 3 12 3 -1 -11 15 1 4 7 6 -1 -4 4 -5 7 
-4 -7 7 1 -4 8 -2 11 -10 12 1 6 8 -3 -6 4 5 -2 3 -1 1 6 4 9 4 -5 -2 -1 -1 -7 -8 2 5 -3 -10 2 17 -2 -13 5 1 -4 2 6 6 8 0 1 6 -1 8 -5 8 -4 11 -4 -1 7 5 5 11 -3 4 -1 -4 3 -13 4 6 2 6 2 3 7 2 11 4 -8 -10 -5 1 -8 4 -3 4 -3 -8 1 -2 -7 -8 3 -3 2 -7 4 4 1 -11 3 -3 2 -7 4 3 6 -2 -6 5 -2 1 -6 -5 8 1 12 0 -2 11 2 -6 -7 3 8 9 -3 -2 5 -1 6 9 3 3 -1 9 3 3 -4 17 -8 13 -3 -3 3 8 -3 -2 23 0 6 21 14 9 4 -2 19 -5 21 -4 0 4 18 2 5 3 0 0 1 8 -3 -9 -3 -7 -2 -7 -2 3 -4 -4 4 8 -5 -10 -7 -7 5 3 1 8 -7 -6 6 -5 -15 6 -2 -17 8 -7 2 -2 3 -3 -3 -1 -5 -7 12 2 -17 1 2 14 0 0 0 2 5 -1 -6 10 -1 -5 4 0 1 14 11 3 -2 -5 0 -3 -1 -9 -6 3 1 -5 -5 -2 -1 6 -5 -5 -13 1 -17 3 5 -9 10 5 -12 -8 -12 -4 -7 -6 8 -5 -1 -4 0 1 -1 2 -4 3 -15 -11 -8 -5 -5 -6 -11 -2 -1 1 1 7 6 -2 -2 -1 -12 -5 4 -17 2 3 0 -1 -3 4 3 1 -6 6 6 5 -3 -2 8 -8 -5 7 1 -7 -5 1 15 -10 0 -8 -13 -9 4 -7 -2 3 -14 12 4 -19 -5 -1 -5 -5 -1 -8 -4 -8 -13 8 -3 -9 -2 -4 1 0 -6 5 -6 6 -9 4 -14 3 -2 -10 -2 2 -1 4 -5 0 -5 1 -2 -5 5 9 -6 10 7 -4 2 10 3 3 -4 4 0 -2 1 3 -3 -1 -1 15 -6 -2 4 10 2 2 -10 14 -4 10 6 -4 6 13 4 3 10 -1 3 -1 -1 7 5 -6 3 -4 4 2 7 4 -7 4 -2 -11 6 -6 8 8 -5 -9 -1 -9 -3 -8 0 8 9 -5 -3 9 -4 8 5 -2 0 -1 3 -7 -1 4 6 -7 1 4 -2 3 10 2 7 -2 15 7 5 -2 13 13 16 13 13 -4 2 -4 -3 -4 1 1 3 1 -1 4 -2 5 3 10 -3 -5 5 -4 3 -4 4 -1 -7 -2 -14 -3 -9 -4 -4 3 -5 -12 8 -3 4 -16 10 0 8 -1 -9 -2 -20 -3 -10 -7 -4 9 0 -3 -5 -4 -2 -8 -1 5 10 9 -1 3 3 14 1 -6 -6 5 3 2 4 14 6 -2 -2 -5 -2 0 -10 5 0 -4 3 -4 13 2 3 2 0 5 4 8 -5 -2 -2 7 7 4 11 -7 14 -6 2 9 7 -1 6 0 10 3 -1 12 6 6 8 1 4 9 -2 4 6 7 11 2 0 6 -9 11 8 -5 -5 2 -2 1 -5 5 10 2 1 6 -3 19 6 4 0 -11 8 5 -3 5 1 16 3 -1 -3 -3 1 3 1 12 0 2 12 -1 -1 4 3 -7 8 11 8 3 5 14 1 8 -6 13 2 9 -7 
8 12 0 -11 12 8 -2 2 6 8 4 -1 -13 0 -3 -9 3 -4 3 6 -3 -5 1 -13 3 1 -10 -2 -11 -3 4 0 3 5 1 -3 -12 1 7 7 -7 17 -4 2 -11 -1 -2 8 -7 6 13 3 5 7 9 4 -1 5 -2 -1 7 -17 11 2 -1 9 -4 1 8 0 -5 -5 -14 6 -2 15 -12 12 -14 11 -6 -3 7 -4 -7 -5 -6 8 -5 -8 0 -14 5 -5 -7 -6 -1 -10 4 9 -3 14 6 12 -2 1 -7 -14 2 -2 1 -3 1 -1 3 3 -1 3 -6 -9 4 5 7 1 2 2 3 0 5 5 -1 7 2 2 0 10 2 1 -11 1 17 9 12 1 9 6 3 -1 1 8 -5 7 0 5 14 -3 2 1 6 2 12 -2 5 9 1 6 -6 -5 8 7 7 -3 2 9 0 -5 1 11 0 -3 1 1 7 8 7 -4 -9 6 0 3 0 5 -10 9 -3 -3 1 -5 -3 -2 8 4 7 6 -5 -3 -9 1 -6 0 11 -2 -3 5 12 0 -5 4 -12 1 2 -16 14 0 6 5 5 0 2 -4 1 -7 3 -2 6 -1 -1 4 -1 4 -3 -1 -7 -4 -9 4 -7 2 -7 -3 9 1 -2 0 -4 -1 3 10 -1 -4 -5 -1 -7 -5 -5 -6 -14 -11 -9 0 -10 -7 1 -2 -4 3 -7 -5 -4 -7 8 -1 12 0 -3 12 3 5 3 -8 -5 -9 1 6 -9 3 -6 6 -1 1 3 -11 -2 0 10 5 9 2 -4 0 2 1 -2 4 -5 -14 3 -15 -2 -15 1 12 -5 6 4 -3 3 3 4 -16 2 12 1 -1 -8 -3 -12 -8 7 7 -11 2 4 -3 9 -4 -5 -2 -4 -6 0 4 -4 -3 -2 9 1 -2 3 7 -9 7 3 6 5 4 -5 8 1 2 1 -1 -1 -2 0 2 4 -3 0 4 1 8 6 -6 5 -4 8 -5 -2 10 5 5 11 -2 1 5 10 2 -2 4 4 -3 11 -10 6 -1 5 3 -5 -3 11 -6 -2 -6 -4 -12 4 -10 -6 14 -12 10 -6 -10 0 0 -10 9 1 2 -8 -6 15 0 0 -5 -7 -4 -13 0 1 -13 1 -14 2 -4 4 -7 9 -8 -2 -5 -1 4 -2 13 -1 -8 -1 1 -7 5 -12 5 -2 4 2 -6 4 -1 3 2 -3 3 11 4 7 -1 -2 9 3 2 -5 -1 4 4 -2 -11 -9 -8 0 3 -9 -12 -4 -1 9 1 -1 -1 -4 -3 4 -11 2 -4 -7 -1 -3 -8 8 -6 -7 -2 -5 1 -3 10 9 -10 -5 13 -9 -10 -3 -1 6 5 -1 -7 8 -3 3 9 -1 8 -3 4 3 -13 4 -1 4 3 -1 5 14 -7 -3 -3 -1 2 1 7 -14 5 -8 8 7 -3 16 12 0 11 -1 0 8 -4 3 -8 -3 -1 7 2 12 1 5 14 0 1 -1 -8 12 -3 12 -5 2 5 -11 8 -12 -1 1 -7 -2 -7 0 6 9 -2 5 11 -1 4 -4 3 4 7 5 3 -3 -1 1 2 7 3 -2 19 3 3 8 -8 2 3 10 8 11 4 8 12 4 5 -5 8 8 -10 3 -15 12 2 
16 -9 2 8 -4 -7 17 8 4 8 -6 -5 -4 -7 4 -7 2 -7 -3 0 -15 9 -1 1 4 -7 1 3 -1 -9 9 3 -10 0 -2 -10 -3 -9 6 11 3 1 -7 9 2 -7 -14 -3 6 1 6 12 3 -3 0 1 3 13 1 0 15 0 -6 -8 1 -1 5 -7 5 4 -6 10 7 4 -5 -6 0 -3 4 2 5 -1 -6 6 -3 -2 -1 -5 7 5 11 3 2 10 -12 6 -13 5 -3 -5 -1 7 -8 6 7 -7 0 3 -15 -2 1 -9 -2 -8 -1 -4 4 9 3 -9 9 -9 -5 -2 -1 4 11 5 15 8 -4 12 3 7 1 4 4 18 -3 7 -3 1 4 -1 1 5 12 -8 -4 7 12 12 12 2 10 9 8 4 6 -4 3 -5 -1 0 -13 1 -3 2 -6 -12 0 3 6 -4 12 -4 -9 4 11 -1 -7 8 -4 -1 -2 2 -2 4 2 -17 -9 6 2 2 -7 1 2 -12 -17 -2 -4 9 -11 -5 3 2 -6 2 1 3 3 0 10 -6 8 4 -1 16 -3 -3 3 9 10 0 -5 1 -3 -8 -1 4 -2 1 -3 4 -1 -4 7 1 -2 7 -10 -4 -7 -4 -10 2 -6 -3 -3 0 -2 -1 -6 -3 -2 -14 -1 4 -9 -12 -4 -14 -1 1 -10 1 -14 -10 0 -2 0 -13 -3 -10 -4 1 -11 2 5 -3 0 -10 -5 -11 8 8 -10 0 -2 -11 -6 -4 -4 -9 -7 0 5 -7 6 -3 6 4 -1 0 2 12 -2 3 4 -5 -4 -7 6 -7 -5 -4 -2 -7 8 -3 17 -9 -10 -9 4 2 -8 -7 -4 -3 6 -5 -9 4 4 2 -2 9 -3 -7 1 -4 -1 -2 9 -2 2 0 9 -4 -5 -2 -5 1 -2 -1 7 -4 6 3 -3 -11 -3 2 1 9 -10 7 -8 -3 -9 -1 13 12 8 -7 10 -1 1 -2 2 -3 6 -2 10 -1 0 9 8 7 2 0 8 1 5 7 8 -2 2 13 9 5 3 4 6 -2 7 9 10 10 0 -5 -7 5 0 -10 7 -10 -2 6 2 -8 0 -8 2 2 -7 -6 -6 -5 10 -4 -1 0 -4 3 -8 -5 -6 5 -5 1 -3 17 -5 3 1 1 -2 -5 2 2 -2 3 5 -11 5 3 13 9 -5 -11 3 1 6 3 -8 -2 2 -14 -4 1 -3 5 3 -3 5 -3 10 -7 11 -10 9 4 3 -16 -8 -1 9 4 -3 -15 11 2 8 4 -2 -3 5 1 -6 -2 2 6 4 4 6 -6 2 2 -9 2 -9 15 -16 -1 -3 -12 -3 3 1 -8 -1 7 -3 -6 -4 -4 -8 3 2 5 8 1 4 4 -4 7 -4 -2 8 1 -3 -4 -5 4 -4 7 8 13 2 12 6 -7 16 1 0 10 14 7 11 3 20 -4 5 1 3 3 12 5 14 -1 -4 -5 2 13 -1 1 2 -10 6 16 -2 2 3 8 2 1 -7 -7 2 0 8 13 6 9 1 -3 10 7 -1 1 9 5 0 1 3 -6 6 10 -2 -4 0 0 12 8 7 6 -4 13 -3 2 6 6 8 -1 -3 18 17 -2 1 6 3 2 8 5 5 -18 6 5 
6 -4 3 8 14 7 -3 1 -3 9 -3 -4 -4 -5 4 -23 5 -7 -13 -1 -8 3 -7 -3 0 -2 -16 0 -5 -2 -2 -3 1 -1 9 8 8 6 -3 -1 6 -4 1 6 3 5 3 -6 7 4 9 3 1 -1 5 3 15 -2 4 8 -4 9 11 -1 2 7 7 3 13 2 -7 -12 -7 3 -16 2 10 -5 14 13 -3 2 11 7 7 -5 -8 -6 0 3 -6 8 2 -2 -5 4 1 -12 9 5 2 -1 2 5 0 5 -4 14 0 1 4 1 8 -2 6 4 7 -3 7 -4 4 5 9 0 5 11 -5 -5 9 6 4 1 5 1 8 4 9 5 -3 13 -3 -3 5 1 2 9 -5 10 8 21 1 -2 13 7 11 3 -6 -9 5 4 6 -1 -5 17 2 7 0 9 4 1 3 13 -5 -2 -1 4 -6 -2 -1 -4 3 0 -1 -3 -1 -9 -15 -1 -8 1 6 -2 -6 -7 -4 1 -12 9 -12 -8 1 1 1 3 5 11 -16 7 3 4 12 -5 -6 1 -1 -7 -2 -14 -6 -13 1 -8 -3 -6 16 1 -1 -3 -5 -1 1 0 0 6 -9 -7 -9 -1 -3 -3 -2 2 -12 5 -1 -8 3 -8 2 -15 9 -9 2 -11 -2 -11 -6 -1 -7 -1 1 -4 -7 2 -2 -10 2 1 -12 -5 -19 2 -13 1 -9 -9 -1 0 -2 7 -17 9 5 -1 4 9 2 -5 -5 0 -2 -4 -2 -7 7 2 -13 3 0 6 3 -12 5 0 -7 -7 0 -7 -2 -3 -8 -2 4 5 -2 -11 18 -9 7 -3 -7 -3 -8 10 -1 6 -1 -12 4 -9 -8 14 7 2 5 2 -2 2 -2 8 3 1 -5 -8 -3 -8 4 -13 -7 -7 14 -9 8 -5 -1 -1 -2 -5 3 -8 11 -3 4 -10 1 8 8 3 8 8 5 -2 0 1 3 1 -2 10 -2 -4 12 1 4 7 11 11 -5 4 9 5 -3 -1 5 2 -8 8 1 4 8 11 6 2 -2 1 -1 -15 -7 -1 -5 -10 2 -5 9 -11 8 -3 -6 -9 3 -13 -4 4 3 -4 -6 -6 -11 1 -4 -12 -2 -3 0 -3 -4 -2 -10 3 -5 -11 2 -2 -5 1 1 -3 -11 3 9 -9 -4 -1 -8 5 6 -8 10 0 6 -2 2 2 -13 0 -3 15 3 -8 -4 19 5 1 5 4 6 4 7 1 6 -2 -1 10 2 -2 2 0 8 -8 -7 1 -13 11 -7 -2 0 -2 4 -1 -3 0 -4 -1 -5 -6 0 -14 -9 1 1 14 -6 -4 -2 -9 1 5 7 -2 -1 -8 -7 14 3 -1 6 2 -6 2 1 -6 -7 -2 7 6 3 -4 -2 3 -9 -10 -4 10 -4 4 0 10 -7 5 -1 3 0 4 8 5 11 9 1 16 12 1 16 -7 1 -1 -4 -3 12 -9 -2 3 -11 2 7 14 0 13 -2 9 0 12 8 -3 5 -7 10 5 -13 16 -8 15 -4 11 -9 -6 2 3 -2 12 8 13 8 -2 6 3 10 8 2 -1 -10 5 -1 6 9 -2 -11 -2 -2 6 -5 -8 9 6 4 -8 11 1 10 3 4 -4 -3 -14 7 0 -8 -1 -7 3 5 0 
-4 1 0 9 7 8 -3 2 -2 1 1 -7 0 8 10 -4 -2 -7 -2 -6 5 3 2 4 -1 -6 0 4 -8 2 -8 3 1 5 -20 5 0 -3 -4 5 -7 -3 4 -3 -5 4 -21 4 6 -5 -4 0 7 -10 -5 -6 1 -3 11 0 7 13 1 0 7 -2 -2 7 -9 7 -7 7 -8 -5 6 5 -6 4 -1 -10 0 4 -5 8 -13 -2 3 8 -2 -2 -10 -2 -18 8 -17 10 -2 -2 3 -6 5 -1 7 -3 4 2 2 10 -13 -9 -7 -1 3 7 -4 2 3 -1 1 -3 -7 -5 13 5 3 0 4 2 -4 5 8 -3 -4 8 -3 8 7 0 12 -3 -8 9 -3 -4 12 11 9 0 10 2 12 6 -3 5 -1 9 -11 15 -3 8 6 8 9 7 -1 8 -7 2 -2 -6 -3 4 5 8 6 2 13 8 -11 -14 13 1 -9 -3 -3 9 -12 -15 -8 1 -7 -7 -6 0 1 -2 -6 -7 7 -1 2 -9 10 0 3 -4 0 3 3 -7 -1 6 10 -15 0 -4 -7 -5 -5 -5 4 9 7 -2 -6 3 6 -3 3 7 11 6 3 4 -4 0 1 1 -4 -6 -1 3 -1 -9 -15 -9 1 4 -7 -7 -6 8 -5 -11 7 -1 2 -8 -2 -6 -13 2 -7 -7 -7 5 -11 -8 0 -5 -4 5 -5 -4 -9 -1 -13 2 -8 -3 2 -8 6 4 -2 -6 4 -11 1 9 -2 5 -4 10 -9 5 -2 6 1 -12 2 6 7 8 2 9 8 1 2 7 -3 -15 7 -1 9 4 0 0 6 1 -3 -10 -5 -6 -11 0 -4 4 -4 -8 2 0 -6 4 2 -13 -2 -4 -4 -9 -5 4 8 -2 -4 2 0 0 0 1 1 -1 7 9 4 -5 1 2 -10 -10 9 -12 -8 -1 -1 -5 2 -7 -5 -4 -4 6 -2 -6 -4 9 4 2 19 -1 3 11 5 -6 3 10 -8 5 8 -8 4 2 12 -1 -8 10 8 12 2 1 -8 8 -7 2 3 1 9 6 -6 -2 -4 -1 4 -5 -13 0 -4 -12 3 2 3 -10 5 -13 8 -6 0 -2 -8 15 2 16 5 2 -1 -8 -26 2 4 -1 -1 -4 -7 2 -2 -4 -2 -13 -4 8 -4 0 11 5 -12 16 -4 10 -11 10 1 -7 -6 -3 -2 12 -4 15 -9 8 1 2 6 1 8 7 3 1 -9 -4 -8 -6 -6 -1 6 6 -7 3 -12 5 1 9 2 5 3 -4 7 2 4 -1 8 -3 -5 -9 5 -5 -1 -1 2 0 -3 4 4 6 2 -1 8 0 2 3 12 -17 -5 0 -8 5 4 -3 2 15 -2 4 -3 2 8 -11 1 5 -1 11 -10 1 0 13 10 2 0 5 -2 6 8 14 3 9 -1 7 10 13 2 10 0 2 -1 0 2 1 -4 5 -4 3 3 16 9 -1 8 9 0 13 -3 6 -5 6 -4 5 -4 -1 6 -4 5 -5 0 11 -5 7 5 3 1 12 4 4 8 2 0 7 -1 13 1 2 12 -4 3 -1 8 0 11 1 1 14 2 4 12 16 1 9 12 6 14 5 7 -5 7 -5 -10 -10 3 6 6 -3 -5 14 
-9 10 6 -3 3 1 4 -3 1 2 0 -1 -2 2 1 -2 -5 -3 -9 7 -8 6 -6 -1 -13 -2 -9 -9 1 7 -11 1 7 -1 16 -7 -3 13 -10 4 -5 9 -4 -9 3 3 15 0 6 -4 -4 11 -2 1 -5 3 2 1 -6 1 -4 -5 9 -6 5 10 -1 2 7 0 15 -4 0 5 0 -9 1 2 8 7 -1 5 4 -7 7 -1 -1 14 14 -8 -1 3 1 -3 -11 1 7 -3 3 -11 6 10 5 -6 15 -9 2 5 6 4 4 1 -2 -11 9 -8 8 -6 -3 10 8 -3 -10 0 2 -14 7 10 3 -6 0 7 11 -1 14 9 -2 9 8 4 12 -6 0 4 -1 -5 2 6 -4 6 5 0 2 -1 -4 2 10 -1 12 2 0 6 4 -7 17 -3 6 7 1 5 10 2 -1 4 6 -15 -16 -8 2 2 6 0 4 -3 -2 -9 -2 11 1 -5 0 -6 -11 -9 -11 -6 -4 2 -9 9 3 -2 0 -1 -16 15 4 9 0 0 1 2 -14 0 -2 -5 12 -11 -2 -9 -5 -5 4 0 1 6 2 3 -2 -3 6 -4 6 -3 -7 -5 -12 -14 -13 -6 -11 -9 6 4 1 -2 -7 -7 6 -5 2 1 10 6 -9 1 1 -4 -11 -10 3 0 -4 -10 -3 -2 -12 2 -5 -9 4 8 0 15 -5 -12 12 2 2 -3 -3 -5 -15 -3 -14 2 -13 1 1 -3 0 -4 -6 -12 -7 0 11 -4 -13 -9 -4 6 -2 -4 1 6 -4 -7 6 -3 5 4 -3 2 7 -7 1 5 0 -2 3 3 -2 -8 -5 14 4 3 1 -2 4 7 -4 1 -3 -11 0 -4 1 0 -10 0 -2 6 7 -7 -5 2 3 -4 5 5 -2 3 4 12 4 -9 0 -1 -9 -3 9 0 -8 9 -7 -3 5 -5 -6 -7 -3 -14 8 7 4 0 -1 1 6 -1 12 2 5 -2 0 -7 6 5 7 -4 7 6 1 8 -3 -1 1 4 2 0 -2 -7 -7 2 -1 6 -2 2 2 -3 1 4 -4 -1 -11 -10 0 -13 -7 -4 3 -6 -5 -14 4 3 6 -4 -7 3 0 -8 3 -7 -2 -3 5 -14 2 0 3 5 -6 6 10 -4 13 4 -1 -6 -1 7 -12 5 -9 -12 -17 -1 -4 2 1 -4 9 -4 -8 7 -6 -6 2 -4 5 -1 9 8 -11 0 0 0 2 12 3 -4 1 3 1 -7 5 10 -5 6 10 -6 1 9 -13 7 1 4 -4 1 7 -4 7 -1 -14 -5 -2 2 2 13 -12 0 -3 -4 4 -4 16 -5 7 3 -1 2 -19 0 4 4 -7 6 8 -8 -1 3 -6 -7 -6 10 -5 -3 -9 -7 -5 1 -5 6 1 12 2 16 14 1 7 15 5 10 16 1 10 17 3 -2 15 -5 5 8 2 7 3 4 6 -4 9 -3 11 6 0 10 0 0 7 3 1 -5 -7 6 8 -8 0 14 -11 -8 2 -1 0 2 0 -1 -2 11 -3 -4 3 -4 7 1 -14 1 -4 -18 2 1 3 -6 6 -14 3 -3 -1 7 7 20 6 14 -3 17 0 1 -2 8 2 -2 0 -9 5 -3 8 3 -5 12 
14 -2 -1 0 5 9 10 9 10 -10 -7 -4 -16 -13 0 -9 -8 -2 -3 -9 8 4 3 -5 7 -2 -9 -11 9 1 1 -2 5 7 -3 17 -4 -1 -2 0 6 -10 4 2 12 1 -6 2 -1 8 15 -2 -6 1 0 5 7 -2 -2 0 10 -3 8 2 10 6 -4 5 3 10 5 7 -1 1 2 0 3 -5 3 -3 6 7 -9 6 2 4 9 -17 12 4 3 -2 -12 5 -5 -7 6 8 5 0 13 -1 0 0 -5 4 11 -3 2 12 -4 6 -6 -1 9 -2 4 -7 -1 -17 2 9 5 6 -5 5 5 -7 -5 11 10 -7 19 5 12 -5 8 2 5 5 -1 10 4 0 -1 5 5 8 2 -3 -3 -5 8 -3 6 8 18 2 2 10 13 1 12 9 -3 4 6 -1 6 4 10 -6 -6 6 -15 2 8 -1 6 -26 4 -4 4 3 -13 -4 0 -9 -5 -8 2 2 3 -5 3 -8 -11 -2 3 3 -7 -1 -9 -8 0 -10 2 1 5 7 -12 1 7 0 1 -3 -1 -3 -19 -7 -2 -3 -6 0 2 -11 -4 9 1 -5 1 21 5 -2 -2 -4 -3 -1 -8 -4 -1 -1 -13 5 -2 -7 -7 7 -12 -4 -15 -12 1 -13 3 6 -2 -14 3 -5 1 2 -8 5 -2 -8 1 -5 -9 6 -10 -13 -10 0 7 10 -2 -2 -5 6 -3 -4 1 -3 -4 6 -5 -1 6 -1 3 12 -9 1 1 -15 11 -2 -2 10 0 2 7 -5 -7 0 4 8 -2 -1 10 2 -1 -2 10 3 3 -7 1 7 -2 1 -3 6 -1 5 5 6 4 -3 5 -8 -6 17 -6 -13 -4 -3 6 3 3 3 1 -1 2 -11 2 -20 -1 3 10 9 1 -3 -10 9 -9 -4 -4 -5 7 -1 -8 -6 3 -2 0 -8 7 2 5 2 -4 2 0 3 1 -1 19 11 -8 1 -3 1 2 0 -5 0 13 4 7 2 -9 5 1 4 -1 -1 4 9 -4 10 7 -5 -6 3 0 12 -3 0 -6 7 -2 -1 -8 -4 -4 7 -7 3 -15 -2 -8 -12 -6 4 -16 -2 2 -6 -11 10 -5 7 7 -8 8 1 -7 -8 -4 3 4 2 -4 -6 19 -15 0 -4 1 8 9 7 4 4 7 1 6 4 -9 -9 2 -7 -7 5 -4 -10 2 0 -5 9 -6 4 5 -2 12 5 9 1 -2 -7 12 -7 -1 -4 -12 -1 -4 -2 -1 4 8 5 7 3 12 -5 2 11 6 -4 0 -3 2 -8 2 -6 -5 -6 7 -3 0 -11 -5 0 -9 4 -11 4 -3 10 7 7 16 -3 -5 2 -1 9 10 8 2 -9 -4 4 -1 -8 1 -2 5 -2 -6 6 -9 8 2 8 9 -1 -3 1 6 1 11 4 -1 -2 0 9 10 -7 1 14 -6 -1 5 5 6 1 1 19 1 8 13 -6 -1 8 6 9 1 -1 5 6 6 -3 2 1 -4 -5 1 4 3 1 3 7 -1 -4 -2 4 14 6 0 1 7 -2 0 6 -2 3 2 4 10 -14 0 12 4 20 4 18 13 5 -3 2 1 1 -1 6 1 3 4 -5 9 -11 17 -10 -6 -6 6 5 
18 11 4 -6 -3 2 1 4 0 4 -6 5 5 -7 -1 -5 -1 0 9 -4 5 -7 -13 2 0 4 0 3 -3 -2 4 2 -6 0 5 0 6 2 -7 2 2 -8 1 1 -17 -2 10 5 -1 -1 -5 3 -2 8 2 1 -8 6 -2 9 -2 2 5 -1 -1 1 -13 2 4 16 6 0 10 4 11 -6 3 -5 -10 -2 7 6 9 -4 2 12 7 1 1 3 -8 8 6 4 2 6 -9 11 9 -5 9 10 4 -1 3 1 0 -1 1 -2 7 -6 9 5 8 -12 6 5 5 -3 8 -1 -13 0 2 3 -4 0 7 7 -3 14 4 16 -3 1 2 5 0 8 0 12 3 -3 -1 -2 5 -5 15 0 -5 5 6 5 19 -1 19 -3 14 13 5 10 7 2 5 6 3 1 8 -7 1 -10 5 0 13 -3 7 -5 7 3 3 0 -9 -5 12 -3 -4 2 -5 6 -12 -7 9 -5 -7 -5 -7 -1 4 -4 -10 4 -4 -7 4 2 8 0 0 7 -3 -1 -3 1 -5 -11 1 -6 -9 3 -6 -4 3 -4 6 9 -6 -4 1 -7 1 1 -1 4 -2 -6 -5 6 -14 1 -4 0 -5 -2 -5 -7 4 -8 -8 3 -10 2 1 1 -7 -8 -6 -4 1 -6 3 -3 -11 5 -6 1 -1 3 -10 -1 1 7 4 15 -12 6 0 3 -3 0 -1 -6 1 -15 11 -2 -4 3 -12 -6 -6 -9 0 -8 -15 -14 4 -10 -6 2 7 9 2 7 -2 -11 7 -11 -4 -1 7 -6 7 6 6 -9 -5 -2 4 4 -6 4 -6 1 11 7 12 -1 -8 2 8 -2 2 5 0 -1 -1 -5 -2 -7 -15 -5 3 4 -1 6 -2 -1 13 -6 -6 12 5 -7 -12 9 -5 -5 -2 4 -6 -8 -11 -7 8 -2 -2 3 -4 -1 -2 19 3 5 3 -3 -2 3 8 12 -4 1 5 8 -11 6 0 6 -7 13 -7 1 -1 -2 8 4 -4 16 -1 -2 3 0 5 13 1 0 4 5 2 0 -1 -6 -3 -7 -7 -5 -3 -6 0 -16 1 -7 -5 -4 -1 -7 0 -5 -2 1 6 -7 -5 -9 -1 -6 -2 -7 -7 -3 0 -10 3 2 -9 -9 -17 11 0 4 -5 8 -6 2 -1 3 4 0 2 -12 12 -3 3 -4 2 -7 -6 -1 18 -1 -8 3 -1 2 11 5 5 1 -2 14 -4 -2 0 -1 1 -3 4 11 -6 9 1 -6 0 -11 3 6 -2 13 -7 -10 -2 -7 -3 7 -5 -3 -5 4 -6 8 -5 -8 -14 3 5 -1 -2 10 -5 -5 0 -11 -3 -3 3 1 2 14 2 -11 -2 1 -6 0 7 1 0 0 7 4 -1 2 -6 1 5 3 11 -2 9 5 10 -3 5 -5 7 1 15 11 -3 5 6 7 -3 6 11 3 2 4 0 8 2 8 -2 10 8 11 4 -1 0 18 3 -11 2 4 -9 7 -9 2 -7 -3 -10 1 5 5 -6 5 -6 -1 9 6 15 -11 7 -5 -10 -3 -6 4 -3 -6 -4 6 -7 3 -6 6 12 9 11 3 -1 -2 3 -6 6 -4 6 8 6 4 7 -1 -7 9 -10 -1 11 -2 3 2 
14 -1 8 5 7 -9 4 4 5 5 -5 -13 -6 3 -7 -2 -3 6 0 -1 1 7 3 4 4 5 -3 -4 -8 6 7 -11 7 -3 3 -1 0 -10 6 0 -11 8 -10 4 23 -1 2 -5 6 3 0 -5 -5 -2 -9 -8 -1 8 -4 -3 -1 -2 2 -7 0 1 -5 -1 5 -11 -3 7 -4 -1 7 -2 -1 12 9 21 1 -3 7 -3 8 1 17 -7 2 0 -4 -6 5 0 -3 1 8 4 5 -1 3 1 3 -2 6 12 -9 2 11 2 -5 3 -2 -8 6 15 1 -4 -2 -2 -1 -2 10 8 4 -1 3 3 -1 2 12 4 5 -1 2 5 7 5 -1 -4 3 -8 8 -1 8 5 5 9 -3 12 3 4 4 4 -10 1 0 15 2 0 2 11 6 -1 5 -3 -1 0 -8 0 5 -5 2 -10 -1 -9 7 1 10 3 -10 -4 6 -7 1 -15 4 2 -16 -4 3 6 -8 -9 -6 5 -8 -8 -1 4 -3 -5 -4 -12 -1 -13 7 13 -2 15 2 5 7 -2 5 -1 -10 11 2 -8 -2 1 10 8 -12 -1 1 -1 -2 -10 7 2 2 0 13 4 -6 0 6 -10 -7 -2 -2 -5 -2 -2 -2 2 -3 7 -6 0 -7 0 0 -1 3 0 -3 -5 -2 2 -2 -7 4 -2 -12 2 -8 -9 -4 -3 -8 -9 -5 -4 -4 -11 -8 7 10 0 -1 -8 -17 -7 -8 -5 4 9 8 -1 2 0 3 0 -3 -3 -15 3 6 1 0 -1 -7 8 -10 -9 -5 8 -2 -5 -2 -2 -6 9 2 0 12 -2 8 5 -3 2 11 -6 12 3 10 11 -2 -1 0 -8 -4 -3 -5 -3 -9 -13 16 4 -9 3 -10 -4 -1 -2 -1 -3 10 -11 8 3 -2 3 7 7 -3 4 -13 5 1 -3 -2 5 -4 14 6 1 -4 -4 1 12 5 4 -6 1 13 3 13 5 -2 18 1 9 0 -2 11 -8 -2 13 1 5 2 -1 0 3 11 1 -1 1 6 11 -12 10 -3 4 -10 -1 -10 -5 -4 -5 -1 -4 8 7 1 -6 2 -3 0 -9 2 -3 -1 -1 -7 6 5 -2 -4 -4 -3 -1 -5 -4 -1 -8 -9 -4 -18 -7 -1 -7 5 -6 -2 1 -1 -11 -5 1 3 0 5 11 0 -3 -3 2 4 -1 6 3 -6 -8 -5 5 -9 -4 8 -8 13 4 -1 -1 7 -4 0 9 -3 2 -8 -2 1 -7 -5 -5 4 3 -7 3 9 -5 22 -6 -1 7 3 3 6 8 9 -7 -4 -2 -8 -4 -16 4 0 -12 5 -5 -2 -5 -1 -16 -4 7 -3 -4 15 -4 0 -4 12 2 -2 8 0 8 -1 3 -4 -15 -9 -10 -1 12 0 12 14 -1 3 13 2 3 13 -3 16 10 8 15 17 1 2 4 3 1 9 -1 2 10 15 3 -7 -2 12 16 1 4 9 9 7 13 5 -4 1 9 -4 -8 7 13 -4 3 -1 0 1 14 9 -3 8 -11 2 6 5 4 -1 3 -10 4 5 0 9 -7 -3 4 2 3 -3 6 6 3 14 7 5 8 -4 2 3 -5 1 9 17 -5 5 18 -4 -5 -2 0 1 -12 -3 -1 2 -3 
9 -5 1 -13 4 7 -8 2 9 -16 7 9 -3 -2 -6 0 1 -1 4 -1 3 1 -5 -1 3 -8 3 -10 4 -7 -7 -1 2 -12 6 -6 4 -10 -2 -12 0 -12 2 2 -4 -7 -4 -5 0 -4 3 3 9 4 11 -10 -3 3 0 -3 -7 -14 -2 8 1 -1 -3 0 -8 -2 7 -8 11 -5 -3 2 1 1 15 -4 -4 4 6 19 10 4 -1 5 7 4 -5 7 -10 -6 6 7 -1 -9 0 1 8 3 8 11 -2 12 1 4 -2 -6 -3 10 2 -2 -15 7 -4 -3 3 -2 -3 -2 -3 14 -5 7 16 -1 0 3 8 0 15 1 5 8 0 -9 -4 -6 -3 -2 7 14 3 3 4 0 5 6 -7 2 7 7 10 6 2 1 -10 11 19 13 2 9 5 14 1 6 0 9 3 3 -8 -7 -6 5 11 -2 7 -3 3 -2 -6 1 -8 5 -7 -8 -8 2 -10 -11 -2 -11 3 -3 0 -1 -11 4 7 -2 -13 9 -2 -1 3 1 -10 8 -1 -7 -6 5 -5 -9 -5 -3 9 -4 -5 -2 -12 -1 3 1 1 -3 5 -9 7 -4 5 -1 6 0 -7 -4 -10 -5 1 -13 3 -8 -3 1 -13 10 1 -4 1 1 -14 -16 1 -5 -4 -12 -6 3 -1 2 2 -9 -11 -9 2 8 2 1 -2 -3 -1 -6 0 -7 -13 0 5 3 -2 -1 4 -9 -4 -6 8 -7 -5 -3 -12 0 -3 0 -4 -7 -14 -7 8 -6 -5 -2 0 9 -3 3 10 -3 -6 0 6 -3 -2 -12 4 0 5 5 4 -4 -3 5 -3 -5 11 -9 1 12 0 16 4 -5 0 -5 -3 11 -4 -4 6 4 2 -7 -7 -7 7 -8 8 7 2 3 -18 -5 -5 7 1 -9 3 6 -3 9 0 0 -3 -6 0 -7 -8 -6 6 -3 8 4 4 -2 -3 -2 4 0 -3 2 1 -4 19 -4 -2 2 3 4 1 -3 -1 10 -13 9 0 -1 -1 7 -11 3 6 -3 1 1 2 -5 10 4 -5 10 1 -4 1 -3 2 -3 12 -2 -22 -2 8 -2 -5 3 -11 2 2 10 19 0 -10 -8 -6 -11 3 -9 -5 -6 7 -2 3 1 -5 0 0 -5 4 12 -6 -18 2 1 -2 1 -4 7 -10 -4 3 -2 -4 -5 5 10 -12 -8 9 -1 -5 -1 1 2 -9 20 -1 2 1 -1 7 2 6 7 -14 1 3 3 8 5 3 -4 -3 -2 10 5 7 -1 0 10 -4 9 0 1 5 2 2 9 8 0 13 6 -18 -1 -2 -5 2 8 -13 5 7 -2 12 -1 7 -11 -4 -6 -3 0 3 0 3 -1 8 3 9 1 2 8 6 -5 7 7 5 -3 9 13 0 18 0 16 10 7 -4 14 4 0 3 11 14 5 -2 7 7 9 7 9 1 8 10 12 5 6 5 12 18 -13 2 -7 6 5 5 -3 15 3 2 -14 -4 -6 4 3 -13 7 2 2 1 14 0 6 3 0 1 5 2 -1 -3 -7 -15 9 0 -6 7 -3 -2 -3 2 1 -5 5 -12 2 4 -6 -1 -7 5 4 3 2 1 5 3 14 9 -1 -4 4 -1 4 -14 1 
4 -3 -3 2 5 1 11 -5 8 6 6 0 -2 -8 -2 7 -6 -6 -1 -7 4 6 -5 -1 -5 2 5 16 6 9 1 9 2 -5 10 2 5 5 -5 -2 -8 4 -2 -1 2 2 5 8 -7 -2 -3 -5 14 2 -10 6 4 12 5 -1 -9 14 0 -6 -13 10 9 6 9 6 10 -6 1 4 10 5 1 20 0 8 5 -8 12 10 18 10 -5 9 0 -2 6 0 -2 -2 -3 -1 6 -5 8 -9 14 -3 -4 15 -1 1 15 -2 -5 4 2 -8 -5 -2 0 1 -2 0 1 -4 1 10 14 -4 14 -2 -4 -3 -3 1 8 2 -11 3 -5 -13 2 17 -5 8 5 -3 -8 -4 1 1 8 4 9 3 9 -1 10 7 3 -7 12 4 3 9 -5 -6 5 4 4 -14 0 11 -13 -6 3 -3 -10 -5 4 -6 0 -2 -6 -7 -2 8 -8 -1 -5 -13 1 4 -1 -12 -7 -2 1 -1 -3 -2 -10 3 -7 -2 1 -1 4 -9 -10 -8 1 7 0 4 0 -5 -5 -5 -2 -2 0 2 -17 4 -3 -15 4 -9 2 -10 11 -12 -4 6 -2 -1 -7 0 1 -1 -3 -6 7 6 -2 -3 -7 14 0 -4 5 -6 -8 0 -1 -1 -3 2 5 -9 -2 9 0 -2 6 10 -3 1 -10 -8 3 -7 -17 3 -1 3 3 -8 6 -7 2 -1 7 -3 -1 -7 -5 -2 -4 -12 -13 -11 -22 5 -5 5 0 7 -5 4 -3 -9 9 2 9 4 3 0 3 -12 0 9 7 18 3 0 11 -7 -1 2 6 4 8 8 5 -5 1 2 -3 8 6 3 8 4 11 8 7 1 -4 7 -9 2 0 -6 -4 3 1 0 -11 0 -4 -5 3 -1 -7 -4 -7 -11 -8 -7 -4 3 -2 -1 -3 -2 1 5 -2 -4 -1 5 -3 10 3 0 6 -10 12 -7 10 8 2 1 14 11 2 3 4 8 20 5 2 1 1 4 19 10 -5 -3 4 6 -3 8 2 10 -1 -3 5 1 2 0 -2 -6 2 -3 5 5 1 -10 -4 2 -5 -2 -6 5 -14 -9 3 2 1 -5 -4 -9 4 -5 2 -5 -1 -5 -6 -9 -15 -16 -9 13 2 -9 -4 0 -3 -25 -5 0 6 -2 -5 15 0 1 7 4 -8 -3 0 -2 -2 -6 -4 7 -3 -4 7 5 -2 -3 -1 0 9 1 5 -8 3 1 -5 4 2 1 -2 -2 4 -3 6 -9 -5 2 11 3 4 8 -7 10 11 6 -1 -1 -4 0 7 -3 0 10 -6 -5 2 -3 -8 -6 7 6 -6 -8 6 -15 1 -8 7 0 9 11 -10 4 -13 -2 -2 4 -3 3 -11 -1 -2 -2 11 6 7 10 10 4 -6 6 0 6 -1 3 16 7 3 1 5 8 4 16 17 8 12 0 1 -2 -17 -5 13 -9 12 3 11 -3 17 8 -3 18 -5 -5 6 11 2 6 10 -10 -5 -7 0 -4 -2 5 8 -1 0 3 0 -7 5 4 1 4 6 6 -13 -3 1 -5 16 -4 3 3 -15 12 11 -3 5 -6 14 -4 4 7 1 4 2 5 -6 4 9 3 0 9 -6 4 -2 2 4 -9 3 -1 1 3 
-6 4 0 5 4 -7 -3 5 4 -3 3 6 9 9 -8 -10 -8 -1 14 3 -1 5 2 -7 -3 -9 -7 -3 0 -6 -12 2 6 7 9 -8 -18 4 0 1 -6 -10 3 -11 -1 -8 -5 -13 -11 3 3 15 3 4 9 -2 2 -7 -3 3 -2 8 -7 4 0 -1 5 -11 2 5 -11 4 3 11 -16 2 18 5 13 14 2 13 8 2 12 18 -1 -1 -3 5 -11 7 7 -3 -10 0 4 -5 -3 5 -3 2 15 5 12 7 4 9 -1 -1 8 10 -5 9 0 -1 -1 2 5 -3 2 9 2 4 5 7 -1 4 4 1 4 6 -11 7 6 8 3 -13 10 1 10 6 13 2 12 12 17 5 8 -3 15 -3 5 -10 8 -2 -7 -6 5 0 2 2 2 -4 5 11 7 2 2 3 0 3 6 3 -8 4 4 5 -2 3 -1 3 -5 5 -7 -7 -9 -19 1 -2 -18 -9 -13 -13 8 -8 -1 4 -1 7 -4 -4 1 -3 7 0 -2 0 0 -1 -2 -6 -10 -4 -2 1 7 -9 3 -19 12 -11 -5 1 0 6 -7 -2 0 0 2 6 3 -13 1 -6 10 4 -5 -5 -6 1 7 -7 -5 5 -1 -3 8 7 -1 -1 1 -3 -1 0 1 -1 -3 7 -10 -3 2 10 -5 2 -7 -8 5 -2 -8 -2 -13 1 -1 6 -2 -5 4 -6 7 0 -14 -4 1 -1 -9 -1 6 1 0 2 6 1 -8 0 -3 2 5 -10 -7 9 5 -5 1 0 -2 12 -2 -3 10 -4 -3 8 20 1 1 0 -5 1 9 -8 9 0 -1 -5 9 -2 -6 11 14 0 -7 4 7 -1 -5 0 11 -1 0 6 -19 -1 2 0 -4 -5 5 1 3 2 1 8 13 -13 7 1 -11 8 -21 -9 -2 -10 2 -1 13 -9 11 -3 0 -1 -9 -9 5 3 8 4 14 -3 8 0 3 3 -1 2 -12 1 -1 10 0 5 5 -12 4 8 4 -6 1 2 -3 9 -5 8 2 -3 4 -1 -13 13 -5 6 -5 2 -1 2 4 -12 8 -10 -8 -8 7 -1 0 1 -13 13 -9 -8 -3 -3 -1 -4 -6 -10 -14 3 2 -5 1 -3 -7 9 3 -10 -7 -9 8 -10 3 4 -5 5 -6 -6 -7 -2 0 -21 -11 -6 4 0 7 -2 -4 0 2 -8 4 7 -10 -1 4 8 1 6 8 -9 1 -2 3 8 5 -2 0 9 0 -1 18 -2 -8 3 1 -3 24 11 -14 4 10 -4 -2 -7 6 1 8 6 2 -15 -2 -5 -7 1 -13 5 -4 -1 -7 2 -3 4 -5 7 -7 -8 7 -4 -1 4 -8 -2 2 -4 3 7 -5 8 -5 7 -3 -1 -2 11 -2 9 13 4 14 14 -11 8 8 -14 1 3 7 6 -1 1 13 0 11 -4 6 7 5 8 5 6 8 10 13 2 11 15 5 13 0 2 7 7 4 -1 14 3 -2 8 0 -4 4 6 -8 2 -4 5 8 -4 2 -10 12 4 1 10 -10 -2 8 5 -3 0 -5 -10 -4 2 -14 5 -6 2 0 1 16 -7 2 -1 10 -1 5 -2 1 5 5 -5 6 2 -2 3 -8 -5 4 0 
6 4 -4 -5 3 -8 7 0 -1 -4 3 -6 7 0 6 5 6 -6 -11 7 -2 -9 1 -9 8 -8 4 5 -14 7 5 0 2 -2 -3 2 -1 -5 1 -8 -1 -8 2 0 -5 1 4 -7 -11 0 1 6 9 1 6 -7 -3 -5 -8 4 -1 -6 -8 -3 -1 8 3 -12 -3 -4 -1 9 -3 5 10 12 -7 -1 7 16 7 4 15 -2 11 -1 4 3 6 3 -2 2 -6 -2 4 -1 2 4 1 10 4 -3 3 10 8 -5 -3 7 -2 -1 7 -4 3 -1 -1 -12 3 6 9 11 -3 8 0 3 -5 3 2 6 11 11 10 10 -3 2 8 -10 15 2 5 1 -13 1 -7 2 2 -6 9 7 0 3 -4 -2 -5 1 -9 2 -2 10 -3 9 -5 8 -4 -3 -2 -12 -6 0 1 -3 7 -8 10 -1 -3 -8 -1 -12 4 2 -12 5 0 1 1 -5 -4 -1 6 -4 -6 -1 -4 -8 2 4 5 -1 -4 4 -4 -8 -2 3 -10 3 7 -9 -1 -6 -10 9 -3 -12 -4 -6 -8 7 -6 -14 0 -19 -12 -3 -5 4 -2 5 -1 -6 -7 -4 -12 -7 -11 -15 -1 -3 -7 6 -18 2 -8 8 10 -4 -2 0 3 -2 0 -10 6 -6 -6 0 -6 -6 1 -11 -5 -1 1 -1 10 -10 -5 -8 -2 -11 -7 -7 1 -6 2 -9 5 -14 -5 -9 -3 -12 5 3 2 2 -7 8 0 1 -3 -6 -2 -9 1 0 -1 -5 0 -5 7 -11 11 1 13 10 7 -10 0 -1 6 -8 14 4 -1 10 -5 6 0 -5 -4 -1 -2 1 -4 7 3 10 1 1 5 8 -8 13 -16 9 9 -4 -4 -1 -8 -7 -1 4 -7 -7 -13 7 -2 3 0 -8 2 -4 7 -3 7 4 -9 4 -4 9 -5 -1 7 0 3 -3 7 6 -1 5 -3 9 -2 8 -3 -2 12 -9 -4 4 2 -3 -4 -2 8 5 4 4 4 3 0 2 -1 -11 2 -8 14 1 1 1 1 0 5 -11 -5 -11 -11 1 5 -6 -10 -1 -1 1 -9 8 -5 -4 -8 -8 -9 6 -6 -4 11 -6 0 -6 3 -4 -10 5 -12 -7 -8 -4 10 1 -1 -7 0 6 -15 -8 -7 -13 0 -1 0 5 4 -4 2 3 -4 -9 -11 -1 2 -7 -14 7 -6 1 8 -8 -5 -15 6 1 -1 8 -2 1 1 2 -6 11 15 -6 4 -1 3 4 -5 2 5 -3 -7 14 1 1 15 3 9 10 12 14 17 6 0 4 -14 -3 2 2 9 1 -4 -1 0 2 0 -3 4 -7 6 0 6 -3 3 -2 9 -3 -7 6 -5 -1 9 12 9 4 7 -3 -6 -10 -16 9 3 14 0 16 12 17 -2 -9 12 4 6 6 -4 8 -6 14 -1 7 16 2 -1 5 9 17 4 11 -9 11 6 4 1 2 0 -2 11 -2 10 11 5 -5 -13 0 3 -5 -5 -4 -4 10 6 1 2 -2 19 4 10 -2 -1 -7 3 -3 -2 -3 1 2 1 12 -3 4 -10 5 -1 0 -3 8 0 1 -3 -6 15 -4 -6 -1 10 -5 -4 -20 4 1 0 -1 -3 5 7 -2 4 8 -2 8 5 2 
-1 8 6 -1 -5 6 1 -2 14 8 9 23 -5 0 0 -5 2 11 -6 -9 12 -3 -1 6 -3 -3 -6 7 -2 -6 12 2 8 7 2 14 -6 6 -7 0 -9 -11 -6 4 -6 -5 -2 1 -7 -1 3 2 -1 6 1 2 2 0 5 2 7 9 4 -9 0 -10 -4 6 7 13 6 8 16 -7 -6 -4 12 19 10 1 1 -1 15 -1 1 8 7 8 3 2 -4 7 0 0 -5 5 11 -3 -1 -11 -2 17 0 11 1 0 10 -3 6 9 -14 10 1 -5 -9 2 -11 2 -6 -4 7 1 -3 8 -2 11 -11 12 7 -7 -10 3 5 -10 0 16 4 4 4 10 -6 8 0 16 14 6 4 2 4 -1 11 -1 5 -5 -3 6 14 4 1 7 0 8 6 7 11 -1 6 0 1 3 2 -5 5 -5 3 -3 7 2 -1 2 4 2 2 5 -8 -4 -5 0 -7 -9 -5 -6 -1 -7 4 0 -2 -11 2 -11 7 -13 -2 2 -9 10 2 -2 -8 -4 -12 -3 -6 6 2 -15 0 -6 7 -10 -10 -10 -8 2 -3 -1 7 0 -2 2 4 -8 -12 -2 -4 -1 3 -10 -3 4 6 -10 -13 6 -6 -6 6 3 0 -1 -4 7 -6 2 7 9 -4 -4 4 -9 -2 12 -10 -2 -14 6 0 -6 2 9 -1 -13 2 -10 2 -5 -8 2 3 -13 6 0 -8 -7 -9 -7 4 -3 -9 0 16 -6 -3 -7 -2 -4 5 -6 -13 -7 11 -2 7 13 1 1 -3 -12 4 -1 7 2 -11 0 -5 8 3 8 8 10 10 -7 8 -1 -10 7 4 4 0 14 6 7 3 -4 6 11 10 1 -1 3 0 -7 -21 0 -2 -2 -3 -7 -1 1 -12 3 -6 1 -1 -4 6 0 -6 -1 2 -6 -2 2 -6 -6 -7 4 3 -2 3 -3 -2 10 3 5 -8 -11 -3 9 4 3 3 -6 6 -6 -3 3 1 -4 -7 -8 1 -5 2 5 13 -3 -4 4 -3 -3 -1 6 3 -6 -5 9 -8 -6 -1 5 -2 -7 7 -7 -4 -11 -8 -4 14 6 -21 -5 2 -3 -2 8 -11 -10 1 -5 8 -7 -7 -5 -8 -7 4 4 10 -7 -10 -6 4 -9 -8 -7 0 -8 3 -7 1 -1 -20 3 -11 -5 -11 -3 1 6 -14 8 -13 -2 1 -4 13 2 -1 0 -1 11 18 3 3 4 5 10 -3 10 -4 7 7 1 -1 -2 13 11 -5 -5 4 -2 10 5 -2 3 -2 4 10 1 6 -9 -4 11 7 9 -5 -6 2 0 -1 -7 2 -5 2 -3 -3 2 -5 0 -9 9 -9 11 10 0 8 -7 1 -8 0 -8 2 -2 1 -2 -1 -5 5 8 4 2 2 5 5 14 7 -3 3 5 16 0 2 4 11 -10 2 -5 9 10 1 4 4 2 9 0 7 6 3 9 15 7 2 0 3 1 6 2 0 0 -8 11 -6 13 -4 1 -3 6 3 8 4 3 11 -1 14 5 -4 1 -5 -1 2 -4 -7 7 -5 -4 -2 0 3 -9 -1 -5 1 -1 4 -9 -1 3 -7 3 1 11 -4 -2 4 2 -2 16 -3 -7 -14 3 -8 -3 2 -8 -5 -7 
-2 5 9 3 -7 4 -8 0 6 2 1 -7 -5 9 4 -5 7 9 -10 0 -5 -6 1 3 -3 11 -1 1 18 -9 6 -12 -1 -4 7 0 0 20 -3 4 -5 8 -15 2 -6 8 -5 -1 -14 8 -13 -5 17 -12 6 0 1 0 3 7 -2 5 6 -5 8 5 0 2 6 -1 4 -1 4 2 -4 8 1 1 11 1 2 -1 15 7 4 9 -4 5 2 0 -1 -5 2 4 12 -1 4 7 13 10 -10 8 9 4 3 6 -7 9 -1 -3 14 3 -9 -2 11 -7 4 2 -3 -6 4 3 -4 6 12 1 -8 4 0 9 13 3 8 6 4 -5 -10 4 -8 -2 6 15 1 8 1 4 1 5 -4 12 -7 -4 9 -7 0 13 2 1 -6 -2 8 -10 12 0 1 -15 5 8 2 7 2 1 -7 -10 -5 0 4 -6 5 -12 -1 13 1 -1 5 9 -5 14 -20 5 -2 -15 -7 -5 -3 2 -3 1 -3 -3 -6 -4 4 -7 -8 4 -7 -3 -9 -5 -4 -16 -2 -8 5 -5 -13 -6 -5 -9 -3 8 -18 -12 2 -16 7 -7 2 -19 -18 -13 -11 -8 -10 -1 -1 1 -3 2 -1 -3 -4 -7 -1 1 4 4 1 4 12 1 4 -2 6 -5 -3 1 -6 4 -6 -5 -3 -1 -6 0 -3 1 4 -6 -1 2 -5 -2 -5 -7 1 -5 -1 -6 -9 2 -8 4 -16 7 -1 -4 9 7 -4 0 4 -5 8 -6 -7 6 6 13 -2 -1 5 1 -1 7 5 -3 6 1 6 13 15 -2 1 9 -4 10 6 11 6 6 -2 -4 -4 -7 17 4 2 19 1 -3 5 -6 1 5 -1 -9 6 -4 -2 -15 7 -7 10 -13 -12 -13 -2 2 0 -5 -4 -8 10 -6 -11 2 10 -10 3 13 13 -4 -6 9 -1 -5 5 -3 -10 7 -3 1 10 0 16 16 -1 -4 -8 3 -3 0 -7 -5 9 1 -14 5 -8 2 -7 3 -11 -4 0 5 4 2 -2 11 16 -5 3 0 0 -6 3 15 -6 5 4 7 -16 2 -3 -11 -2 -7 -12 -8 -12 6 -5 2 -6 -8 -4 -7 6 -13 -1 -7 -6 2 -11 -5 10 1 -6 1 -1 14 -7 0 2 3 2 -6 2 -9 -17 1 -5 4 -3 -10 7 -2 0 1 2 -8 9 8 0 5 0 5 1 11 2 -2 -1 0 18 3 4 -1 0 14 -4 6 -3 13 7 -6 -7 10 -1 10 -10 5 12 2 11 -6 14 -15 8 4 16 0 4 0 4 -1 -4 4 -5 -5 -4 13 -3 5 3 -3 3 -5 -5 -5 3 7 12 -4 2 4 0 5 3 4 5 2 -11 6 10 10 -4 -4 3 5 5 -3 10 6 10 6 7 12 6 12 7 11 14 0 1 4 12 8 -13 3 9 14 9 9 4 18 6 13 3 -7 2 3 5 9 0 -3 18 0 7 8 6 -7 7 -9 4 1 -2 -7 -1 19 -6 -1 12 9 0 5 6 7 -10 -3 -4 5 -8 -13 2 7 -10 7 -6 2 -10 1 2 -2 -11 6 3 3 1 2 4 -6 -2 2 -2 -8 -5 0 5 1 -7 7 15 3 -1 5 10 4 
-2 3 -5 -3 1 -1 10 -9 6 -2 10 3 10 -8 -1 2 10 -4 17 3 -13 -4 -6 3 -2 -5 -1 -11 -5 -2 -4 6 4 4 -2 6 7 -5 -15 4 -6 -3 8 -2 -1 3 -2 -1 -5 -14 -3 3 -13 -8 4 15 -4 9 8 -4 1 -10 -3 10 10 -8 9 8 -1 -1 5 7 5 7 7 14 1 5 -6 -2 3 -2 5 10 6 4 -9 -10 7 10 4 0 -5 7 4 -5 8 -4 7 -1 -6 12 5 8 1 11 16 9 2 8 2 -8 6 11 -2 -3 -2 -3 3 -1 1 -5 6 -4 -3 13 -2 3 2 4 2 8 12 1 -4 -5 -5 4 -15 6 10 -7 1 12 10 -4 11 -4 6 3 7 12 17 -3 1 5 11 -7 -5 10 4 4 -3 8 10 -4 -7 14 -18 -8 -13 5 -5 4 -12 4 -1 -9 -2 -1 -3 12 -9 11 -11 -6 8 -3 8 -8 -8 0 -3 -11 -14 2 4 -10 0 -12 -6 0 -4 1 -4 -5 -8 -10 -4 -2 -8 -11 -8 0 4 4 -12 -7 -11 -14 -5 -3 -3 -13 4 -12 -14 -2 3 0 -8 -9 3 -8 -2 -9 -10 -2 -5 3 -2 -14 -6 -5 -1 -5 -4 4 1 -6 -3 0 -10 -7 6 6 1 -4 1 0 -3 -1 1 3 -6 4 0 -7 -5 2 8 -9 -8 -6 -6 -4 0 -2 1 -11 1 2 -8 -8 -6 -4 -4 7 3 -4 -3 1 2 -1 -1 -1 5 8 -2 4 -5 -7 -1 6 -4 -5 -1 10 -4 8 9 -6 4 -2 3 0 14 -2 14 -6 5 -2 12 11 1 5 2 -10 7 -2 4 -2 2 -6 4 9 -3 -3 -6 -11 -8 -2 -9 1 -7 10 4 -1 -4 5 -9 4 4 -4 -3 -13 3 11 3 -1 -2 -3 -8 -4 -10 -10 1 -6 3 -3 8 -1 0 -4 0 4 -7 -1 -1 -6 -1 6 -2 3 -5 11 -5 9 10 -1 3 -2 -9 -5 3 8 -3 17 -4 -3 2 6 7 -3 -7 7 0 8 -2 2 -4 -16 8 -10 7 1 -5 3 -2 -1 9 5 -3 -10 5 4 7 -4 -4 -5 3 0 7 -10 -6 1 -2 -1 -11 13 -10 2 8 -7 3 5 -5 -4 -5 1 -3 -8 0 -2 -1 -5 -1 -2 -4 10 -8 -9 -4 2 -5 -8 2 -7 13 7 4 -13 1 3 0 8 7 -3 13 5 6 0 -2 8 7 8 14 -1 -4 10 6 3 3 4 -6 8 7 3 9 7 7 1 15 2 9 12 11 3 13 0 -9 15 4 -2 7 -1 -4 -2 1 -4 -6 13 -6 -6 2 12 -2 10 -5 4 9 1 6 10 -2 11 -7 5 9 9 10 -6 -6 10 -5 9 6 2 5 -5 10 -1 7 1 2 10 10 12 1 -4 4 6 10 4 0 9 12 -4 8 6 8 17 12 -5 4 8 12 15 1 -1 7 10 -14 3 -4 -2 -9 -6 -5 5 5 -4 10 5 2 11 1 4 8 1 9 -2 5 4 -6 9 -3 1 4 -7 2 2 2 5 1 5 -6 -7 3 -12 7 -6 -1 7 -9 12 -4 7 2 6 -6 -14 10 -14 -2 5 -11 -8 -5 -5 
-11 -1 4 1 15 -2 2 5 -13 2 -3 2 -7 13 15 -5 -15 1 -6 23 5 6 3 0 -1 2 -1 4 7 -3 -2 5 -9 6 9 -6 0 2 -3 -2 -7 -6 -17 8 -3 -6 7 -7 6 -7 -1 -5 -1 5 -2 3 1 3 -10 3 3 4 14 13 2 -3 7 -9 14 8 10 -1 10 0 12 13 12 5 12 7 11 -2 11 14 16 5 8 10 -7 2 5 -2 17 5 -1 7 10 5 -8 14 -2 4 9 12 -3 -6 11 5 6 -4 -12 7 -8 1 -1 -1 11 4 0 2 -5 4 6 6 -2 0 4 12 6 5 5 2 -5 3 7 5 15 -1 -1 3 -6 9 -4 -10 0 9 8 1 12 16 -4 2 -4 6 3 -3 -2 -6 8 -3 -4 1 8 -2 0 4 6 -12 0 0 8 -1 -11 -4 -4 -7 8 -6 0 5 2 5 -3 2 2 -1 -3 -12 -10 -12 13 -4 -5 -2 4 -11 -4 -6 6 2 -4 0 -3 -6 -12 0 4 -6 -12 -15 -9 -13 3 -15 -4 -4 -10 -6 -14 -2 -15 -8 -8 -1 5 -9 -3 0 -2 -3 -6 -4 -8 0 -4 -10 -3 -5 -12 -9 0 -7 -7 -1 -3 -7 -8 -6 -9 6 4 6 -2 -3 -3 -6 -2 7 -1 8 5 0 16 -6 -8 -8 -1 1 -2 5 -3 13 3 -20 1 0 -2 3 -4 -5 -1 3 6 -7 -8 -1 -14 -13 -8 0 -7 -6 -12 5 3 0 -4 4 -6 -5 -2 -1 -4 -7 6 0 8 5 4 -1 2 14 8 6 14 -5 4 -5 8 14 12 1 0 10 5 10 5 7 9 5 8 4 -8 -7 -7 -4 2 -10 1 1 2 0 -4 4 6 -1 4 4 7 2 10 -2 2 4 4 -6 -7 0 3 2 -8 -7 -6 -5 2 -4 3 -3 -6 -8 -1 -7 4 1 0 -1 -8 3 -7 -9 6 -8 -10 -4 -18 -4 -5 3 3 -1 -8 -2 2 -2 -3 6 -8 0 4 -1 17 5 8 8 -5 3 -12 3 7 -10 7 -13 0 1 -2 0 -7 -1 0 3 -6 1 17 1 3 -6 -15 3 -2 12 -4 0 -6 -4 -11 -1 -1 4 6 -11 2 -13 2 5 -16 -6 -1 4 -5 5 0 5 -9 -2 -3 -7 -11 -9 -4 -6 12 -10 -7 -7 1 2 -7 8 9 8 -3 -4 -4 -4 3 8 2 5 -1 3 -6 4 7 2 6 -4 -4 0 12 6 -3 11 2 -1 6 5 0 6 6 6 5 0 -5 -3 12 12 -4 -4 -4 -7 6 8 1 -5 -3 1 1 1 -6 15 -4 14 -3 -2 -1 -3 7 -5 7 3 3 -9 5 5 -1 -1 -2 9 -5 -4 3 -5 2 8 8 -5 5 8 -1 -4 6 3 11 1 12 11 13 7 11 0 14 5 10 3 -2 7 14 2 3 11 8 1 8 -1 4 12 3 1 9 15 -9 0 -1 -7 2 4 3 6 -1 -8 -1 -6 7 4 -3 -2 7 -1 0 11 -7 -4 -2 -1 -12 14 -4 -6 12 13 -2 -7 6 -9 15 -6 7 4 9 11 -7 13 3 -6 5 -2 9 -5 -11 6 2 5 -11 1 -1 0 -7 -1 -10 3 
8 -6 8 4 -7 5 20 4 0 -2 1 11 5 8 -9 13 -1 -7 0 -3 1 -2 15 -4 0 9 5 3 7 2 -5 -5 5 1 -4 2 -6 14 -5 2 -17 -5 -9 -10 -7 12 8 -6 5 9 9 2 -2 1 7 -8 -1 11 0 15 -8 0 -7 2 18 -11 0 6 0 7 7 11 -4 13 -9 -1 11 -4 4 6 2 12 -10 11 7 0 4 8 8 -5 -1 3 5 -5 13 -3 6 4 4 6 1 -1 5 4 0 5 2 4 -7 4 7 2 5 -4 -3 -7 7 2 1 -3 3 4 -8 8 16 -4 -9 0 2 1 -2 1 10 -7 0 -4 0 2 3 5 12 0 -1 15 2 -8 13 12 4 12 -8 4 11 7 8 6 7 11 0 -2 12 6 1 -1 4 -2 1 -5 -9 -17 -2 -7 13 3 3 1 2 2 3 -2 -5 4 2 6 -2 -3 8 -5 -1 -12 -4 -11 3 -9 -4 -9 -8 -5 -5 -7 3 -4 -5 7 1 -15 -6 -15 -11 6 -16 -11 -14 -12 -9 -12 -8 -6 -17 -4 4 -8 -10 -8 -2 -14 -9 -3 5 -11 -10 -7 -6 2 -5 -3 -4 -5 -11 -12 -5 -7 -1 -9 -10 -4 -6 6 -1 18 6 7 7 10 -1 -1 -1 -12 3 1 7 6 0 -4 -1 8 -11 2 3 -17 3 -1 -7 -10 -3 -7 3 -6 -1 4 -6 -17 -18 -5 8 -12 -3 0 -5 -7 -6 7 -1 1 3 -3 3 6 9 17 0 7 -4 -2 -1 4 -1 -4 -8 -1 10 -7 -3 9 1 13 0 11 2 2 6 8 8 4 3 9 5 11 1 9 15 -3 3 -4 -2 -9 0 0 -13 4 -14 -3 -5 -8 -4 2 0 -1 -4 2 -6 8 3 1 -9 2 3 -12 4 6 1 -2 5 -4 3 -2 -16 -12 -3 3 4 -1 -4 -7 -6 4 -6 -10 6 -7 12 -6 2 -13 -8 -1 18 -3 3 1 2 -3 7 0 0 3 -6 -4 1 7 -5 -5 -8 -4 4 6 -7 -2 -3 -3 -7 0 -16 4 -8 -4 3 -1 -5 -5 5 -1 -10 3 -4 8 -3 2 -10 2 -1 -6 2 -4 -4 0 -11 -6 2 -4 -9 -13 -2 -6 4 -2 -2 -5 -1 -10 -15 -8 -2 -6 -4 -4 0 9 -1 -4 -2 0 -7 0 -7 -4 -1 -2 0 -3 -4 -5 0 11 14 4 14 -8 6 21 2 2 6 7 -2 2 -2 15 -5 -1 12 -5 5 15 5 3 4 -5 2 6 14 8 -2 -2 -4 0 -2 5 -4 8 -10 -6 -9 7 7 3 11 -7 -8 2 -2 5 -4 12 -3 5 6 5 0 -9 -4 -5 -1 2 8 13 -10 1 10 0 -3 10 0 -10 13 4 8 1 -7 4 5 10 8 5 9 5 -2 14 1 13 3 3 6 11 7 17 8 0 12 3 -3 8 12 6 10 -9 12 0 11 -5 -8 0 8 6 0 5 -16 14 9 8 3 14 7 6 -1 -7 0 -8 10 -4 11 5 -3 11 0 -8 0 -5 12 -8 -2 4 -5 2 2 -4 -6 -7 -6 -16 4 8 -11 3 3 -9 -9 11 5 0 -8 0 -1 1 -7 11 -2 -4 1 -16 
13 -3 9 4 -10 8 -2 -4 -1 -6 8 8 -3 -4 8 1 5 8 8 8 1 12 -5 -11 5 11 7 8 -2 10 -8 2 6 6 -8 1 -1 -1 -1 -2 -13 -3 -10 8 4 -6 -10 6 4 6 -12 -6 6 7 8 -12 7 -2 -1 -5 -5 4 2 6 2 12 -10 10 5 0 4 3 7 15 6 4 0 12 9 13 3 13 0 21 -4 14 6 6 9 11 7 -3 -10 16 -6 9 3 6 14 -5 10 5 1 -10 11 8 -2 1 6 -6 -3 -4 9 15 7 3 11 -6 2 10 4 5 -5 -1 -6 -2 13 -6 6 4 12 2 1 2 -5 1 1 -3 5 0 -15 10 9 -14 4 7 -1 11 -15 -3 5 -6 4 0 0 4 -3 11 -4 5 -1 -3 4 -1 3 2 5 -2 3 1 5 2 -4 6 8 5 -4 3 2 -10 5 3 1 0 -2 0 5 0 -2 -12 3 -8 -7 -10 -6 -1 7 -10 -6 7 -5 -6 -10 -1 -6 -6 4 2 0 -10 -5 0 -10 -9 -16 -1 -9 -12 -1 -12 -7 -9 -6 6 -7 -16 -6 -17 0 -3 -13 -7 -14 -16 -14 1 8 -10 -6 3 -11 -10 -5 -2 1 -2 -2 2 -3 6 2 9 -8 7 -1 -8 -1 5 1 15 -7 3 -2 7 -9 -13 3 -2 0 -14 -11 7 -2 0 5 -12 -10 -2 2 0 -10 -2 -6 5 -2 4 -9 -8 -6 0 -3 -5 10 3 5 5 1 -7 -4 7 3 5 0 1 -1 -16 -7 -7 3 -4 -2 8 10 4 5 -8 8 2 2 4 -1 5 7 1 11 -4 2 -4 -1 11 -5 7 0 -10 3 -1 2 -5 9 -11 7 1 -3 3 -7 1 1 2 1 7 1 5 15 1 -1 -4 0 2 3 -2 4 5 -6 -1 0 -6 -15 0 -17 -6 0 4 0 -2 -5 6 0 1 -2 -11 -6 0 -8 -6 -5 -9 -2 -17 3 -9 2 -7 4 -5 -12 -1 2 13 -8 -4 -2 -9 -15 -2 -6 -14 5 -15 11 -4 12 9 -5 -3 6 -3 1 -13 -2 1 0 -2 -7 6 0 -9 16 -2 6 -3 -1 -13 -6 -2 -4 7 5 2 -17 -1 -6 -4 -6 -9 -1 -7 -5 -6 -9 4 2 4 -3 5 -11 6 5 -5 -3 -3 -7 -9 -4 9 -7 -14 6 -2 2 -4 12 6 -6 1 -11 9 5 11 7 -6 10 0 7 2 -10 8 -3 -3 -3 -9 4 6 16 3 2 7 8 6 5 7 6 9 13 -2 12 10 6 12 1 -13 2 -8 -5 4 3 6 10 3 0 6 -6 20 5 12 -2 7 -2 1 0 -3 -12 -1 -9 -10 7 2 6 0 3 -4 4 3 0 6 13 10 -10 4 -1 10 6 8 12 3 3 7 -8 4 -2 4 11 3 11 -14 10 9 -10 15 9 -1 16 12 2 -6 17 4 5 -7 7 15 5 0 -15 1 -4 0 -1 -7 1 3 5 7 -2 5 8 0 -1 1 -1 11 -3 -3 3 -5 -2 2 -2 -6 -23 5 -6 -8 1 5 3 4 -4 10 7 10 -7 -7 -4 -2 8 10 3 3 1 0 -8 -11 8 -10 8 -5 9 -1 -3 2 
-7 1 -2 -14 19 -2 3 4 9 -2 -2 1 -2 -2 -4 -1 -8 -2 -8 1 0 7 1 10 9 -1 3 -16 2 8 -1 0 -2 -5 3 7 5 -12 3 -1 12 -3 -2 -4 -6 4 -2 -4 -3 1 -7 2 0 3 1 9 -3 12 0 7 -1 -2 -9 4 4 0 1 11 7 2 -3 13 12 1 9 4 3 16 19 -2 22 8 11 2 11 7 17 -9 10 0 11 0 13 5 7 5 6 -3 -5 1 13 13 -4 6 0 6 12 4 -6 16 6 2 -4 -6 -5 6 1 2 9 7 3 2 -10 -12 -15 4 0 7 -3 -5 -4 -1 -6 -11 -4 1 3 0 16 -3 -3 3 3 1 4 -8 5 -3 4 4 -13 5 4 2 3 4 11 -1 -2 19 -22 -4 -6 -8 -1 9 -6 7 -9 6 -4 -8 10 1 5 -3 -1 4 -3 3 8 -5 2 -11 0 6 5 -1 3 7 -8 -6 -8 -15 17 -5 -6 -5 -14 -2 -15 -2 -6 -6 -10 5 0 -12 -21 -7 -10 -14 -13 -18 -16 2 -18 -1 -3 0 -10 -2 -6 -4 -10 -9 -8 0 -16 -11 -9 -15 3 1 4 -1 -3 -4 -6 -6 -4 -6 -15 -1 -1 -6 3 -4 4 -1 9 3 -5 6 4 15 -2 0 -5 2 -2 -8 2 -5 -7 -8 1 11 5 0 -11 1 -6 -18 3 -8 -1 -2 2 -4 0 -9 1 -10 -4 11 -2 -12 5 -6 0 4 -2 0 -4 5 3 0 8 8 2 -1 1 3 -10 3 3 2 1 8 13 6 0 -5 3 3 6 2 6 1 10 18 1 4 -3 -12 0 1 -2 -14 -6 -8 4 3 8 10 5 5 4 7 12 -9 4 -5 9 5 -10 5 14 -7 6 -1 -1 -4 -2 6 -3 -13 5 -4 -1 -13 1 2 -10 2 -8 -5 -7 0 -1 -6 0 10 -8 -10 7 -4 0 1 -7 -3 -16 0 -10 3 -5 -13 -4 -3 -5 -9 -9 -3 2 -15 12 4 3 3 2 9 -1 -1 -7 8 -1 3 5 -9 -10 -6 -10 2 -3 -5 -3 0 10 -10 5 -6 -4 -5 -19 5 1 -4 -3 -6 1 -10 -7 -5 0 -8 -10 -18 -3 4 -11 -5 -5 -6 -3 -7 -6 6 1 3 -9 -6 -11 5 2 6 4 -12 -4 2 3 -1 -14 -8 -1 6 -7 -2 4 2 7 -10 1 10 3 -5 15 11 -2 5 12 3 -3 4 -5 12 -4 7 -1 5 -7 1 5 -2 12 -2 5 10 11 8 5 7 13 -9 8 4 3 9 9 -9 6 2 2 -4 4 0 0 1 3 1 1 6 12 3 2 4 24 10 -1 -4 -1 -12 8 -7 12 10 13 10 -1 4 16 0 8 -7 9 0 15 3 5 14 3 0 4 4 4 4 8 2 -6 2 5 -5 6 4 -4 12 8 16 10 -1 5 18 -4 12 -10 10 6 -2 -1 5 7 5 2 0 0 0 -1 5 1 5 -2 1 11 6 2 4 5 6 13 5 -4 1 11 3 -7 -1 -5 1 2 -3 -7 -1 -14 4 -19 3 -2 -1 3 -5 0 -10 6 -14 2 3 -9 -1 -7 1 3 -4 -20 0 3 -2 12 5 -15 3 
7 12 14 6 15 6 9 -14 1 3 5 10 7 -10 -5 2 8 12 -6 -3 -1 -3 -5 -3 4 2 -3 5 5 -2 8 0 -2 7 -3 2 2 -2 -1 -1 -1 -13 -1 10 14 -10 1 0 -2 3 -3 5 -2 -1 -2 1 -9 -9 9 -10 6 3 -2 5 0 13 7 -1 -3 11 0 4 5 0 8 4 9 4 12 21 16 8 9 9 12 2 7 4 12 -5 13 4 0 1 6 -3 -7 5 -3 14 -5 8 16 -2 9 4 -1 -4 3 0 8 5 -1 6 5 -8 1 -1 15 -8 18 0 -5 8 9 -1 -7 2 -1 -4 11 -3 6 9 -4 6 -4 1 -7 4 -2 0 9 4 1 -5 -6 8 -13 5 2 -13 -1 16 1 -9 9 -7 0 -18 5 -6 -4 -9 8 1 0 11 1 6 9 5 -3 -7 -10 9 -5 1 -1 6 -1 10 7 8 4 4 -8 3 -2 -10 -1 -7 6 -4 -5 -3 -1 -2 2 -10 -1 1 -7 -5 -7 -9 -5 -7 -7 -8 4 -6 -11 -11 -6 -19 -11 -17 -7 -1 -2 1 -11 -8 -12 -8 -6 -3 -10 -12 -2 12 3 0 1 4 5 1 -9 -1 5 -16 -2 -5 -15 9 5 1 2 14 2 -5 -1 8 -10 6 -7 0 -1 -2 6 -2 4 -6 0 -5 7 -10 6 1 -3 -6 12 -3 -7 -1 4 -13 -5 5 10 -1 -9 -2 -3 -9 3 -1 -1 4 9 -7 -1 -3 4 7 -8 7 5 4 -2 -8 0 7 -8 8 10 7 1 -5 9 -9 9 -4 -9 -7 -8 9 -2 7 9 -12 22 11 -6 16 -1 7 7 13 2 7 2 10 -2 -2 -1 -1 7 -6 -4 -4 5 -6 0 -6 1 -7 -1 -1 0 -5 -6 6 -4 -5 -6 -7 0 3 -9 8 -6 1 -3 -11 2 -6 -9 -6 -2 -9 11 -3 -10 0 0 -5 5 -7 0 -18 -4 -13 4 -16 -13 -8 -3 1 6 9 -8 8 -10 6 -3 1 9 -3 0 0 3 -2 5 3 2 5 5 13 -2 3 -1 16 -7 5 2 2 -7 3 -11 12 -7 9 1 -1 -6 -2 -1 -7 -3 -22 2 6 -5 -5 -9 -2 -10 -4 -12 1 -2 -3 -1 -6 3 -2 -6 1 -5 -18 -4 -3 -6 -10 9 -5 3 -1 0 -1 1 1 5 0 -6 15 -5 7 -4 5 1 9 -4 2 -5 8 1 -1 -7 -1 1 -2 4 -1 -4 -1 5 -1 -5 16 5 8 -4 -2 7 8 -5 16 -1 0 5 18 6 6 10 0 2 2 8 -4 1 5 11 -3 11 -4 3 10 6 7 9 9 -4 1 1 -9 2 -2 5 5 5 -6 -4 12 3 -10 13 8 -2 -4 0 12 -11 9 3 -6 9 11 16 -1 11 4 -5 12 15 9 9 -3 4 -4 0 6 -1 5 2 -13 31 11 5 4 11 2 0 0 3 9 -10 6 1 3 1 7 7 -2 -9 4 14 4 0 4 15 -1 -4 3 13 2 7 9 6 1 5 1 -4 -6 -9 -10 3 -7 8 -17 -7 4 13 -2 0 12 -3 -2 0 6 -8 9 -7 12 0 -3 5 -4 -15 0 -10 -2 -4 -11 9 -2 11 -5 
7 0 4 -3 1 3 3 0 2 -3 -7 -2 -9 10 2 5 6 -3 0 -1 -6 19 -2 14 1 -7 4 5 -9 10 -2 -6 -2 -11 -3 12 -5 6 6 -2 3 -6 8 -12 2 -7 -2 3 -2 -8 2 -1 2 8 -7 5 4 -5 9 -6 3 9 14 9 3 -1 5 5 11 3 -4 15 4 3 12 3 3 10 15 7 10 7 13 -2 11 7 15 10 -5 7 -3 6 5 8 0 4 5 -1 -4 7 5 -5 -6 -7 -11 4 0 12 12 -6 3 -3 5 5 6 0 8 5 1 0 -1 3 -5 3 -2 -3 10 -2 1 6 0 12 8 0 -2 -3 -5 -3 3 6 5 3 8 -7 -4 -4 1 -9 10 -5 -1 -1 -1 -9 -8 -2 -6 -14 0 -3 0 -12 6 2 -3 9 -14 5 3 -8 2 17 8 15 -1 3 -3 6 10 0 2 7 -5 5 -10 1 -2 1 -10 8 -10 -6 5 -8 2 3 1 1 3 -1 -5 7 -5 -8 -1 -13 -15 -6 -6 -6 -15 -7 -18 -5 -14 -1 -13 -9 -3 -5 1 -2 -17 -2 -12 -8 10 -1 -1 -7 -2 -14 -2 -1 10 6 -6 -4 7 -8 1 -2 -4 -3 -2 -8 2 2 -3 -1 14 2 -4 0 2 7 8 -15 7 -6 6 0 -8 0 -1 -11 2 -4 0 11 13 -2 -6 0 4 -6 0 -3 9 -1 1 -2 4 -8 -9 -2 2 -5 8 -16 -2 -4 6 6 6 9 4 10 3 -9 -1 -6 -2 3 5 1 1 9 0 1 -4 5 -2 -2 0 5 7 -13 0 -2 -3 7 6 2 -6 -3 0 9 2 1 1 -1 6 -3 -2 -2 6 13 3 -1 15 -4 2 2 10 0 3 1 4 9 0 1 2 -9 4 -4 7 -2 -2 -8 0 -11 2 -15 0 -6 1 -14 0 -10 -1 2 -2 3 -2 0 -13 -6 -14 -13 -7 -10 9 2 -3 2 3 -10 0 -3 -6 -21 -2 4 -8 -6 3 2 -7 2 6 10 5 4 -5 6 5 -5 -8 4 2 -1 -8 -1 0 9 -4 4 7 2 -5 0 1 -4 -1 5 6 -1 1 0 -2 -8 -1 7 11 -9 -6 -2 -10 -15 -11 -2 -14 -11 -10 3 -15 -1 -14 -14 -9 -2 -6 1 13 -17 -4 -10 -10 -3 6 -4 -4 -8 -3 6 6 6 18 4 6 4 5 0 12 4 -1 5 6 1 3 -1 5 8 -7 2 2 4 -4 0 -8 10 18 8 -10 9 3 6 16 -3 10 13 -3 2 4 5 -6 1 3 1 0 4 11 10 7 6 2 8 2 7 -10 7 5 5 19 4 6 6 5 -1 7 0 2 14 5 17 4 11 14 5 -3 0 15 2 -1 2 9 -1 19 6 11 6 -5 11 -3 -5 -1 6 2 4 -5 2 -3 2 0 -10 8 8 -14 6 -8 21 -7 20 7 11 5 9 4 15 -8 9 -2 -9 0 7 9 1 -4 -2 8 2 -3 19 -7 6 5 -6 -1 -2 2 -16 4 -2 -14 -5 5 -13 3 12 -6 -12 -4 -1 -9 -6 2 -10 12 6 3 2 -1 -1 3 -7 -3 -9 10 -5 -1 -3 -2 1 2 -2 -3 9 3 0 
9 1 9 3 -4 3 0 -7 4 1 6 -2 7 -4 -2 12 2 0 -10 -4 2 -2 0 -2 1 1 0 8 7 -5 -2 10 -10 -8 -9 -10 -1 -5 0 -1 3 -6 -2 -8 -4 -3 -7 -6 2 -13 -1 3 -3 10 -4 1 10 7 -8 -3 9 10 -1 1 -2 8 12 -3 -3 2 13 2 0 -1 -3 -3 9 -1 5 10 9 12 8 4 10 12 5 9 5 2 4 2 -3 -2 10 -6 4 -6 3 -4 14 4 11 18 3 14 3 18 -11 2 9 -4 -2 9 -1 -1 -4 -4 -1 2 15 -2 -1 -9 7 -1 -12 2 17 0 -2 4 -7 3 -12 6 -7 -4 4 -6 -7 5 -12 13 0 -5 1 1 2 -1 -4 5 -9 -5 6 5 4 3 -7 0 -5 3 -16 -3 -3 -12 -5 1 8 0 6 1 -2 2 12 3 2 5 5 13 2 -6 11 -12 -2 1 -5 11 2 -4 2 -6 -10 -3 8 -13 9 -6 -2 1 11 -12 6 -8 3 -15 -5 -13 0 2 0 11 -2 -1 -6 -4 -7 -11 -12 -3 -19 -1 7 -7 -7 -1 -13 -9 -11 -4 -4 -6 -4 -5 -12 -13 2 -14 2 -5 2 -5 -5 1 -3 5 -5 10 -11 -9 -8 -6 0 -11 9 1 4 5 -6 0 -13 5 -5 -5 -6 -5 -4 5 -4 3 6 2 7 2 -2 -5 9 -1 -4 -4 4 1 -6 -11 -8 -13 -5 -7 0 7 -2 -9 7 -1 4 -5 7 9 -6 -6 7 4 12 1 2 12 -3 -1 4 10 -6 4 -3 -2 -6 -1 -13 -7 -1 -4 -2 -1 1 7 8 9 -2 2 2 0 -5 -7 2 3 5 -2 10 -13 -7 -8 -7 -3 4 11 -1 2 -3 -3 11 -3 2 -1 -1 16 -5 1 -9 -5 -5 -5 -6 12 -8 -1 0 -8 3 -7 -1 -5 -6 -2 -7 -2 2 -3 4 -11 6 -4 -14 1 0 -9 -3 -3 -8 -12 -11 0 -4 5 -2 0 -10 10 -14 4 -6 5 -2 5 -3 1 2 -11 -14 -7 7 -1 -3 4 3 -7 1 9 -9 3 0 -7 -7 -3 3 7 -3 -1 -1 3 -3 -16 -6 -8 -3 -12 -7 -4 -18 -11 -3 -12 -13 -7 -6 4 -8 -2 -1 -4 -2 0 -7 3 -8 7 -10 -1 -5 -5 2 -1 3 -3 2 14 4 -7 8 4 17 5 15 3 -2 14 1 6 0 10 3 -2 2 6 0 3 3 1 7 1 -9 14 3 3 4 4 14 18 -4 -5 0 12 5 10 10 9 -2 4 -16 5 5 -3 18 16 0 3 11 0 11 8 3 7 2 6 7 9 0 -4 -3 4 6 11 0 4 -5 -9 2 -4 -6 7 -15 2 9 7 -12 -1 5 3 0 3 0 -3 -1 3 2 -3 3 4 5 7 6 -2 3 -4 -4 13 2 15 -3 6 5 -1 7 -3 0 1 15 11 23 7 10 7 0 -4 4 2 6 5 4 1 3 8 0 7 -1 1 7 8 9 -8 9 0 17 -5 2 6 5 11 -3 -1 -4 -11 -12 8 3 7 1 -4 7 0 -3 0 3 0 -4 -1 0 2 -4 2 -5 1 -12 20 3 9 -9 0 -5 -2 1 3 
5 6 -8 10 -3 0 -1 1 2 9 -4 -3 3 1 2 -7 6 4 -2 3 -11 -1 4 -11 11 5 1 5 1 -3 8 -10 7 3 16 2 -11 -3 12 9 -2 11 -5 1 5 -4 -2 10 -13 1 -9 3 -2 1 -9 6 10 1 5 3 3 7 6 0 10 5 7 6 11 -3 3 12 5 2 -4 1 11 1 8 2 -8 -3 11 1 13 2 3 -1 -1 1 12 -8 17 -4 -2 3 8 20 -1 5 5 8 4 12 12 9 0 -3 13 2 -10 5 3 -6 -3 1 9 4 -2 1 -2 -5 7 1 -4 0 5 0 -6 2 7 -4 -2 1 2 6 -4 7 -1 5 -9 0 3 -7 -4 -6 -14 -3 2 4 -13 -3 -7 -3 3 1 4 -6 1 7 -8 0 -4 2 -1 -5 1 -3 4 -3 10 1 1 -1 1 5 0 2 15 -4 0 1 2 10 8 8 -2 2 -5 4 -5 2 5 -5 3 -5 -1 5 -9 10 -6 -10 -6 -1 -7 -14 2 -6 4 -18 2 -10 -1 -11 -20 -7 -10 0 -13 -5 -1 -8 -3 -10 -6 -6 4 -16 0 -10 -2 -3 -20 4 -3 -5 1 -10 0 -9 4 7 6 12 3 -1 10 -3 4 8 -19 2 -2 6 -17 3 4 2 -6 5 4 -1 5 -10 -3 8 1 -2 -1 -6 1 -11 12 6 -2 2 -2 3 -12 -3 -6 12 -7 -5 9 1 -4 -5 3 -7 11 -5 -10 -3 2 -6 -7 8 -5 4 4 0 2 -1 -9 -1 -8 4 7 -26 3 7 -9 -11 10 2 2 -10 -2 -2 0 -4 -7 -6 3 -12 10 13 0 10 -2 12 -2 -3 6 -2 -2 -4 0 -1 2 2 -5 -2 4 1 5 -2 3 3 -11 11 -8 7 -2 4 5 2 2 -10 -7 -1 -2 -6 2 -8 -3 -6 0 6 -4 -10 1 -1 1 -8 11 2 -8 -11 -6 -2 -9 -5 -10 -8 3 -6 -12 -4 -1 -4 -7 3 3 -1 -5 -12 8 -5 -2 1 5 -2 -13 -2 -2 -3 -2 -12 3 -4 0 -1 -12 6 -3 -6 -10 -2 6 -8 5 8 -1 -1 3 1 -2 -9 1 -6 -5 -3 -9 -9 -4 -13 -12 -9 6 -5 0 -3 -4 -8 0 -9 6 -6 -1 8 3 2 -7 4 -5 -5 -6 -6 -7 -6 0 -4 -11 -9 -3 5 -5 15 5 -9 15 2 -6 5 -1 9 4 6 -2 -3 -2 6 11 8 4 6 0 9 21 6 3 14 9 -1 11 7 9 11 -9 3 12 -2 11 12 -6 5 -4 8 11 -1 -4 8 -3 -5 16 16 0 11 -1 -9 5 4 -2 12 1 2 5 -1 6 5 4 2 5 3 -3 2 19 -7 14 -4 3 9 -7 2 -3 9 -4 1 14 -1 22 -6 -15 0 9 6 -1 14 -5 -7 2 -1 0 1 -5 -5 5 13 1 16 7 3 7 2 -8 4 9 2 -3 11 -6 13 2 3 14 5 6 3 -2 -7 9 -3 9 9 0 -4 7 -17 3 10 -6 4 -5 4 4 0 -1 4 0 -5 1 3 -12 -1 8 -7 2 -3 -7 -14 1 6 -6 7 -3 12 3 4 -4 -3 10 -1 -1 1 5 -9 9 1 
7 5 17 1 12 9 2 6 -6 1 -5 -4 2 2 11 7 11 -9 0 -4 6 3 -2 14 0 2 -5 2 12 0 0 2 4 -6 5 4 9 -2 -3 -3 9 3 -4 5 7 -5 5 1 -8 10 -1 2 -1 2 7 5 -3 1 -10 5 9 11 3 6 9 3 13 -3 3 15 8 -3 1 5 13 2 6 3 7 0 3 -4 25 3 4 -2 7 5 2 13 4 7 10 -11 8 0 12 4 4 6 1 2 3 3 9 -1 26 -3 4 10 11 2 -2 -2 3 3 5 3 5 3 7 2 -6 6 16 0 4 -6 10 1 -4 6 -5 7 -5 8 2 -18 -3 -9 -4 2 -12 -8 6 -4 -4 8 -1 2 -1 -7 1 -4 6 -3 -6 -5 0 -15 -1 -8 -3 6 -12 -1 0 -1 9 -7 1 -3 3 -3 -3 8 -4 -6 6 6 1 6 12 3 -12 -2 -3 -1 -1 -3 -11 -4 -12 -6 -3 -5 -11 -2 2 -6 5 -6 7 -5 -2 1 -8 -14 6 -2 -5 -9 -4 -9 -2 -8 -8 -9 -10 -12 -20 0 -1 -13 -6 -9 1 -10 3 3 -1 -3 -6 -9 -6 1 -1 -16 -1 -2 0 -2 -7 0 -2 -1 -3 -12 -7 -5 2 -5 -4 -9 4 -5 -2 -16 7 -2 -1 -4 4 4 -4 1 -10 0 0 2 -2 2 -6 -7 -3 -3 -9 6 8 6 1 -5 -4 -4 -19 4 1 -3 3 0 4 0 3 0 -2 -6 -4 1 4 2 -7 4 -10 -5 -1 -4 -9 4 -1 1 -1 -12 -5 -13 2 -1 1 6 -4 4 -2 4 10 -3 6 -8 8 3 0 0 6 1 10 -5 -2 -1 7 -8 4 -6 8 6 -6 0 8 4 2 2 3 -14 10 8 5 2 10 -2 -5 -7 6 4 0 -7 -8 -6 -3 -6 -1 -4 -3 -7 -9 5 -4 6 0 5 -11 -1 -4 8 -2 -14 0 2 -9 -11 -2 5 -6 -5 1 -4 -7 -13 -4 -6 -4 8 -18 3 -8 -4 -2 4 2 0 -6 8 5 5 -3 4 -11 11 8 -5 1 -3 6 -2 3 0 -8 5 4 -10 13 -15 -3 -7 0 -4 1 -23 8 -10 1 -5 2 -12 3 2 1 -9 -10 -3 -6 -7 3 8 -3 -12 -1 -18 -5 2 0 4 3 -6 4 -1 -8 -2 -6 -2 -3 -2 5 -1 5 -1 8 -2 -3 1 14 0 5 0 8 6 3 6 -6 -6 1 5 9 2 1 -4 1 5 -3 4 5 -1 15 -6 20 3 -6 12 -9 11 -2 21 2 12 -1 15 6 1 1 3 -9 18 11 -5 -1 2 7 9 2 -1 6 -3 -3 14 6 2 -2 1 7 -9 6 2 -10 0 0 6 4 1 15 0 4 -11 4 -8 -8 -7 -13 -1 2 0 7 -11 8 0 0 4 0 -3 4 0 7 7 8 0 6 3 -2 2 13 0 14 3 12 2 14 10 1 3 5 0 -4 8 -14 12 2 -8 11 13 -1 -7 3 7 -8 -4 3 -7 -5 7 -4 0 0 0 1 -4 -2 -16 8 -1 -4 -6 -5 9 -6 6 -4 3 -8 10 -9 7 -2 -2 -4 4 -1 -3 0 -7 0 3 -7 -4 -5 -5 
5 -1 -1 -12 5 -2 -4 -3 9 9 2 0 23 4 0 6 8 3 -4 -7 -4 1 -12 -15 0 -3 12 -2 -5 20 -4 3 6 -2 0 -6 -3 -19 -3 -4 4 -2 12 8 0 3 3 6 -6 2 13 -10 2 5 -19 -7 8 0 7 -1 3 4 -4 5 -2 8 12 -1 5 6 -2 0 10 -2 -6 2 11 7 14 7 18 15 -15 -5 11 10 -4 5 -6 -5 6 3 7 -4 21 8 11 19 4 15 4 14 8 7 10 3 7 9 1 6 0 2 2 13 5 10 1 -14 2 1 8 4 -1 -10 3 -5 3 -1 -1 1 6 -4 -4 4 -11 3 -5 1 -1 -11 13 -1 6 0 5 -9 11 -5 -2 -4 -2 -4 10 6 1 6 -12 1 2 -1 6 -8 -5 -1 -4 2 5 -9 2 1 8 0 -10 10 1 4 -7 2 16 12 8 -7 -2 6 -6 2 -5 6 13 0 -7 5 1 -11 -2 -7 0 2 -1 -14 -9 0 -8 -19 5 -3 -4 -2 -10 -16 -7 -10 -4 4 -11 2 0 -10 -14 3 -12 -5 -2 -4 -7 4 -8 -2 -5 -2 -3 -8 -4 -12 -12 -5 2 -16 4 -3 -5 9 -4 -4 -3 -4 5 2 -2 1 -3 1 2 -2 -1 -5 -4 -2 3 -12 -5 -1 9 12 -15 11 -4 -1 3 3 12 -1 -2 -4 0 15 3 -7 0 -7 -2 -4 -7 0 2 -6 0 0 -1 -8 5 2 -1 4 -9 2 -17 -2 -14 16 -2 4 -11 4 4 -4 1 -7 -9 7 -10 5 -4 -2 4 -1 -9 -1 0 -2 2 1 8 -8 14 0 6 -9 6 1 5 10 1 7 14 4 -4 -6 0 1 -8 -2 -6 3 3 -10 4 -3 -1 8 1 -5 0 -2 0 2 0 -6 -1 -15 9 -2 -3 0 -18 -6 -9 -4 1 -2 1 4 -3 2 8 -7 16 -6 -5 -2 -3 -8 -11 -18 -9 -10 -5 -9 -4 -3 -12 -17 7 -4 4 -4 1 1 -1 -15 -5 6 -4 -1 -5 6 7 9 -14 -12 -5 -14 5 -7 -8 -10 6 -2 -8 -9 -6 10 -1 3 -1 -3 8 -11 8 -9 -4 -11 -4 2 -8 2 6 -15 5 0 7 -2 -2 -13 -9 -2 -19 -5 3 -7 1 -3 9 7 0 4 -2 -14 -3 2 3 1 12 -13 2 -6 -3 -6 -7 3 3 5 7 2 0 -2 -2 2 3 -1 5 1 6 3 -6 7 0 1 5 -2 7 14 3 5 2 9 4 12 4 13 12 7 0 1 4 17 13 0 0 2 1 2 -1 8 16 3 2 5 10 16 -2 16 3 11 13 7 -1 1 16 5 2 11 11 6 -1 0 1 -1 8 0 -3 -8 1 2 -6 4 -6 -6 0 -5 -7 -10 -7 10 3 0 -1 1 8 4 -11 -7 6 1 -5 -1 -2 1 -1 14 -5 13 12 8 -2 11 0 -7 4 5 0 -1 2 -4 2 -2 17 -8 0 7 -17 -2 8 0 1 8 -4 -6 4 1 -9 7 -6 2 -2 -7 -1 9 -9 3 -2 -1 -5 -8 0 0 3 3 -10 -9 9 -3 6 6 4 1 2 -1 -6 3 -9 -20 2 15 -3 0 2 2 -3 9 
-4 -11 2 16 -8 -2 6 1 5 0 6 0 10 0 5 2 9 4 2 5 4 -3 -10 3 1 3 6 11 -9 8 9 3 -3 0 8 -7 8 8 1 -10 -6 11 -5 -4 3 11 3 -1 -5 -2 4 7 5 -2 12 4 -1 17 -5 0 -3 1 17 0 -2 -6 15 14 -8 0 2 -2 -10 3 5 -5 5 2 15 5 9 2 5 -3 4 -9 6 8 8 -6 19 8 6 17 5 11 -4 3 6 3 8 10 8 10 -2 5 7 1 10 -4 12 -17 8 6 5 -6 -7 -2 9 1 2 -6 -1 6 -2 17 -4 11 -4 -9 -2 -5 1 -7 -2 -3 5 -1 1 4 -9 4 -14 -3 4 2 -3 5 -1 -7 10 -2 -5 -16 -7 -1 -4 -9 -9 -2 -6 1 -13 -3 -9 12 -11 -2 4 1 -1 7 2 6 -6 9 4 11 0 3 -7 -2 5 -9 3 -2 4 2 -7 3 -2 -7 -11 -12 -2 -1 -4 -13 1 6 -1 7 -7 -7 -9 -3 -10 7 -10 2 -10 -4 -8 0 -7 -5 -4 -16 3 -3 -12 -4 -6 -6 5 3 -7 3 -8 1 1 1 4 -1 -12 -3 -11 -1 -9 11 0 -14 6 -8 14 -4 -3 -5 4 10 -10 4 -1 -2 3 -13 2 -1 -1 2 3 -6 -5 -4 1 2 4 -6 -5 2 3 7 -10 12 -2 3 -11 9 -3 -11 8 -1 4 -3 -12 1 14 -6 9 2 5 8 5 1 8 7 2 11 -4 -1 8 -2 -3 3 2 -12 14 -6 5 -14 3 3 7 -3 -2 -2 10 -5 -6 -7 -2 8 7 8 0 -6 17 -5 1 -9 0 -1 -9 0 -9 -5 -9 4 5 7 -6 -4 15 7 11 11 -7 18 -1 5 6 6 10 9 -3 10 -2 5 -11 -6 11 4 1 -13 -15 10 -13 6 -6 3 -10 -5 -12 3 -11 -3 -12 -14 -8 4 -6 -10 -13 0 -1 -6 -12 -1 2 -11 -3 -6 -5 -2 10 -6 1 -6 -8 2 -10 -8 -1 -5 2 0 -3 20 -2 0 -2 12 -6 -9 6 -14 -9 -5 9 -3 7 -10 2 -8 2 6 -15 1 6 -11 -2 1 -1 -6 -8 -10 4 -6 10 9 -2 1 0 -1 0 -12 -9 1 -4 0 8 12 -10 8 1 -4 -7 3 2 -1 3 -3 13 1 9 -4 -3 4 0 5 -3 -8 16 -3 4 4 5 1 2 3 4 -3 1 0 3 0 7 18 -3 6 0 5 20 0 3 4 -1 -5 12 15 3 6 11 16 9 3 12 -5 7 0 2 -3 0 -4 4 -9 0 10 -2 14 5 7 2 12 -3 -1 5 15 3 9 7 -12 5 -3 6 -5 7 3 -1 13 -4 9 6 9 -2 -11 1 -3 3 -5 -16 0 -1 5 -6 -5 -4 -3 -5 16 -4 3 -2 -2 0 0 5 -2 5 0 -3 15 7 9 -6 2 2 0 -3 6 4 -3 12 4 -1 -5 10 8 2 4 4 1 -4 0 -2 -3 -4 -5 -4 -1 13 -5 0 3 4 5 -9 0 8 -10 0 -2 -1 7 -17 3 0 -5 6 -4 1 -2 -4 -3 -1 3 0 2 -7 -4 -3 3 -11 4 3 5 -3 2 -3 -16 
0 -9 1 3 -10 4 4 7 11 1 -3 2 8 -7 -3 -2 -11 7 -3 -8 -8 -10 7 5 -3 -7 -3 9 15 14 8 9 13 -1 -6 5 2 -13 2 1 5 -14 -11 -4 8 6 4 5 9 -11 4 -3 2 -12 -2 2 -2 7 8 -1 4 9 -6 1 3 -4 8 -3 7 0 1 -7 5 2 -3 8 -1 19 -5 9 -5 15 1 4 8 7 8 -6 6 -3 8 10 -2 7 -6 7 11 12 2 11 21 11 10 15 12 -13 7 -3 1 2 -4 14 -1 10 3 5 6 14 4 -13 1 7 2 -13 8 3 6 12 -7 9 2 7 5 9 10 4 -6 -12 13 -5 -5 -5 -2 0 -1 -1 4 8 -11 -1 -7 0 -3 6 -1 -13 -5 3 -5 -8 2 3 -21 9 2 5 -5 -2 4 1 -3 -6 1 2 -1 9 6 5 7 -8 4 -6 -14 5 3 -22 -1 -3 1 1 -3 7 -4 7 -6 -1 7 9 -4 -11 -1 -14 0 -8 7 -6 -8 -12 -9 -15 -10 1 -4 -1 -5 -4 -1 2 -18 -2 -11 -9 -4 4 -13 -8 -3 1 -5 -9 0 3 -8 5 -6 -10 1 -6 6 -13 -7 -11 -9 -6 4 7 6 -2 -10 -6 4 2 2 0 -5 6 1 -2 -4 2 2 7 2 0 -3 -6 5 5 -8 -3 10 5 -8 -4 -2 14 7 7 11 -3 0 5 -2 -4 -2 14 12 3 11 9 7 10 5 14 7 6 11 0 3 6 10 -11 -7 9 0 9 -1 -2 -7 -7 7 -6 -2 -8 -10 0 -5 -12 2 -7 -9 9 -8 5 -10 -10 -5 5 0 6 -2 10 15 5 -11 9 11 -4 -4 3 -4 1 -5 2 0 -1 -8 10 7 -3 11 5 8 -4 10 -6 -4 -3 -15 4 -2 -7 -9 -6 -11 -9 -5 5 -6 -5 -5 -3 8 -3 6 -7 1 -5 -2 -23 -19 -1 -7 -5 -6 -6 15 -6 -9 3 -14 -3 12 -13 -12 9 6 1 3 0 -4 10 -5 -9 3 1 2 1 -8 -4 0 7 0 -3 7 -7 -5 3 9 1 12 17 0 3 1 -9 -13 -8 4 -6 -9 2 0 2 7 -3 11 -2 4 -5 -6 -18 -4 -4 -2 -4 1 1 2 -2 -2 0 -5 8 -8 9 4 -9 2 -13 -3 13 -13 -8 -7 9 3 0 1 -5 14 -3 1 1 4 0 6 3 9 4 -1 6 -5 1 -2 8 5 8 1 10 6 -1 0 11 6 5 5 4 11 7 2 3 1 16 1 4 7 5 -5 7 9 6 8 9 4 -2 11 10 3 6 12 9 11 0 6 4 11 -2 4 -5 2 -3 3 3 3 -2 4 7 4 -7 4 4 -6 -3 -8 5 9 -12 4 -10 -3 6 -2 9 6 -2 7 4 8 -4 0 7 4 -4 -3 3 6 4 -4 -3 3 5 -3 12 -8 2 -7 13 -7 1 -1 -1 -7 -1 6 -2 7 5 4 2 -7 3 7 8 -8 4 3 0 -1 3 -9 3 -4 5 1 15 -5 -1 -6 8 -6 8 -10 -2 5 2 -3 12 -2 -4 2 -5 -5 4 -6 1 -19 4 -3 10 -18 12 -6 16 -9 -4 0 -1 2 4 
-4 -3 3 0 5 1 3 -9 7 7 -4 5 -5 1 -4 0 4 0 11 -17 7 3 -2 6 -12 13 1 4 3 5 1 13 -3 8 6 -2 -6 0 1 3 -5 3 -1 -3 1 2 9 3 5 5 5 11 -11 10 -13 -7 -1 -5 -2 5 6 0 -5 -2 -3 0 -5 12 0 -11 17 11 2 15 0 12 6 4 -1 7 1 13 8 5 16 2 2 9 8 4 -5 2 -12 15 16 4 1 18 6 -3 -4 7 14 1 -8 19 13 2 2 4 -3 13 1 8 5 15 9 -10 5 1 0 7 0 9 8 1 -2 -5 4 5 15 -6 -6 -8 -5 -6 7 -10 2 -9 -6 -10 3 6 -7 -1 0 -9 -3 1 0 -15 6 -9 10 -8 -5 -7 -7 2 0 -12 -3 -3 -3 2 7 -5 6 0 0 -2 -11 -2 3 -3 1 4 5 2 9 4 1 -2 -7 10 -1 -7 11 -6 -9 1 -18 4 2 -3 -8 -8 -5 0 -4 -1 5 5 7 -13 0 -5 -5 1 -22 -5 -7 -1 -7 -5 -10 5 -13 -6 -1 2 6 -2 -13 7 7 -15 9 3 -8 -2 0 1 1 -13 -10 1 -12 -3 1 3 -8 -3 -1 -6 -1 -1 8 2 -3 -9 -2 3 -4 -2 2 3 1 5 -6 -4 -9 -2 3 5 6 0 0 9 2 -3 2 1 -8 -9 -13 -6 8 0 0 3 9 -7 -10 -9 -3 -8 2 -9 -6 7 -3 -5 -2 0 3 8 1 7 1 0 3 -10 -9 -4 1 -7 -10 5 -5 -1 3 9 9 3 18 3 0 -5 -5 10 1 2 1 6 -1 5 5 12 -7 4 -2 12 -11 3 -1 -2 0 -3 -5 7 5 6 2 1 7 -3 1 2 0 -12 11 5 -3 -12 9 -3 1 -9 -1 -5 -18 -13 3 -3 0 -4 7 0 1 -8 -15 3 -13 -9 -4 -14 -9 -13 -2 -16 -11 -5 3 -4 -16 1 -2 -2 2 -12 3 7 -6 -7 1 1 -8 6 2 -4 5 0 -4 -4 -11 1 -3 -2 7 11 -3 2 -5 -4 -1 -5 6 2 4 1 -3 2 -2 1 -5 6 -2 0 3 -13 -6 -16 5 -8 -3 -15 0 8 -5 4 2 5 10 -4 3 -8 0 7 -7 0 6 -4 5 -6 -11 10 -8 -1 6 -1 2 2 -9 -10 -14 2 6 11 5 -7 -8 -2 -6 -3 2 -2 -10 -4 4 4 -4 -1 7 -12 4 10 -1 14 -1 3 9 9 7 11 12 -6 -1 3 5 10 19 6 -2 26 11 6 -3 -4 11 25 -5 9 2 0 8 7 5 9 16 3 7 0 -1 5 0 8 8 10 -2 7 1 -7 -8 8 -6 13 -11 -4 8 4 5 2 0 1 6 3 -3 8 -7 6 -3 -7 9 -7 2 -4 4 -1 -16 10 2 -4 9 12 11 5 14 0 17 14 3 8 3 4 5 4 9 -1 7 3 -6 2 -8 4 -8 11 12 4 -6 7 -3 0 -9 -1 -6 8 12 -1 3 11 4 10 1 -2 -4 -3 3 -8 -11 14 3 -5 -6 -1 7 -15 4 3 -1 -1 3 -1 -1 -12 6 0 -4 -11 6 -13 6 -14 5 -7 1 -3 1 1 
-5 12 -6 2 0 7 -2 8 -6 0 8 7 1 -3 1 0 2 -1 1 -7 5 4 -3 0 9 2 11 8 1 8 9 6 1 3 6 -8 -1 -2 -3 -2 1 0 9 14 9 13 2 9 0 7 -1 -6 5 7 9 -2 -1 13 7 5 -6 12 -2 -1 1 2 9 -4 -7 14 -2 13 2 -19 -10 14 -5 -4 -3 9 -6 -4 0 2 0 -5 1 3 -2 4 3 -5 13 7 6 3 2 -1 3 7 4 5 13 7 4 1 11 1 8 10 8 7 13 -10 18 7 -3 7 6 -13 4 -4 -6 11 -7 3 10 10 5 14 1 -1 -1 -3 -6 1 3 -4 -1 1 -7 8 -3 -14 0 -7 3 -3 -3 -15 -2 -8 2 -5 -14 -13 1 -9 -7 0 0 0 -8 -9 1 -12 9 -2 -17 -6 3 -7 7 -5 7 -10 2 4 -4 -2 7 -2 -2 4 -2 -8 -1 -6 -5 -5 -5 -7 -1 -1 4 -7 -5 9 -4 -11 -3 -3 -5 -16 -9 0 -8 -5 0 -20 -10 -4 6 -5 -3 -10 2 3 -13 -2 -10 -4 0 2 -13 1 -6 9 1 2 5 0 -4 1 -5 -5 -3 -9 -1 1 -2 -3 -17 -5 1 4 -3 9 5 -2 5 -18 6 3 -14 7 -4 2 2 -6 5 -3 -2 3 16 -1 -4 -9 10 -2 5 -1 -7 2 -3 9 -2 15 -7 -3 6 -4 -3 -9 10 5 3 8 -3 -5 7 0 9 0 -8 -1 -1 0 1 -3 3 5 7 9 5 -7 -1 -4 -4 2 12 -9 -4 -1 -12 -3 -3 -3 1 -5 -8 2 4 -8 9 8 1 -2 -1 19 2 4 2 2 -4 3 2 -8 7 5 2 0 2 -13 -3 10 2 7 8 3 6 -2 -1 -2 2 3 -1 -12 -1 -3 -1 -6 3 3 -5 9 -2 -3 7 3 -3 -18 12 -4 1 -10 -10 -10 1 -7 -8 -6 -4 -11 -2 -2 -10 0 -11 -1 -8 6 -5 -1 -5 -7 4 6 -15 -11 -4 -5 3 7 -1 -2 -2 -7 -1 0 10 2 -5 -5 -9 -9 12 3 7 -3 10 -3 2 -14 -9 -4 1 5 0 -10 3 6 -5 2 -3 7 -4 -4 -1 -6 -7 -2 -3 7 5 11 -10 2 2 -7 4 -4 9 -7 6 3 12 4 1 8 3 4 1 3 5 4 8 0 -11 9 -4 -1 15 2 -7 -7 -3 -8 2 3 -2 -5 0 5 -10 10 -2 7 12 10 7 7 5 17 5 -5 16 10 4 9 2 3 3 6 9 5 3 8 11 9 -3 8 12 8 5 5 14 12 11 7 4 -6 -3 5 -1 18 -3 19 6 -3 11 -11 1 -5 3 -1 9 -10 1 4 -7 -5 -4 -11 -7 0 -3 9 5 -4 -6 2 -10 13 -5 -3 -6 1 -1 4 -5 -1 -1 7 -2 -3 3 5 2 8 -7 13 8 9 9 2 0 15 1 5 2 8 7 6 6 -4 -1 -4 3 0 -3 -4 6 -2 -6 -1 -8 -6 -13 -7 -1 -8 -2 5 -2 1 0 2 -10 -10 -3 0 -2 -4 -4 -6 -11 10 -11 -11 6 -2 3 -2 6 5 9 9 13 16 -25 3 -4 -10 -5 -1 -4 -5 1 6 
-1 -7 8 8 -8 10 -3 14 14 2 14 -1 1 1 2 -7 8 -1 1 3 1 1 1 -11 2 9 10 5 15 7 -3 5 7 13 7 1 11 8 5 -10 8 -1 3 -2 -5 14 -3 11 8 -3 7 0 14 -1 5 -4 13 -1 4 -1 10 3 -5 -9 -3 3 -4 2 6 -12 7 -3 9 5 14 -3 0 -13 6 -7 -6 5 10 6 2 16 2 -5 -8 11 2 8 8 0 -8 15 -10 11 9 9 11 -5 8 3 9 3 7 6 12 -9 -13 2 2 9 18 7 -3 7 2 6 4 -2 -4 3 6 5 6 2 -6 1 5 5 -3 0 -3 -1 5 -10 5 -2 -11 -5 -8 3 -14 1 3 -11 -6 -13 -3 -14 6 -9 -3 1 -1 -7 1 -3 -14 -4 -10 -2 -5 3 4 -7 -9 4 -2 -2 -7 3 0 11 3 5 -2 2 6 5 -3 -7 -3 -10 3 5 5 -5 7 -7 4 -1 5 -2 -7 -7 -10 1 1 7 -6 -6 -2 6 -18 -1 -11 -5 6 -8 -18 2 2 3 -4 2 -8 -10 -2 -3 -2 -7 -5 0 -7 6 -3 9 5 -8 -1 -6 3 3 -3 2 -10 -4 -9 -5 1 -2 -6 -8 -3 1 -5 -5 -7 1 -4 5 -5 2 -2 4 -8 -6 6 -11 -1 -1 7 9 25 -5 7 -11 -4 3 -6 9 6 -2 -1 0 -7 2 12 -9 4 5 -6 -4 3 -10 5 10 -10 -3 -11 2 3 -2 0 -3 -6 4 2 -3 2 -1 1 -4 -6 -2 5 1 -12 -1 -4 1 -1 -3 -7 1 -4 2 -4 15 -2 2 5 12 6 2 12 -5 1 -1 5 9 -2 -2 5 -1 5 -4 4 -1 -15 0 -2 3 -5 0 11 -3 11 10 -5 -6 11 -1 -8 -8 -7 -6 15 -7 -3 -2 4 -9 -13 4 -3 2 -6 8 3 -6 -3 1 2 -2 4 -8 -14 -8 -3 -5 -9 -4 0 -15 -5 -2 -10 -12 1 1 -3 -8 -15 4 -9 18 9 -6 4 -9 0 0 -1 13 -4 7 4 -6 9 -3 2 6 -1 1 -13 3 -9 1 -16 1 0 1 -4 4 -13 1 -7 -2 -1 3 -1 -7 7 2 -2 -14 -6 -7 -5 -1 -3 0 2 -1 -1 9 -6 3 -3 -9 5 -5 0 5 20 -2 10 2 -1 0 -2 3 4 -20 2 -1 4 -2 -2 -12 -5 8 -4 1 0 -6 -8 -9 -4 8 9 -10 -5 11 -3 3 -5 4 3 12 13 3 5 -2 3 5 3 3 -3 4 3 -1 7 0 9 7 17 9 2 11 20 14 2 4 15 14 2 24 7 5 9 1 7 4 -1 7 -1 -15 -2 1 3 -4 0 9 13 -13 1 9 3 10 16 -10 4 -4 -2 9 -5 -1 -8 -6 -3 -6 3 -6 1 8 3 4 5 9 6 -8 -7 -3 3 1 5 11 3 -10 -3 4 -6 -7 10 -2 7 -25 4 2 -8 17 -8 3 -6 4 0 12 4 -2 1 8 -12 3 9 -4 7 -1 12 -7 14 -6 -1 -7 -17 1 1 -11 -3 -4 8 -8 -2 -1 1 -10 5 1 -4 -8 7 7 0 10 -2 -4 4 -6 -9 -7 -15 0 1 -3 15 1 
1 -1 1 -3 5 2 -1 1 0 14 -16 4 -5 -1 10 1 2 -6 -3 4 8 4 1 12 1 5 6 1 13 -8 -6 8 4 1 11 4 3 -15 8 -2 7 8 -5 4 6 -1 6 0 -12 1 -3 3 1 -1 5 1 3 -8 0 -9 0 2 -7 2 -9 2 5 14 0 5 -10 8 6 2 4 4 5 5 -5 5 2 2 6 -2 1 -8 -5 -12 15 -9 11 0 9 -7 13 -5 8 -2 10 4 4 -4 7 8 9 1 14 -5 10 4 9 -1 -5 5 11 4 5 -2 0 -4 -5 6 -3 -4 8 -3 2 -5 7 -2 7 -3 5 -12 -1 -8 -1 -10 -2 1 -2 1 -4 5 -2 -10 -13 -8 -10 7 -1 -18 -2 -1 -7 -11 -11 14 -4 8 -3 -3 -14 8 -19 -5 -7 1 -7 -5 -1 -9 4 1 0 -1 -1 -1 -4 3 -5 8 -2 9 6 -13 -7 -14 -10 0 4 0 0 -9 -8 3 -4 3 -3 -6 -7 -10 -7 -15 0 -11 -5 -10 7 -5 -10 -5 -2 -2 -7 10 2 -8 0 -6 -3 7 -8 -3 -9 -5 -1 3 4 -4 -9 8 -6 -8 -17 -14 -11 8 -22 -4 -16 -7 6 -7 0 5 -2 -2 -5 -4 -3 -2 3 5 5 8 7 -7 5 2 -2 4 -5 9 7 -3 10 -2 -19 10 -7 -1 1 6 8 -5 2 -6 6 -1 5 25 -11 3 -9 -6 -6 6 2 -3 -3 9 7 2 -3 -6 0 0 8 -2 0 -1 4 0 10 -8 -6 -7 -5 -8 -2 0 -3 13 -8 2 -12 -1 -11 8 -3 -13 -4 4 7 2 2 3 12 4 -3 10 -10 -5 3 -3 3 3 9 5 0 -2 5 2 5 -4 8 2 1 4 0 0 0 -1 -12 -1 -1 -12 10 -4 3 -10 2 3 -10 3 -1 -3 -1 -12 1 -2 6 2 9 -10 -5 -14 -5 0 -9 -18 -1 -5 2 -9 -11 -3 -1 0 -7 -10 -5 -3 6 5 7 -1 -4 -7 9 -12 4 -12 -3 -13 0 -3 -4 -1 7 -5 -8 -10 3 1 12 -6 2 -3 -3 2 -3 2 -6 3 -3 -1 5 -15 8 3 9 9 -9 3 6 -9 -8 -9 6 0 -8 0 0 6 -7 1 -5 12 1 -2 4 6 6 4 2 -8 -6 2 9 -2 -4 9 1 4 1 -1 -4 13 -2 16 -1 -5 -3 3 1 0 4 -2 -5 2 4 7 -6 1 9 2 6 7 -2 6 3 -3 21 5 14 15 8 12 18 8 13 6 12 18 10 1 -4 0 3 -5 11 1 17 15 3 7 9 14 0 21 0 3 1 4 8 11 1 -11 7 -7 8 -12 6 4 1 15 6 1 -6 -2 3 13 8 2 6 -7 2 -1 -7 1 1 -2 -2 14 -13 -4 19 -7 -4 2 2 -7 5 -1 7 10 2 13 -5 8 -1 9 -2 5 6 -7 12 -5 4 7 -1 2 3 -1 10 -7 1 1 -4 3 -6 9 0 6 14 8 -5 -1 -11 0 1 0 -6 10 -1 3 8 3 -7 3 -8 -5 -4 10 -4 1 -9 -5 -13 -1 9 3 -3 10 12 -6 -3 -5 4 -2 -2 -13 -6 2 1 -1 -3 3 
6 10 5 11 7 -6 4 -8 0 3 -1 2 -1 10 3 -7 9 1 7 -9 8 6 -8 13 0 -3 8 5 0 17 1 12 0 3 3 2 -2 10 15 6 12 -4 5 -5 10 8 12 11 6 -4 0 -12 15 6 14 -7 5 9 13 -5 2 12 9 8 -12 12 -11 -6 -8 5 -5 -4 0 -2 9 4 8 2 4 0 3 12 1 -14 -3 9 4 -4 5 0 5 17 2 -6 5 3 9 -5 2 -2 10 3 9 1 12 6 8 9 -7 5 -2 4 13 3 12 -8 -3 6 5 2 2 2 2 0 11 1 0 11 6 1 -12 4 -5 0 -4 -1 4 2 -5 -7 -7 6 -10 0 0 -3 -6 -1 3 -6 -5 0 -2 -12 -2 -6 2 -20 -2 -15 -13 -3 -10 -6 -2 4 -15 -5 0 -7 0 0 -1 -4 0 -1 -9 -1 -6 1 3 6 11 -9 0 0 2 -3 4 -10 -4 -11 0 5 13 8 9 -2 1 9 2 8 7 -5 6 -14 5 -2 -7 4 -2 0 0 -14 -6 8 2 -4 -11 8 -7 -11 -11 1 -9 -11 -8 -2 -10 -5 14 -4 8 -3 -1 7 -9 -10 -12 -3 -3 -12 -7 -3 -17 -3 -13 2 -2 -3 0 7 3 3 1 4 -9 -6 -9 -9 0 -5 5 -2 11 -4 6 7 14 -1 4 -5 5 14 8 7 -1 -4 -12 -7 2 -12 -11 -7 1 -1 10 0 -5 14 -5 1 -3 15 1 -1 -1 -5 0 -3 4 -10 8 -3 -3 17 -8 -5 -4 -1 -2 2 -7 5 -6 -2 -3 -5 -6 -3 4 4 9 0 -11 10 6 -2 7 -2 3 14 9 -3 9 0 11 -7 -11 4 3 -10 -4 -3 -7 6 5 0 2 -12 8 -3 -2 2 1 0 -2 -2 1 -2 -10 -7 -1 -4 -4 -8 1 0 -2 -4 -10 7 -7 -1 -5 -8 3 10 -8 -6 0 -5 2 -8 -7 -14 -10 -8 -7 -11 -2 -2 -5 3 7 -13 2 -3 -3 -6 -7 13 -5 2 3 -8 -3 -7 9 -5 -3 5 -1 -4 6 -6 -9 -2 -11 -7 6 0 -1 1 -5 -2 2 1 -7 -11 -3 -2 4 -4 -6 4 -7 0 5 -6 -4 -4 7 -3 5 7 3 8 6 7 -2 1 -8 6 8 -5 5 15 10 1 0 -11 -1 -1 -5 2 -4 2 -1 -2 -6 -9 6 -6 -1 -6 -6 6 0 11 2 1 -20 -9 3 3 0 2 15 -3 5 0 18 6 8 6 6 9 14 7 13 0 7 8 10 -1 8 1 8 19 -3 12 15 -9 3 14 15 6 4 10 4 7 3 1 11 0 -2 -6 0 10 1 -3 -8 6 15 -1 4 10 -7 4 -7 8 4 9 2 4 -7 7 -8 -4 3 -1 -10 -6 8 -6 0 1 -3 7 -7 -4 -4 2 7 1 -10 -1 1 -4 8 -5 -3 3 -10 -3 7 7 1 -2 5 3 7 -6 6 -10 5 0 4 -1 -7 0 -1 -17 -2 9 -5 1 -6 -5 1 -10 -3 -8 4 -13 2 -1 -10 6 10 -7 5 0 -4 1 2 -1 7 10 0 -6 7 -1 7 -1 1 -4 5 4 2 -1 -8 -4 -9 0 -17 1 -5 3 
0 -6 -6 3 -2 -6 18 5 10 7 8 4 3 -1 12 -8 7 12 -5 12 -3 14 2 -4 -4 2 18 7 8 0 6 10 -3 12 1 1 9 3 8 11 -7 23 4 7 0 4 9 9 -4 7 14 -8 12 -1 -10 7 -7 2 -3 0 1 9 -1 -3 15 -6 5 -6 6 3 3 7 15 5 1 10 -6 9 12 3 19 9 9 12 6 6 0 0 15 2 -13 -3 2 -1 4 1 -6 12 -1 8 8 4 14 -15 2 17 8 11 3 12 10 5 14 3 -2 0 -3 -2 11 4 7 5 1 0 2 1 3 13 0 10 1 5 0 0 -8 3 -3 -16 -13 9 8 1 -7 -2 -9 -2 0 -7 -7 -10 -1 7 -13 -6 -7 13 -7 3 -12 -3 2 -1 11 -5 -9 4 -5 -14 3 3 -8 -4 -1 -7 -7 -2 13 -11 9 -11 9 -16 1 -1 -11 6 -9 1 6 -13 14 -7 3 6 13 -1 -1 -15 -9 -9 -6 0 -2 -10 9 -2 -8 7 -10 -11 3 -2 -3 -3 1 12 -3 -3 1 6 -4 5 7 0 12 1 4 7 3 -8 -17 2 1 1 -12 -1 -3 -6 -4 -5 -5 -7 -4 -4 5 -2 -3 5 -1 8 4 2 -5 -2 2 3 -4 -8 0 -5 5 -1 4 -8 -4 4 7 -4 -2 2 5 15 5 3 3 1 1 8 1 4 6 1 -4 4 -7 -7 1 3 -11 6 6 9 -5 -8 -2 4 -10 -13 7 -3 -5 3 -1 4 5 -8 -4 10 1 -9 8 2 3 -1 4 -4 -6 1 5 -3 -10 0 1 3 3 0 2 15 -11 -1 8 5 7 3 -2 -6 -1 -1 -3 3 2 3 8 -5 3 9 4 -7 0 0 0 5 1 2 -1 -7 -1 -3 -1 -12 -3 1 -5 2 -7 0 -2 -24 6 -2 -12 -3 -3 -8 -2 1 -1 -7 2 -1 -7 -11 -6 -3 1 1 -8 8 -1 1 -13 -1 -20 1 5 2 -3 -3 -9 9 -3 -3 -8 0 -5 -7 -5 -10 4 3 -13 -20 -10 6 -3 3 -7 0 -13 4 -4 -5 3 -9 5 -3 1 7 -1 -1 1 -6 6 -3 5 1 -1 -6 10 1 -10 -2 2 -4 -4 -8 -6 -1 0 -3 -1 2 -1 -4 8 -4 2 -6 -6 -11 9 -3 -10 6 3 2 13 -4 -5 1 17 -7 8 7 -2 4 -7 1 4 2 -8 -2 2 -5 1 -11 2 -10 -6 10 2 2 -3 -9 6 4 20 5 -10 5 9 10 -1 9 5 7 6 5 3 -1 13 2 5 7 6 8 7 8 14 13 4 -10 10 -8 11 1 -2 -9 9 -8 -11 2 7 -3 -2 -2 3 -1 9 7 12 2 4 -3 7 1 0 6 -5 -12 0 0 12 4 -7 -3 -4 14 -6 3 -1 4 7 7 -9 3 12 13 -3 -4 6 6 6 8 -6 -4 -7 -7 9 3 -9 7 -2 -3 -1 7 4 -10 9 -8 -10 0 -5 -7 4 -16 9 -3 6 8 -3 -1 8 -6 -2 2 -4 -7 7 2 2 1 -4 -1 12 -7 3 4 9 -7 9 -1 -1 11 1 -4 -5 1 -7 -10 -9 -2 -3 -4 3 -3 -3 3 4 -4 
6 5 3 -3 6 7 -7 15 -3 4 -2 11 2 6 -2 5 4 12 -3 4 -6 1 14 8 6 -5 0 2 3 15 -4 11 7 -2 10 3 14 3 8 9 12 6 3 9 15 10 2 14 13 0 7 13 8 1 9 6 6 -3 1 -1 6 -1 9 -2 4 1 9 -4 -7 6 -6 -6 -6 -3 7 4 4 8 10 8 -11 10 2 15 1 -1 -2 1 -4 -5 11 -8 0 2 3 4 4 5 -11 14 9 16 -1 14 7 5 -1 -1 10 8 3 12 -12 12 -5 8 -3 7 -9 7 -6 1 9 3 -6 6 -5 -8 9 -14 5 -4 -2 2 -2 -7 -2 -1 -8 -10 -19 -11 -2 4 -3 4 -13 7 -5 -14 -4 -6 -2 -9 -8 -3 -4 -4 -10 -14 4 -11 -3 1 -4 -5 7 -5 -5 -6 -11 -8 -6 -18 6 -3 -7 -6 5 -4 7 -6 -1 -4 -7 -16 -8 -9 -4 -11 -4 8 3 -2 -1 -7 -4 -3 -9 -4 -5 -2 3 -7 -6 7 -4 -15 -10 -6 -4 -2 1 -5 -7 -10 2 -4 1 -5 -9 -4 4 -13 1 -1 -7 -2 2 -8 -7 -5 1 -1 -7 7 -2 -7 -8 -1 -6 -1 -7 -10 -5 11 -3 -9 4 5 -11 -7 -2 -9 -7 2 7 -4 3 -11 10 1 7 3 -1 -2 -11 -1 1 10 -5 11 -2 0 7 15 -3 -6 5 0 5 1 0 6 5 8 0 11 12 1 4 1 1 3 -13 3 8 -6 -7 1 -2 -8 6 -5 -3 -1 -12 3 -9 -9 3 0 -6 -2 -10 2 -2 -8 2 -3 -1 3 3 1 0 1 1 5 -2 -10 -4 -2 4 -5 -3 10 -14 0 2 -8 1 2 6 4 2 6 6 -1 8 0 3 -11 -8 -3 -5 7 -16 -4 -3 -4 -15 5 -8 -2 8 -15 -7 -4 -2 -12 13 -5 -5 -1 -4 -10 6 -5 -4 -9 5 4 -8 -4 -1 8 -12 -6 -9 -9 -7 5 -8 -4 8 -5 9 8 -6 1 7 -5 -4 1 -10 -6 5 1 -1 -9 -6 -1 0 2 8 -7 3 -8 -6 5 -9 -12 -4 0 0 7 -2 -6 -5 3 6 12 -8 11 -4 -7 2 3 2 4 -2 1 4 -2 7 2 14 4 -5 -1 14 1 0 9 -9 5 -4 6 3 2 6 -6 1 -3 1 4 5 2 12 8 -5 -3 9 -7 -12 -3 -11 3 -4 1 9 -3 -1 -5 0 -14 -3 -4 3 -2 2 3 7 3 19 11 2 12 7 6 6 -3 1 -2 0 2 5 13 23 8 8 8 -6 -8 5 3 11 1 9 3 4 10 -2 7 4 -10 1 4 3 4 7 11 5 6 9 11 6 5 -2 8 8 -2 2 -2 1 6 5 7 -2 2 2 0 18 -9 2 -5 15 0 -13 2 -1 -4 11 -3 -9 15 9 -5 4 2 -2 2 4 -9 0 -5 2 -2 -4 0 -6 -9 -10 8 1 -4 -3 2 1 -2 -2 -9 -3 9 6 -1 -10 -1 5 -6 1 7 5 2 6 -12 8 -5 0 -4 -13 -15 -6 5 0 -6 6 3 6 1 5 2 -4 -1 -3 -3 11 2 -11 -2 -2 -8 -8 6 2 0 -10 -5 8 -2 
4 -9 6 6 -6 -1 5 4 0 4 -5 1 -7 1 3 -1 3 7 12 6 10 7 8 1 9 10 -4 -5 4 -3 12 -12 7 10 1 11 -1 10 12 7 8 2 14 9 4 -7 13 7 19 6 -2 2 3 -1 3 9 -4 13 -7 10 18 -6 1 5 6 8 7 0 -14 -1 -1 14 4 -4 7 0 3 2 -1 8 13 9 -4 5 2 4 12 4 5 10 -6 6 3 -7 8 -9 7 -6 -7 5 3 -4 -4 6 1 -8 2 7 1 12 -9 4 5 20 7 7 10 -5 -8 2 -2 9 -1 -2 2 15 9 -9 6 -4 11 1 -2 1 -2 -7 8 -5 -6 -8 -9 1 7 -3 -9 -7 4 -5 -1 -3 -4 -6 -6 -4 8 -1 -2 -9 -15 -5 -9 -5 -10 -7 -9 -13 -3 -5 -9 1 0 -14 2 3 1 -5 2 4 -11 -6 0 -14 6 -8 -6 -7 3 -13 2 -13 1 3 -12 11 4 -7 -8 -5 -9 -7 -1 2 1 -9 -1 -11 4 4 -4 -1 -6 0 8 1 3 0 -15 -6 -6 1 -10 -3 2 -6 1 3 3 4 -1 -9 0 7 -8 -3 -5 3 11 7 -17 -3 -7 5 2 -2 -8 -6 6 1 0 -8 -6 -2 0 -9 9 1 -3 -9 4 1 -4 -5 -2 5 0 0 3 -8 5 10 -1 9 0 9 3 0 2 11 -4 -8 -5 -1 -10 -5 -2 2 -4 -17 -4 -9 5 18 8 2 4 -6 -5 -7 -1 -18 5 4 0 5 -3 7 6 -10 8 -20 9 -3 -2 3 1 -10 -8 -8 -10 -1 -5 0 3 -2 -1 -1 -2 3 10 -1 2 2 -5 5 -8 -14 -3 -12 6 4 -8 -6 -2 -6 4 -3 -3 -1 -9 3 -10 -11 -13 -5 5 -4 4 -3 2 -11 3 -3 -6 -7 -6 0 0 8 5 -6 -9 -4 5 -10 -7 -3 -15 -6 3 5 -6 1 -5 -6 -4 -5 -14 -7 -2 15 5 -16 -3 5 -6 11 -9 4 3 0 7 -9 6 -7 8 -4 4 -13 0 -11 0 -8 -13 2 -17 -6 -3 8 -2 2 3 1 5 -8 -2 -8 -15 1 4 -3 5 -7 1 1 -6 -1 -3 0 7 9 14 16 1 1 6 10 -2 12 4 3 -5 1 11 0 3 4 10 0 -1 2 -7 0 -14 -5 -3 4 -2 3 0 -6 1 -2 -10 -11 5 3 -1 11 8 -6 7 5 -3 -3 2 0 1 -6 -4 4 5 8 -5 5 9 -7 9 6 4 -3 6 1 0 3 3 1 8 6 14 8 13 5 -2 -4 -11 3 7 13 7 4 1 15 -1 6 7 0 3 4 19 1 0 -4 4 -2 -1 -6 7 7 2 7 -16 9 3 17 -5 7 -7 -16 0 10 0 -12 0 -3 11 -2 2 -6 6 12 8 -3 -11 -8 -2 2 2 -7 4 1 7 -9 5 -25 7 -5 -7 -1 1 -7 -1 -4 0 -1 6 8 9 -7 -3 -1 0 -7 3 -4 -10 4 -2 -11 0 -1 -9 1 3 -4 1 -5 -4 2 -6 4 -3 6 -4 5 4 4 7 -8 -1 5 -6 13 7 -6 -4 6 2 -22 2 -4 -4 -8 -2 3 3 12 -3 5 4 1 
3 2 -3 10 -5 17 10 5 -1 6 8 8 0 0 -6 8 4 -10 4 -3 -6 10 8 2 4 16 3 11 7 9 -4 10 5 6 2 10 5 -1 1 15 5 1 13 14 3 3 10 5 17 6 9 9 8 13 4 2 1 8 5 -2 3 3 8 0 -3 8 -8 -1 11 5 3 -6 9 10 -2 4 8 -4 2 2 9 2 11 4 -9 -5 -1 -10 12 6 2 7 0 2 8 7 0 0 -1 20 -6 7 10 -3 -10 0 9 -6 10 5 3 12 8 -9 -4 -1 -3 -5 -14 -7 11 1 9 1 3 -8 2 1 1 8 0 1 -2 -6 2 0 -3 0 -17 0 -3 -4 1 -14 4 -10 -2 -2 0 -2 -13 9 2 -9 -8 -12 -9 -7 10 -3 -11 -17 4 0 -14 2 0 -7 4 -11 -5 -7 -2 -7 -8 -8 2 -4 -8 -7 -7 -11 1 -2 -11 6 3 0 -9 7 1 9 12 1 -2 -8 5 -5 -5 1 -5 -3 8 -8 0 5 1 -6 -3 -15 13 4 6 3 -15 -8 1 -9 -11 -5 0 -4 -3 -11 -5 5 -7 -6 2 4 6 0 -10 -10 -11 -3 -3 -1 -9 -8 -10 -8 -6 -10 -1 1 -16 5 -5 4 -12 11 -6 0 3 -11 1 1 4 0 1 4 5 -6 -4 -2 17 -6 -2 -8 9 17 -5 7 4 7 12 5 -10 5 5 2 -2 -3 2 6 8 17 -13 -2 14 4 -4 3 5 8 0 -2 -10 4 -1 -4 5 0 3 -3 1 2 -8 -6 3 3 -11 -17 3 5 2 -6 2 2 7 4 2 -5 -4 0 -17 4 -8 11 -6 3 7 2 0 1 -2 5 -2 -5 4 -6 -5 -7 10 2 -7 0 -4 -3 7 -7 1 -4 4 3 -5 -2 -6 3 7 -22 7 -2 -13 -5 2 -10 -11 -4 -3 1 -17 -6 -3 -3 10 -9 1 -2 -15 -9 1 -3 -4 -13 1 -3 -5 -15 -6 -13 -8 -6 -4 -6 7 1 2 -8 -11 -4 -5 -16 -1 -15 -10 2 -10 6 -4 -7 7 -4 -5 3 2 -3 -2 -7 10 -3 -10 0 -7 5 -3 10 5 -9 11 -1 5 0 -5 4 8 -10 9 -7 -6 1 -4 9 1 -6 -5 7 -1 -8 2 5 4 -1 5 -12 3 4 -8 -2 -7 13 -2 1 3 -6 9 -5 11 9 4 9 3 -4 7 4 -6 -8 -3 -2 0 -5 4 9 -8 4 -3 9 6 3 0 12 5 8 0 -6 16 1 2 8 11 -4 12 0 -5 9 1 5 10 7 10 12 5 8 5 1 7 -7 12 -5 15 8 3 3 -3 -3 16 -7 -7 1 10 -1 -1 3 3 -7 0 6 5 2 -2 17 12 -1 7 -5 -1 7 -1 -2 1 10 1 0 -3 -4 4 -4 8 3 -3 -1 -2 8 -14 10 -6 -1 -8 3 4 1 -5 3 -2 -14 -1 3 -3 -1 -5 -10 2 -6 -1 -17 0 -3 -6 8 5 -9 0 -8 -5 -5 9 6 -3 9 0 1 -8 -2 -2 6 3 -4 2 -11 7 -14 13 -8 9 4 5 0 3 5 3 -1 10 1 13 -3 -3 4 -15 9 -7 6 -8 -4 -6 -9 13 9 -2 -1 
-5 0 5 -2 3 -3 0 -1 4 1 -1 -10 3 0 -8 -4 0 -1 17 -11 4 7 8 10 17 6 4 1 3 7 1 13 4 10 -3 1 -2 8 12 -12 22 2 12 -2 18 13 8 8 13 10 11 11 -7 16 -8 17 0 -9 10 -1 4 0 7 17 6 1 3 -6 9 -3 4 -2 0 1 4 -1 0 3 20 1 5 15 3 11 2 -4 -1 -1 3 7 6 1 -2 0 -6 0 11 4 4 -2 16 3 -6 4 0 -4 4 3 8 6 1 -11 1 -1 0 -18 16 0 5 6 1 -14 -5 12 12 -7 6 -6 16 -7 9 4 3 5 5 2 -4 -12 10 -15 -3 -3 -11 -5 -6 -9 2 -3 -3 -10 -14 -6 -5 -2 6 -5 7 -5 2 -6 -2 6 -13 -13 -3 -8 7 -9 -1 3 -3 -4 4 4 -3 9 -3 2 -5 -11 -11 -13 -9 -7 -5 -1 -13 -4 -6 -3 5 4 -2 -2 12 3 -9 4 3 -3 -6 -7 -4 0 -4 -17 5 -4 6 -9 -3 -1 8 -4 -2 3 5 -5 -8 -1 -5 -3 -1 9 -1 3 -11 0 -4 -13 2 -3 6 -9 13 -18 -3 -5 5 -2 2 -11 6 -9 0 -15 -1 10 -5 -3 1 0 -4 8 -13 -4 0 -12 2 15 -11 -1 -10 10 6 4 2 3 6 4 -2 8 -4 0 -4 -5 21 -4 4 10 -11 5 -1 -4 7 12 -10 -7 8 4 -5 -4 10 -6 3 -4 10 -9 7 -7 -7 3 -4 -18 5 -1 -8 -8 4 -2 0 2 4 1 -11 0 -5 -6 -11 3 -15 -5 0 11 6 -4 4 -6 3 1 -3 -2 6 -16 4 -5 -1 -14 8 -11 4 12 3 -1 5 -4 -3 9 -5 -4 -1 -2 -1 -10 -7 -18 1 -5 -2 -10 -2 -4 -7 4 -15 -1 1 -12 3 -17 -9 -5 9 -12 -5 -2 0 5 -15 1 -3 -2 -8 -8 -1 10 -3 -8 -5 -4 -2 -13 -3 -15 -2 6 -3 2 -15 -10 14 -6 -15 -7 -12 -2 -9 -12 12 -1 -9 -14 -6 0 -8 -6 1 -17 -8 -6 4 0 -6 -14 -9 9 -8 9 -4 1 3 12 -4 20 5 -8 10 2 0 12 -2 6 5 -7 15 -12 3 10 1 19 -10 8 -7 6 3 2 10 2 5 -2 9 -5 6 -9 18 -4 8 2 1 -14 4 0 11 -10 -3 -8 3 5 -2 -3 -1 9 -15 5 -9 -6 -5 -3 -1 7 1 -8 2 -4 8 5 8 -7 6 3 2 6 -5 7 -1 -8 8 5 1 23 4 5 -4 16 3 6 14 5 2 4 1 -9 21 8 -2 -1 -23 1 -8 -4 4 -7 5 8 -2 -1 10 3 14 7 0 -15 4 7 6 15 2 8 5 0 9 3 -4 1 -7 2 -2 2 12 0 0 -4 -2 -9 0 8 -3 7 -6 4 -10 -12 -3 3 -9 2 2 -10 -5 -3 -7 4 -6 1 -4 2 0 3 2 9 0 8 2 2 -7 -3 -15 10 10 10 4 7 -10 5 -2 3 8 -4 8 -1 -5 12 -15 4 1 4 -10 15 4 0 21 0 1 6 -7 -4 -12 -1 4 -2 1 -6 0 -4 7 2 -10 2 5 3 
-5 9 3 5 2 1 -1 1 2 -7 0 8 -6 -2 -1 2 4 2 12 8 11 6 8 9 4 17 -3 4 11 14 4 0 4 13 5 -9 11 -4 18 6 6 7 -1 3 16 13 1 12 5 10 3 4 9 -1 2 14 -6 14 -4 -9 17 -3 15 -3 -1 -5 3 7 19 0 -7 4 4 -2 -11 -4 12 4 -8 10 -7 -6 3 -3 -3 3 1 2 10 -8 8 -11 3 -5 9 3 5 -1 0 7 3 -9 23 -3 -3 6 -6 4 1 -7 -15 8 -4 10 -3 -1 12 -11 10 2 4 2 3 -8 7 7 6 5 -6 -5 4 8 -5 -5 -8 -4 5 -1 -2 8 -17 -3 5 7 -2 4 3 -11 0 1 2 2 4 -8 -1 -6 -4 7 -11 -7 17 -7 -5 -3 -10 -1 -14 -9 -13 0 3 1 -9 -4 -11 -2 -8 -1 -12 -11 0 -15 5 -19 -12 10 -9 8 -9 -5 2 -8 16 -6 1 -5 8 9 -2 -10 7 2 -3 4 -3 7 -2 3 4 10 1 3 8 6 4 -1 -6 -13 -6 -13 -1 2 -1 -14 6 -4 8 -13 1 11 4 -4 -8 9 -8 -4 -8 -3 -9 2 -11 -6 -16 -1 -6 3 -8 0 4 0 -4 3 11 1 -10 5 -5 4 3 13 6 -11 1 -2 11 6 -4 -16 -11 -4 10 1 8 -8 -5 -1 -8 6 -5 2 -5 6 18 5 -6 2 6 -7 1 -3 2 -11 0 13 -7 4 0 0 -6 -1 16 -8 3 12 -3 11 8 0 -3 -24 -2 -2 -12 -7 -3 2 -6 -4 -3 0 -8 -7 -12 -5 3 3 -10 5 8 0 3 2 -7 -1 1 3 0 10 -17 -9 -4 -3 -4 -13 -5 6 -2 -2 -4 3 -8 -9 -7 14 -6 -2 9 -6 1 -8 -2 8 -2 -10 -5 -7 4 -12 13 7 -18 1 -3 -4 -8 -4 -12 10 3 -13 5 1 1 3 6 -12 -11 -7 2 -4 -14 3 -8 5 5 -2 -3 -4 6 -7 -11 -2 -14 0 -9 -13 -18 -5 1 -7 2 -4 -6 -1 -11 7 1 -1 7 -10 -2 7 -11 -3 -2 -5 -4 3 -6 6 9 -10 5 6 -3 1 4 -6 5 6 1 15 -3 12 14 9 8 -10 -8 12 6 5 -8 6 6 8 -3 10 4 7 -5 -4 11 -3 3 -8 -3 -4 -4 8 6 2 2 3 -1 0 -14 1 0 9 2 -5 -4 5 4 -4 11 -1 3 3 7 4 4 0 -3 -3 1 7 6 3 8 -7 11 2 5 12 9 8 22 6 -4 16 1 -12 8 5 2 3 -11 17 3 10 -6 -7 7 0 0 2 2 -2 7 7 4 6 4 8 -5 -1 5 11 3 -2 2 7 3 -7 9 -2 0 -4 2 -10 9 -2 4 3 8 -1 -4 -4 -4 5 -8 -5 5 -2 -1 5 -12 -1 -2 -7 1 -5 11 -13 7 -2 -7 0 -3 1 -4 -2 -4 -7 5 -11 7 1 5 15 1 9 -3 -6 -4 -11 -6 -8 4 -11 7 -2 -8 -2 -8 5 -1 -6 9 9 6 1 4 14 -2 9 -8 3 -2 1 1 12 -2 -2 4 -7 -11 0 2 0 12 -11 -8 7 13 -8 2 7 
-5 17 -1 13 0 -2 12 10 8 -3 4 -5 10 7 -2 -2 -1 7 2 10 -5 3 0 8 -6 6 10 13 9 2 4 7 9 14 -5 15 -9 8 5 10 5 13 12 8 8 9 13 6 9 7 13 7 -2 10 8 6 8 9 -1 1 7 3 -2 -4 0 -5 9 2 -1 3 -1 3 -9 3 9 2 -6 4 -2 13 4 -1 3 4 -4 4 1 -10 2 0 -1 -2 6 -1 10 1 -8 1 4 -2 -12 13 -10 -5 9 -3 -1 4 8 8 -3 12 2 8 -3 -9 12 3 14 3 1 5 -1 -4 7 -15 2 3 -4 3 -11 -4 -4 -2 -4 3 -4 -7 3 -3 13 -10 -1 -13 -9 -10 -2 7 -12 -7 -4 -11 -8 5 -9 0 -2 -3 2 -11 2 -12 -8 -8 0 -7 -3 -3 0 2 -10 -22 -8 -14 -6 -8 -7 -12 0 -3 0 -12 0 -1 -9 -6 -6 2 -6 -11 -5 4 -4 -4 -3 10 -5 -12 1 5 6 -9 -3 6 -8 10 -1 -5 -3 7 8 -7 -3 3 0 -12 -3 -7 1 -5 -8 -6 3 -8 7 3 2 8 -3 -6 -2 1 -1 -3 6 7 -5 -5 11 -2 -5 2 6 -3 -15 5 -11 3 -5 5 0 12 -3 3 11 1 -8 6 1 -9 -4 -2 5 0 -1 -1 3 4 9 14 -6 8 1 3 3 2 2 -3 3 -2 1 2 -3 2 11 4 -5 4 -2 1 -4 18 -4 5 2 3 -8 -5 1 0 -4 -2 0 -4 2 -5 -2 2 -2 -5 -7 -11 -11 3 4 -6 -11 1 -10 -2 -10 6 -7 3 -11 -11 -10 -5 -10 -4 -13 -13 -4 3 -2 0 -3 -11 0 18 2 -10 -3 9 0 -2 -3 0 -9 -8 -19 0 -7 -7 -4 2 0 -5 6 -8 -5 4 -2 -6 -4 -16 6 0 2 0 -8 -6 -5 -2 -12 -5 -13 0 -11 0 -7 -10 -1 -5 -9 -6 2 1 -15 -3 2 -7 -2 4 -4 -2 -12 -12 0 -5 -8 -2 -4 -6 -7 11 -10 3 -7 -5 -4 1 -3 -2 0 -10 3 0 2 9 -6 -2 8 2 6 1 8 -7 16 5 5 18 -4 -10 -4 5 7 5 1 8 9 8 9 -1 8 -4 4 15 1 6 0 8 2 15 10 11 7 -2 -4 3 4 4 -1 4 4 7 0 -5 -4 -2 7 4 2 6 0 -13 -5 0 3 -14 1 -7 0 17 -1 -3 -5 12 -12 20 -10 -4 15 7 0 -5 7 7 6 8 3 1 4 15 7 4 0 4 23 2 10 21 8 20 2 -1 15 -1 10 -4 5 0 2 0 -5 -3 -1 1 -2 -1 -1 -11 4 -3 -8 15 3 0 2 5 15 -1 9 9 2 5 6 5 2 8 0 4 -5 7 -1 -3 -2 7 -10 0 -4 1 6 -4 -7 -3 -5 0 2 1 12 -3 5 -4 -3 -6 4 4 -8 -4 -4 1 -3 -7 5 -3 4 -2 8 -1 -4 0 -1 -5 0 16 12 6 -1 7 -2 5 0 9 -14 -3 2 -7 1 4 6 -6 4 6 -13 11 7 -1 -3 -19 4 1 5 -5 3 16 4 2 -1 -5 -1 4 -9 13 -9 -2 7 5 1 -3 
-4 -6 7 2 -8 0 -8 -2 -1 -2 -3 10 3 2 -8 -1 -2 -4 4 1 7 14 10 10 7 7 -4 8 3 7 -1 -2 3 5 4 19 4 5 13 0 20 -6 12 -1 3 8 19 0 13 18 12 -5 22 11 5 7 1 -2 1 0 -2 6 -5 17 10 -3 1 -4 -2 3 8 -8 3 2 4 -7 1 12 -2 4 6 4 5 2 -2 4 -1 -7 4 -4 -1 19 0 13 -2 1 5 2 -1 14 -1 12 -6 -8 1 -6 3 -5 -7 -6 -11 3 1 4 5 1 14 -3 1 0 -1 -6 5 -1 0 12 6 4 8 1 8 0 -8 -9 -9 -11 -5 -6 0 -8 -6 -1 -5 -12 -16 -13 14 11 -8 -1 -7 -3 -7 2 -9 -11 -6 -14 1 -3 8 0 1 -13 -2 -10 10 0 -8 6 -12 -9 -15 -11 -7 0 -1 -1 -2 0 2 -7 4 -2 -16 -1 -7 -6 -4 -1 -6 8 4 3 8 -6 6 10 6 -2 -5 2 11 -2 3 -1 2 5 7 8 1 -6 11 -4 -1 8 -7 -1 -10 -9 -10 7 -6 -16 4 -5 1 5 -3 5 -7 -1 -4 -2 0 -4 5 -8 -3 3 4 -3 -5 0 5 -6 -4 1 8 -7 7 -3 -6 3 -5 4 3 0 2 9 2 -8 -2 -2 2 10 13 2 4 -5 20 4 1 -7 3 -13 7 3 2 0 -9 13 0 9 -3 5 8 -9 8 -9 6 -3 -2 3 -6 0 -5 13 -3 1 9 -12 -7 0 -3 12 -10 -1 1 -1 -7 11 -5 -12 3 -5 -11 -7 1 5 0 6 -6 10 1 1 7 6 -2 6 -12 13 -1 0 3 2 3 -11 -5 2 6 3 -3 6 5 -13 -1 -3 2 -7 -7 -7 -3 0 3 -12 -5 2 -6 -7 -18 -6 1 0 -3 -4 2 -8 -13 12 -6 -7 -1 -5 -6 -6 -1 -13 3 5 -8 1 8 -6 1 -14 -2 -7 -11 -2 -7 8 -5 3 -11 -6 -2 6 -5 -2 -3 -1 -20 2 -7 -15 -5 -17 -8 0 -5 0 6 -7 2 -2 1 -5 -2 1 1 6 -2 -8 -4 -2 9 10 -2 -2 7 -9 3 -1 0 13 -8 11 14 2 9 10 -1 5 2 8 -11 6 11 0 1 4 -15 7 -7 13 -8 9 9 -2 3 12 4 1 -8 10 10 -8 9 -6 2 -7 0 -11 0 -2 -1 -7 -2 -1 7 -12 1 -4 3 1 3 -5 6 -10 3 4 -5 -5 9 18 -2 -6 5 6 4 5 1 14 -6 -1 10 5 -6 17 -2 -5 6 -1 -2 -8 7 5 -2 6 -3 7 7 -3 3 -3 9 1 -2 0 6 -2 7 1 6 0 -3 7 2 -10 0 6 5 0 12 3 2 8 0 1 2 -4 16 2 0 3 0 -7 3 -22 -1 -4 -7 6 0 5 -1 3 2 -6 7 -6 -12 -11 3 0 -6 10 0 -7 -6 -7 -17 -6 -9 3 -1 -4 0 -3 3 10 11 -2 -3 -1 -3 5 -3 14 -10 3 14 2 13 6 0 -3 -3 6 -18 10 5 5 17 6 -3 5 -5 8 -8 -3 -2 8 4 0 8 -1 0 13 -8 -3 -2 6 -2 5 5 9 -4 1 
5 7 -7 -4 0 12 -2 12 9 3 -1 -5 10 0 8 9 7 9 10 -11 2 -12 -7 11 3 20 10 11 4 15 11 5 15 2 17 8 -3 1 0 14 6 6 18 0 5 20 -5 11 0 11 12 13 -9 20 -9 15 7 16 6 4 -1 10 -1 7 6 7 11 -10 2 -2 3 -1 2 5 6 -1 1 0 -4 -11 3 -2 -5 6 -11 -9 5 5 0 -7 0 3 -5 15 -1 -2 4 11 7 8 -11 5 4 9 7 1 1 8 -2 -7 -6 -5 -6 -5 1 1 3 7 1 2 1 1 -2 -4 -2 -1 -1 0 7 9 -7 8 -1 -4 0 6 3 0 -6 -7 17 -13 6 -6 -6 10 -9 6 -10 -2 -4 -2 -5 -3 -15 -4 -3 -9 5 -1 -9 -3 -13 9 -15 -7 2 -12 -8 -10 -5 -13 -8 -9 -8 2 2 -7 -12 3 -2 -5 1 -10 -6 -10 -3 2 1 2 6 5 -2 -6 -9 11 1 -3 -3 -2 -2 10 -3 4 -1 -8 10 1 0 10 6 10 -4 7 7 -1 -4 -16 2 -6 -10 1 -5 6 7 -8 1 -6 8 -12 0 -8 -7 8 -6 -5 -7 -5 6 -1 0 5 -12 -5 -10 -3 -1 -1 -3 2 -8 -5 14 -5 6 4 2 12 3 -21 14 7 -5 3 3 4 -10 5 -16 -3 8 -1 14 -8 -8 -2 3 -1 10 -2 9 4 0 10 -5 -1 1 0 -9 -4 9 1 16 -3 5 1 10 -12 -1 -6 -10 -2 -1 -3 -1 -7 0 -16 2 -1 -8 -9 -1 -6 2 -8 -3 -8 -5 -6 -1 -3 -3 -7 7 -7 -2 9 -13 -12 -7 -11 -6 -16 -9 -1 -11 -4 -15 -8 -12 -7 -26 -7 -4 -2 3 -1 -8 6 -4 5 0 -8 -5 -6 0 -9 -14 0 -4 1 -5 -1 -11 -2 1 -7 3 -3 -5 -7 4 2 -1 -9 -4 10 -6 -11 -1 3 -2 -6 -7 -5 -9 -6 -2 -11 -13 -4 -3 -18 2 -6 -9 -15 -7 -1 -9 -9 0 2 0 -10 -1 1 -7 -14 -1 -6 -4 -1 -1 -6 6 -1 -7 8 -8 0 2 12 5 0 -9 2 22 -4 3 -3 0 8 7 0 12 -7 0 8 16 -6 1 3 7 -4 8 1 11 -1 14 9 10 -4 4 13 -1 11 -2 10 13 4 4 -1 5 -2 9 0 -2 7 7 4 -4 -7 -1 -2 8 -11 -3 0 11 5 -4 -6 1 4 -2 10 0 9 4 9 -1 1 1 5 12 7 9 -2 8 -8 9 -1 5 11 -4 5 8 -9 -1 -3 8 12 3 -2 3 1 -1 4 4 -6 4 0 -4 -10 -2 -3 -5 1 2 5 -9 11 -4 1 0 6 -8 3 3 -9 3 -5 4 -1 10 22 10 -3 -8 1 -14 7 -15 -13 6 2 -3 9 5 -7 4 1 -11 8 -5 0 5 8 1 2 8 6 -5 8 -2 -1 2 5 -4 -3 -8 1 -2 -2 -3 -3 0 3 5 -6 3 -11 3 9 -2 3 -4 6 0 8 10 -6 4 7 -1 6 -1 -3 6 -6 19 14 1 6 -2 -1 -1 0 14 5 3 -8 -8 2 -4 12 10 -4 6 0 -11 -4 8 -8 -4 5 0 19 
3 2 -4 5 4 -1 -4 -3 -1 -2 25 3 14 10 -3 8 -2 -9 5 2 4 6 19 2 4 2 11 7 8 13 11 13 7 13 10 6 15 8 7 0 9 14 7 11 11 5 8 9 6 20 0 2 8 -4 9 5 13 5 11 2 -4 -7 -1 -7 10 -4 12 -2 13 8 -1 5 1 10 -3 -7 3 0 13 -2 2 1 -8 -1 2 13 2 8 -8 -8 13 -3 -2 -8 -1 -4 -10 3 3 1 -4 2 1 -2 2 -6 -10 -5 -4 14 -5 3 9 7 -7 7 -11 -5 0 -3 -9 2 -3 7 0 8 -2 -4 -3 -18 9 2 -2 7 -8 6 -3 -7 2 -5 -4 -3 -7 -1 -5 -6 12 10 -4 -8 -11 -3 0 -6 -3 -10 -12 -15 7 2 -2 -12 7 -18 2 -15 -7 -10 -8 -10 -10 -2 -2 -7 -13 -2 -7 3 -7 -15 -7 -12 -9 -6 4 -21 -7 5 -8 2 -6 2 9 -3 -6 6 -4 3 -7 9 -1 -10 -4 2 0 8 0 -2 10 -3 10 2 9 -3 0 -5 2 -2 1 -10 -2 1 0 1 -10 6 0 3 9 2 -7 10 1 1 -15 -10 1 0 -3 -7 2 8 -6 8 -4 3 -7 3 -5 8 1 -3 0 15 -5 2 6 -5 -2 -13 2 -5 -6 -5 4 -3 -6 9 7 -1 -3 -21 -9 -4 5 9 1 13 4 -1 8 -5 -8 3 -11 -7 4 -8 -1 7 -10 4 -12 -4 11 3 -9 2 -1 -5 -6 8 5 -6 -7 5 2 1 0 -11 -4 10 -7 2 4 4 4 1 -2 3 -2 1 -5 8 -4 5 -10 -12 -3 -1 -13 -2 -4 0 -15 -4 -18 -1 -1 -16 -2 -8 -12 -13 -8 -6 -9 -3 -10 2 6 -4 7 -12 -7 -3 -10 -11 11 1 -3 -5 4 2 -4 -1 2 -2 -2 4 -10 -7 -14 -10 -9 10 -10 0 -2 5 3 -3 -10 -1 -18 -4 -11 -1 -3 2 -4 -5 -3 -2 4 -5 -1 -6 -7 -5 -3 11 0 -9 3 -11 -9 7 -1 -11 4 1 -10 -7 -2 -4 -2 -5 3 11 2 0 0 2 0 10 8 -4 4 9 -7 14 0 -15 9 2 -1 19 13 9 8 2 6 5 9 -7 2 1 14 1 11 -3 -2 7 11 -2 8 -1 -7 12 1 -4 7 -7 2 -4 4 9 13 3 -2 4 12 -1 -2 3 15 -5 -1 -1 5 -4 15 -8 -4 12 6 8 -8 -3 1 -5 1 1 3 5 -1 5 -4 7 7 2 9 8 2 7 -11 -7 1 -2 20 9 0 2 -5 0 -4 11 1 1 15 14 1 5 12 1 2 3 -5 5 4 -11 -3 -4 -7 4 1 -3 7 -2 5 9 4 12 -10 12 -4 5 -7 -8 12 7 -4 6 -6 -1 0 -11 6 -9 -16 -11 2 -5 2 -3 -4 -1 5 3 -9 -6 -1 -1 0 -9 -5 -3 -10 4 -15 2 4 -5 2 -1 -11 -5 -3 -5 -8 -6 -7 -1 2 10 7 -9 7 -9 0 10 8 -5 2 12 6 -3 10 -5 7 4 9 -4 0 -11 6 1 12 -6 4 0 8 2 0 7 -7 -7 10 6 -9 10 7 -6 6 6 -2 8 0 -3 
12 -3 1 5 -3 -4 1 12 9 3 8 -3 0 11 8 2 8 8 -3 12 4 10 0 -6 12 0 1 8 10 -2 5 18 19 4 9 4 3 3 5 5 14 -2 6 4 10 1 4 8 13 5 6 11 11 0 8 6 3 0 5 13 4 8 5 17 -5 -1 -1 3 7 -2 -2 2 1 0 -1 12 -7 18 2 4 -7 2 6 7 1 -4 -14 4 5 7 -12 -4 4 -7 4 4 -18 -3 -8 4 3 -1 0 0 -8 -11 -4 5 -9 2 1 2 -6 -1 -8 7 -6 -4 -4 9 -15 -10 17 -5 -8 4 17 4 1 -1 -1 8 2 0 0 4 5 -3 0 -1 2 -7 -10 7 -5 12 -7 11 -13 -1 -3 5 -3 3 -5 -2 -4 -3 -10 -1 0 -5 -13 -9 -2 -3 0 -14 1 -13 6 4 0 -5 -1 0 -18 0 -9 9 2 -6 -16 -3 -8 -7 12 4 0 -5 1 3 6 -6 -1 -5 5 7 5 7 -1 4 3 4 1 -4 -6 1 -4 -2 -1 3 -6 -3 8 3 -2 -4 -4 10 -5 1 -2 -2 4 -10 -6 2 4 -2 7 6 -7 -7 2 -2 0 12 -8 -2 8 -1 -7 5 0 -3 4 -10 7 -6 6 -9 3 -4 10 13 -13 10 0 -1 -6 -5 2 0 2 8 -5 7 4 -1 -8 7 9 -2 -3 -5 6 0 2 1 0 2 3 -9 3 -5 -10 0 8 -3 8 -1 4 15 -4 10 -3 -8 -6 -7 -1 -5 -11 -5 -1 -3 -3 -5 -5 18 -14 -5 -4 -1 -10 3 -5 -6 2 7 -8 -9 1 -5 1 5 3 1 1 -6 -2 -8 -3 -10 -8 -7 8 -5 6 -11 6 -1 -4 4 -8 -1 -5 -7 3 0 -1 2 9 8 2 -16 4 -12 -1 2 -2 1 -5 -14 -4 2 -6 14 -9 -14 -4 -11 3 -2 0 1 9 -4 9 -13 -3 -12 6 -11 -11 -9 -4 -8 -5 -12 0 -7 5 6 -10 -11 -5 -1 -8 -3 -8 -13 5 -14 5 -5 -6 -13 -4 4 -6 -9 -7 12 2 3 3 -9 -3 -3 -4 4 -2 12 4 3 -2 4 2 1 8 -7 8 7 0 7 9 0 2 7 21 -3 4 10 6 9 5 3 8 9 0 5 5 9 10 3 18 -6 20 -1 4 -11 1 11 -4 13 -3 14 -1 13 7 -7 5 -7 0 10 -2 -11 7 -8 -1 8 -6 -2 -1 -8 -5 -11 8 -13 -5 -5 7 16 15 -1 -7 9 -1 6 5 6 1 3 6 0 0 -10 5 -3 -1 -1 6 -2 1 3 7 3 4 1 -1 11 9 -10 2 -8 -6 1 14 -9 16 -4 2 2 -3 -3 0 0 10 9 0 2 -4 4 -1 -2 9 -4 5 -3 -3 2 -8 -5 11 3 -1 9 1 4 3 0 -9 2 3 -1 6 3 -13 -1 -8 4 1 5 2 -5 1 -2 -4 1 5 -7 -3 1 -2 2 6 7 -2 -4 15 -5 4 2 -1 1 1 11 2 10 7 6 -3 11 9 1 10 -2 -2 2 11 -10 -4 1 11 -4 14 6 5 6 -8 6 -6 14 -5 3 3 -15 -5 -3 3 2 -7 9 -2 2 -8 11 -3 11 
4 4 2 0 6 -5 11 0 12 -1 2 11 5 1 5 5 9 5 9 5 0 1 11 7 -8 4 8 0 14 1 7 8 11 3 1 10 14 3 9 13 16 6 10 11 -4 5 3 10 4 4 4 2 0 6 4 -1 1 12 11 9 1 0 -6 -1 2 14 1 -3 4 11 -1 -2 5 7 -7 13 -3 6 -2 14 -6 -7 6 7 -7 1 0 -7 -15 8 -4 -9 3 -6 -5 -9 2 4 5 -9 0 -2 0 5 -4 7 9 7 6 -8 7 5 2 1 8 -7 -4 8 -7 -11 1 -9 -4 0 14 5 -8 1 -2 -13 9 -10 10 -15 7 2 -1 8 1 -6 -3 -4 5 -8 -12 3 5 6 9 -20 -4 -3 7 -10 -14 -9 1 4 -9 0 -10 -4 -4 -12 -3 1 -11 -4 -5 -15 -2 -6 -13 -6 5 -3 -10 -12 -4 0 -11 0 0 -10 0 -3 -4 4 1 2 -12 -15 1 1 -14 9 7 -4 -2 0 6 -7 6 1 -6 7 3 2 10 6 1 -1 2 12 -3 9 4 -2 4 6 -6 -2 -6 7 2 11 5 4 1 7 8 1 2 -8 1 6 7 -1 6 8 -19 -1 0 -7 1 1 -5 6 0 -9 5 4 3 11 8 1 2 7 8 3 3 -6 -9 1 1 4 3 3 9 1 -4 4 -8 3 13 4 4 0 -4 4 4 -11 7 -5 -3 8 7 1 5 8 -1 -8 -8 -6 -13 1 -6 3 0 -2 3 9 -7 -10 -10 -3 0 11 2 -9 -1 3 -1 2 -1 -15 1 2 -3 2 -5 7 -3 -16 3 0 -8 3 -8 -1 -2 1 -7 -2 -10 -6 -3 -13 -9 2 -9 1 -8 -7 2 -17 -4 -9 7 -3 -6 1 -12 -8 -4 -2 -8 9 0 8 2 6 -4 1 15 1 -9 -1 -5 -6 -1 3 -5 0 -11 7 -3 2 1 3 -6 -1 -9 -2 -4 -2 -6 -3 -10 -13 4 -3 -2 8 -4 11 -1 -16 4 -16 -9 3 -10 -16 2 -7 3 -8 -7 -8 -2 -3 3 -9 -8 5 -2 -5 -8 4 5 -12 2 -6 3 5 4 -5 -10 10 -8 1 6 1 -5 7 -3 -1 14 11 -9 -5 16 -5 22 3 14 4 0 12 7 10 -3 15 -7 5 -3 -3 6 4 0 8 4 4 -2 2 10 0 -2 7 2 4 9 -2 11 -10 2 -4 7 7 6 2 7 -5 6 -1 6 10 3 3 2 -3 1 -8 -8 -1 6 2 5 -4 -1 -1 -4 7 -1 -1 9 -4 -10 4 -2 9 -7 0 8 0 -5 9 -8 6 7 -6 1 -3 5 2 11 -2 -4 -7 -3 -4 2 4 -12 -3 4 3 18 -10 10 0 -8 9 -9 2 -2 -1 -2 -2 -8 -3 9 -2 1 4 -2 -6 -7 8 5 3 -9 -10 -5 1 0 -2 -6 -3 5 -3 -5 2 -9 -9 -8 9 -4 -8 -10 -11 11 -7 3 -10 -6 3 4 -9 -3 -7 -8 1 2 -4 0 11 -13 4 0 5 6 -3 4 2 11 13 12 8 -10 5 -4 10 2 3 5 -13 4 17 2 -4 4 -11 2 2 1 -4 -1 10 -7 7 -9 -4 4 0 5 2 8 5 
-3 14 6 13 -3 1 5 -12 2 15 -10 9 -5 2 0 19 14 -1 5 1 16 5 0 8 13 0 14 7 -1 7 -1 4 0 15 11 3 3 10 -2 21 4 2 2 6 15 18 1 3 6 -3 -4 5 6 9 -6 11 3 10 4 -2 8 -5 17 -8 9 14 1 5 4 -4 -6 1 2 5 -3 -2 10 13 -6 7 12 4 -4 -4 9 2 -1 5 2 -10 -9 -3 -9 -15 1 -4 7 -24 -11 -7 -6 -14 -2 4 1 -1 -3 -10 -9 -2 3 -14 -6 -11 -1 2 13 -4 -11 -4 -8 9 -4 9 7 6 -9 2 0 1 -3 12 -6 -3 1 3 -13 -6 1 0 -4 1 1 7 4 9 -4 -14 4 5 -7 -3 0 -6 -1 -5 -8 -3 -12 2 -19 2 -6 -1 -12 5 -7 1 -1 2 -11 -7 3 -15 -12 -7 -10 1 -3 -5 5 -6 -10 -1 -6 -4 -2 4 -10 -11 3 -6 -3 -2 4 -7 10 8 -3 -11 6 6 2 6 6 -8 0 -2 3 9 -3 11 3 8 10 -5 3 -1 -2 12 -5 6 5 -3 7 5 -1 1 14 -7 11 -9 7 3 14 -4 -11 -2 -4 -6 7 -16 0 10 -4 4 -4 -2 -3 7 -2 -3 -5 6 -6 0 4 2 14 -4 -7 5 -3 -5 12 -5 -6 -1 -3 0 -10 -2 -2 -8 -5 1 -6 9 6 1 13 10 4 0 -1 3 4 -7 13 6 7 0 10 -17 1 -5 7 -9 3 5 9 7 -5 1 2 -5 -4 -3 0 -4 -6 6 -6 -1 -11 -8 -6 5 -9 -3 0 -2 6 -9 -4 -7 -3 -11 -9 -4 -4 -7 -4 -15 -2 -4 -19 -1 2 -11 4 -6 -8 7 -11 -5 -3 -10 0 -11 13 -6 -5 5 2 -4 5 -1 6 -3 8 10 -1 4 10 -13 -3 -1 -11 8 -2 -3 0 -5 -1 15 -5 2 -1 -9 -6 4 -4 -3 -2 -11 -5 -6 -8 -2 7 -22 -4 -9 -2 7 3 -3 -9 -3 -4 -4 -9 -5 -16 -6 -9 -11 8 -13 -1 -15 -8 4 -8 -3 -5 -1 4 0 -10 3 4 0 -1 -1 7 10 3 2 8 4 10 5 4 -10 8 3 4 -2 7 -4 0 1 -2 14 3 12 2 7 6 11 13 -16 16 10 6 11 7 4 2 3 6 5 0 7 -11 -2 7 3 7 1 14 1 -2 9 6 7 13 -7 -3 7 -5 4 10 3 -1 0 -4 2 2 1 3 5 8 1 3 1 -3 -10 6 -4 10 2 11 1 1 9 -8 -10 4 -9 -15 6 0 8 6 -1 1 9 -2 18 -1 -2 4 6 2 -5 -15 9 5 -2 -9 11 -9 5 -2 0 4 10 -1 5 5 5 -4 10 -6 -3 2 7 3 8 -11 2 1 -6 4 0 -10 -1 -7 -4 11 0 -7 2 1 -3 -5 0 -2 -4 -9 -6 -2 -9 -11 -3 -1 -5 -4 0 -10 8 0 -1 -2 -2 -2 -12 1 -5 -6 -9 -4 2 -1 6 12 -1 2 1 -3 8 -2 3 15 2 -2 1 9 -7 1 -3 -4 13 4 10 -5 20 -6 2 14 18 -1 6 3 -4 9 9 0 3 5 -10 10 -6 4 3 7 7 
17 5 9 -13 -4 7 0 5 11 -5 12 16 4 9 9 13 4 8 5 19 -1 5 20 7 5 13 -3 1 15 -6 8 3 10 11 1 2 17 11 5 6 7 0 4 2 -1 -10 15 2 11 9 8 18 3 -8 2 9 -4 7 -1 0 5 9 6 10 -1 2 8 -9 5 5 8 -5 8 -1 -1 -2 1 2 -2 -2 0 -8 2 -11 7 6 -7 -11 3 9 0 -5 -6 -1 2 -1 -4 -2 -2 -1 -11 -6 -2 -3 -1 12 2 6 4 4 -3 9 -10 -7 11 -5 -4 4 -11 -4 -2 -7 -5 4 -9 -9 10 8 -6 5 1 -8 -4 3 -3 -3 12 -7 -8 6 16 -13 2 12 -14 1 2 -1 1 -5 -5 -7 20 -6 2 4 -2 -5 -5 -12 -6 -10 -5 1 -9 4 1 -1 -14 1 -2 -5 -12 0 -5 10 -8 10 2 -6 -3 -10 -3 3 0 2 6 -5 -5 5 10 3 -1 -8 2 14 7 -4 19 6 -9 5 6 -3 4 6 3 5 9 8 3 11 -6 7 12 9 11 -4 8 -8 5 6 9 1 7 -1 -4 1 -3 -2 12 8 -6 -13 3 -1 1 2 5 -4 10 3 2 -6 -1 11 -2 15 -3 -8 9 20 5 0 9 2 6 -9 8 0 -4 -5 3 -3 4 12 -1 5 7 0 -6 2 -3 9 -2 8 6 -6 -12 -4 9 -18 -1 2 -11 0 1 6 -7 -11 -4 -4 -5 -6 -6 0 -3 9 -6 -1 12 -1 8 -6 -3 3 -6 -15 2 -10 1 -14 1 -5 -10 -3 -13 4 -7 -7 1 -7 -17 -5 -5 -14 1 5 3 -6 -14 1 0 1 -24 -9 -5 -8 -9 -6 -2 3 -12 -2 -2 -8 -2 6 6 -5 -2 -2 -3 2 0 -7 -13 -10 -13 3 -11 -5 -14 -7 4 -7 -5 1 -4 1 -5 -11 5 8 -4 -3 -1 -3 2 19 3 6 -4 -7 -15 5 2 0 -13 6 -5 -8 -4 0 -9 -2 5 -2 -3 -2 7 -9 2 -6 -10 -5 -11 -3 0 6 1 -18 -3 -8 -3 -4 1 5 -3 -8 1 5 -6 1 23 -9 3 -1 4 8 6 2 0 0 4 2 6 4 5 7 8 3 0 8 1 3 14 11 -3 9 1 -6 7 11 -9 -1 1 4 -11 5 5 4 1 -8 6 2 0 0 4 7 6 11 8 9 8 -5 -11 12 -4 13 9 11 -7 -5 -9 -7 10 0 -3 5 -8 -5 9 3 -5 -1 -6 10 8 2 7 -2 7 -1 -6 -1 -3 1 3 -11 -2 4 2 -3 -7 -9 5 6 -1 -7 4 -5 0 0 3 -10 -8 1 -5 5 -6 1 4 1 7 1 7 11 -2 3 -8 6 -4 0 5 -5 -1 -2 18 -12 -3 0 -3 -6 4 -16 6 2 3 1 -2 -5 10 -5 -20 4 -11 3 -3 0 3 -9 -4 0 6 -6 4 -13 0 -4 7 2 14 11 10 2 -5 -15 10 4 -12 -10 -5 -4 10 -1 16 -6 2 15 0 2 -5 1 11 24 -2 2 -9 1 -1 9 -6 1 3 10 -5 20 -9 3 4 11 6 -5 14 12 -12 13 -10 14 -6 2 -9 -7 4 10 -5 -1 7 -3 
3 1 9 -7 8 10 3 -3 5 2 11 -5 -5 10 18 -5 14 -5 13 15 11 7 -3 10 -4 1 7 8 -1 3 3 6 -4 5 3 13 2 2 3 13 -4 2 12 8 -4 20 3 4 10 14 7 8 7 11 -1 5 13 0 10 10 6 11 2 11 12 -2 6 -4 6 2 1 2 -5 2 -2 9 -5 5 -2 11 1 -1 -5 9 -2 -9 2 -2 -4 -10 4 -1 -3 6 -10 5 -6 3 -13 7 -5 -10 1 -1 -4 1 -3 1 -13 -3 -6 -3 -3 5 -5 11 -4 -14 10 4 -2 2 -2 0 -3 3 2 -5 -1 15 -11 -13 4 -5 -10 -9 -8 -2 -18 -1 -4 0 0 -12 -8 -4 -4 17 4 -1 12 -11 7 2 -5 5 -9 -3 -14 2 -13 5 -4 -10 -3 -16 2 -9 -12 -14 -10 -9 -2 -7 -5 4 2 -7 1 -3 -4 14 -13 7 -11 -5 2 1 -1 2 2 4 -2 -1 -1 0 -12 8 4 -7 -1 -7 8 -10 2 -2 -2 1 0 -7 1 2 -10 8 -3 4 6 2 13 -11 -1 1 1 13 1 -1 0 7 9 8 1 1 7 -10 13 -13 12 -2 -3 2 -5 -1 -1 7 -2 7 -5 6 1 16 -4 2 -6 9 2 -5 2 8 7 2 7 3 4 -8 1 -4 -4 -13 -5 -6 3 -11 -2 -3 -7 0 5 -12 3 -5 -4 2 0 -3 3 -11 -12 -1 16 -2 5 -5 11 -6 -6 -3 1 8 5 10 1 -3 8 -2 -1 2 2 2 -19 -7 2 4 -11 5 -14 7 -19 3 -3 -4 -12 -4 -5 -7 -15 -1 -14 -9 1 2 -2 -13 1 -5 -3 -7 -5 -12 -9 -6 -4 -14 -3 2 -6 -1 6 -9 -5 -7 0 -15 -5 -8 -14 -5 -1 -1 0 -6 1 6 -6 -8 9 -7 -7 -4 7 0 6 0 -11 6 -4 -8 3 2 3 1 -10 -9 -15 -15 -5 -7 -8 -10 -1 2 -6 -12 4 -13 -5 -12 -8 2 -13 6 -10 -7 -10 -10 -5 -10 -4 -9 9 -3 -7 0 3 1 6 0 4 -3 6 0 -6 2 7 0 3 1 4 -1 -2 -8 7 7 3 19 -5 5 -7 -2 5 5 3 8 9 5 7 2 -1 3 11 -3 9 11 -3 2 7 6 9 13 -5 7 3 9 1 4 4 9 3 -3 11 -5 14 1 2 12 6 2 9 -4 4 -3 -2 0 -18 9 1 1 5 -11 14 -4 -7 -8 -5 8 -3 3 3 16 -4 0 -3 3 6 -1 6 4 -7 -10 3 -5 5 -10 -11 -6 10 10 -4 10 3 4 7 -3 -10 5 11 -1 2 -3 -8 -4 4 -4 6 10 2 -7 0 -1 10 -6 6 -7 8 0 7 2 3 -2 4 8 -4 1 -4 4 -6 4 -4 -16 1 -10 -1 4 0 -1 -5 -4 -12 -9 -17 -2 -4 0 14 -6 -1 4 -1 -2 1 8 -7 4 -8 3 -4 -5 1 10 9 -10 8 4 -8 -2 -3 6 -10 4 5 -6 4 20 15 0 8 -1 5 13 4 -3 4 -8 12 3 12 4 3 1 19 -1 -2 -13 10 6 9 8 12 -8 9 -8 -4 3 7 8 1 9 8 6 -6 6 
4 12 2 5 4 9 0 5 15 0 10 16 14 -2 4 5 -11 11 -1 -5 4 4 12 10 13 14 4 -1 13 -2 9 -2 -5 2 8 4 11 9 10 -3 1 -1 8 0 7 -3 19 -7 11 8 7 5 8 3 2 11 -2 -5 8 8 12 7 5 7 6 12 -2 9 5 4 4 6 -3 -10 0 -7 -12 2 1 -3 -10 -1 6 -9 -6 -3 3 4 -12 7 4 2 -13 -6 -8 -3 -3 -5 -3 -9 -3 -6 12 -7 -1 5 -4 -4 5 0 3 -5 -12 1 0 4 -3 -4 -9 5 -6 -3 -4 6 -12 12 0 9 -8 -3 3 -7 2 -8 13 -6 1 8 11 8 -2 -2 -4 -5 -1 3 -14 0 3 5 3 0 6 7 -13 1 8 -11 -4 0 0 7 -7 8 -13 4 -4 -14 2 -3 -5 1 -1 -2 -2 -5 8 -4 1 -2 -5 1 0 -5 9 -8 -3 -6 6 1 -10 4 -4 2 -4 13 -7 -1 -4 -6 -3 5 -5 5 -1 11 1 9 -3 17 5 -2 3 5 -1 2 5 -3 15 -8 8 18 8 -1 3 6 -4 -10 5 3 -2 1 3 -11 8 -4 -6 1 4 5 -2 -4 2 -13 2 1 5 5 1 1 0 9 5 1 7 -1 5 -12 -4 -13 1 0 -4 -3 2 -7 8 4 -5 -1 1 0 12 -6 19 -7 -1 5 -6 -3 -5 4 -11 10 -1 -1 2 -2 0 -5 0 -4 -3 -4 -3 -7 1 0 9 -10 -1 4 2 8 -10 -1 -8 -8 -3 -4 10 -13 -18 0 -4 -13 -4 -12 -9 12 -3 0 -8 -6 -3 -8 -1 -21 -4 -10 -3 -3 0 -11 -3 -16 -5 -8 -2 -8 -7 -5 1 -7 1 -2 -11 -10 -9 -3 -7 -1 -4 -8 12 0 5 3 -12 -7 11 1 8 2 -4 16 -7 5 10 -12 1 5 10 1 -1 7 2 -1 -4 7 -2 6 1 0 -3 -12 -8 8 -6 1 1 7 -3 3 -6 -14 -3 2 -7 -2 -18 7 3 3 7 2 0 -2 0 -3 -9 -4 -5 -12 0 0 -3 10 -5 3 -8 4 -7 0 -4 0 6 -14 8 -3 2 2 -4 -6 8 -4 2 5 9 3 3 5 0 5 15 -5 4 7 0 5 12 -5 14 -11 16 -2 -1 4 4 12 -5 0 14 -1 -3 3 -3 -4 2 9 -8 5 -1 -7 5 7 2 8 -4 -1 5 5 -6 -3 -4 -8 -2 -1 8 3 5 -12 -2 -11 0 2 -10 -5 6 -7 10 -9 -2 0 2 -12 5 -2 -2 4 2 -2 3 2 -8 -3 -3 3 -2 -3 -8 3 -10 2 -9 13 2 0 -6 0 -10 4 -1 2 1 -5 -1 6 -7 4 4 12 17 -2 10 9 10 -2 13 -15 -3 2 -3 -5 -6 7 11 -1 1 -14 -4 -7 2 -2 9 1 -8 5 8 -2 -13 -7 -7 -5 -7 -3 11 -9 -2 -3 17 9 -4 -1 3 3 21 -8 -3 3 -14 -5 -7 -1 -7 -7 4 0 -7 3 14 1 -2 6 1 -2 7 2 14 -2 8 1 11 -1 5 6 9 -7 -9 8 6 11 5 -2 14 16 6 9 11 -4 6 -5 1 4 3 0 12 3 11 13 
-5 13 -8 -12 10 -4 10 5 7 1 2 3 14 5 6 -4 25 3 1 14 -2 7 10 0 13 5 6 4 14 2 0 3 14 -11 3 -4 -3 -7 8 -4 3 11 4 -2 8 9 10 -12 18 10 13 -1 8 -4 4 12 10 1 -2 -1 5 -2 -3 16 3 13 -1 12 -3 6 -1 -3 -4 10 12 3 -6 10 3 -8 -6 -5 1 0 4 -2 6 -10 -7 -9 -9 -2 6 -8 0 -17 10 0 -13 0 -4 -10 2 -2 -3 -5 6 -3 -4 -8 3 -5 2 7 -6 5 -9 -10 4 2 -10 11 4 -8 6 -5 1 -6 0 -4 -4 9 -1 -2 -10 4 -5 1 2 7 -1 8 -2 6 -9 -4 4 11 13 -2 -6 5 -5 0 -5 6 -3 2 3 -6 -10 -10 15 -3 4 8 0 -6 0 1 4 1 6 -5 8 4 -13 -13 1 3 3 -4 1 -2 2 -4 -3 -2 6 11 7 4 0 10 -10 2 3 3 1 -2 4 13 4 1 -3 7 3 0 6 4 -2 -1 7 -5 15 2 3 5 0 8 5 -8 -1 5 -5 -5 -8 2 5 -10 1 7 -9 6 -1 11 3 12 -2 -2 2 2 -14 0 7 2 0 3 1 -2 5 8 -1 8 3 2 -3 0 14 9 -14 6 -2 4 3 -4 -4 5 -15 -1 -5 6 -11 -3 -8 10 4 -1 1 3 -1 3 1 4 3 -9 -3 2 0 -3 2 -12 -2 -6 -13 -7 -5 -3 0 7 -6 0 -14 -5 0 2 -7 -4 -12 -3 7 -9 -2 1 11 2 -1 -8 -6 -12 -4 -1 1 -3 -9 -7 -6 -12 -10 8 -8 -5 -6 -9 -19 1 -14 -2 -3 -5 -1 -5 -6 -4 -20 -8 -4 -5 -4 -11 -21 -3 2 -1 -9 2 -5 8 9 -1 -19 0 -9 -2 -2 -6 3 3 8 6 1 -1 8 -3 4 2 7 -2 -4 1 4 1 5 -5 -5 -7 -6 -15 -7 0 -3 -2 -11 6 2 4 7 -2 -6 4 2 -6 -5 0 -8 -3 4 -15 0 -7 -7 3 -7 6 12 -6 4 0 3 -4 8 1 -3 4 0 7 5 -5 -6 7 -2 7 -4 9 4 8 0 9 10 -7 -3 17 8 -1 -2 -5 7 -12 -3 0 6 -9 -2 -6 8 6 3 5 3 2 7 0 -3 5 3 6 9 -5 -8 -4 10 1 3 21 3 1 7 19 -5 0 -7 -6 5 -6 -5 -3 -4 6 -14 -1 -9 0 -10 -3 -2 -10 -8 0 -1 -1 -7 5 2 5 -12 2 1 -12 6 -5 -1 4 -8 0 -6 16 -8 0 -4 -1 -2 0 -10 1 1 -2 1 4 -6 9 3 -2 18 10 2 5 -7 -2 -1 -1 2 1 -6 6 -7 -5 1 -11 7 1 -2 -9 2 3 -10 -1 3 2 -4 -2 3 0 4 7 -5 1 7 -9 -10 -7 -2 1 -5 -8 2 -7 -5 5 2 -7 4 5 -5 3 -2 2 1 3 4 -5 1 -4 5 1 1 2 -6 4 1 15 13 14 12 1 8 -9 -1 -1 2 1 16 9 7 7 10 1 -1 8 6 -4 3 1 9 -4 11 6 3 -2 8 2 8 11 -6 6 2 2 -3 -2 14 5 
18 7 0 11 1 14 -4 -4 2 14 1 0 8 -3 5 4 12 8 5 3 9 6 15 6 1 11 4 2 1 -4 2 -2 11 7 -7 7 11 -3 3 7 -1 -1 8 -10 25 -6 -8 7 -2 3 -2 2 12 6 6 0 7 4 7 2 -4 9 -3 8 -7 1 5 -5 -4 -5 10 0 6 -3 -14 8 -11 10 5 -1 10 1 -7 -1 -6 9 -6 -12 6 1 -14 -8 -11 -6 4 -2 -12 3 -2 10 -1 0 -3 -9 -4 -5 -12 -10 -4 -4 -17 9 -6 -5 0 -14 -3 -7 -6 -5 -2 -4 -1 -6 3 -5 8 -2 4 2 1 -7 -8 -5 -3 -1 -8 8 -2 13 -17 6 -5 -9 14 -5 2 7 3 6 8 4 2 3 0 -1 -6 -2 -1 -3 -1 2 -5 -7 3 -7 -10 0 -1 0 -4 -3 -6 -3 5 9 -4 -5 -2 -4 5 -7 -2 -7 8 -1 -5 0 -14 2 -10 2 4 -7 0 2 6 8 -10 13 0 5 -10 18 -9 8 7 4 -4 -1 -6 6 7 -1 -6 -4 1 0 4 9 8 8 11 -10 0 -4 6 -13 9 -4 12 -1 9 0 3 1 10 -4 11 1 14 -1 -3 5 3 0 2 -4 7 6 -3 1 -7 -4 -2 6 -17 -10 -4 0 -7 1 -12 -8 -1 2 -2 3 -2 -10 7 -1 3 2 1 -7 -3 -4 -2 -11 5 -5 7 1 -7 5 8 -12 -8 2 -2 2 -5 -5 4 -7 5 -2 -2 10 10 -7 5 -15 -2 -3 -5 -11 -2 -10 0 -5 -3 7 -3 -14 3 4 4 6 -4 -9 1 -12 -2 -4 -3 -6 -3 -25 -1 -10 -12 -10 -7 -6 1 -14 -9 -3 -6 1 -5 -9 -4 0 0 -16 8 0 1 -3 -2 -5 14 5 -1 0 -2 1 7 -10 3 17 -2 6 -3 7 7 11 -2 -4 8 2 19 -1 -5 2 2 -8 -8 1 -2 3 0 1 -8 -2 -13 -1 -1 2 5 1 4 -13 14 -6 10 -7 -2 -8 13 -6 4 -11 3 -9 -9 12 5 -12 -19 -8 -8 3 -5 5 -6 -7 -5 7 -6 6 -7 9 7 -1 12 3 7 6 -3 2 -3 4 -7 6 3 5 7 4 0 9 10 14 5 -12 13 -2 -7 -1 2 -5 -7 4 7 -8 6 7 7 10 9 8 4 7 7 -4 -2 9 3 3 -11 10 7 2 10 -5 -1 -2 5 7 2 6 4 2 -5 -2 2 4 -1 1 -11 -11 2 0 -15 8 -2 6 6 -3 7 -3 1 -4 1 -8 0 -14 -7 -1 -4 1 -8 -12 2 2 -8 -3 -6 0 7 -1 1 13 4 -13 6 -12 10 8 -6 3 -10 -7 -1 3 4 -9 0 4 3 2 -4 5 5 -5 -6 -11 4 6 0 4 0 6 -7 -11 5 -13 12 7 0 -8 -3 0 0 5 8 -11 -1 -2 -14 4 0 -9 -5 -1 -1 -5 5 8 6 2 -7 -12 -7 -10 3 8 -1 5 -11 0 -6 -4 1 9 2 20 -12 -4 -3 3 4 5 3 -6 8 -2 8 7 8 3 -1 1 10 -1 17 5 -4 18 0 7 17 1 1 -2 0 8 10 2 8 10 5 17 8 17 -6 17 
3 12 -6 -1 1 7 10 12 18 -8 6 11 5 -2 -4 11 -2 17 6 6 7 3 4 -3 5 6 10 15 12 2 -1 12 -10 3 6 4 2 3 5 -4 7 -3 4 9 4 9 8 -8 3 3 22 -4 3 20 11 9 2 9 15 0 7 -6 3 1 5 5 0 13 10 13 -12 4 8 11 -8 2 4 -6 -13 11 -8 2 6 1 7 13 -2 1 5 -3 3 -8 1 1 -10 3 -2 0 3 -10 -13 -3 -3 -8 -4 -4 -1 -6 -5 2 3 -7 -9 -9 -10 -5 -1 8 -6 -7 4 -3 2 4 0 -4 0 5 1 -2 -5 5 -6 -4 -12 -9 14 2 -12 2 5 7 -9 -1 -1 1 -3 0 -7 -1 -5 0 5 -11 -4 1 -1 1 -2 -5 -5 -5 18 -1 -18 5 8 -2 0 -4 10 9 3 -2 -5 -1 0 1 1 -8 7 -6 -4 -1 -4 -8 6 -4 -7 4 0 -2 4 3 -4 -8 4 3 16 4 -6 3 -3 7 11 2 0 2 9 -11 9 0 -6 0 2 -10 2 7 -3 10 -8 7 3 4 5 -2 12 3 7 8 -1 11 -5 10 2 6 6 1 -4 7 -1 -3 8 3 0 0 -1 -2 9 -6 -4 4 -4 -1 0 -2 6 2 4 -2 -1 6 -8 6 -1 -7 -12 -16 0 7 8 -13 -6 0 -9 10 -7 5 -11 -2 -3 8 -2 1 -3 -2 -8 -2 -6 -1 -3 -1 -8 10 -19 6 -2 -10 -7 -6 -8 -12 5 1 -6 4 -19 -5 2 -6 -2 -12 -7 -10 -10 -8 -4 -11 1 -8 -12 -5 -3 -12 7 -27 1 -2 2 -8 -8 -4 -6 4 -11 -5 -5 -5 -9 1 0 2 -9 -16 -4 -11 3 -2 2 -9 3 5 -3 -7 0 1 -3 2 6 -6 11 4 1 -1 -7 -10 12 -3 11 4 4 1 1 -4 -1 9 7 -2 1 -2 -10 7 9 11 -11 8 0 -5 5 -2 -6 -3 -11 -9 0 3 -5 -6 -3 13 -8 -3 6 -2 -2 2 -5 -5 0 -9 5 -11 7 -3 -4 17 -7 8 -4 -1 -6 5 2 -8 5 -1 -3 15 7 -5 3 6 0 4 -1 9 -10 6 14 -1 12 6 11 9 3 4 0 -3 -9 -3 15 2 0 -11 7 -8 -8 11 2 6 10 4 5 11 1 2 11 5 -5 7 3 -8 3 -3 -2 1 -9 10 11 -4 17 -2 5 -8 -4 8 -12 -12 -13 -11 -5 1 4 -9 -12 -3 -5 -11 3 -11 0 -2 -9 2 -7 -4 -13 -1 8 6 9 2 -12 -9 -1 -1 -5 5 2 3 7 -3 -1 16 -11 -5 -3 8 -6 -6 -11 -2 0 5 -5 5 -5 -7 -8 -15 6 -10 7 3 -2 0 1 -4 10 7 -1 -14 7 -8 3 -13 -1 -9 3 2 2 -5 5 -6 5 16 3 -8 -10 2 7 2 -2 -11 -12 12 -1 4 1 1 9 2 6 2 -4 -6 -4 -3 -4 -3 6 7 4 4 6 -2 5 14 5 7 -3 5 4 6 4 -6 17 -5 5 8 6 -2 0 5 9 -2 2 2 -5 15 15 5 1 5 3 3 18 -5 1 -3 8 5 3 -1 2 5 12 6 4 -5 
1 8 1 8 16 8 12 4 -8 9 9 -13 -1 13 9 -6 9 3 10 5 2 7 -5 10 9 18 2 1 11 9 -6 11 -6 10 8 -4 -1 12 1 4 4 15 10 3 0 5 -4 13 -1 -1 3 4 0 1 1 3 13 7 -7 13 5 -2 3 5 3 3 2 2 8 14 11 -4 7 4 2 -4 3 -8 1 0 -8 11 -10 9 -11 -1 0 -3 -4 -4 2 -13 2 -3 5 1 -13 -5 -8 -4 -8 -8 -2 -3 -3 -1 -6 -8 -4 -16 -4 -5 0 -1 -9 -7 -9 -3 -4 6 -16 -6 -9 0 7 -3 4 -7 0 3 -2 1 -6 -6 -4 -4 -5 -4 5 -1 -2 -5 7 6 -8 1 13 -8 -9 5 -13 -3 1 -5 1 -3 0 7 0 2 -6 -6 -8 -2 6 5 -10 1 9 -4 13 2 11 -10 -3 -2 5 -7 23 -15 -1 2 10 -6 -6 0 7 6 -2 1 -1 8 0 5 -4 -4 -5 3 -6 0 11 -11 10 -4 5 -1 5 -7 2 -11 3 7 5 -5 5 5 -4 0 1 1 4 -6 2 2 4 6 7 -1 3 4 4 3 -3 7 -2 -7 1 -4 1 0 5 -12 3 -2 5 12 -3 3 1 8 -3 5 -6 2 -10 0 1 -10 -3 4 3 1 -13 1 2 -12 4 0 3 -5 -6 0 12 -1 15 -8 -1 -4 -7 -5 -5 3 -10 -15 -4 1 0 -6 6 -1 -3 -3 0 -2 2 4 -3 4 -2 2 0 -7 6 -13 -2 -5 4 3 -14 3 1 -7 -4 -2 -9 -1 -5 2 -5 -14 2 -16 -8 -3 -7 0 -8 -12 -3 -8 -6 -16 -9 -12 -4 1 -13 3 -5 -4 2 -15 -1 -8 -3 -1 -8 -6 -13 5 -5 -1 2 5 -1 0 4 4 5 6 12 -3 -7 2 -2 7 -12 7 -5 -8 6 4 11 -2 10 -1 1 -2 2 -3 7 -11 1 1 5 5 -5 4 -9 9 -1 -6 4 0 -1 4 0 7 2 0 6 1 1 5 2 -12 -8 -8 -4 -10 -5 -2 -6 -12 -12 2 12 2 5 -2 4 -9 4 -3 3 2 1 -4 12 3 10 0 4 10 0 -6 7 1 7 -4 -1 9 1 -14 2 6 11 8 11 2 5 -1 3 -8 2 0 3 1 -1 2 -1 2 -3 12 1 7 12 -2 12 -3 -1 -2 0 11 0 8 8 3 0 10 3 11 10 -1 -9 0 11 -14 7 -5 -8 -3 -4 -2 -12 -5 -1 -11 2 2 -6 0 -1 -12 2 -10 -1 -8 0 -7 -16 11 -5 -8 4 -3 -7 -1 -10 -5 7 2 0 8 13 -3 3 -7 10 1 5 2 -1 -1 2 -14 8 -3 -9 1 -4 -6 11 -1 8 -12 -2 13 -7 0 7 -5 -3 3 -4 -1 3 6 -6 -6 1 7 7 -5 -2 6 -1 6 -5 -2 -15 -2 -12 11 -4 -6 9 -8 12 -9 -8 -2 -5 -14 16 -5 6 1 -9 -2 -6 10 1 -4 19 10 9 -10 19 2 6 9 -4 -7 5 1 7 0 14 12 -2 8 11 3 4 2 0 5 6 5 -2 0 8 3 -2 6 8 4 7 4 -4 11 0 15 9 10 4 9 13 5 
